xiamingqian9007/apple-picking-rnn/testing_data/grasper_20191127_110223.csv
,/manipulator_wrench.fx,/manipulator_wrench.fy,/manipulator_wrench.fz,/manipulator_wrench.tx,/manipulator_wrench.ty,/manipulator_wrench.tz,/ground_truth.x,/ground_truth.y,/ground_truth.z,/joint_states.elbow_joint,/joint_states.shoulder_lift_joint,/joint_states.shoulder_pan_joint,/joint_states.wrist_1_joint,/joint_states.wrist_2_joint,/joint_states.wrist_3_joint,/mode./mode,/manipulator_pose.x,/manipulator_pose.y,/manipulator_pose.z,/manipulator_pose.rx,/manipulator_pose.ry,/manipulator_pose.rz,/manipulator_pose.rw
0.30000000000000004,-6.041804673555346,-1.0387489450115484,-2.379832960615412,-0.07148477564853448,0.06381161234202355,0.2716936936330033,0.0015930640601388572,0.1933014029015717,0.9811372048232663,-1.798725788310223,-1.7665194117856546,4.1602815656763585,0.18992375388173566,1.3453750443528496,-0.7326648871051233,1.0,0.46979583103219785,0.4712400334581864,0.39260082763912735,-0.7237080948849877,0.2987703526725863,-0.23766425917554615,0.5748900500725149
0.4,-5.68552471072045,-0.8233044728356285,-2.3791235322154853,-0.08241743178124851,0.07107068890566176,0.28098092578706413,0.0016228736922895446,0.1923668925984471,0.9813207956055526,-1.7954788808382867,-1.7703444686077816,4.159536716671929,0.19010976046789294,1.3462189822346735,-0.7328388211863354,1.0,0.470734022140692,0.4720709405889282,0.3924471572907073,-0.7236258607219107,0.2987938344338809,-0.23769183573074665,0.5749699552374195
0.5,-5.838819990241593,-0.792291389879545,-2.311719815533078,-0.075828431864527,0.06378876871302198,0.2810738071299837,0.0016526833244402323,0.19143238229532253,0.9815043863878391,-1.791837032647867,-1.7740656051297947,4.1589300362884,0.19028393804516597,1.346807103194814,-0.7330375623035404,1.0,0.47163197668342527,0.47301731614593323,0.3919304139504588,-0.7237558999564075,0.2987679150043522,-0.23763393964858695,0.5748436665471186
0.6000000000000001,-6.066004141675899,-0.675148127136902,-2.334868249708522,-0.07396902694362904,0.06909205573291347,0.27972598863351067,0.00166554666016806,0.19177944435148364,0.9814365623346871,-1.7884921016309085,-1.7775962664285792,4.158348097302884,0.19038625714995402,1.3474520119130327,-0.7331541711304088,1.0,0.472361041442845,0.47383603914304234,0.391706630748411,-0.7237388277259914,0.29875709415524876,-0.23764405269027733,0.5748666037914016
0.7000000000000001,-6.068200512920504,-0.42539984334255554,-2.4160767661431053,-0.065208651316468,0.0742325122674577,0.2798604605130267,0.001678084600043904,0.19215111463585713,0.9813639107167069,-1.785300676446212,-1.7809079207765872,4.15766077041626,0.19047903973294866,1.3479792695296438,-0.7333321931016669,1.0,0.4735853639607557,0.47514067154419815,0.39121147894470676,-0.7237696737315029,0.2987521986151257,-0.23762584905812972,0.5748378371929123
0.8,-6.044200724030242,-0.7431897776415826,-2.398301864124627,-0.06767437336711389,0.07640232809528691,0.2824077185412208,0.0016044472986860622,0.1937519138629676,0.9810484833565258,-1.7819610832587187,-1.7842759938789219,4.1569078083629405,0.1905471521564941,1.348655283811976,-0.7334543624892683,1.0,0.4741498045615246,0.4757336152043855,0.39094539824307367,-0.7238243475608737,0.29874846675716726,-0.23764133351168168,0.5747645292596847
0.9,-5.902214248507453,-0.8141311408513894,-2.5367136739706266,-0.06753739039865383,0.07261282452779963,0.28365439940741555,0.0015902889390999786,0.19475748143793553,0.9808501177638007,-1.7789127001373564,-1.787154667095737,4.156308741005053,0.19063367267745362,1.3494348976173947,-0.733638801577499,1.0,0.4751685880367012,0.4766069128545647,0.3906859341134956,-0.7237658815699981,0.2988080770262078,-0.2376807710393223,0.5747908601023995
1.0,-5.8306640533511125,-0.6334092231617863,-2.348849781117217,-0.06659766698767904,0.06934056473809598,0.2791839933765094,0.0016524301158562754,0.1949865504252912,0.9808044999292692,-1.7758160017263536,-1.7904407048783402,4.155659198760986,0.19065868785516588,1.3499655723571777,-0.7337552755723471,1.0,0.4759532022247834,0.47737561369579606,0.3905136584139897,-0.7237320607651241,0.2987753039651631,-0.23765478758961966,0.5748612214238531
1.1,-5.842706321912652,-0.9239057553755801,-2.4204625987871013,-0.0681045491491251,0.06876350492792185,0.2795734490570945,0.0016499760199486736,0.19493425190373162,0.9808148589084156,-1.7727333435782298,-1.7933242622245706,4.1550081839791435,0.19070546069541328,1.3504780020105214,-0.7339275525988473,1.0,0.4769507770450546,0.4783619387666997,0.39016797346984866,-0.7237428061269674,0.2987722020178235,-0.23763725027425847,0.5748565552926862
1.2000000000000002,-6.034516284376024,-0.8617202729628036,-2.3557763239882132,-0.0708574654322145,0.06669648871662343,0.2779323522844422,0.0015646128164626104,0.19452081350143927,0.9808970650595873,-1.769997280853184,-1.79629054156547,4.154537541135334,0.1907410639302632,1.3509611157086654,-0.7340094995764771,1.0,0.4781659536841542,0.4795288983756058,0.389745155483638,-0.7237421761520118,0.2988100504555391,-0.23767069503152227,0.574823848608199
1.3,-5.918461327085993,-1.1518145401192528,-2.532300913281669,-0.07465728584967284,0.06768639427643464,0.2781983307077807,0.0015110478131542078,0.19456038686429133,0.9808892746489521,-1.7671182964522572,-1.7988988235832426,4.154026027238688,0.19076102391224908,1.3514289855957031,-0.7341515410099607,1.0,0.47908124470874147,0.48047284513582617,0.38946189906827017,-0.7237237835825977,0.29880613906361336,-0.2376799081922523,0.5748452292369737
1.4000000000000001,-5.803856934316962,-1.0055244970806434,-2.3410974269521825,-0.070248148826332,0.0674073723767602,0.2752211858174613,0.0015004509388598345,0.1952121039290147,0.9807598740887822,-1.7645763489687682,-1.8017368923626693,4.153498310482605,0.19080668929315128,1.3519535656139297,-0.7342827955829065,1.0,0.47949140530773393,0.4808620635218518,0.38941057029345894,-0.7236822549858585,0.2988076115501526,-0.23770468843677528,0.5748864985311899
1.5,-5.979610621215856,-0.9674854795843159,-2.4175174531647348,-0.07258670037071585,0.06701182112237586,0.27202790143128,0.0015608861766897603,0.19516588831109344,0.9807689915975457,-1.7617243874235387,-1.804425765346719,4.153113487777364,0.19077250897915146,1.3524779047397262,-0.7343667189227503,1.0,0.4805925485554071,0.48197971924544064,0.38891850737326655,-0.723734679529684,0.2988234140005372,-0.23767139842471005,0.5748260495680168
1.6,-5.9501708859958065,-0.721365063205998,-2.383254702412671,-0.06598152951080317,0.06776653757203542,0.27994884347801996,0.0016277861086786227,0.19505615323412911,0.9807907157559548,-1.7594224800992688,-1.8067578986905848,4.152638912200928,0.1907853904348998,1.3530083124512007,-0.7344953805804074,1.0,0.48107032485382184,0.48249975821634383,0.38877446674721183,-0.7237395156518243,0.298806596891051,-0.2376614722850891,0.5748328067618752
1.7000000000000002,-6.014993362249586,-0.4274917374548721,-2.0878246833129745,-0.06073751205794794,0.06866188259244904,0.2765509134567047,0.0016660529390399531,0.19505221219617216,0.980791439766396,-1.7567128698686334,-1.8094930961528601,4.152163782927584,0.190775569456791,1.3534559602380165,-0.7345946470843714,1.0,0.48193144358342943,0.4834668180524559,0.38839871847338503,-0.7238041730348453,0.2987451145541037,-0.23760435051916756,0.5748069660692741
1.8,-5.931731546168788,-0.4747758288993584,-2.4307834906751222,-0.05572284210272982,0.07456634614828106,0.2712282917163135,0.0016627290519581847,0.19520194120209514,0.980761660227772,-1.7545304554087386,-1.8115785476784612,4.151691913604736,0.1907352828951172,1.3538464215386474,-0.7346816513860315,1.0,0.48238550925031903,0.4838813650106111,0.3882809879723651,-0.7237917503207738,0.29875220674982406,-0.2376230575397189,0.5748111895702591
1.9000000000000001,-6.012048419416158,-0.5879767884995809,-2.411906468633927,-0.06405080848369132,0.0734478541336022,0.2727335319184663,0.0016135092023572956,0.19384026452704822,0.9810310950059811,-1.7520593523386538,-1.8139317958652084,4.151276279788053,0.19068961911917126,1.3542317630623968,-0.7348022499450396,1.0,0.4829819154918738,0.48444131450386385,0.3880711353088376,-0.7237813118863903,0.29878909642622553,-0.23764315747237072,0.5747968494410677
2.0,-5.847657786323495,-0.6137127911207895,-2.256120857675216,-0.06858925579875443,0.06795553750870961,0.2774442834841234,0.0015697880957588472,0.19379004196581323,0.9810410943696461,-1.7497636391134823,-1.81629110149526,4.150817080105052,0.1906742040148351,1.3546149478239171,-0.7349104200946253,1.0,0.48411771152639776,0.48557500785691016,0.3877565539143523,-0.7237491423963778,0.2987962761677175,-0.23765269693906688,0.5748296790062262
2.1,-5.96614037654084,-0.7610667793183681,-2.183474176501162,-0.07374749896634032,0.0676174815113737,0.27162235532522255,0.001548169368040548,0.19498909249537213,0.9808039604352762,-1.7475892216445483,-1.8180894377259345,4.150465428683904,0.19063025050533514,1.3549469959323017,-0.7349980168535215,1.0,0.48462139945890836,0.4860736718831843,0.38753515017292123,-0.723778106645828,0.2988002661042448,-0.2376598698451419,0.5747881693123158
2.2,-5.948016032359495,-0.6542033509188014,-2.1887021712739307,-0.06931466243142456,0.07234820681719054,0.27013789474933825,0.001535981571174,0.19432033454360179,0.9809363922967288,-1.7454566370208573,-1.8202909570500738,4.15003620371541,0.1906042413394333,1.3553496790887336,-0.7350896143233472,1.0,0.48484290556981613,0.48627350547052856,0.38751306092844395,-0.7237569647160246,0.29879738029638414,-0.23767345265338993,0.5748106744458404
2.3000000000000003,-5.984274326743689,-0.6916769202720123,-2.291735734437202,-0.07136618422253911,0.06627402234526074,0.2710132776167042,0.0015237937743074522,0.1936515765918314,0.9810688241581814,-1.7433682829509725,-1.8223191700377406,4.14965817979705,0.19055859624829097,1.3557510551051672,-0.7351778422568039,1.0,0.48595078072515496,0.48734325533552647,0.3871908032827848,-0.7237356367226294,0.29881802659626533,-0.23768939818250986,0.5748202024202353
2.4000000000000004,-5.995272486655394,-0.7555462266297911,-2.2969999750568517,-0.06906760262323432,0.06901412638340812,0.27358839847105876,0.0015189400321314567,0.19316449121719523,0.9811652035011194,-1.7413683536732407,-1.8241830227405056,4.149282932281494,0.19049356060731643,1.3561386638832476,-0.7352616999446698,1.0,0.48623547843486065,0.48764757912802426,0.3870752927399672,-0.7237486731696723,0.29879620769407045,-0.23768183753753758,0.5748182568930464
2.5,-6.000242199824181,-0.5888465749397207,-2.3241605908912417,-0.06930188670737021,0.06845076564650548,0.271227271720373,0.0015273107785582594,0.193004990927089,0.9811965743132627,-1.7395906584507164,-1.826165512138012,4.1489589416854376,0.19048568815009037,1.3564904350442515,-0.7353376444661681,1.0,0.48701739379169345,0.48840877788746195,0.38689630600658065,-0.7237149315040661,0.2987855917556482,-0.2376816720173722,0.5748663243435981
2.6,-6.0362027682497725,-0.7943746447870087,-2.4410987226821907,-0.06917663331139369,0.06928078721223191,0.27399998131916903,0.0015432879832010774,0.19306530592976492,0.9811846275267115,-1.7374379841124368,-1.8279487702254906,4.148647785186768,0.19040219366040034,1.3567925333592414,-0.7354214827166956,1.0,0.4873999410541315,0.48875522780924874,0.38668392352380637,-0.7237520323897684,0.2988192036387447,-0.23767223843759555,0.5748060422650838
2.7,-6.051350038540258,-0.6570884835403459,-2.403223193456539,-0.06544473968504173,0.07095537027111287,0.2737600650231374,0.001573374047873427,0.19353334593534488,0.9810923329725869,-1.735706894060188,-1.829692891974867,4.148308065304705,0.1903182876660626,1.3570851574344878,-0.7355258833462051,1.0,0.48804426601980183,0.4894715043765005,0.3865895170441453,-0.7236939660288476,0.29877110343475277,-0.2376721011987913,0.5749042038440572
2.8000000000000003,-5.9180240469796646,-0.7163016607755689,-2.412387031912805,-0.07206574911510455,0.06652010611623836,0.27754074646276344,0.0015843364767924276,0.19440084733441654,0.9809200863714579,-1.7341044033885706,-1.8314053085655149,4.147997046679435,0.1903144192369478,1.3573377346738555,-0.7355687136663231,1.0,0.4883167954921088,0.48975035956154844,0.38648024577452333,-0.7237103683701106,0.2987859319021726,-0.23766736529439458,0.5748778070903156
2.9000000000000004,-5.86427210763138,-0.8041984651806806,-2.317916847152319,-0.0685639530981795,0.06609889060074199,0.2745125961001147,0.0015586733734695598,0.1960333960464266,0.9805947158396531,-1.7321391826087658,-1.8330198243757871,4.147700786590576,0.19025641642118285,1.3576410336429898,-0.7356366639270265,1.0,0.4888002500484895,0.4902275527550297,0.38625013056119123,-0.7237395582324284,0.2987952699134015,-0.23766997945755225,0.5748351236585617
3.0,-5.780855052641554,-0.6860153493762324,-2.111614493319387,-0.06880039254736868,0.06223326114810243,0.2749877156476654,0.0015345355096643093,0.1962919181279671,0.980543006952333,-1.730493511488498,-1.8348137484164986,4.147456186150282,0.19017996917306207,1.3578879826472678,-0.7357230985662477,1.0,0.4894853486532936,0.49092818205451966,0.3861166397304766,-0.7236910728746073,0.29879934871679176,-0.237687040105615,0.5748869899500704
3.1,-5.9108103361461195,-0.668246221656617,-2.456233656470251,-0.07219751886275831,0.06716965182238546,0.27236121606619984,0.0015134472130532792,0.19380320838928047,0.981038457749572,-1.7290503987669157,-1.8362562852599955,4.1471582685449935,0.19014171793156934,1.358175335152029,-0.735772312224681,1.0,0.48990982207240386,0.4913522166003115,0.38588367136212764,-0.7237320532270396,0.29881234815148244,-0.2376839228679294,0.5748299300959223
3.2,-6.016065017641485,-0.7595297523559421,-2.5389847811109196,-0.06668826618241093,0.06810606657696265,0.27392721890770294,0.00152334940615907,0.1933423958154058,0.9811301632293241,-1.7273722750464762,-1.8376543881533256,4.146897792816162,0.1900587062427963,1.3583924032806411,-0.7358186165556383,1.0,0.4904187817231252,0.4918432827038767,0.3856632073848095,-0.7237594919001904,0.2988163567031233,-0.23767634618757572,0.5747964311945348
3.3000000000000003,-5.955476220285642,-0.6944941016133666,-2.3914977865070752,-0.06937870856439828,0.06281148348593803,0.27236235094458466,0.0015348920807840552,0.19338317188670276,0.981122103026144,-1.7257566452026367,-1.8392693233708317,4.146672432226244,0.1899794255701666,1.358680870281689,-0.7359150504604953,1.0,0.4906347440470085,0.492085628033137,0.3856140988901592,-0.723746637865571,0.29880743392259074,-0.2376657008879194,0.5748216560223985
3.4000000000000004,-6.251223952452462,-0.6035259805754856,-2.314492498834766,-0.06849532796835553,0.07207592488669824,0.27514890203893533,0.0015345531734992468,0.1935310236399085,0.9810929452839295,-1.7244388690763424,-1.8408245927224354,4.146381288477699,0.1899434688519686,1.358946315932535,-0.7359378151251409,1.0,0.4910950931626997,0.49258418864337417,0.38548585421543546,-0.7237451774373118,0.2987868573018312,-0.23765964761342417,0.5748366932757447
3.5,-6.059467681157012,-0.6122526119493485,-2.1802044762363932,-0.0740051903525732,0.06499754719017645,0.2739955255521078,0.0015415433507330032,0.1940032798199341,0.9809992607121223,-1.723079249747897,-1.8419105538372307,4.146154880523682,0.18987385808911128,1.3591767855658714,-0.7360289158794097,1.0,0.4917111769918211,0.49318519161759883,0.385126918432121,-0.7238236788782033,0.2987977608424605,-0.23766148863332373,0.5747314127758704
3.6,-5.781562903720319,-1.103648952726282,-2.4395424249519304,-0.07571682594828867,0.06168141972633313,0.2769695103194556,0.0015655018963695844,0.19522660031254097,0.9807561829911946,-1.7215020405266481,-1.843097851124033,4.145882869953872,0.1898013788410644,1.359427850548207,-0.7360807101393996,1.0,0.4918800087974598,0.493352722967015,0.3851263301715772,-0.7238042283659819,0.2987869476457299,-0.23765151634512507,0.5747656528489992
3.7,-5.784652491664134,-0.5546590643911999,-2.369544606869054,-0.06726387857720693,0.05991960562193137,0.2729464042563892,0.0015813153576137455,0.19621041107738119,0.9805604971823746,-1.7201029641255141,-1.8446347198938966,4.145687589944797,0.18970601140942378,1.3596643852820414,-0.736128944440505,1.0,0.4922473077290398,0.4937010032999839,0.385212234472501,-0.723695186722213,0.29878256803130243,-0.23767078082898738,0.5748972549037443
3.8000000000000003,-5.941885399424289,-0.6878980229239924,-2.2369009931402544,-0.07027881838897483,0.062241643138508614,0.27371785160859397,0.0015774198341466962,0.1966146706263823,0.9804794874685052,-1.7189300184738872,-1.846012469088611,4.145472049713135,0.18965138947030402,1.3598691428714083,-0.7362078619491365,1.0,0.49282643533752607,0.4943253119275551,0.3849179659631223,-0.7237621191214164,0.29877591826010497,-0.23764878384571853,0.5748255397330209
3.9000000000000004,-5.886718959501285,-0.65003689113035,-2.3059321107470825,-0.0627847315871077,0.06421516101633284,0.2692813974925874,0.0015838305267367979,0.1969339502031279,0.9804154756037399,-1.7176226440948081,-1.8469971377741694,4.145244973801088,0.18960513621982714,1.3600795142090656,-0.7362258055778417,1.0,0.4930652610568467,0.4945457810344814,0.38472119191466336,-0.7238155155599929,0.2987922453391135,-0.23764629539025747,0.5747508432765621
4.0,-5.960021659353655,-0.5988106607038745,-2.3347774727723136,-0.06468200782208124,0.06380448077847561,0.26981876933558596,0.0016164456828275844,0.19703716070380223,0.9803946822698079,-1.7162866592407227,-1.8480229764492553,4.14505488823247,0.18956030044186298,1.3602889746491262,-0.7363083998309534,1.0,0.4933694664991985,0.4948587557249533,0.38472097355090606,-0.7237669719545619,0.298779207249565,-0.23764306364757903,0.5748200848293653
4.1000000000000005,-6.015810318162551,-0.7718515837714295,-2.32589024410346,-0.06590706727792439,0.0676314655584805,0.27181359036777947,0.0016347606406265315,0.1970207376464292,0.9803979125761031,-1.7150368643375637,-1.8492549929161606,4.144851715744252,0.18945225284734551,1.3604860352901218,-0.7363446394549769,1.0,0.4938365550379755,0.4953141434205725,0.38471851899740933,-0.7236941835114323,0.2987638651504668,-0.23765343145314075,0.5749154095609388
4.2,-5.882416914319203,-0.6969238472771266,-2.26053579380606,-0.06626858898544091,0.06030944172577225,0.2743705795510034,0.0016142804428335134,0.1966797594742425,0.9804663168640092,-1.7138107809130154,-1.850592725867224,4.144632816314697,0.18940221814814862,1.3606995790049758,-0.7364002981953222,1.0,0.4940400691831724,0.4955213332539119,0.3846055155693779,-0.7237135242207094,0.29877932449507516,-0.23764959958472662,0.5748846127106957
4.3,-5.79054694856175,-0.45468258883199075,-2.342393723568531,-0.06136109883213143,0.05959723720333094,0.2735451082194591,0.0015938002450404955,0.19633878130205576,0.9805347211519154,-1.7124672922458373,-1.8518525472567673,4.144421181235892,0.18936214021036388,1.3608958140252565,-0.7364042440997522,1.0,0.49452245608282946,0.49601472766053,0.3843765709721437,-0.7237467416101531,0.29878863267293837,-0.23765805011013458,0.5748344615730443
4.4,-6.104556486491412,-0.6098791849954414,-2.323936032143259,-0.06494576399240648,0.06668470516538168,0.27021729132314326,0.0015750658752927296,0.1957595212952012,0.9806501782752232,-1.7111681245767638,-1.8529801115395532,4.144203892191439,0.18926768279514888,1.3611205038727163,-0.7364947446780782,1.0,0.4947191657067812,0.4961964919896348,0.3843342934872512,-0.7237337325393142,0.2987853272926916,-0.2376648675268472,0.574849739777934
4.5,-5.944269489881576,-0.9667120837042049,-2.444776610650056,-0.07714738368400531,0.06281632842915144,0.2709675164857263,0.0015612598426094724,0.1945076101639783,0.9808984619007347,-1.709973259692276,-1.8540558880532303,4.144000264796849,0.1891910272785644,1.3612444324135229,-0.7365293459451557,1.0,0.4950954741931177,0.49660317731823705,0.38423900111906495,-0.7237303499757115,0.29876634617532055,-0.23766546638575475,0.574863616003591
4.6000000000000005,-5.951852094400316,-0.9115181508340987,-2.4317011656846934,-0.07108267137168207,0.06705085128397432,0.27376536729364453,0.0015474538099262151,0.1932556990327554,0.9811467455262461,-1.708761931066706,-1.8553269392538538,4.143773574783743,0.1891383183454633,1.3614875170336893,-0.736584488545553,1.0,0.4955554973660343,0.49699459952091585,0.38411008322757695,-0.7237120653505114,0.2987986683184467,-0.23768742892590594,0.5748607556685469
4.7,-5.905012258334756,-0.7212256178378866,-2.4716775265628494,-0.06749614280793388,0.06477996199389915,0.26984565291516177,0.0015368405724487174,0.19432058428594992,0.9809358777402314,-1.7073788419324443,-1.8566184383593354,4.143561026789875,0.18904239449202406,1.3616400116031695,-0.7366344862437548,1.0,0.4957589671106828,0.497231035422851,0.3840131123300198,-0.7237296292180473,0.2987890219464054,-0.23766636245260023,0.5748523674081617
4.800000000000001,-6.1519796485909275,-0.3751427028954214,-2.4074056779576094,-0.061289386905571674,0.06661476408791232,0.2659004675933009,0.0015280696017421274,0.19562166301195735,0.9806782373924322,-1.70598680001975,-1.8577274352696385,4.1433457309352395,0.18898694097485347,1.3618543215978647,-0.7366883371565736,1.0,0.496273197546191,0.49773468074209104,0.3838057569524509,-0.723736422636194,0.29880692428338346,-0.2376755700520507,0.5748307019901613
4.9,-5.891453132397624,-1.0662373474293219,-2.4489642289260005,-0.07348243978422626,0.06144671644854961,0.262662098995584,0.0015217522926259848,0.19534555272509618,0.980733283616026,-1.7048617511005348,-1.8589009097192217,4.143162717353979,0.1888986259322048,1.3620709471260775,-0.7367138846725472,1.0,0.4965124663006273,0.49797765478322553,0.3838103102990807,-0.723695351785818,0.2987939433452737,-0.23769581624357894,0.5748807843058261
5.0,-6.018534785221204,-1.1561852498564553,-2.495193176969333,-0.07787065613905786,0.06608810530622931,0.270896662520303,0.0015266700549481284,0.19423544222586553,0.9809531593351045,-1.7037550336466112,-1.8601398520454198,4.142970904786,0.18885022274280902,1.3622787785904926,-0.7367677537172674,1.0,0.49681003353747444,0.4982421664820357,0.38365678211640386,-0.7237283153326706,0.2988038789847127,-0.23769853114077044,0.5748329981681153
5.1000000000000005,-5.753845721914298,-0.641794961111894,-2.3346739694383354,-0.0702195377923404,0.058024575155263665,0.2698189741618886,0.0015334682469822548,0.19307190460214207,0.9811833897094097,-1.7023402883328322,-1.861298223535055,4.142771954105325,0.18874740642620083,1.3624521215532597,-0.7368451052906834,1.0,0.49728928965011965,0.49874201900812687,0.38342387630768127,-0.7237658292818199,0.2988056323346499,-0.23767079086216772,0.5747963235964902
5.2,-5.930432535756956,-0.8007047185746714,-2.405346447733606,-0.06953556478989963,0.05977180428419399,0.2764801743842987,0.0015334589424805206,0.19269751652830885,0.9812569810068215,-1.7008502952952802,-1.8624602463178777,4.142541254065336,0.1886865335651855,1.3626957818431396,-0.7368720213519495,1.0,0.49748050125429766,0.49894499830214745,0.38333239655468704,-0.7237882625754369,0.29880934989144475,-0.23766996496154158,0.5747664840008175
5.300000000000001,-5.9977984757182385,-0.9416719297224636,-2.4834185379449534,-0.0724924883414642,0.06227005203561199,0.2735109320912085,0.0015575100142030444,0.19432965059318216,0.9809320565165859,-1.6996820249105629,-1.8636936893192944,4.142349391804075,0.18855757672526016,1.3628809882756183,-0.7368958632098597,1.0,0.49784548489222746,0.49932498201573255,0.3834073291823451,-0.7236787039994425,0.2987847030000869,-0.23768316813790505,0.57491177254842
5.4,-5.832006305852259,-1.1428440945134775,-2.46331877674395,-0.08065199008842122,0.05995877889233481,0.2726934957616477,0.0015916032113939594,0.1967992506595921,0.9804408027261188,-1.6985673708930773,-1.8649126296454175,4.142155150891857,0.18853487980005976,1.3631026357380955,-0.7369797865497034,1.0,0.4983142720945624,0.4998329892273364,0.38316827386610997,-0.7237370297278661,0.29877090455354816,-0.23764944062546692,0.5748594626196416
5.5,-6.070855513897815,-0.8353187431204201,-2.438099968311083,-0.07426284455744038,0.06435166580623111,0.2677722969510052,0.0015923071092149733,0.19706414963340269,0.980388952140662,-1.6972744990569908,-1.8661955151528462,4.141922851897136,0.1884442132872958,1.363345477522286,-0.7370179920149087,1.0,0.4985412792663284,0.5000239244814919,0.383032126087499,-0.7237682847721262,0.29877813432328876,-0.23766453602372906,0.5748101118847291
5.6000000000000005,-5.953941845997279,-0.818110824993233,-2.2420624171682055,-0.07454652823589097,0.06341762709281153,0.27082405877917143,0.0015780016597844574,0.196337978866035,0.9805346245764095,-1.695749298888858,-1.8672789973637154,4.141715402167004,0.1883297510089871,1.363525813281227,-0.7370761889270573,1.0,0.49887668587470113,0.5003845830080071,0.38283300461776254,-0.7238084930970174,0.29879461384003153,-0.23763295566821055,0.5747639710709098
5.7,-5.9170682725959605,-0.7848182358979213,-2.4278349843863225,-0.07039955671234752,0.060768056483971496,0.27166088142497236,0.001570217690013937,0.19533416385371077,0.9807350850259332,-1.6944717866653591,-1.8683635515724462,4.141496501834429,0.1882451605161782,1.3637053756222877,-0.7370945796783601,1.0,0.49920476409725256,0.5006860090930643,0.3828824631009843,-0.7237247541690184,0.29878488031148986,-0.23767760275773836,0.5748560103604878
5.800000000000001,-5.979999624991794,-0.7130279582435096,-2.3399933637704513,-0.07025937009551352,0.06327283881735388,0.2652396085135376,0.0015822440340250092,0.19390416138342806,0.9810187308628147,-1.693343162536621,-1.8696292070257219,4.141323566436768,0.1881515450488567,1.3639110131614613,-0.7371760819591829,1.0,0.49977092977669674,0.5012330238502797,0.382749893277894,-0.7237097663764316,0.2987837474972207,-0.23766104588517806,0.5748823127838001
5.9,-6.077929094658502,-0.6936669508277703,-2.2998671010618126,-0.07172837326532984,0.06684467414452121,0.2634275319112776,0.00154508383940857,0.19565640791683728,0.980670981712349,-1.692169796138544,-1.8711211996600274,4.141076969790916,0.1880607795435015,1.3640791872448619,-0.7371943770927555,1.0,0.5000473818257117,0.5015161023909966,0.38253247296059406,-0.7237697132178139,0.29879629374953176,-0.23766763965619742,0.5747975905746288
6.0,-6.131772150508939,-0.49757116047014877,-2.423355656038612,-0.06314723663532312,0.06775066729430743,0.26334988733552833,0.0014943584652480388,0.19397509488912665,0.9810052113390764,-1.6906699917147652,-1.8720933182466464,4.140891195064506,0.18797030244059526,1.364266399809662,-0.737279240285055,1.0,0.500306040007156,0.5017755366843543,0.3823391827240965,-0.723817931657666,0.29882272184180825,-0.23766349235907683,0.5747248447053239
6.1000000000000005,-5.8938290570474,-0.6249520400294994,-2.3619985928967253,-0.0691038164037461,0.0629257013067222,0.26747680205563706,0.0015067500419537394,0.19472970010926124,0.9808553155212166,-1.6892769683533766,-1.8731619477536339,4.140717045294018,0.18783572738523777,1.3644461788999753,-0.7373317080949424,1.0,0.5006280618975827,0.5021070932194145,0.38230132988959725,-0.7237791649083397,0.29880325659198115,-0.23767441710672335,0.5747792669778475
6.2,-5.89798186725395,-1.057185070667995,-2.4622792734403394,-0.08187942733971003,0.06386004247987329,0.26856650986321395,0.0015191416186594398,0.1954843053293958,0.9807054197033569,-1.6880820861816406,-1.87420346968625,4.140516663719626,0.1877282161787827,1.3646240705602308,-0.7373432307097161,1.0,0.5010742572417398,0.5025442148566482,0.38232090428157006,-0.7237020196237178,0.2988011491907548,-0.237691257562631,0.5748705298701018
6.300000000000001,-6.10274633426948,-0.5440933960811155,-2.5318580379609665,-0.07066220459739589,0.06757998279929686,0.27493765783142726,0.0015232400757623284,0.19470951869907863,0.9808589778167065,-1.686843849084783,-1.8755967899203136,4.140335420992827,0.18764835469792723,1.364822236646178,-0.7373909712292089,1.0,0.5012637530615572,0.5027293259452562,0.3822727732511453,-0.7237090668816208,0.29879000606343326,-0.23769803003683232,0.5748646495537503
6.4,-6.120275311746896,-0.6119748417828735,-2.3651836410401215,-0.0722540396397241,0.06353126064763301,0.26904525755984926,0.0015242560807871251,0.1932389021012406,0.9811505383106713,-1.6855068529789343,-1.8770011158303446,4.140166119960173,0.1875592905231933,1.3649972298606117,-0.7374257704527767,1.0,0.5015999532656069,0.503095776049688,0.38210555685746184,-0.7237386029951525,0.2987977528326552,-0.2376865991824043,0.5748281638941185
6.5,-6.138913235941989,-0.8627174419128841,-2.394481480849505,-0.07639192380568029,0.06396763150416175,0.27347464891304774,0.0015358735251530574,0.19287717285842126,0.9812216768370338,-1.6842189029849368,-1.8779784641661585,4.139980792999268,0.1874386596302547,1.3651811979215942,-0.737499479654295,1.0,0.5021151379710179,0.5036835035902532,0.38179421398845176,-0.7237955449199563,0.29879956201001456,-0.23765863451640742,0.5747670870330377
6.6000000000000005,-6.058155381993643,-0.6569204768860106,-2.297099540644116,-0.06511968950769315,0.0638379725184762,0.2635962130062347,0.001546998291207924,0.19283484530027128,0.9812299939082214,-1.682891565696862,-1.8789802779101719,4.139744032787534,0.18730752050366206,1.3653891704354137,-0.7375506127784424,1.0,0.5023087950121027,0.5038603561183379,0.38176676643185253,-0.7237807845263321,0.2987964446395076,-0.23767029365973666,0.5747824737524028
6.7,-5.9476099677223715,-0.7995231174677679,-2.332297225360378,-0.07018930842555578,0.06387213597889421,0.2682673554753293,0.0015578233557413876,0.1929868132259777,0.981200096011813,-1.6815234829660788,-1.8801881925188613,4.139525890350342,0.1871534327187666,1.3656205437153486,-0.7375746062131638,1.0,0.5026371657726176,0.5041785838435429,0.38179613460438483,-0.723720467431866,0.2987717656507281,-0.2376794807714451,0.5748674468869881
6.800000000000001,-5.903988375280028,-0.7153230225233894,-2.46894029580283,-0.07835921968690943,0.06044697391202141,0.272219366907903,0.0015686240821497224,0.1931406587882688,0.9811698225488729,-1.6802148818969727,-1.8815071439588562,4.139357367478884,0.18706025751227037,1.3658225387793321,-0.7376407676729675,1.0,0.5031161769818236,0.5046281745640497,0.38171247240964795,-0.7236935846525759,0.2987925684470756,-0.2376768575415109,0.5748915619164162
6.9,-6.059667841679567,-0.9921722260294552,-2.4170920182202615,-0.07486033966026943,0.06563279292268394,0.2694623835216476,0.0015792328869898178,0.1933093107070897,0.981136587505392,-1.679008527355677,-1.882747552917655,4.139133521124215,0.18703531424140254,1.365979079589625,-0.7376833885395042,1.0,0.5033271364317231,0.5048768107800813,0.38160333697037874,-0.7237036897340086,0.2987796440697404,-0.23766966815027232,0.5748885305833471
7.0,-5.672588384447854,-0.9864404368259391,-2.4022657778121403,-0.07189758362501693,0.056750192545925685,0.2691805642156243,0.0015781419481225526,0.1931365204006441,0.9811705534302141,-1.6778535991431531,-1.8839718266942131,4.138955421805702,0.18701187403877498,1.3662214204906793,-0.7377184147345612,1.0,0.5038080927878076,0.5053310977752328,0.3813387912388813,-0.7237453329216338,0.29877933769591486,-0.23767770904014776,0.5748329383965145
7.1000000000000005,-5.987692487803183,-0.5707259266083913,-2.4539486039182328,-0.07005411274116316,0.06261157733979039,0.2729529726226493,0.001569372287517755,0.19273963631036495,0.9812486243840863,-1.6773204750472146,-1.884360625899177,4.138851940938708,0.18698834323719635,1.3663153595381814,-0.7377589384662073,1.0,0.5040055677260792,0.505510673203298,0.38122514956380965,-0.7237643094467888,0.29879059540002395,-0.23768150154411172,0.5748016251675432
7.2,-5.873849290573826,-0.7235481376240176,-2.4870364869116135,-0.06926324944706634,0.059923518264198394,0.26957546300473395,0.0015793756592833604,0.19290998621945513,0.9812150966500948,-1.6773211592788895,-1.8843762020818737,4.138831615447998,0.18697453119103155,1.3663522833938797,-0.7377749801892776,1.0,0.5042334419558928,0.5057826595103369,0.38114684526265363,-0.7237549471275878,0.2987738977238741,-0.23764625120079153,0.5748366670954776
7.300000000000001,-5.89382177821914,-0.7853823355571097,-2.479063940756062,-0.08028223811527554,0.05716258810217496,0.2706669769652482,0.0015983156577632366,0.19340171275708204,0.9811183492857681,-1.6772299700154998,-1.8843900165953578,4.138799021055527,0.18696219368019998,1.3663477897644043,-0.7377722375501534,1.0,0.5042637976001582,0.5057704339161745,0.3811575855409384,-0.7237475522086718,0.29878778164219705,-0.2376521071439792,0.5748363403468131
7.4,-5.966794221338116,-0.8671601115534303,-2.4231480656044018,-0.07058036146794312,0.06282771798327696,0.26498066466835674,0.0015743451914022153,0.1931560112736032,0.9811667786934273,-1.6771772098406241,-1.8844708255854798,4.138785898713584,0.18701113522329957,1.3663311302802539,-0.7377589384662073,1.0,0.5042771458891612,0.5057688227626483,0.38117397408353443,-0.723742696819985,0.2987843595266334,-0.23767738258159182,0.5748337821589458
7.5,-5.8381509376601874,-0.8793917058866241,-2.2675422966513743,-0.07952249069643538,0.05900881458082648,0.2681628116053035,0.0015699840258644267,0.19352961904602647,0.9810928740121984,-1.6771549317352314,-1.8844762786326597,4.138772969336653,0.18695942937817378,1.3663464648069379,-0.7377493010281492,1.0,0.5042888742051144,0.5057945928371446,0.38115224949681364,-0.7237488958060073,0.29878696973765817,-0.23766204488504683,0.5748309620711387
7.6000000000000005,-5.758389704148859,-0.8314776340069617,-2.42344453015828,-0.07532163803667037,0.056686555932791115,0.26668696468253233,0.0015800941492636062,0.19436026520366745,0.9809286891132759,-1.6771923717872788,-1.884501758686936,4.138815717625219,0.18696769117470985,1.3663239479064941,-0.7377745134562722,1.0,0.5042952201695393,0.5058106687767284,0.3811305490006656,-0.7237577368455794,0.2987842256938046,-0.2376562986286689,0.5748236325646672
7.7,-5.658289379352965,-0.8675040022385738,-2.4108894508020855,-0.07324276826198403,0.05572466116903997,0.271900929291209,0.0015798073111733173,0.19487217766870693,0.9808273552554188,-1.6771471012570165,-1.8844771168005234,4.138819217681885,0.18698498894879398,1.3663424811261913,-0.7377623111146504,1.0,0.504287867225394,0.5058085888529289,0.3811258040681867,-0.7237572769462445,0.2987801433521885,-0.2376603625747958,0.57482465332188
7.800000000000001,-5.859440566512917,-1.0145141185855795,-2.4154037610414845,-0.07600969460348063,0.059364750784813576,0.27516035794163984,0.0015709928726253546,0.1951722823637134,0.9807676583613706,-1.6771640482489418,-1.8844798438988148,4.138801992524495,0.18697122734943228,1.3662936072681,-0.7377768813384883,1.0,0.5042906373760333,0.5058181861260851,0.3811166639157222,-0.7237655448585019,0.2987870043885359,-0.2376596025022196,0.5748109910420016
7.9,-6.020855371037201,-0.9545794933655214,-2.348649470024326,-0.07827146294505063,0.0642897483346461,0.2652098364702537,0.0015553982674152722,0.19623983775215506,0.9805540849984276,-1.6771805575830745,-1.8844734630980433,4.138804226253729,0.1870092313026197,1.3663080028040218,-0.737766835221645,1.0,0.504301101739467,0.5058000632467491,0.3811169902619836,-0.7237602501958971,0.2987918292918473,-0.2376779316052652,0.5748075711163231
8.0,-5.884689008155904,-0.9010509489789964,-2.4807511856385958,-0.07457857419524123,0.05886700623238788,0.26848624183496206,0.0015411168488567485,0.19718431237657183,0.9803650978888091,-1.6771726608276367,-1.8845265753776408,4.138807773590088,0.18697545112950184,1.3663495943429667,-0.7377758111217814,1.2809115700184412,0.5043021940685295,0.5057921366653064,0.38114947185013076,-0.7237370129078031,0.2987968014701174,-0.23767533389068737,0.574835318363849
8.1,-5.805081302879617,-1.1037739941727196,-2.435454259832141,-0.08036850713535873,0.05759557518582898,0.26900423952777686,0.001558352332610002,0.19517480904848067,0.9807661887725393,-1.6771468848088344,-1.8844636257030618,4.138783931732178,0.1869831627166099,1.366289750962837,-0.7377247415225502,2.0,0.5042981903291098,0.5057896993532648,0.38115758628738194,-0.7237412842862125,0.29879434503333957,-0.23767076278854973,0.5748331073549524
8.200000000000001,-6.10160593768564,-0.6620561572702094,-2.3846744778477555,-0.06447176805970056,0.0592895691539526,0.26109958457773996,0.0015626526945269389,0.19477371114505984,0.9808465278632286,-1.67717769661813,-1.8844925361780147,4.138796329498291,0.18696637170458613,1.366329403346195,-0.7377547792189902,2.0,0.5042924849993214,0.5058000963128345,0.38115152340540304,-0.723737668602823,0.29878535036206233,-0.23766442390945886,0.5748449556725321
8.3,-5.988118398182713,-0.7736936041479611,-2.4682472878039747,-0.07448448609850719,0.06642635132929688,0.2614952673824732,0.001555526418799063,0.19579344763394127,0.9806435209940281,-1.6771817938991325,-1.884493215257364,4.1387886809293555,0.18700005287651517,1.3663330809779899,-0.737775131755182,2.0,0.5042907312130498,0.5057935781632487,0.38114901540928836,-0.7237365015233965,0.2987884140740511,-0.23766831705183328,0.5748432230160996
8.4,-6.101433364344413,-0.731771388300589,-2.3305263933841633,-0.07173574265492304,0.0638247231426891,0.26376054996140985,0.001540889468408891,0.19577078094006076,0.9806482116465283,-1.6771678899843785,-1.8844875047251768,4.138815881057615,0.18701657180610956,1.3663327309963156,-0.737769365417049,2.0,0.5043037120921081,0.5057838298841066,0.38115792742642784,-0.7237255071926032,0.2988062756632508,-0.23767575741490765,0.5748447044205212
8.5,-6.0440879414468505,-0.6848833335229779,-2.28496916802449,-0.07446025663625831,0.06102377266871891,0.26505454818651847,0.001519752193320224,0.19479004872645547,0.9808437614859904,-1.6771612167358398,-1.8844977817931117,4.138807773590088,0.18700411954945906,1.366316722746536,-0.7377897275933079,2.0,0.5043068701084497,0.5057952128050155,0.3811341819356764,-0.7237539526126839,0.29879594841066953,-0.23768339285850376,0.5748111011890392
8.6,-5.967321550676878,-1.0643679877040855,-2.290121467544137,-0.09060182893387461,0.059497500141431334,0.2648832543286828,0.0015298294661219315,0.19346948787292192,0.9811041659601587,-1.6772019913619993,-1.8844858608641566,4.138799518308904,0.18702181072594712,1.3663102039488575,-0.7377793257792871,2.0,0.5042928034210964,0.5058058463572368,0.38115640177430427,-0.7237423183678621,0.298778643253421,-0.23765774098546388,0.5748453505846974
8.700000000000001,-6.198874611505184,-0.4872965506996987,-2.360938450760935,-0.07533312068271471,0.06997026996941624,0.26538662488776793,0.0015399084049164855,0.19215017253645875,0.9813643249138281,-1.6771446150418616,-1.884506317041287,4.138814544951647,0.18702046453442378,1.3663068774101437,-0.7377877944642818,2.0,0.504308310133406,0.505786250105169,0.38115022510572627,-0.7237314915993326,0.298802642239299,-0.23767706221627657,0.574838519198617
8.8,-5.8248135816109565,-0.2524578619392489,-2.4214459250940323,-0.0754424109790996,0.06403887702357548,0.27073026449022564,0.0015538505452287246,0.19371903492973688,0.9810551565945327,-1.677179600498989,-1.8844943119574356,4.138792720869188,0.18698755595264943,1.3663082190981317,-0.7377589384662073,2.0,0.5043087183818484,0.5057905405664638,0.38114087988580486,-0.7237437920777439,0.2987900109848888,-0.23768043550834084,0.5748282033278665
8.9,-6.128316763046091,-1.0374280909562825,-2.3753629395824096,-0.07512786579448229,0.059931468798619554,0.27486963546651955,0.0015536549846181013,0.19453602405618048,0.9808941434170263,-1.6771850653198137,-1.8845092191588448,4.138813263525639,0.1869901857927091,1.3663303982424262,-0.7377532265094046,2.0,0.5042996824342758,0.505799231887537,0.3811556097309812,-0.7237373772837461,0.2987933955865091,-0.23766993044919638,0.5748388640624456
9.0,-6.041321863894183,-0.6205801875647864,-2.4646972258580355,-0.06988995373075363,0.055638869223364924,0.2681731222226942,0.0015388344805265708,0.19457522731119728,0.9808863914088497,-1.6771812155784254,-1.884479721014514,4.138783572886932,0.18701420429557256,1.3663271960927479,-0.7377618278072156,2.0,0.5042956285619962,0.5057970088368946,0.3811761483202441,-0.7237295074528785,0.2988020707238367,-0.2376772794938388,0.5748412245007911
9.1,-5.881931049754131,-0.9594387449200767,-2.363807167017453,-0.08804921357181811,0.05763436564824859,0.27041259469674356,0.0015542979330448643,0.19510330628934838,0.9807813864176088,-1.6771612167358398,-1.8845115076102938,4.138807773590088,0.18700387596096113,1.366320441012375,-0.7377602665172762,2.0,0.5042976110653192,0.5057898121915548,0.38117048007490845,-0.7237275533499065,0.29880087099129105,-0.23766614251018517,0.5748489129513357
9.200000000000001,-6.716944522422928,-0.42038082502816637,-2.3848652279561846,-0.0752656626353896,0.03668386515128359,0.27314035425110744,0.0015673588760242373,0.1952288243806193,0.9807564384708304,-1.6771660694236918,-1.884487469831426,4.138807773590088,0.18700226040614204,1.3663168072188872,-0.7377589384662073,2.0,0.5042969958656192,0.5058095918680208,0.3811346292961782,-0.7237511849323975,0.29878670175135863,-0.23766473935943608,0.5748271051635494
9.3,-6.183555050533965,-0.6622221306329943,-2.722683573608777,-0.08406713261135314,0.06699233658383878,0.2739909701019076,0.0015770305591197124,0.19489140030411836,0.9808235562574353,-1.6771644132414223,-1.8844802556724058,4.138796329498291,0.18698168303649929,1.3663395421781899,-0.7377414123455014,2.0,0.5042850615247161,0.5058288589615303,0.3811385173626619,-0.7237555372473773,0.29878859800571256,-0.2376574754396495,0.5748236428446495
9.4,-6.010152077806967,-0.5313813152174136,-2.4584072189913884,-0.08138950024818027,0.06212037692720476,0.27055406009922867,0.0015601646059093357,0.1946758846844219,0.9808663728569383,-1.677179627918893,-1.8844977817931117,4.138796329498291,0.1869766772282059,1.3663190978225752,-0.7377997024003748,2.0,0.5043108891797107,0.5058053015058576,0.3811211976539119,-0.7237468605504381,0.29881024927498023,-0.237668630515543,0.5748187008444272
9.5,-6.024949341435472,-1.7588030234247953,-2.6542555081324752,-0.05501364594252437,0.05247865871153688,0.27790652730819276,0.0015553696824634636,0.1950251319170975,0.9807968724004075,-1.6771841049194336,-1.8845010607963921,4.138801215583527,0.18699566900219722,1.3663329355091958,-0.7377762223175565,2.0,0.5042981954536471,0.5057966438174563,0.38112669111986863,-0.7237603438315584,0.29878692080739433,-0.23766731357983126,0.5748143950067763
9.600000000000001,-6.40630060370308,-1.5821082240656905,-2.552846874959541,-0.024233464508430044,0.04578003875464061,0.2754425733745073,0.0015624003253767121,0.1947896406149372,0.9808429816953973,-1.6771773381980633,-1.8844870678176087,4.138824566779904,0.1870211946507177,1.3663363456726074,-0.7377791150167086,2.0,0.5042979714840469,0.5058044610729441,0.3811254237181893,-0.7237516848560595,0.2987963069873234,-0.23766111540606358,0.574822981293109
9.700000000000001,-6.611601790696906,-1.8150138001273526,-2.559492382563516,-0.019787456463062028,0.03902013733887357,0.27417694737343273,0.0015645480927481122,0.1929834619792467,0.9812006079533133,-1.6771612167358398,-1.8844927443417092,4.138824731970446,0.18699236493297197,1.3663203684981668,-0.7377484755803274,2.0,0.5042954123134517,0.5057970026825626,0.38117610733370294,-0.723724052060611,0.29879424865757587,-0.23767084871071048,0.5748548174202385
9.8,-6.959811895868585,-1.8538595663503779,-2.3984025501938078,-0.0180854453928433,0.006714796043483583,0.2698875342962581,0.0015595072588116428,0.19462174409242577,0.9808761481319869,-1.6771742075724774,-1.8844923722766278,4.138804648112102,0.18702381848060404,1.3663329597381224,-0.7377620639441935,2.0,0.5042898758158096,0.5058007796986296,0.3811866718694114,-0.7237230646500017,0.2987813658536252,-0.23767675453000342,0.5748603147446659
9.9,-7.1692922739164056,-1.4869906122163215,-2.2349990647669244,-0.035615449732358806,-0.010867372312550937,0.26763386787785853,0.001563043107383167,0.1953695725622607,0.9807283173244494,-1.6771764083594314,-1.8844816406930458,4.138787991558289,0.1869677673181763,1.3663198880803833,-0.7377587269200977,2.0,0.5043083120769275,0.5057909584898916,0.38118384067353595,-0.7237129866493236,0.29878881564046145,-0.23768351412410307,0.5748663355223572
10.0,-7.140268328268892,-1.0078552094885735,-1.7955370171558118,-0.06962937658907634,-0.02703897846184985,0.2654615705974114,0.0015784810042113252,0.194648045631745,0.980871845843182,-1.6771643682457935,-1.8844957093327617,4.1387994810082445,0.18700249727376345,1.3663325860125808,-0.7377737966937873,2.0,0.5043039902797818,0.5057979640259688,0.38114689058728324,-0.723745662971565,0.2987823806522168,-0.23766204628611182,0.574837417098732
10.100000000000001,-7.243024735019083,-0.4319241775236359,-1.447146798014229,-0.11006959254010165,-0.03351880386880912,0.2616361185838391,0.0015762382787782724,0.1930856064924299,0.9811798685358301,-1.6771868600195419,-1.8845508711230188,4.138828227484266,0.1869783424591553,1.3663032333997207,-0.737746540700094,2.0,0.5043066805607298,0.5057918891742695,0.38111686843239356,-0.7237657044428066,0.2987948840708308,-0.2376671542179719,0.5748035717803407
10.200000000000001,-7.241707678520313,0.23446460450227913,-1.051945020932992,-0.137056753523386,-0.03978517853133859,0.2603561496601998,0.0015694720595406718,0.19145444467764827,0.9814993572514834,-1.6771612167358398,-1.8845184408566173,4.138811967894672,0.18699261351956886,1.3663318018426411,-0.7377500255689657,2.0,0.5042895022524089,0.5058146626627628,0.3811254775170733,-0.7237608666058033,0.29878278375344164,-0.23765576493832136,0.5748206620278556
10.3,-7.20422895917467,0.4747111239502697,-0.578786568388368,-0.1785587036618155,-0.03936799806473302,0.2566313157075379,0.0015585432600301935,0.18984276121942706,0.9818120994534327,-1.677186572645028,-1.8845370225343248,4.138815878845711,0.18696372188866406,1.366329111527564,-0.7377556266153995,2.0,0.5043052148051256,0.5058114387225785,0.38110950391585136,-0.7237622281747264,0.2987890207586094,-0.23767335199834574,0.5748084340817705
10.4,-7.308008259535856,0.7715138480114168,-0.47386264617554474,-0.18309481412010448,-0.057191783652344653,0.25570960778986346,0.0015560285216301636,0.18899071667180609,0.9819776055358499,-1.6771809715643755,-1.884527016756939,4.138821954269902,0.18699566900219722,1.366330475729532,-0.7377620718212655,2.0,0.5043106358165979,0.5058198299677134,0.3810836633654117,-0.7237748634005897,0.2987992549183804,-0.23766387658967886,0.5747911221774782
10.5,-7.320750848964102,0.5014298455104621,-0.5108216291710391,-0.19075612420054444,-0.07402731276194616,0.2553784393239568,0.0015665647011856437,0.1893169361001557,0.98191473598718,-1.6771873311097774,-1.8845289587920921,4.138831615447998,0.1869912666458278,1.3663147763307246,-0.7377633408225768,2.0,0.5042966545200037,0.5058273016226774,0.3811026293766862,-0.7237687729995099,0.2987914247688359,-0.23765339250328413,0.574807196151086
10.600000000000001,-7.535381882933256,0.35305640636857666,-0.5899539814986094,-0.18617585405197185,-0.08399691758996296,0.25955220211514113,0.001578762364503272,0.1900670714576684,0.9817693713009805,-1.6772063363892817,-1.8845286277281095,4.138826501922056,0.18697883122137468,1.3663151922604664,-0.7377740246780897,2.0,0.5042966020545314,0.5058067793518763,0.3810868595290859,-0.7237751602359809,0.2988004746988299,-0.23765361086867456,0.5747943588677734
10.700000000000001,-8.014120491075891,0.3354572144577404,-0.7682174636748609,-0.17389096455570885,-0.08718899614292426,0.2551999587907296,0.0015936324250726938,0.1914990502312265,0.9814913181204101,-1.6771937527036627,-1.884490843675998,4.138821649824315,0.18699379190913554,1.3663160158002952,-0.737734619771139,2.0,0.5042907895059807,0.5058219301664258,0.3811135189146647,-0.7237546171310126,0.2987967040304167,-0.23764758791248683,0.5748246757068433
10.8,-8.051486948886287,0.1284532500203625,-0.5782391982831261,-0.16966655132904798,-0.09759828132283592,0.25450288955910505,0.0015841906676974792,0.19129757596866342,0.9815307093129276,-1.6771959537183896,-1.8845248603343394,4.1388142469567235,0.18697237611144432,1.366367716504507,-0.7377499068507444,2.0,0.5042827590736446,0.5058134495270035,0.3811256925218694,-0.7237569566280442,0.2987890429061972,-0.23764992421335182,0.574824746416765
10.9,-8.071533683103501,0.2967286597249569,-0.7965510769245177,-0.16918248837482655,-0.09304458526179718,0.25700524730062724,0.0015712913503101345,0.19086379649913285,0.9816152465728006,-1.6771777930552694,-1.8845097027220667,4.138825040589494,0.1870287526941386,1.366303261980666,-0.7377605202702477,2.0,0.5042922402226122,0.5058185222366174,0.38111140196311927,-0.7237582860176862,0.29879009614331975,-0.23766494065919097,0.5748163166167698
11.0,-7.662429647103145,-0.2438491390747069,-0.7435928307655165,-0.18032174371410267,-0.10496014886510246,0.2611228163038302,0.0015737664273653628,0.19052838426610094,0.9816803954972007,-1.6771776415177153,-1.8845262464862746,4.138834397716786,0.18700528449952306,1.3663385440938987,-0.7377589384662073,2.0,0.5042839248386479,0.5058127873885734,0.3811432377385669,-0.7237483947855395,0.29878213013895055,-0.23766043431061387,0.5748347742771628
11.100000000000001,-7.809803587527908,0.07261164674207149,-0.8134139922652419,-0.1729284162490363,-0.103140706637554,0.25206490909339324,0.0015807435890487448,0.19011798719351009,0.9817599053775841,-1.6771906142798476,-1.884480748994625,4.138814916625952,0.18701303577712494,1.366340980704981,-0.7377536837359583,2.0,0.5043015718334304,0.5058121308345167,0.38111655915931286,-0.7237543574774318,0.2987912453860373,-0.2376639529435542,0.5748210740607332
11.200000000000001,-7.821839395540597,0.061445955111892055,-0.8338711660305569,-0.17061047112767586,-0.10367244907271522,0.25355948188013183,0.0015914903506779432,0.18954346151912688,0.9818710059000738,-1.6771757582360722,-1.8845064762549464,4.138818709579517,0.1870071130939941,1.3663032034570195,-0.7377498962258991,2.0,0.5042914500176617,0.505822342718367,0.38112640775785495,-0.7237480130076173,0.29878225433466277,-0.23766034065091807,0.5748352291256273
11.3,-7.890088768979783,-0.1267546143371171,-1.0673301554454913,-0.1697459008126999,-0.10425363555595081,0.2562528112449077,0.0015722180007131392,0.19012576156440028,0.981758299369776,-1.6771700432829535,-1.8845069761130218,4.138839232167758,0.1869912557286404,1.3663239479064941,-0.7377703825580042,2.0,0.5042961507026301,0.5058195568803968,0.38114007585533405,-0.7237474338174301,0.2987818958625624,-0.23767053763336546,0.5748319287309331
11.4,-7.880263429194442,0.1914932303207706,-0.9573866920791714,-0.16373729347159713,-0.10838119952308076,0.254715443995149,0.0015521154268991137,0.19108128375997008,0.981572794327752,-1.677192258075491,-1.8845253818683312,4.138792094443824,0.18699566900219722,1.3663399406356838,-0.737746540700094,2.0,0.5043082554421777,0.505801693998273,0.38110215999792824,-0.7237553711838685,0.29880952849593695,-0.23766338918250896,0.5748105268736993
11.5,-8.03021510542763,0.16418121307115638,-1.0239406813627148,-0.16250813468282957,-0.10485091821911581,0.26084318619949015,0.0015525312900074779,0.19165205019666606,0.9814615533085669,-1.67716470221656,-1.884501608048437,4.138815426100739,0.18701507170507065,1.3663123160903052,-0.7377827803241175,2.0,0.5043040211181935,0.5058038173864876,0.38112917803669594,-0.723749094944372,0.29879982712582515,-0.23767219408434737,0.5748198318046374
11.600000000000001,-7.910133634426332,0.2865338236839584,-1.1395307262187768,-0.16179975336047595,-0.10680097401201226,0.26092763392668444,0.0015763722201561046,0.19078926399151755,0.9816296590069011,-1.677154329103686,-1.8845123008506242,4.138819217681885,0.1869872082065276,1.3663298818643317,-0.7377736144621421,2.0,0.5042845604650702,0.5058215995331822,0.38115742631416616,-0.7237451452335544,0.2987729447196036,-0.23766920104233646,0.5748400152480126
11.700000000000001,-7.452150957980777,-0.19408633092155178,-1.1452634865072082,-0.16876225386266522,-0.1195602432602699,0.26762785643350034,0.0015802197536773056,0.18953375886921486,0.9818723976154019,-1.6771894827768707,-1.8845216236510218,4.138822868034397,0.1870165333855652,1.3663034756047485,-0.7377633626493282,2.0,0.5043053722926888,0.505797994548423,0.3811664967064033,-0.7237204780681161,0.29879812773469544,-0.2376752657434575,0.5748554744810864
11.8,-7.688474568151362,-0.1517398947992145,-1.2337245752322434,-0.16706432594256873,-0.11598568629568982,0.2541905665324815,0.0015872998947407358,0.18911571148438336,0.9819530155132001,-1.6771681304329027,-1.8845025582398491,4.138805248964788,0.18700258269926,1.366331437744979,-0.7377515059132789,2.0,0.5042911497105568,0.5058163948536926,0.3811261868625445,-0.7237554079728472,0.29879007917931677,-0.23765378566929848,0.5748245612107458
11.9,-7.771324974535906,-0.156795087249002,-1.3107143197242517,-0.16593787518181105,-0.11281373525367247,0.2592816006616551,0.0016110499969902476,0.1907225910999733,0.9816423015188386,-1.6771531711168388,-1.8845055152437604,4.138813079411516,0.1869607152204283,1.3663128359826353,-0.7377629584453814,2.0,0.5042824100526984,0.505833116278307,0.3811202286108037,-0.7237597759118838,0.29878084330321003,-0.23763939096810238,0.5748298133424465
12.0,-8.092808447958134,-0.05679449546891416,-1.198235117761342,-0.16217594474256328,-0.10613003253778257,0.2534785213093604,0.0015967568431288202,0.19077922361475694,0.9816316182284928,-1.6771781976296154,-1.8844981677179444,4.138814543641897,0.18701400493211529,1.3663060133384022,-0.737757920479466,2.2610051780034723,0.504298149311696,0.5058059346381071,0.38113094566076045,-0.7237599265797808,0.2987798252437449,-0.2376671358910863,0.5748186820397155
12.100000000000001,-7.533693176920607,-0.011596055443064052,-0.9539583735661518,-0.17099867637375576,-0.1038023841438326,0.263671891651154,0.00157318833426517,0.1904578892131648,0.9816940856506726,-1.6771854975618943,-1.88446106533193,4.138807773590088,0.18697826097143788,1.3663296544923706,-0.7377703825580042,3.0,0.5042975434963447,0.505805132688085,0.3811460447519959,-0.7237486618608463,0.2987902046291922,-0.23766621655323322,0.5748278503878805
12.200000000000001,-7.852351891890823,-0.27230839661850115,-0.2373520048291008,-0.16935915536926974,-0.11314368912318086,0.2584857252613449,0.0015300256315569445,0.19036635155948228,0.9817119264470916,-1.6780393949136305,-1.8836738239273736,4.138855284694652,0.1870188521773931,1.3661857514362434,-0.7377584616290491,3.0,0.5042869676279985,0.5057974362939172,0.38114334138339656,-0.7237559095833381,0.2987872368371626,-0.23766871901671344,0.5748192328439979
12.3,-7.7392507635587595,-0.21204644782040344,-0.06872825259610187,-0.17400869200452895,-0.12212040857348805,0.2560343011225861,0.0014818295875805173,0.19033384391559383,0.9817183035906099,-1.679290771484375,-1.8825461865789523,4.1390024315172855,0.18713522883185943,1.366005951705298,-0.7377359510082476,3.0,0.5041025430104308,0.505516015570539,0.38122497524233745,-0.7237425456874127,0.298819478325049,-0.237704484726144,0.5748045101393403
12.4,-7.747469362460865,-0.268327454873194,-0.058570819037098654,-0.16928275655131822,-0.10933897351071407,0.24491774636936112,0.0014607584102972794,0.18997273569026568,0.9817877951810888,-1.6806354522705078,-1.8812331384792995,4.1392441963555076,0.1872359949299316,1.3658377625275187,-0.7376185322129422,3.0,0.503941937536066,0.5052943381355665,0.38128843669517987,-0.723724951078004,0.29883406346393293,-0.23771066465939694,0.574816525169521
12.5,-7.976747986671082,-0.42891632618803527,-0.282223755500557,-0.1577336868775906,-0.10806610536867052,0.23464906856418988,0.0015102704604328632,0.18875655636607983,0.9820215206243502,-1.682019772188195,-1.8799743829953965,4.139527797698975,0.18733970240041933,1.3656400156943402,-0.7376189913716962,3.0,0.5035781373841818,0.504956941135711,0.3814537631292739,-0.7237013710619598,0.2988320135868339,-0.2376949166466608,0.5748537899144577
12.600000000000001,-7.670873743307999,-1.0101730679411256,-0.41276306504457116,-0.16516984327894546,-0.12499612800853266,0.22371102805077883,0.0015597825105684482,0.1875403770418939,0.9822552460676117,-1.6833589442149282,-1.878891751814938,4.139687003373882,0.18745323077083637,1.3654170896629618,-0.7375507630548259,3.0,0.5029971278920871,0.5044827376432593,0.38160731394673,-0.7237364865127552,0.29879052734320816,-0.23766631506231273,0.5748429712059123
12.700000000000001,-7.331213695137338,-0.6727157180148565,-0.4127980077788389,-0.17184774976820405,-0.11747508830346717,0.21573023351994947,0.0015419213198134174,0.1884630630758783,0.9820788310762617,-1.6846285680407338,-1.8779247682073599,4.139912128448486,0.1875350957369848,1.3652066964173222,-0.7374621794655849,3.0,0.5027684985548085,0.5042125128898016,0.381658542734432,-0.7237334525335588,0.2988115879931277,-0.2376755817855219,0.5748320123199425
12.8,-7.616098021235706,-0.6674110007456008,-0.6478095711326359,-0.18174855409031454,-0.11393991351936256,0.200271554601838,0.0015366912386221643,0.1883938591475077,0.9820922529355688,-1.6859191796975654,-1.8765801833504723,4.140139102935791,0.18765090240634583,1.3650303182706778,-0.7374380566331253,3.0,0.5024736071748322,0.5039480199126007,0.3816582494622089,-0.7237855410176225,0.2988161231339909,-0.2376567479442309,0.5747718550221224
12.9,-7.653602664154073,-0.7740921041172419,-0.6145762863981207,-0.19293422336530458,-0.1229443181284164,0.1894018551184659,0.0015450010878050044,0.1875727277490216,0.9822491112850036,-1.6872452094354922,-1.8751859235622148,4.140334987778695,0.187757304800743,1.364794334063992,-0.7374176028219476,3.0,0.5019422603219013,0.503444695971514,0.3818622676455945,-0.7237879247460904,0.2987838604595633,-0.2376773566494284,0.5747771036295448
13.0,-7.801752637644153,-0.9987889297515058,-0.33302660690076513,-0.17418060079388195,-0.12064443024349972,0.17739345220372194,0.0015628297216637175,0.1860487568889643,0.9825388770411027,-1.688475431555539,-1.8739787056584158,4.140535151896714,0.1878153036524135,1.364599113822802,-0.7373506287989783,3.0,0.5017411018187027,0.503212781098185,0.38201213185847066,-0.7237450973326058,0.2988020799363974,-0.23766662149445386,0.5748259981421437
13.100000000000001,-7.6062851570601895,-0.7974440793649454,0.3456508755585621,-0.14864159568083846,-0.12034834784861174,0.17403025498645786,0.001581828063153895,0.1865178783657269,0.9824501548132372,-1.689718543583707,-1.8730220853933464,4.140783069377415,0.187908335322998,1.3643815874028684,-0.7372957237303911,3.0,0.5012106103589441,0.5027027652004613,0.38223521692333157,-0.7237200044250398,0.29878654293012363,-0.23766609806690003,0.5748658824356689
13.200000000000001,-7.49513816905176,-0.46460815246723375,0.9506836906235309,-0.1631697830129049,-0.1040149693260513,0.1739241795878156,0.001573618159793521,0.18664165904071597,0.9824267921619679,-1.6910996631610093,-1.8719006108339866,4.140993917586753,0.18800715153158448,1.3641825614174137,-0.7372406839352216,3.0,0.5010785674298274,0.5025873567190555,0.38222419149075293,-0.723745573141104,0.29878566079638536,-0.23767196641271537,0.5748317237615154
13.3,-7.520269239601111,-0.2757994482260216,1.3142927297267089,-0.1849932858355323,-0.09139702996320431,0.1730597336034899,0.0015674736285165034,0.18645788482247372,0.9824616965711621,-1.6925035788704663,-1.8706045065767933,4.141207937875164,0.18807381902236558,1.3639754879586157,-0.7372263640424793,3.0,0.5007695494400026,0.5022973014687524,0.38224223199830254,-0.723785055720114,0.2987916970702892,-0.23765320448869992,0.5747866293454822
13.4,-7.598015208759484,0.3191956815501778,1.4961285182802204,-0.20500498101418513,-0.08909800100758916,0.17353751062619374,0.0015693357432935145,0.18655692880349972,0.9824428029682273,-1.6936438788409496,-1.8692237339415492,4.1414506504055995,0.18820109068807325,1.3637795448303223,-0.7371727376562779,3.0,0.500184763422259,0.5017086376688881,0.3824350232432059,-0.7237834841272068,0.2987997868588645,-0.23765956290256282,0.5747817739270631
13.5,-7.4372450779073995,-0.035254251904942524,1.4555369315103133,-0.21336042772259545,-0.10014282620632804,0.1769521818902829,0.0015808081779038494,0.18745440166896452,0.982272009878925,-1.6947696906764333,-1.868051056168748,4.141632687754747,0.18826787054028316,1.3635830370391286,-0.7370853405605133,3.0,0.4998896783967695,0.5014170039256798,0.38269255052227613,-0.723704750214185,0.2987835189474896,-0.23767604902852996,0.5748825436912891
13.600000000000001,-7.7092741094113935,-0.3201849087155033,1.0198683381852234,-0.16987591823580767,-0.09694747871519746,0.17333198033780123,0.0015817438289096413,0.1878618807322135,0.9821941508638175,-1.6962095807790054,-1.867042680779928,4.141806125640869,0.18839753039394394,1.3633718490600586,-0.7370223884331499,3.0,0.4996298395238398,0.5011554240910642,0.3828644334020262,-0.7236591434737464,0.29877528679487697,-0.23769006165285023,0.5749384372773726
13.700000000000001,-7.7626239592293675,-0.873357888626602,0.6126312125218853,-0.1511835098496606,-0.09927652624332677,0.17422555909674112,0.0015676475931656658,0.18685010427295679,0.9823868909986591,-1.6975958253092813,-1.8658672771849574,4.142041320857766,0.18848435461010737,1.3632005586107216,-0.7370150724994105,3.0,0.4993724661194198,0.5008932513078225,0.3828272576385584,-0.7237141726974998,0.29879609292956794,-0.2376760680250566,0.5748641385361822
13.8,-7.539172003505669,-0.6498864272027324,0.5544905234662922,-0.1591409777087666,-0.1033855611746631,0.17763005748021082,0.0015475885236247758,0.1874164308210177,0.9822790665738056,-1.6988655872423883,-1.8645833925659758,4.142229569578123,0.18857147045017253,1.3629886706430188,-0.736963123898301,3.0,0.49886915733777043,0.5003979932441538,0.3828382021150235,-0.7237900538613206,0.2987962433489932,-0.23766443321580322,0.574773329301358
13.9,-7.697254074514031,-0.33492825449955965,0.3460412070766362,-0.16850594994715912,-0.10470979800780278,0.1762927386421828,0.0015454332158039606,0.1872620539033695,0.9823086795844999,-1.6999609530570936,-1.8633365627350211,4.142403248848226,0.1886461117196798,1.362807257298681,-0.736934780094724,3.0,0.49872767195450407,0.5002260953289148,0.3828674591327161,-0.7238015559714682,0.2988050447569659,-0.23766715145602488,0.5747531452022238
14.0,-7.527030791313711,-1.2342255195618075,0.005996873420398452,-0.1655037237416922,-0.11313413204894673,0.18455213609270196,0.0015877552455256533,0.1874915345090721,0.9822648639693453,-1.7012313943307529,-1.862228156411013,4.142600245240762,0.18871599705153214,1.3626289367675781,-0.7368301600994897,3.0,0.4982166768041506,0.4997463721537464,0.38325480786526755,-0.7237017523960697,0.29876309901930254,-0.23767491992363685,0.5748973966565976
14.100000000000001,-7.621696782901036,-1.5495987528944495,-0.2462209851926356,-0.13984235810662796,-0.10653782670627446,0.17646984256168483,0.001591024016209767,0.18900457437925608,0.9819744916958522,-1.7026787942664887,-1.86102561307246,4.14279651515664,0.18876330560947333,1.362457611835886,-0.7368030203559074,3.0,0.49795224134132193,0.4994623822518327,0.3833331678593039,-0.7237068621380348,0.29877056845513755,-0.2376820360617154,0.5748841403734067
14.200000000000001,-7.81232994003785,-1.4282882028847979,-0.23325761946907528,-0.14019088456948353,-0.10346771554227081,0.17845080763962462,0.001584397909392512,0.19027098039620158,0.9817302213511216,-1.7039832119494474,-1.8598438636128058,4.1430277824401855,0.1888878669607247,1.3622622358134606,-0.7367756738870739,3.0,0.4974940002282746,0.49898128949566534,0.38336052257183184,-0.7237721363835602,0.29879387071008473,-0.23764847877524606,0.5748037212446296
14.3,-7.7511094840891,-0.5507914937980551,-0.10531744145353113,-0.1747886238145287,-0.1002071610542459,0.1804212865366611,0.0015897705336674545,0.18931237374317209,0.9819137714938957,-1.7050988065985067,-1.8586813351186249,4.143225284870139,0.18892582615656864,1.3620405197143555,-0.7367242477561354,3.0,0.4972428611287563,0.4987443829293855,0.38340586451016295,-0.7237896721437831,0.29877992699502065,-0.23765483401296833,0.5747862607901426
14.4,-7.537315668117424,-0.7878152035566284,-0.2560424414922463,-0.18334660293262767,-0.10280451209637972,0.1799105599218122,0.0015965553772713786,0.1873159186681387,0.9822971733201731,-1.7063066935197018,-1.8575157572672,4.143448094728461,0.18897859390617636,1.3618478478427138,-0.7366774842028578,3.0,0.4969488823636015,0.49842073611862253,0.3836014872300176,-0.7237362542302819,0.2987986450087552,-0.237657726821526,0.5748425949211469
14.5,-7.364601139319802,-1.0470761346804744,-0.06457096873791093,-0.1855494708531555,-0.10121371452755756,0.18228971705359062,0.0016112922758655878,0.18586203625351377,0.9825741449722375,-1.707689064139671,-1.8562844245011088,4.14366962081262,0.1890065229689504,1.3616280872431203,-0.7366147046416901,3.0,0.49645876167772435,0.49798415822951553,0.38379427384082365,-0.7237268762486027,0.29876494407560594,-0.23765181433861338,0.5748743618639687
14.600000000000001,-7.261973632926327,-0.8062503578695491,0.0841040546005731,-0.20018825392001607,-0.10010273521588936,0.18378060004953298,0.0016195338412544503,0.18514603969552537,0.982709239403633,-1.7090897395795976,-1.8550467635463743,4.14387602295666,0.18911978425884032,1.361402528029045,-0.7365645500921222,3.0,0.4962454832591739,0.4977804285330952,0.3838255175700172,-0.7237436083111876,0.29877226792088235,-0.23765335548683694,0.574848853157038
14.700000000000001,-7.8152678376589035,-0.06248713382234028,-0.21515306177188318,-0.2377342919968617,-0.1060095767489059,0.18182415956698625,0.0015542436846474965,0.1873107567714523,0.9822984178814014,-1.7102554887471426,-1.8537744018550937,4.144058915456446,0.1891870399828726,1.36119718662082,-0.736503445469558,3.0,0.4959092901403424,0.49737892898310615,0.38391936502517293,-0.7237516595932634,0.29879798076635294,-0.23767872865088446,0.5748148605184513
14.8,-7.74599418147719,0.07711324514703906,-0.3310068043342446,-0.24837101145131346,-0.12241323141233106,0.18933615420053615,0.0015566501511812105,0.1822386646756477,0.9832269672106537,-1.7114448855195874,-1.8527126746232507,4.144268100983769,0.1892413802606197,1.361009120941162,-0.736468266940568,3.0,0.4953611895971091,0.49685871020036004,0.3841778033563779,-0.7237251292735728,0.29876072914056095,-0.23768221732702896,0.5748661822962431
14.9,-8.338409064693602,-0.2440099133176493,-0.8142889514329497,-0.22573100683997527,-0.14909380351852042,0.18640364548180746,0.0015989567751885708,0.17304843281865231,0.9849082634382391,-1.7127668312153164,-1.8516069851317347,4.144514560699463,0.18937653550994796,1.3608070058166353,-0.7363933049527869,3.0,0.4952313222939732,0.49671187130051986,0.3841924807001897,-0.7237295901650862,0.2987873396252051,-0.2376710824199486,0.5748513395483207
15.0,-8.339006099494917,-0.25604178424983126,-0.44925275309599627,-0.23199551843398117,-0.16243331860869267,0.1875870702257959,0.0016295726972484525,0.16627605574205517,0.9860672559516085,-1.7141611487799162,-1.8502439605312948,4.144690404403776,0.18942240250735684,1.360605687872755,-0.7363712619613395,3.0,0.4948886147320287,0.49640751194226324,0.3842424829536605,-0.7237480048556841,0.2987910022935705,-0.23764701025926102,0.5748362035664202
15.100000000000001,-5.638457301510336,-1.5021920219467855,-0.47307073119033644,-0.15594245584409436,-0.016063451428336734,0.19173998061254655,0.001612721469558111,0.16373332169680876,0.9865032849348425,-1.7153041056211857,-1.8490164118847545,4.144853743623525,0.1895241847475686,1.3602932709976405,-0.7363364158542288,3.0,0.49435400440756877,0.49581758176864155,0.38443771737095417,-0.7237523926835199,0.2987950312836364,-0.23768094163641448,0.5748145556159118
15.200000000000001,-6.696181723500048,-1.6900611961134837,-0.15485359706500723,-0.14873692293160404,-0.056704921779291984,0.18648042314116,0.0015642572635012444,0.16400751713546485,0.986457822390605,-1.7157928817121681,-1.8485681019225062,4.144920825958252,0.18947494076541746,1.3602588050214943,-0.736312073798501,3.0,0.49415470042010595,0.49561369072684464,0.38455058853227714,-0.7237298294270617,0.2988020072803062,-0.23767882881940727,0.5748402115142704
15.3,-6.761932390116842,-1.4465214078920752,0.07319639278047851,-0.13116589033037634,-0.06709135620502672,0.1886946873504012,0.0015677324613120756,0.16406809435692918,0.98644776727873,-1.7157951327103143,-1.8485929945307746,4.144978142369193,0.18947531817680968,1.3603005431722437,-0.7363091167728193,3.0,0.4939686557576144,0.4953823079684682,0.3846337611135839,-0.7237110428703364,0.2988227417617212,-0.23769935375855283,0.5748445987015138
15.4,-7.244813983964707,-1.4857183234243287,-0.2724009369979684,-0.1163467307711313,-0.05906185340378762,0.18613332644398656,0.001604476674459371,0.1639931310803318,0.9864601756803452,-1.7158039043075233,-1.8485800228514613,4.144983572734037,0.18948096750235927,1.3603238230349213,-0.7362910471109043,3.0,0.4939375012405791,0.49541253373541794,0.3846400321286423,-0.7237011666011086,0.29880628570472983,-0.23766461045114837,0.5748799509659752
15.5,-7.428888004756631,-1.6503983473191863,-0.19091826914095655,-0.10587639793332197,-0.061605060377037446,0.17958488344548723,0.0016125983988601697,0.1640498689664248,0.9864507278193031,-1.7158498764038086,-1.848567625085348,4.145003960080755,0.18947602849639794,1.360309305504101,-0.7362708941524317,3.0,0.49392466663219187,0.49540520317762127,0.38465518250734365,-0.7237055301979193,0.2987865695335496,-0.23767495414971251,0.574880428956539
15.600000000000001,-7.342564536742682,-1.7071467418166173,-0.22412321890468123,-0.1092626357427706,-0.0635936059504868,0.18009587202992008,0.0016293931088458536,0.16449610769273595,0.9863762302803033,-1.715897560119629,-1.848551541584746,4.144984941785986,0.18948679527942722,1.3603225661191074,-0.7362763227785769,3.0,0.49392602310088807,0.495412687450655,0.38461859996884756,-0.7237204106141745,0.2987974766890361,-0.23765717879398146,0.5748633755531841
15.700000000000001,-7.478588739891331,-1.7841411577497623,-0.3887745914435926,-0.10134122590891692,-0.0651700276217024,0.18296880957666156,0.0016492016050733901,0.1651330448387666,0.9862698704504675,-1.7158654960575292,-1.848552482314779,4.1449887816808815,0.18946581430936052,1.3603414329011843,-0.7362916525211696,3.0,0.4939167724291423,0.4954195230682485,0.38460323749839614,-0.7237335307029046,0.29879349400789657,-0.23764026478099023,0.5748559202353943
15.8,-7.59495153797098,-1.4316686745586102,-0.1417092068151492,-0.0984871228676729,-0.06459579226122578,0.18150453695704352,0.0016051469475548274,0.16390413187977168,0.9864747470500125,-1.7158964771804623,-1.8485674958204978,4.1450058322372625,0.18949463731229016,1.360303201553162,-0.7363123557354682,3.0,0.493919519969706,0.49541305396614066,0.3845886189382895,-0.7237444253597478,0.2987942851305364,-0.2376616237817899,0.5748329622728873
15.9,-7.269460657989458,-0.9656688766086458,0.6410285391960577,-0.12790575331827914,-0.07156053749542543,0.1890124181523071,0.0016324662352229947,0.1660801377629485,0.9861084224761021,-1.7158851623535156,-1.8485577795540507,4.145017147064209,0.1894285336552015,1.3602943300406973,-0.7362960020648401,3.0,0.49391052080512193,0.4954385386998737,0.38456698797195055,-0.7237658085664097,0.2987753929332131,-0.23763108582331594,0.5748284839656497
16.0,-7.340688841800242,-0.8812317520912561,0.8290878858586956,-0.11495699874753638,-0.07546856920914405,0.1888218703579631,0.0016576253779345192,0.16807445243478555,0.9857727696435792,-1.7159123925697364,-1.8485919437804164,4.1450208481659185,0.18946293805429587,1.3603104977066167,-0.7363040514987518,3.0,0.4939025176877416,0.4954400542046012,0.3845762803766527,-0.7237694233283657,0.29876606327534605,-0.23764476718474797,0.5748231257696439
16.1,-7.0909805923672895,-1.3351241465723929,0.5441867803897327,-0.1164693771126535,-0.07146237419652068,0.18892848488077463,0.0016274338053367,0.16539046782997988,0.9862268099844372,-1.715889914331937,-1.8485602733664135,4.145017147064209,0.18946132362981077,1.360302448272705,-0.736315751549888,3.303749686278948,0.49391916143712383,0.4954219165007167,0.38456166643958756,-0.7237585495353728,0.29879903744922887,-0.2376437880815786,0.5748200824432858
16.2,-7.2717073985496015,-1.1118109031022791,1.0945450541911241,-0.11781252809652054,-0.06388951413217576,0.19491053655010904,0.001629846040199784,0.16462710839888797,0.9863543796882552,-1.7158671117603628,-1.848555704156393,4.145034039181573,0.1894500250282635,1.3603386878967285,-0.7363128941822042,4.0,0.49390792971823083,0.4954292668431361,0.38456811939041774,-0.7237657033003979,0.2987741900833693,-0.23765246990723354,0.5748204011803154
16.3,-7.00958533194145,-0.6407328368374909,1.5712317809655874,-0.12995190634906534,-0.05305436875355058,0.19282261697948092,0.0016174309474141285,0.1644986392903255,0.986375897498164,-1.7158727645874023,-1.8485734146856159,4.145013778195347,0.18943687812594842,1.3603231804055116,-0.7363232127916126,4.0,0.49391547978881895,0.49542458981143983,0.384569675847267,-0.7237665636038826,0.29878063162786134,-0.23765922052650199,0.5748131787562102
16.400000000000002,-5.37036946004183,0.039270719287427536,0.9870738221307161,-0.1840974371036366,0.03610625917760876,0.19666054607976977,0.001591221797363482,0.1649608169708157,0.9862987538410639,-1.715929278110622,-1.8485720399890475,4.144981414777194,0.18941946277719407,1.3602745311190723,-0.7362729745771083,4.0,0.49391936980793094,0.49542505197470676,0.38457996238699904,-0.7237657592848985,0.2987746313451361,-0.23766131844301355,0.5748164429339693
16.5,-5.969245241808761,-1.4046210942031156,-0.9255491182081049,-0.10703975348162353,0.03609090336183335,0.19689282863849042,0.001581371913658536,0.1664554316078184,0.9860460556994461,-1.715901343406235,-1.8485358032220307,4.144993305206299,0.18949123837161,1.3602789850936419,-0.7363239424832402,4.0,0.4939435640989851,0.4953969923976435,0.38457362580877635,-0.7237547174530835,0.29879976696240407,-0.23769443840432397,0.5748035857397493
16.6,-6.082697279906596,-1.2983724433849817,-2.270952818406377,-0.12263831390719046,0.020380092796372727,0.19037512993370553,0.0015874709184964773,0.16895658416645026,0.9856222069177197,-1.7158891840804942,-1.8485039155672998,4.144985257557026,0.1894955374638474,1.360310658019251,-0.736288186009158,4.0,0.4939186814523425,0.4953923570712533,0.3846398162349285,-0.723718196894044,0.2987891994401576,-0.23767946675489543,0.5748612500990584
16.7,-5.9810830555818875,-1.2790568097361876,-2.327208741694145,-0.11997047625514745,0.040105269699734894,0.1905151473503103,0.0015957132951711927,0.16760943565698314,0.985851677610481,-1.7159381978241077,-1.8484928945604069,4.144977702488975,0.18947896589143132,1.3602848408131953,-0.7362992070160508,4.0,0.49393385824980085,0.4953758611081708,0.38462663145259685,-0.7237238339220408,0.29879675392061805,-0.23769316393275028,0.5748445632336822
16.8,-5.6650981417195805,-1.1175034150102818,-2.3691867174970125,-0.13051153750105088,0.0353055889935915,0.18690987661616704,0.0015984558656685435,0.16652877455103615,0.9860351486959845,-1.715930212092845,-1.8484808475819294,4.144993305206299,0.18948761782484852,1.3602879023927519,-0.736305298042797,4.0,0.49390320859030834,0.4954136499808618,0.3846247890862611,-0.7237302029066042,0.29876787879079747,-0.23766173688980463,0.5748645464995507
16.900000000000002,-5.474066852886437,-1.2880577264083883,-2.256678912117294,-0.13199723856667334,0.022725162605952157,0.19291389327081165,0.0015949638426550022,0.16575802171810747,0.9861651479676917,-1.7159090042114258,-1.8485105942328908,4.145004602222933,0.18947278858800376,1.3603177977661773,-0.7362756128579698,4.0,0.4939145300404499,0.4953869335663176,0.3846327048801876,-0.7237222671834194,0.29878843332420896,-0.23767725804111323,0.5748574372004022
17.0,-5.824650375992787,-1.285288063782911,-2.215757230337819,-0.12776454647716765,0.03387741759147544,0.18609023178392425,0.001591391821930305,0.1659469023323804,0.9861333780166711,-1.7158986290917742,-1.8485232420406694,4.144990941480456,0.18945107274559642,1.3602852077570784,-0.7362807804647433,4.0,0.4939152865504888,0.4953911688387831,0.3846275089027272,-0.7237293238871169,0.2987975647733268,-0.2376641336496351,0.5748492329367716
17.1,-6.012153711693704,-1.0317509615176064,-2.3830952296370675,-0.12271062460077715,0.038495328952645735,0.19299659328457056,0.0015878165295564962,0.1661750288684399,0.9860949922246947,-1.7159090042114258,-1.8485403483479965,4.145008321572715,0.18945094390562883,1.3603112737641994,-0.7362979577974518,4.0,0.4939201420396255,0.4953954498793603,0.3846066133537861,-0.7237380946220123,0.2987904885316888,-0.23767481501956617,0.5748374523822444
17.2,-5.9159143508369585,-0.8741926022577668,-2.4082949253595176,-0.11621636796298017,0.02778535630594869,0.19233656689999898,0.0016230572468082572,0.1638695963494263,0.9864804870968954,-1.7158688455182267,-1.8485199413695277,4.144989059548025,0.18947511785294338,1.3602949232500838,-0.7363000718089551,4.0,0.4939121678195109,0.4954104952118949,0.3845926752833478,-0.7237547951522657,0.29877913852394355,-0.2376607197583934,0.5748281527212412
17.3,-5.784622977030049,-0.8951102888699749,-2.251671440139924,-0.11995516958642356,0.035204073479114126,0.18711042134989397,0.001623504214695322,0.16404070145933933,0.9864522010025134,-1.7159274298620482,-1.8485172077698095,4.14500180935274,0.18946759283032222,1.3602762271545117,-0.736287143578964,4.0,0.49390176231743477,0.4954185007656546,0.38460396884786074,-0.7237521309807434,0.29877123341272743,-0.23765645385103393,0.5748373795507927
17.400000000000002,-6.014200049483013,-0.6233939711817431,-2.3405723620431216,-0.11061244650122073,0.03858223930342297,0.1873116927011202,0.0016170331955252483,0.16428385758208328,0.9864117785425781,-1.7159029434829003,-1.848502160240143,4.144996214355991,0.1894876057441451,1.3602934783944873,-0.7362840811358851,4.0,0.4939141445910548,0.49540796753679517,0.3846086374423143,-0.7237454960898707,0.2987843458814021,-0.2376709536074936,0.5748329229934157
17.5,-6.046597216653834,-0.8914189567640693,-2.3541768248274724,-0.11400890310919898,0.040138089163315134,0.18546516902819193,0.0016184046335140701,0.16404323103959495,0.9864517528453752,-1.7159090042114258,-1.848525038612014,4.145007761570877,0.18946759283032222,1.360323355124539,-0.736297687464092,4.0,0.49390176266555574,0.4954183777441613,0.38459402805309645,-0.7237598351172319,0.298777082892709,-0.237651081563754,0.5748268602290422
17.6,-6.065606874422497,-1.421059879567805,-2.5412251751100805,-0.12137092633461653,0.04013069638061371,0.19048053143888802,0.0016193345501122514,0.16376006317297084,0.9864988243535826,-1.7159175878382495,-1.8485408035764244,4.144993305206299,0.18946425562118704,1.3602879053438541,-0.7363169834577773,4.0,0.49391328040872573,0.49541036990078147,0.38459908520845015,-0.7237489995020916,0.2987791468205975,-0.2376620070869105,0.5748349132858048
17.7,-5.955458639183597,-1.1294443595813382,-2.5503170736235177,-0.11360969692880754,0.04465757832422488,0.18585623374227053,0.001586476869015931,0.16421117297304727,0.9864239121396908,-1.7159005177180662,-1.8485318622984828,4.144977703375211,0.1894781576870936,1.3602962866092938,-0.7362990341025685,4.0,0.4939238635055781,0.49539605077281473,0.38459948900395013,-0.7237435680959874,0.2987945712564057,-0.23767711530495733,0.5748274877628098
17.8,-5.979743293572188,-1.1945846916801215,-2.665082212681386,-0.11382485908495044,0.0437389893213744,0.1877025241771204,0.0015833407727225224,0.1642996488682103,0.9864092040591415,-1.7158851623535156,-1.8485165120926625,4.144963924136006,0.18947088493611272,1.3602740208767283,-0.7362910768606898,4.0,0.4939281401829824,0.4954005270633786,0.3846030438459224,-0.7237341642624979,0.2987954726873799,-0.2376656846768516,0.5748435850802129
