xiamingqian9007/apple-picking-rnn/testing_data/grasper_20191127_133312_noimg.csv
,/manipulator_wrench.fx,/manipulator_wrench.fy,/manipulator_wrench.fz,/manipulator_wrench.tx,/manipulator_wrench.ty,/manipulator_wrench.tz,/ground_truth.x,/ground_truth.y,/ground_truth.z,/joint_states.elbow_joint,/joint_states.shoulder_lift_joint,/joint_states.shoulder_pan_joint,/joint_states.wrist_1_joint,/joint_states.wrist_2_joint,/joint_states.wrist_3_joint,/mode./mode,/manipulator_pose.x,/manipulator_pose.y,/manipulator_pose.z,/manipulator_pose.rx,/manipulator_pose.ry,/manipulator_pose.rz,/manipulator_pose.rw
0.30000000000000004,0.1958616517243798,0.2793973591278616,-0.3763207427163078,0.0027945588102106763,0.002712095589227522,0.017855557972278762,0.037492280570457524,0.08896281420175928,0.9953288642438377,-1.5812348774575038,-1.7097929477901435,4.179987930831889,-2.9795353314965616,-1.331708373018786,2.6078929045579313,1.0,0.4584094587941712,0.4713094429599838,0.35940567341887764,-0.6122659857659984,0.3449714793211385,-0.18181224244532296,0.6878003704753135
0.4,-0.15980414556801045,-0.40394731703842984,-0.44435950501580557,0.006639538105426168,-0.016336453558790362,0.026497810224847273,0.037410531355020184,0.08845687682729275,0.995377094589282,-1.5778647179423637,-1.7127453679219584,4.1793764694681705,-2.9800646717629196,-1.332538906727926,2.6078934164317147,1.0,0.4586363767922359,0.47159371457666555,0.35941233443948994,-0.612278172308067,0.34494993926209117,-0.1817931084655685,0.6878053829627961
0.5,-0.0691390154201489,-0.08893609086233364,-0.3383302694805238,0.0049996720761302064,-0.008955518477376242,0.023241188193910838,0.03737839378805072,0.08839364149264839,0.9953839729214584,-1.5735640026112856,-1.7166250618279555,4.178474260548151,-2.9806879331341904,-1.3331925047951063,2.607905864715576,1.0,0.45925569134143224,0.47225021325785965,0.35941489318973624,-0.612291997936607,0.3449352969872952,-0.18176029212046435,0.6878090915096777
0.6000000000000001,-0.01629523590446691,0.22817891612607488,-0.43639133180788753,-0.00698312760554369,-0.0017321595031953483,0.02041090371964426,0.03739927098282807,0.08880347536434571,0.9953466626971395,-1.5692541650048526,-1.7198966187525326,4.177766280327138,-2.9812290412237075,-1.3338449637042444,2.60794182120568,1.0,0.46046357223236567,0.4734402191248934,0.3593180384488568,-0.6123433120767792,0.3449801682081361,-0.18181263323934177,0.6877270665696552
0.7000000000000001,-0.03960044423551423,0.24050372046873134,-0.4476706142946573,-0.0001218897060916227,-0.0037478107325665494,0.02006008436309641,0.03742014817760542,0.08921330923604302,0.9953093524728205,-1.5654473862483584,-1.7234622496200427,4.177041202983637,-2.9818141493918975,-1.334657663581227,2.6079182624816895,1.0,0.46128806906057873,0.47425136141138446,0.3594714974967821,-0.6122347146307526,0.34499178204499414,-0.18184826495865686,0.6878085002774729
0.8,0.13700172607887148,0.046077199035267025,-0.39360132851499685,0.0032711268838422807,-0.011957107973445232,0.014131835936281053,0.037390750227527164,0.08874577462038476,0.9953520759352061,-1.5614960425964013,-1.7265598293422768,4.176279845503979,-2.9824008572775598,-1.335477654133932,2.6079297065734863,1.0,0.4621641258767569,0.4751690116130859,0.359522902226096,-0.6122089494732885,0.3449789927199539,-0.18181738369079828,0.6878460116585483
0.9,-0.14723030453027064,0.16503226897648132,-0.2585469033619805,0.0028951173730339644,-0.003442500728468534,0.013775454947392143,0.0373600250079752,0.08825507737806851,0.9953969122959143,-1.5576282292210584,-1.7298309745039462,4.175662906369449,-2.9830587814617537,-1.336203392070103,2.6079421043395996,1.0,0.46333017091988005,0.47640788727959826,0.35947099823471923,-0.6122708029626823,0.3449555324256506,-0.18176675403569714,0.687816103050586
1.0,-0.34560267239158415,0.3373626764444714,-0.3724994692278083,0.008353143777442213,0.004018125849561875,0.012140534605001797,0.03735200520088109,0.08819719533692126,0.9954024027920821,-1.5538772404916101,-1.7330073829814578,4.1749348640441895,-2.98365332609315,-1.3367614392236726,2.607977116467636,1.0,0.4641859561801309,0.47731040281054393,0.35951221695505536,-0.6122734904257912,0.34493222604994817,-0.1817544413746698,0.6878286526415046
1.1,0.21849546030934291,-0.056395388644274715,-0.22536595680685756,-0.0011485772793424635,-0.006855143458846828,0.01389124501162663,0.03736997702642131,0.0886347710959007,0.9953628527826562,-1.5502833421451194,-1.7359530652341875,4.174249658077874,-2.9841607514544553,-1.3373145208021315,2.60798978805542,1.0,0.4653814119027105,0.47846845493649953,0.35952431930899503,-0.6122580984200555,0.3449755002524924,-0.18179102899330404,0.687810981972632
1.2000000000000002,-0.13347428620899954,0.33343575214548876,-0.25433967017496045,0.001861173973103539,-0.0042414425252063044,0.014394922412073501,0.03736716354929316,0.08881133933480179,0.9953472902166073,-1.5470327592117694,-1.7388547251667728,4.173645614786135,-2.9846998268538356,-1.3379729429828089,2.6080185997596934,1.0,0.46608825757194416,0.47912860559977866,0.3595816126469741,-0.6122085983353032,0.3450016323266074,-0.18183568628096253,0.6878301309269834
1.3,-0.2989773399568179,0.2986004955650277,-0.3098503478556781,0.0037143430340867613,-0.0013808161358586628,0.010522376618510864,0.03733982071448427,0.08867988478858789,0.9953600359503137,-1.5435711918441524,-1.7418036998133397,4.1730826201719715,-2.9852237224554483,-1.33860393870502,2.608002185821533,1.0,0.467242864512044,0.48035050713564476,0.3595087127701596,-0.6122657057028944,0.3449754901142349,-0.18182834579833546,0.6877943511725153
1.4000000000000001,-0.09437386027006672,0.04935374597605907,-0.43560350461683384,-0.0003001281006148179,-0.005306258356446742,0.008677666438026982,0.037255413177910944,0.08832494459762687,0.9953945674934234,-1.5404173461214212,-1.7444336166421506,4.172432804365438,-2.9858085281904083,-1.339301506415223,2.6079845800221757,1.0,0.4677636174221663,0.48089108927254787,0.35952065699859675,-0.6122386902328129,0.3449992778301208,-0.18180513504149035,0.6878126033675527
1.5,-0.01347829342768319,0.4664707119934447,-0.3314964997778042,0.0008398424011732452,-0.002512705964600917,0.0063303492020980855,0.0371005966174471,0.08769425765580845,0.9954559793588217,-1.5372244134033926,-1.747290057125952,4.171836472121922,-2.9863547026110115,-1.3397592913369905,2.6079811365928878,1.0,0.46850191349779224,0.48165569616187387,0.35955926273822364,-0.6122525435304786,0.344958911110065,-0.1817834330907909,0.687826254253168
1.6,-0.0922327519761801,0.5010061038132224,-0.3398314001792845,0.009334778877800695,0.0006835947473165394,0.004821843808660465,0.03694578005698325,0.08706357071399001,0.9955173912242199,-1.5340908980475598,-1.749564005096874,4.171411537132611,-2.9868819825622532,-1.3402240131835221,2.6080016861339903,1.0,0.46928182848952543,0.4824272018664084,0.35944137411246496,-0.612316306417255,0.34499496744235153,-0.18180310899677782,0.6877462052923935
1.7000000000000002,-0.23443017075629768,0.34437276355439955,-0.399141751389971,0.0033534601339532365,0.003158846628459575,0.00017614283509115574,0.03702147565848118,0.08761792605179337,0.9954658636600342,-1.5311044344769484,-1.7521559539233382,4.170922875665884,-2.9874264395971237,-1.3406800766736235,2.6079803901288314,1.0,0.47020387443617306,0.4833346421612571,0.35957254539645084,-0.6122325089040699,0.3450161422588668,-0.1818363248007509,0.6878014012814988
1.8,-0.21267624539307706,0.41689849721531563,-0.16429553741260586,0.009269812182084529,-1.552409216214495e-05,0.0030583886877153963,0.03714192818809297,0.08809802667867127,0.9954190816207039,-1.5282211907700076,-1.7545125967452624,4.170467677090895,-2.9879016320006384,-1.3411788666385729,2.6079950622782437,1.0,0.4708373680216932,0.48401290476579223,0.35958423822984326,-0.6122449927909639,0.3450110775026485,-0.1818425324316501,0.6877911882262655
1.9000000000000001,-0.12207829281460354,0.22979210865911198,-0.3743737811217649,0.008554830111366655,-0.0015031082129673256,0.005895713496241299,0.03730091840303996,0.08836780376081527,0.9953892156631895,-1.5253132848983777,-1.756603857079977,4.170018092866458,-2.9883872933661397,-1.34173348958495,2.6080171895970476,1.0,0.47156354389453975,0.4848180076707209,0.35960774127881884,-0.6122644295211126,0.34497270755744747,-0.1818155045098485,0.6878002774814064
2.0,-0.15850776860504404,0.3109640040044965,-0.33900285872903985,-0.0022201267424695878,0.0025309115864402027,0.004038247176604038,0.037397726656611126,0.08853184048729303,0.9953710478525475,-1.5226809247495292,-1.759175875028913,4.169535460301869,-2.988859342393164,-1.3421953360186976,2.6080232083389054,1.0,0.4721535681541549,0.48544841440785225,0.3597743281503832,-0.6121798641404567,0.3449238851808812,-0.18179589943450353,0.6879052102735508
2.1,-0.46067879877572443,0.16664589672176883,-0.34513465073394606,0.007844543327314308,0.0034998781334104026,-0.0007154385008696406,0.037408186711457854,0.08854904219856313,0.9953691245264551,-1.5199450889754946,-1.7610923776588119,4.16910652774633,-2.989347569322851,-1.3426817377589775,2.608067484673294,1.0,0.47298921630314283,0.4863093496977208,0.35961354881875446,-0.6122716843827969,0.34495029886234424,-0.18178484192004904,0.6878131629054034
2.2,-0.20758834791073955,0.29919055977983106,-0.4250679522261114,0.0057788012117665575,-0.0009424336045677027,-0.00034813653513979595,0.03741864676630459,0.08856624390983323,0.9953672012003627,-1.5174531299378717,-1.7633129646880843,4.168664982789371,-2.989817944281889,-1.3430696103541209,2.6080532030013663,1.0,0.4734480354946388,0.48677107420902443,0.3597002632324968,-0.6122196137069089,0.3449511411661204,-0.18177685341774943,0.6878611999250259
2.3000000000000003,-0.13493875989756737,0.2251434941757233,-0.22233685241842632,0.014216970573082664,-0.0026226658726996783,-0.003955308265500751,0.03746365087734377,0.0888634175328132,0.9953389421127073,-1.514984292235029,-1.765360017816061,4.168223138978999,-2.9903121495952094,-1.3434595035631487,2.6080465232274737,1.0,0.474131889286548,0.4874693181065304,0.3596183106734607,-0.6122765609400007,0.3449715577204422,-0.18178046203704654,0.6877993173222952
2.4000000000000004,-0.07430399150754893,0.20617863671570302,-0.3926415985670485,0.014057138850775565,-0.0004894308499684978,0.0010905546850758317,0.0375120464332321,0.08918807806389063,0.9953080974490444,-1.5124719982801862,-1.7672992026717544,4.167827129364014,-2.9907470440408686,-1.3437990095619563,2.6080891105447694,1.0,0.47460731933174777,0.4879209604891857,0.3595636499349683,-0.6123085881305461,0.34500205813163554,-0.1817895785554479,0.6877530966234511
2.5,-0.053892578059548814,-0.0686431270061568,-0.23340140676244536,0.013462787332578852,-0.00477011971721129,0.002020407724787506,0.0375598952714644,0.08951285665759263,0.9952771527194001,-1.5102930287464889,-1.7692543789683919,4.167375233143307,-2.991183441723868,-1.344187084828512,2.6080636763119194,1.0,0.4752485635113562,0.48858112880448423,0.35969870824168304,-0.6122340106389853,0.34499142607686156,-0.1818109036176226,0.6878191822536646
2.6,-0.020194064299274714,0.06242209466895446,-0.20401428553813333,0.01246208612240504,-0.005098960005740195,3.788508579057395e-05,0.03760692978364361,0.08983781110343701,0.9952460589432879,-1.5077021562271697,-1.7711068922200006,4.1669881656322465,-2.991571256637076,-1.3445401091919602,2.6080533752040718,1.0,0.4757632484636579,0.48907985557003203,0.3596595265456481,-0.612253050124681,0.3450053478519107,-0.1818273017943431,0.6877909165500778
2.7,-0.10144411128641138,0.49229279117093117,-0.36048042035523975,0.009948099215038734,0.0008939218751549431,0.00015712911274656967,0.037653964295822816,0.09016276554928139,0.9952149651671758,-1.505755500879668,-1.7730554267792065,4.166650236161325,-2.9920211640115655,-1.344952826208343,2.608062267303467,1.0,0.47638541867118606,0.4896810847581104,0.3596593206789843,-0.6122490807045947,0.3450118830727502,-0.18184179222636598,0.6877873409091482
2.8000000000000003,-0.2018388298262181,0.3434964217914063,-0.318393789138514,0.009138667682103528,0.002810343501036029,0.00374724667019538,0.03749044798488395,0.08951693047097567,0.9952792796705826,-1.5034339730824298,-1.7746998420915536,4.166353702545166,-2.992422888845914,-1.345292716205255,2.608067110024987,1.0,0.47701933230914595,0.4903088361894367,0.3596154558558828,-0.612271815104896,0.34502601989597687,-0.18184690157753503,0.687758660003309
2.9000000000000004,-0.11678906543217688,0.0649118479649359,-0.40604999442640477,0.008016794015795475,0.0008515144336997806,0.0006485781772864031,0.037433566196290013,0.08920214361599482,0.995309814249372,-1.5013197280440214,-1.7764391350428181,4.16603081323354,-2.99284194840605,-1.3456265686074593,2.6080838315180106,1.0,0.4776753103583835,0.49104573092881415,0.35977072880734917,-0.6122139254212611,0.34497944929401286,-0.18182237012572725,0.687840035769185
3.0,-0.3168790758860209,0.2991974085269979,-0.28875492584630214,0.008257843410213364,0.0019172080663179987,0.0008825486646387576,0.03758647396482603,0.08959878421436196,0.9952684474490416,-1.499353202133964,-1.778287007713749,4.165716984381673,-2.9932188320307245,-1.3460207945204705,2.608053142597284,1.0,0.4779206387686398,0.491305780828034,0.35975087176457726,-0.6122307847168281,0.3449768441443714,-0.18181624121040335,0.6878279564551937
3.1,-0.15827264480969883,0.3232203891768883,-0.25441730123145545,0.0051871270958717,-0.0003744188317830045,0.004732702361583103,0.0375193620683968,0.08917529001899376,0.9953088762897058,-1.4973389439027422,-1.7796217293584533,4.1654111234768525,-2.993612861452671,-1.3462961466015493,2.6081052046923148,1.0,0.47835260797952306,0.4917801345651963,0.3596274854248072,-0.6123002749002775,0.34498151103244684,-0.18181105235057507,0.6877651282567261
3.2,-0.12491329653692408,0.1911178958614334,-0.3209347307782199,0.011907530506819574,-0.00401706933907629,0.009857104098630238,0.03741995308042814,0.08863140672789571,0.9953613120630465,-1.4954277222643997,-1.780989786187643,4.165131092071533,-2.993996437516485,-1.346574235724152,2.608099542851785,1.0,0.47894674603267373,0.4924078630694965,0.35972484123935256,-0.6122663119981735,0.3449575754158183,-0.1817927633378148,0.6878122022422958
3.3000000000000003,-0.06768977751059047,-0.10266246584683938,-0.2424310299091233,-0.00013995622089914414,0.0014365980279951592,0.002167812804756522,0.03791705659643049,0.09053624154633588,0.9951694946767806,-1.493524251343138,-1.782749825873298,4.164870143409004,-2.9943715557219805,-1.3468460160863056,2.6080636375018504,1.0,0.47929747038954,0.4927761724804037,0.3598594894409251,-0.6122035402570083,0.34493650384135405,-0.18178700957615013,0.6878801616298074
3.4000000000000004,-0.07204960650129782,0.02300250681903021,-0.26205652367203097,0.004384388875673514,0.0021066065049096436,0.003853257626896352,0.03819456134441199,0.09164894388576997,0.9950580470304156,-1.4918537138506422,-1.7843214020550517,4.164584984771437,-2.994685183695352,-1.3470610278765742,2.608088107362538,1.0,0.47967661138241047,0.49317469617124804,0.35978803920127794,-0.6122403555011411,0.3449593719313969,-0.18179479545790098,0.6878338688643884
3.5,-0.11952534523552315,0.3665298867250266,-0.32109498945827475,0.015009265719631248,0.0013331101028292956,0.0027624774244721113,0.03789635866411195,0.09059843043838538,0.9951648572615287,-1.4900640571861667,-1.7854635328476736,4.164323269483768,-2.995049521522605,-1.3473662852362878,2.608097553253174,1.0,0.48017879397793045,0.49368534273458353,0.35968091282467746,-0.6122912400929699,0.3449955296589545,-0.18180381067859708,0.6877680541021742
3.6,-0.10627030319200692,0.2718321528140603,-0.12014313900073048,0.006942070906132305,-0.0015019775461695929,0.004047978102339702,0.03759815598381191,0.08954791699100079,0.9952716674926417,-1.4881954351788131,-1.7866856060423792,4.164051532745361,-2.9953659886510238,-1.3476135653645969,2.608100643991701,1.0,0.4807488764756302,0.494237400190714,0.35979425024232825,-0.6122300888088897,0.34498666509188447,-0.18182558615064523,0.6878211798765818
3.7,-0.016625601043182378,0.1685094720808191,-0.1644304678700788,0.00187896032241322,-0.0012315437559322008,0.004562193092930204,0.03744891063025438,0.08901961255835551,0.9953255096551613,-1.486750255117822,-1.7881779371287727,4.16375607220096,-2.9956905836700476,-1.3478850462372196,2.6081305936329255,1.0,0.4809107554870182,0.49442961475431774,0.359967541901196,-0.6121395657878411,0.3449433984232768,-0.1818147552397072,0.6879263032174299
3.8000000000000003,-0.008493476543235838,-0.027916288880173508,-0.3229535940219693,0.0026362952516405134,-0.003799091100079697,0.006837819492238099,0.037583070945699314,0.08948486110103418,0.9952785749626994,-1.4852895868937526,-1.7895988355689294,4.163521303049758,-2.9960246393160306,-1.3481392329920703,2.6081115731848925,1.0,0.48142791159563925,0.49497504155883615,0.3597849277081,-0.6122435816923176,0.34497454079369544,-0.18180010532097,0.687821986117066
3.9000000000000004,0.03491497574628093,-0.13534825202627945,-0.3189162270289678,-0.0020690454207959036,-0.004284626952917897,0.008259623331844127,0.037717231261144256,0.08995010964371285,0.9952316402702377,-1.4834408922322135,-1.7907018783833968,4.163336685988339,-2.9963163773294994,-1.3483784050819905,2.608113849798562,1.0,0.4816964997811505,0.49525957447741076,0.3596255385751013,-0.6123454111082433,0.34499907348636855,-0.18179620537789135,0.6877200567806812
4.0,0.03580907181455126,-0.1869149642680102,-0.32874881802026956,-0.0010473431981205712,-0.005609540977118728,0.00945650676098415,0.03781043453732378,0.090268842989132,0.9951994305777407,-1.4819333700006991,-1.791755815545553,4.163087956723284,-2.9966698529112006,-1.3486170432414257,2.6081062476258827,1.0,0.48205662383009407,0.49563734834372825,0.3597904352877082,-0.612260610207253,0.3449609339708799,-0.18180305729308685,0.6878128725034643
4.1000000000000005,-0.08709539365780232,-0.08010529480161838,-0.34070863474640395,-0.0006062632662748816,-0.0015844777510415561,0.008411613874737559,0.03782135957968601,0.09029324325105403,0.9951968018073954,-1.4806887584083792,-1.7931289877241603,4.162793345963311,-2.9969757463949223,-1.3488537036173984,2.608106176356049,1.0,0.4823925571255194,0.49595641703038407,0.35990783717689745,-0.6122019593361007,0.34494328878480224,-0.18180240113767548,0.6878740985441589
4.2,-0.3318256712855807,0.07179128982825528,-0.3581258036158052,0.01031273311688788,0.002821309315275767,0.005731025028900747,0.03777109311775842,0.09009156093683571,0.995216810861525,-1.4790901038288904,-1.794451045826254,4.162568412021033,-2.997268574940152,-1.349078317884836,2.6081337720113917,1.0,0.4828575598732521,0.49641583044289783,0.35976267654272565,-0.6122789180864578,0.3449776791434121,-0.18180054936085066,0.6877888394062487
4.3,-0.23098375427671397,0.10151765386623933,-0.4891320266111768,0.010839649924680127,-0.0008636416535542949,0.004375395722768698,0.03758999649675678,0.08940650401459634,0.995285220591721,-1.4773978567297996,-1.7955268846497343,4.162356832827983,-2.997594516470011,-1.3493256326711107,2.6081210482426034,1.0,0.4831639314590635,0.49674699584641163,0.3597165799129109,-0.612311953793854,0.34498245820547474,-0.1817988858276805,0.6877574717031256
4.4,0.00793232131299465,-0.03868886450622497,-0.2987144886811214,0.008166948307505553,-0.0045219540523752915,0.008029810306846602,0.03740889987575514,0.08872144709235696,0.9953536303219169,-1.4760095160794253,-1.796687817404252,4.162083299219106,-2.9979037086057474,-1.3495819453050182,2.6081295304713747,1.0,0.48365228619681533,0.4972438854933856,0.35987342104751996,-0.6122279423285292,0.3449635487354013,-0.1817970295282028,0.6878422324419861
4.5,-0.040399417447214946,0.12255488315036879,-0.3296083750362624,0.003336772981913566,-0.0026214841603356288,0.003661980521930016,0.037232063608639725,0.08817345306318938,0.9954089239108528,-1.474678118647527,-1.7978931679911492,4.1618399015265055,-2.9981984430213258,-1.3498003180332756,2.6081461906433105,1.0,0.4838286585988636,0.4973989776030242,0.359884731912682,-0.6122254070442179,0.3449590789771357,-0.18181368765883976,0.6878423277035822
4.6000000000000005,-0.03096544292441441,0.021905129027215947,-0.23972947260093652,0.007227615601962492,0.000810031279979153,0.007318696744300409,0.03705626218303739,0.08765875166074714,0.995461031584292,-1.472953392306404,-1.7990797594985524,4.161635878925592,-2.998475889697716,-1.3500101279935846,2.608114722614557,1.0,0.4841658628065532,0.4976971035236682,0.35979922383837465,-0.6122664022008988,0.3449964776095883,-0.18182261436106256,0.6877847192834778
4.7,-0.23938051332033686,0.18632287410254217,-0.3183349767732176,0.009420671096467237,0.001587809159843242,0.0080735694209669,0.03697297908046342,0.08736591858681694,0.9954898629839555,-1.4714414737081485,-1.8002856519562114,4.161393371821496,-2.998808219705235,-1.3502053983584124,2.608141758692562,1.0,0.48453809939013953,0.4980687075747616,0.3597961083606206,-0.6122585123157842,0.34500897837400396,-0.18182241929216011,0.6877855238233315
4.800000000000001,-0.24751056084995277,0.3141788689530482,-0.18212764156665537,0.011565261834191093,0.002097583830490184,0.008701725887746354,0.036913783483665856,0.087130849796433,0.9955126343150761,-1.4700051797613771,-1.8014256507437643,4.161216262503022,-2.99914612392568,-1.3504136244403284,2.6081652606293027,1.0,0.4850014909025045,0.498549379459808,0.35986553441235525,-0.6122210562072723,0.3449963061561756,-0.18183012786134287,0.6878231834395915
4.9,-0.3497780353134394,0.278778522981051,-0.23449113243468664,0.010929708502496065,0.004549796830648079,0.0038815632714418492,0.03685458788686829,0.08689578100604906,0.9955354056461967,-1.4685022358527762,-1.8027362280148753,4.161000445379799,-2.9994316973873536,-1.350617512264785,2.608161928704269,1.0,0.48528243426038475,0.4988323356918471,0.35988545493826635,-0.6122137799908005,0.344990491750871,-0.18184116438842984,0.6878296585090875
5.0,-0.19036372997251844,0.41025516603293394,-0.28505327066132463,0.010901588728201093,0.0013680900880435442,0.004328812161031374,0.036831151262016235,0.08681409612756247,0.9955434417689795,-1.4669114484211645,-1.8039942093497758,4.160760823524614,-2.999735129800037,-1.3508172288391436,2.608171473272305,1.0,0.48573402896880463,0.4993540451016192,0.35978526472478994,-0.6122868330305498,0.34500201326530133,-0.18180644370650836,0.6877680291836055
5.1000000000000005,-0.21092381448032013,0.37025579173259204,-0.21316333385918743,0.006719866049416489,0.002632957220777041,0.009341186176743777,0.036898228206486375,0.08712065857798636,0.9955141799430569,-1.4654281024540465,-1.8051226299182006,4.160544507228128,-3.000111299910832,-1.3510814233970605,2.6081505939590848,1.0,0.4859830739267,0.49961207864562684,0.3597769926923736,-0.6122903644939144,0.3450114297036901,-0.18182274195188713,0.6877558530691124
5.2,-0.1309335898159099,0.14911614597017742,-0.3370203999288291,0.007998933021527207,0.0006549410585834519,0.00761012324802023,0.03703027430922865,0.08762601029017934,0.9954648383128546,-1.46385937299944,-1.8061849559527947,4.160339558093881,-3.000419481763213,-1.3512822130496636,2.6081783203919233,1.0,0.48625463019477555,0.49986914169166574,0.3598316634756116,-0.6122681400546942,0.3450091809627297,-0.18182800878156563,0.6877753739033714
5.300000000000001,-0.06128732620740681,0.13015972153513575,-0.42813200444117716,0.012401911148319674,-0.001430395301413579,0.006941604235800903,0.037127357680836165,0.0879685985680782,0.995431084848234,-1.462270630088525,-1.8075063303239713,4.160111563099943,-3.0008002973522574,-1.3515284443914366,2.6081607301965897,1.0,0.4865670680020155,0.5001900300707361,0.359914236410187,-0.6122340200056796,0.34499487794144185,-0.18182390211773325,0.6878140065166859
5.4,-0.1731294735957163,0.3538349445842006,-0.2542056664182609,0.012867471875355812,-0.000603763014698683,0.007890898437655398,0.03706945584306643,0.08767749066806876,0.9954589038167275,-1.46085298026717,-1.8089451856343521,4.159908175121906,-3.0011097393431605,-1.351739883322862,2.608147864161536,1.0,0.4869932260702658,0.5006545321106551,0.3599054675741262,-0.6122476926839702,0.3449876507286698,-0.18181815778090643,0.6878069795727765
5.5,-0.2051857835272569,0.29476062649298995,-0.386626561948266,0.01181718903393382,0.0006236972424059858,0.010647721841625836,0.03713544995553488,0.08787942218450402,0.9954380072927101,-1.4593428152070629,-1.8099756336882313,4.15969624347824,-3.0014183558990126,-1.3519472624133728,2.608155765807886,1.0,0.48739455617591765,0.5010885379469865,0.35975598686009314,-0.612330441622513,0.34500517418182014,-0.18181180933730479,0.6877261999049077
5.6000000000000005,-0.1254512628902476,0.4751601193715853,-0.6611134065022055,0.008075270327526933,0.0035430441122857414,0.005212941179447619,0.03757242210800192,0.08955764728441047,0.99527124338647,-1.457619986255711,-1.811015350561333,4.159475883318786,-3.001773022082635,-1.3521731513016841,2.6081735234911703,1.0,0.4876048234837641,0.5013229218583132,0.35980003615132344,-0.6123060757470388,0.34499547693043775,-0.18180538770687066,0.6877544558209389
5.7,-0.032235680229569144,0.4834900933684719,-2.403792985557539,-0.03929786076183884,0.00650471839355244,0.011544955881567117,0.03792958051800778,0.09090428450213721,0.9951370301037856,-1.456156998606743,-1.8121276833970648,4.159281253814697,-3.0020939428721443,-1.3524007216440308,2.608163322357058,1.0,0.487959994952952,0.5016526684223248,0.3599655503081221,-0.6122217486455724,0.34498170931764793,-0.1818158993016195,0.6878336495714458
5.800000000000001,-0.17745990073085346,1.2789833921099851,-3.5214919820547768,-0.07893174068598496,0.017786014481135155,0.006925456826963629,0.03803077485064339,0.09118751354337648,0.9951072072439703,-1.4547825369316945,-1.8136000192959327,4.15908259602379,-3.0024372030218176,-1.352632505556621,2.608169027857124,1.0,0.4883081505405496,0.5020324474286636,0.3600955255282433,-0.61217781645557,0.34494817844337905,-0.18180801718044776,0.6878916485299111
5.9,-0.2015013089603558,1.4570595740898669,-6.541005671809487,-0.13802983278386055,0.014194850950763732,0.00986135462371122,0.03813196918327901,0.09147074258461577,0.995077384384155,-1.453242919825028,-1.8148570511921762,4.1588606569696385,-3.002812713148791,-1.3528586570739067,2.608130045488624,1.0,0.4888035734641118,0.5025773132061874,0.3598142525353138,-0.6123210213539084,0.3449875433537294,-0.1817851527693402,0.6877504779871061
6.0,-0.029715826712079396,0.9394264221747377,-5.332818681715104,-0.12410981967395036,0.020510807446993715,0.0059529650116786695,0.03830052367713293,0.0920247233525056,0.9950195521057301,-1.4514487494263604,-1.815879684601004,4.158621311187744,-3.0030805017864086,-1.35306813095255,2.608139617881297,1.0,0.48904012915700795,0.5028328380192415,0.3597531489668671,-0.6123612511273768,0.34499629563879397,-0.18178075540946897,0.6877114300896756
6.1000000000000005,0.45954550823204565,0.9045044917123158,-7.261448969901133,-0.1529973589498492,0.0425413343907184,0.008890129288036073,0.03849403779019698,0.09267902840518721,0.9949513412235407,-1.4501028060913086,-1.8168718765702936,4.158453372203208,-3.0035158596434535,-1.3533176588846687,2.608170178650563,1.0,0.48938994644777106,0.5031894805121091,0.3600388403366332,-0.6121859356749519,0.3449454025621776,-0.18178596887539572,0.6878916418543221
6.2,0.2139221339100908,1.14139699832682,-9.267221799333132,-0.18472705499061037,0.05443729625986349,0.00723081727349016,0.03869502963507644,0.09340798236123117,0.9948754271673561,-1.4487214511258626,-1.818082526206517,4.158205617824613,-3.003934208789431,-1.3535211656699713,2.608174439204834,1.0,0.4898353341789847,0.5036363703198168,0.36006353553785564,-0.6122380154977148,0.34494482822438044,-0.18178182772393717,0.687846672573196
6.300000000000001,-0.8072583663827826,1.3033449357169693,-2.320558207674781,-0.06366981834344523,-0.009419551788795852,0.0017290373913443021,0.0389227185765948,0.09440344881548304,0.9947720111378928,-1.4468918506949795,-1.8195675601182213,4.15796755950025,-3.004021248947736,-1.3537371794330042,2.608199111624273,1.0,0.49016081072677714,0.5039541716581079,0.36000737936506644,-0.6122651940536055,0.34496200846219904,-0.18179488080798545,0.6878104144168192
6.4,-0.15150947993594516,1.0187702221367103,-1.99085884110849,-0.05828252092924867,0.02462069415940998,-0.0006335992121436112,0.03915040751811316,0.0953989152697349,0.9946685951084295,-1.4452881643132063,-1.8209218442017379,4.157741813513825,-3.0045024542039003,-1.353934799970693,2.6081917200960563,1.0,0.4904385516526253,0.5042513979500811,0.3600357392284787,-0.6122104630640046,0.34495232382655,-0.18179949041617927,0.6878627686435994
6.5,-0.23019418399671585,0.6065559560936775,-2.9827162632128497,-0.09058972186316204,0.01994885354444787,-0.008891665631386006,0.03924410569176382,0.09584231635080658,0.9946225766246793,-1.4440373452877036,-1.8218457127095262,4.157501942744753,-3.0048381500680916,-1.3541198554515117,2.608206272125244,1.0,0.49083597440389787,0.5046589472378389,0.35994538186635255,-0.6122566509065048,0.34498123207049136,-0.18180321455252552,0.6878061748183457
6.6000000000000005,-0.0374400906193607,0.6490425968047506,-3.280272533452637,-0.10981463158777216,0.014838692773197017,0.0015604831051512736,0.039283008307362415,0.09605995015935614,0.994600030881613,-1.4424352645874023,-1.8229976308801823,4.157270810599142,-3.0051631132148864,-1.3543499151812952,2.608220139619673,1.0,0.4912096262903853,0.5049993106601436,0.35992441886505494,-0.6122882811506827,0.34498941042846437,-0.18180295547940353,0.6877739838324195
6.7,0.18804455854272328,1.6344240079150898,-4.7292687800296935,-0.16149289184739524,0.040540947263356025,0.003035416154230239,0.03932191092296101,0.09627758396790571,0.9945774851385465,-1.4407738858870534,-1.8243214951889242,4.157072591079807,-3.0054360398389903,-1.354564487961127,2.6081863699876755,1.0,0.4914781401404725,0.5052631134264232,0.3600022770061474,-0.6122524495915367,0.34498743951516553,-0.18180900285026463,0.6878052711549434
6.800000000000001,-0.2714580445715977,0.6687789897298367,-3.6471604768097343,-0.11115684127057669,-0.006785983882745664,-0.013714443588294383,0.03968374199794118,0.09774564409365749,0.9944186968756134,-1.4392534825091583,-1.8256086998457797,4.1568530916635105,-3.005794648221479,-1.3547972184384227,2.608200657420962,1.0,0.4918938340097678,0.5057019293391678,0.3600342765811041,-0.6122339229695027,0.3449870142359081,-0.18181870235888084,0.6878194116528691
6.9,0.35934020793924254,1.9408794449399953,-4.51248003659223,-0.16625182157176596,0.03952810870238259,0.0009275954791637508,0.040099876428983945,0.09941607503563443,0.9942376079077634,-1.4378031635873951,-1.8266821201790922,4.156606442011145,-3.006204639533339,-1.3550093809710901,2.608206272125244,1.0,0.4922563013327295,0.5060602962613526,0.359986059640237,-0.6122426598499414,0.34499648076172695,-0.18182450905510494,0.6878053515557744
7.0,0.36854813088887034,1.7187124758219707,-4.928652626166819,-0.17043052693966204,0.04070866729566906,-0.0018658116164558395,0.04015769798587339,0.09966551450218833,0.9942102795909941,-1.436173039247728,-1.8278497575805799,4.156405027355475,-3.00659241298818,-1.3552089620315373,2.608211528500354,1.0,0.492630713220971,0.5064280198053092,0.3599724126076431,-0.6122588578483875,0.34500834973087713,-0.18181167616740052,0.6877883715296189
7.1000000000000005,0.440975371377619,1.3651457926906472,-3.215205410976375,-0.11543473900479337,0.05082044510359902,-0.0059819680119663505,0.04019690798936817,0.0998280385430072,0.9941924103320081,-1.4354188995640569,-1.8284150562682093,4.156297206878662,-3.006700086647162,-1.3552935515055855,2.6082008774024485,1.0,0.49291912199604493,0.5067103610492724,0.36004576344814326,-0.6122310943681903,0.3450065373479761,-0.18182543381203345,0.6878103575077607
7.2,0.35700896620867856,1.3748577350482623,-2.7482823892698365,-0.12406178220610213,0.0343095078594833,-0.001086998052692469,0.04015325925863839,0.09960361464840797,0.9942166528483404,-1.4354028291994976,-1.8284443803920194,4.156301475200885,-3.0067390363300692,-1.3553500797592068,2.6081733785298447,1.0,0.4930869949946669,0.5068666527744621,0.360054120207133,-0.6122288252576336,0.3450006171730413,-0.18183966522121772,0.6878115845390466
7.300000000000001,0.2501046548521577,1.6812940986265181,-3.1536645791597433,-0.1309075214681231,0.03471901615543561,-0.0037293492021732424,0.040109610527908617,0.09937919075380876,0.9942408953646727,-1.4354331135328782,-1.8284335961505163,4.1562988225336435,-3.006764716697458,-1.355319947807906,2.6082346081312666,1.0,0.49315453806797144,0.5069516244076508,0.360058072163876,-0.612232996734215,0.3449856721311526,-0.1818314092865868,0.6878175501765811
7.4,0.2924651548467082,1.1494605465428722,-2.8298574931841003,-0.11926999610232909,0.030444887092779253,0.003481011416249914,0.040069700823144226,0.09920805557671614,0.9942596001204044,-1.4354334744315231,-1.8284814733703731,4.156290344359276,-3.0067221126952113,-1.3553326765643519,2.6082050449765806,1.0,0.49314809342316923,0.5069687750929608,0.3600480426137398,-0.6122364367216828,0.3449844742145215,-0.18182085675932788,0.6878178786194578
7.5,0.2938891673879091,1.4139531677098354,-2.9846493413903383,-0.11805887149777658,0.03131343429480812,0.0026364448821641004,0.04003159591189515,0.09906264237446032,0.9942756318499217,-1.435451251439977,-1.828498979608053,4.1563083948420765,-3.0067583523192347,-1.3553326765643519,2.6082242962421787,1.0,0.4931477801076315,0.5069882265779184,0.360012434022133,-0.6122521709253822,0.3449930543593931,-0.18180584404813965,0.68780353787319
7.6000000000000005,0.22736515878531763,1.513654601592354,-3.036455838668731,-0.12031658299936335,0.034442546608016975,-0.0034268527027278757,0.04009487481813364,0.09931219458118107,0.9942473407048222,-1.4354155742139372,-1.8284783839600975,4.156304346703287,-3.0067273706367,-1.3553294303543972,2.6082372538077787,1.0,0.4931525681517899,0.5069752216564949,0.3600005292343257,-0.612262823293253,0.3450027156192357,-0.181809214468799,0.6877883184254918
7.7,0.14460656878586237,1.5030136737475166,-2.8684662430587133,-0.12163018697371875,0.03656863580170196,0.0026501888723855834,0.04068824947341374,0.1016268641755229,0.9939873028371996,-1.4354236994901954,-1.8284926762088793,4.156297206878662,-3.0067412750286997,-1.3553207556353968,2.6082010883288884,1.0,0.49314414280159413,0.5069805118211058,0.3600232770870976,-0.612253518144392,0.34499132401428034,-0.18181176473095906,0.6878016415218147
7.800000000000001,0.1402001585340292,1.4510391987590934,-3.0391606609752215,-0.12149856098610047,0.03452965162110398,0.004337223157573381,0.041186439382810594,0.10356850902290081,0.9937692059605029,-1.4354145613368394,-1.8285289687076345,4.156292366615055,-3.006734863765073,-1.355344597493307,2.608218773174128,1.0,0.4931547096859592,0.5069764944944626,0.3600078761949864,-0.6122544791085417,0.34499760448312566,-0.18182341253170925,0.6877945568029432
7.9,0.12394124101844982,1.3659079586161913,-3.1141984999982615,-0.12125219802981992,0.03647444416396005,0.0013773955885236196,0.04115186288516624,0.10342226623310223,0.9937858604700285,-1.4354203889114028,-1.8284817845626968,4.156307755111464,-3.006726225080116,-1.3553071961377867,2.6081966197514364,1.0,0.49316026555017556,0.5069806034300067,0.35999848341750357,-0.6122501645669753,0.3450041686858445,-0.18180693158660316,0.687799461474175
8.0,0.18437576392474433,1.6282557105686384,-3.028799242272064,-0.11599765794640982,0.03605035052103062,0.004583722408134967,0.04107578465699346,0.10310670771555348,0.9938215540942339,-1.4354162216186523,-1.8284937864093926,4.156298802791562,-3.0067221126952113,-1.355322290167031,2.608187415738048,1.5594893050696945,0.49316376431237463,0.5069786559913052,0.36001133237758315,-0.612245276689712,0.3450038604176967,-0.18180849837188878,0.6878035529043038
8.1,0.340389423165821,1.281671903639944,-2.9528317563892807,-0.12563157468787178,0.03440461254389288,0.0049057347340402645,0.04075116737961985,0.10177717774539391,0.9939712661798363,-1.4354177859979365,-1.8285128011085767,4.156283656387953,-3.006741285706679,-1.355322385197151,2.6082074248498404,2.0,0.4931567038545877,0.5069842557835432,0.35999283352311096,-0.6122633135292319,0.3450010249965885,-0.1818020973451192,0.6877906113479776
8.200000000000001,0.18377854333820098,1.4154591059855437,-3.015583639739924,-0.12599419736158463,0.03249350732412685,0.005253874792865841,0.040467843509626227,0.10061946175803635,0.9941016425175208,-1.4353762966989252,-1.828492169958659,4.1563334465026855,-3.0067376509850767,-1.355327565284791,2.6082301139831543,2.0,0.4931435132915585,0.5069943481813547,0.3600236817568869,-0.6122540653447772,0.34498279604118687,-0.1818006192336657,0.6878083779299682
8.3,-0.0397188820610723,0.9402506592172918,-2.26222317183589,-0.09493673872915365,0.02050460795898017,0.010111157776620083,0.04044528013503484,0.10054672039774709,0.994109917059157,-1.435405811811628,-1.8285113773741664,4.156309037702363,-3.0067221126952113,-1.3553351332004109,2.6082281260240654,2.0,0.49314426234735853,0.5069821927849861,0.3600071877070817,-0.6122679481017043,0.34498365413637183,-0.18181258331400613,0.687792427011764
8.4,-0.250455317631943,1.1276307421532925,-1.5660155727746645,-0.08809415331976332,0.010288120288381487,0.008269377858200724,0.04042271676044345,0.10047397903745783,0.9941181916007931,-1.4354296170858205,-1.8285218237649083,4.156346841969854,-3.006711666304469,-1.3553259788307679,2.608206272125244,2.0,0.4931384063526129,0.5069938239698178,0.36000031946052846,-0.6122672382577582,0.34498453563353565,-0.18180926776127418,0.6877934931983875
8.5,-0.04089444482624127,0.8623753318092492,-1.1822958161517987,-0.07274364766954598,0.00806288913354363,0.010323456054947852,0.04053019551146325,0.10090263951303516,0.9940700652593906,-1.4354162216186523,-1.8285058118260165,4.156334713172499,-3.0066678595390415,-1.3553314586126084,2.6082101428844924,2.0,0.4931472859790229,0.5069927920031473,0.3600270850125149,-0.6122436488617572,0.34498483309885886,-0.18181056093310227,0.6878140005069574
8.6,0.03987057972911634,0.7316402348339057,-1.011666325458877,-0.07567998258774847,0.01510828997836033,0.00809304426390518,0.0407139078137733,0.10162523276148823,0.9939888754811229,-1.4354062552702622,-1.828516729984213,4.156309604644775,-3.006723805241231,-1.3553314608554903,2.6081955669051506,2.0,0.4931498630872256,0.5069923300895989,0.36004236830646236,-0.6122391182683788,0.344974307535754,-0.18181564163304767,0.6878219694512152
8.700000000000001,-0.13659106026260048,1.078587725209864,-1.0956826606402137,-0.08219067968607399,0.0022041251250235795,0.005508485881265093,0.04086775687786233,0.10223438057854957,0.9939204933063992,-1.4354146493597877,-1.8285113773741664,4.156352039832103,-3.0067397589898173,-1.3553274280358594,2.608206272125244,2.0,0.4931542723560665,0.5069942932050039,0.36002898088229024,-0.6122484025992945,0.3449735463248555,-0.18181958214201552,0.6878130453839676
8.8,-0.07419530515719959,1.204070909484785,-0.9513828294993254,-0.07063529388258757,0.0076134445606866365,0.009033016867001472,0.04080670428187803,0.1020271530463139,0.9939442771333246,-1.4354277019982329,-1.8285116751803916,4.156329735180804,-3.0067066231875237,-1.3553171870566643,2.6081982175812466,2.0,0.49314976530656884,0.5070036568366203,0.3600145906527927,-0.6122527517141668,0.3449703228219515,-0.1818151207836372,0.6878119701233623
8.9,-0.17329667606132973,1.172638585498086,-1.093262546675352,-0.08072324184985194,0.013492365190929084,0.009244554857379038,0.04077508626034138,0.10193009458608253,0.9939554727075152,-1.435403961694236,-1.828503949805001,4.156318918234684,-3.0067294869446526,-1.3553255346709236,2.6082013019282964,2.0,0.4931517569984519,0.5069920551628955,0.36003213935267786,-0.612238160761831,0.34498921622044765,-0.18181886471254236,0.6878144921657392
9.0,-0.25160761503935747,0.9474053386850657,-1.237243279156301,-0.09598126694472724,0.01064291393086629,0.011584388442385367,0.04096899220302307,0.1026771375378436,0.9938702186909572,-1.4354212213608626,-1.8285193867150775,4.156302623266057,-3.0067464313902796,-1.355344597493307,2.608212716474831,2.0,0.493161208363708,0.5069869853741015,0.3600427807340145,-0.6122293539044381,0.3449858730915899,-0.18182407067582512,0.6878226318665737
9.1,-0.31914463706785023,1.4631705002593718,-1.3475090834595849,-0.09460934288687055,0.009453399538301507,0.015982621496147244,0.041162898145704764,0.10342418048960468,0.993784964674399,-1.4354020170250372,-1.8285060819048606,4.156314492770289,-3.00674133959287,-1.355325847432806,2.6082009766559384,2.0,0.49315659028544134,0.5069864861514098,0.36003200652883854,-0.6122350808588921,0.3449916059871938,-0.18181328055053467,0.6878175111027163
9.200000000000001,-0.17235321518724495,1.548290699058797,-1.2932513367101652,-0.09891623810848334,0.009153508524987142,0.016121478952331812,0.041135009602398465,0.10332114368416112,0.993796893074889,-1.4354162216186523,-1.8285163644283962,4.156326235272972,-3.0067533652650047,-1.3553515313680322,2.6082201398746947,2.0,0.49315543402434514,0.5069835071892356,0.36001332384182805,-0.6122485959656017,0.3449985143954687,-0.18181367538568416,0.6878019113420797
9.3,0.003968367812710372,2.2805257805300467,-1.5291961260386062,-0.1547121065494506,-0.008580893917498517,0.019525059910421114,0.04096473194568752,0.10267236696813133,0.9938712112960293,-1.435411091719053,-1.8285471401610316,4.156319244660769,-3.006753532311238,-1.3553352156593874,2.608217716217041,2.0,0.493153133222269,0.50698739427963,0.3599982781416269,-0.6122628457209719,0.34499616476899164,-0.18181887233712063,0.6877890313943673
9.4,0.008038853823385211,2.8120508016345855,-1.3747920398482916,-0.20569075615139654,-0.018577671843393425,0.02337365557013019,0.04088766440832423,0.10233550652792488,0.9939092628141937,-1.4354287775460635,-1.8285173773789682,4.156339364668593,-3.0067464313902796,-1.355356518422262,2.608199956202827,2.0,0.49314297962310094,0.5069910327500964,0.3599915158193532,-0.6122741111469343,0.34499456938566697,-0.18180632226683902,0.6877831206837195
9.5,-0.040172318456214606,3.6573879025527787,-0.9066469970282762,-0.2839018793670015,-0.0006219020829858445,0.023510303163330876,0.040872046575121154,0.10220428001465945,0.9939234051454122,-1.4354348833809056,-1.8285232983031214,4.156327062215599,-3.0067588341240032,-1.3553388153019352,2.608206272125244,2.0,0.49313747447766143,0.5070000236309751,0.3599878397713479,-0.6122821643326141,0.3449854067669938,-0.18179872020512192,0.6877825569827731
9.600000000000001,0.32610337725707084,4.272065655825453,0.1254921640475547,-0.36398493449215197,0.014321883499052985,0.022246443683593884,0.040867970108389017,0.10212244305392458,0.9939319780686992,-1.4354359575669553,-1.8285306225597875,4.1563242531581075,-3.0067537556469457,-1.3553308074764399,2.6082041100670654,2.0,0.4931369852180526,0.5070084121215211,0.35999216377095045,-0.6122770620580291,0.3449790283220112,-0.18180269893403317,0.6877892467579665
9.700000000000001,0.5330782295569109,5.215281880837241,0.8442681999600171,-0.41504177856882624,0.03273878379828125,0.02333763834128438,0.04097562068995776,0.10251872529467526,0.9938866359282413,-1.4354224070972452,-1.8285547335460364,4.156337947148394,-3.0067603833556356,-1.3553174897943423,2.608201771479536,2.0,0.4931400743540426,0.5070066969333845,0.3599916109686163,-0.6122770398669808,0.34497787789737505,-0.18180414941514414,0.6877894601319412
9.8,0.7320755560431607,5.115585044683144,1.3993183471423525,-0.4578354463130011,0.04369981670886211,0.028433926939245395,0.04108327127152651,0.10291500753542594,0.9938412937877835,-1.4354639053344727,-1.8285757094785358,4.156328719043092,-3.0067418857560546,-1.355316210001172,2.6082124205467685,2.0,0.49313461263408687,0.5070213551127064,0.35993990516344115,-0.6123071530302566,0.3449857209601944,-0.1817918583125131,0.6877619667681834
9.9,0.9210394102532861,5.506632599905138,1.7346252430504878,-0.459317071143838,0.0468300285975938,0.03213972006577504,0.041127319603781486,0.10312269783285932,0.9938180156670465,-1.4354291503656134,-1.8285600689079926,4.156344359613635,-3.006727787512905,-1.3553142912619163,2.608193874359131,2.0,0.49312541999964193,0.5070084451786743,0.35996128769453095,-0.612297542378004,0.3449937015608029,-0.18179759152084257,0.6877650043426558
10.0,0.7627524071170432,5.439007759791137,1.809087651238322,-0.46561952523718675,0.053041473488245526,0.03052216422136881,0.04112598357964443,0.10319581546878269,0.9938104816645642,-1.4354338766800436,-1.8285352424754184,4.156351577471502,-3.0067402678371025,-1.3553147835492483,2.6081881411564285,2.0,0.4931456133437958,0.5070084054113819,0.3599672644922367,-0.6122791483108074,0.34499840827454203,-0.1818015204411524,0.6877779801630102
10.100000000000001,0.7887422907433295,5.385105739798487,1.8915360841870459,-0.4710770932110681,0.05423262574840064,0.027594322920482913,0.04121148867966521,0.1035685978228999,0.9937679465335585,-1.4354162216186523,-1.8285195402313883,4.1563651247035285,-3.006725374376058,-1.35532451370713,2.608234022377757,2.0,0.4931433239897536,0.5069985438617245,0.3599630581086564,-0.6122886823149779,0.34499193668996064,-0.18180806736892793,0.6877710082341895
10.200000000000001,0.9992554970776917,5.26143274926518,1.9513395096434996,-0.4761989075506334,0.04969322304583803,0.029311053613647824,0.04136243348286748,0.10416719450637713,0.9936990360707754,-1.4354230271473714,-1.828518466466582,4.156359455326236,-3.0067294853513236,-1.3553397656567674,2.6082442921679854,2.0,0.4931394544504714,0.5069911245691086,0.35998709994285144,-0.6122771909188552,0.34499064183578376,-0.1818086487687497,0.6877817340982029
10.3,0.9207159030506412,5.317508140736347,1.946593415807412,-0.4793443438005257,0.05093673436827938,0.0320051194841305,0.041498032471540096,0.10470655695916162,0.9936369650348883,-1.4354366005143917,-1.8285314881265406,4.156323011813025,-3.006698270837301,-1.355314052051272,2.6081928649569948,2.0,0.4931457402898959,0.5069901974606981,0.3599913155981107,-0.6122708681980318,0.344989589023443,-0.18181640437373778,0.687785840594345
10.4,0.9521833105209764,5.630116114815769,1.924736151870442,-0.500377391636138,0.05312132880980592,0.028795623793097275,0.041387013549314844,0.10429398413351249,0.993684808345327,-1.4354571313324542,-1.8285113773741664,4.156367582214469,-3.0067242139782566,-1.3553173686343876,2.608195975642176,2.0,0.49315146867457005,0.5069964934578642,0.35999475788086377,-0.6122665744793907,0.3449805779666956,-0.18182003022186566,0.6877932241678144
10.5,0.8890388326302483,5.643828061598419,2.0862983911803634,-0.5268443389961851,0.059697373850606174,0.030830200437577705,0.04127599462708959,0.10388141130786334,0.9937326516557656,-1.43543287526337,-1.828518092553488,4.156316319824097,-3.0067256045884587,-1.3553189074754242,2.608182430267334,2.0,0.49314143147439893,0.5070125810735395,0.3599800196186497,-0.6122778751916207,0.3449802467723216,-0.18181580425478436,0.6877844474913111
10.600000000000001,1.041426020048087,5.736895163357365,2.0158520015364325,-0.5274387210931529,0.05544284371637653,0.030353021888106013,0.04117132848367284,0.10348837796036434,0.9937781831372517,-1.4354047775268555,-1.828542548119504,4.156323436598167,-3.0067171716693784,-1.3553400054517792,2.608177012404343,2.0,0.4931440880174347,0.5070040977209836,0.3599864844045121,-0.6122677241967954,0.34499711070524525,-0.18181791068809278,0.6877844683219636
10.700000000000001,1.0131272842938588,5.704580328753293,2.093606376652079,-0.5262570846659244,0.05159290174888711,0.030739723857999415,0.0411888615533404,0.10347119727923416,0.9937792453105344,-1.4354286372683507,-1.8285064251873828,4.156344872710897,-3.0067583523192347,-1.3553207556353968,2.608193874359131,2.0,0.49314083751058296,0.5069911723692827,0.36000298100427663,-0.6122649971284315,0.34499251704926953,-0.1818132123152191,0.6877904421398656
10.8,0.8621357189276765,5.663995191495681,1.9770669457629424,-0.5271739368973348,0.05423034828512953,0.03448268675783531,0.041199611119993096,0.10343222980601607,0.9937828365024262,-1.4354162216186523,-1.8285113773741664,4.156344758933723,-3.006728627997185,-1.3553264118509156,2.608200389661105,2.0,0.4931333077509622,0.506996429397524,0.3600101341242383,-0.6122645688971156,0.34497920854514796,-0.18180305853197248,0.6878001826498832
10.9,0.9066257388125287,5.48532638925199,1.9841170624406497,-0.5280791448512272,0.05163865392165251,0.03435552226071585,0.04105172707922441,0.10288377373738186,0.9938455693124945,-1.4354342757856875,-1.828523341490606,4.1563692524770355,-3.006716173824476,-1.3553207988228813,2.6082181498667145,2.0,0.4931305606978836,0.5070056081532497,0.3600058924752924,-0.6122603095524624,0.3449816802838353,-0.1817994772839164,0.6878036810562732
11.0,0.961987799325083,5.749540957410435,2.1015515459381806,-0.5241214147806114,0.048290337028021414,0.025515059050880237,0.04090384303845572,0.10233531766874766,0.9939083021225628,-1.4354340108006152,-1.828493684936782,4.156350673349612,-3.0067273218686044,-1.3553027820304944,2.608200219449297,2.0,0.49312168474533563,0.5070185291854763,0.35999830977158553,-0.612266935471945,0.34497716070321427,-0.18179234050407428,0.687801936065167
11.100000000000001,1.0367429465303755,5.433608655640501,1.9541182312599683,-0.5317614822043434,0.050816958324847984,0.03026171287801952,0.040766213520654654,0.10182435085442217,0.9939667416725573,-1.4353799348110317,-1.82849916789406,4.1563334465026855,-3.0067404955005923,-1.3553325782651908,2.6082478808149507,2.0,0.4931407479848915,0.5070052352934218,0.36000109832921096,-0.6122553527898325,0.34500472617407285,-0.18179371307005526,0.6877980574165308
11.200000000000001,1.0941732644547268,5.474663189939477,2.0113802871070714,-0.5288160556187598,0.04714222946947097,0.03595535813508574,0.04093989434300166,0.10245149573457477,0.9938948449545314,-1.435412636606317,-1.828513212983243,4.156352542327712,-3.006724425141446,-1.3553326765643519,2.6082202264146463,2.0,0.4931675490651556,0.5069838546902826,0.36000687239799517,-0.612247598615882,0.34500689403077905,-0.18181246161883227,0.6877989167339692
11.3,1.0702991636783645,5.689423538383075,1.9188374286612602,-0.5354394036632514,0.052277328220015275,0.0350725825855974,0.041113575165348665,0.10307864061472735,0.9938229482365056,-1.4354164989177998,-1.8285105554719647,4.156339795589447,-3.006740326499163,-1.355326571673235,2.608218481907478,2.0,0.49314559868634245,0.5069978544598119,0.35999834494603966,-0.6122625151985863,0.3449933362924763,-0.18180053329938334,0.6877955920828127
11.4,1.0652261331895636,5.534717458281059,1.9114691984352732,-0.5455251557299716,0.05343053653951433,0.03541111231220539,0.04115563187723027,0.10324021364923451,0.9938046051721553,-1.4354287083452022,-1.828505472705859,4.15633830853624,-3.0067450500605593,-1.3553207556353968,2.608211722588297,2.0,0.49313346878382175,0.5070050376200851,0.3600026220723374,-0.6122659913882941,0.344987571222,-0.18179080350775478,0.6877979610697171
11.5,1.1234213684169503,5.900127486755723,2.141875631042535,-0.5359553954859027,0.04874886444862334,0.029669600692340464,0.041077698139079355,0.10297736463003171,0.993835082395993,-1.435410275107579,-1.8285170979672158,4.156339395919457,-3.006752151983329,-1.3553321968214955,2.608212723380284,2.0,0.4931463057470776,0.5069898494767445,0.36002714080388276,-0.6122461149831793,0.3449908676485809,-0.1818033100850135,0.6878106951547174
11.600000000000001,1.2320883559935734,5.614174591168763,2.0181724884783945,-0.5451200862630289,0.049718926743904636,0.03403223236813656,0.0409976881159017,0.1027060380474332,0.9938665061249298,-1.435409494340595,-1.828499252624658,4.15631531040925,-3.006692293413007,-1.3553386879082792,2.608211977889719,2.0,0.49313008386051965,0.506997619666676,0.3600146353091183,-0.6122683239210671,0.3449899884141744,-0.18180379485292195,0.687791238381205
11.700000000000001,1.0773177693456026,5.549445672276841,1.9845024999220104,-0.5457385875619747,0.0538710221543007,0.03342019645594215,0.04078672598668491,0.10190002823663748,0.9939576262994432,-1.435408827813117,-1.8285049328303422,4.156345844268799,-3.00671638844301,-1.3553388732411058,2.608205322863533,2.0,0.4931375205255899,0.5070046792155387,0.3599856319521305,-0.6122799854538832,0.34499263182615103,-0.18180247947837783,0.6877798789247707
11.8,1.0273053248572181,5.950242473988974,1.9350207604180047,-0.5362430038451077,0.049771071590201284,0.0312962430109089,0.04057576385746812,0.10109401842584176,0.9940487464739566,-1.435385942058403,-1.8284865878524923,4.1563448966050345,-3.0067464313902796,-1.3553384016155265,2.6082007700655643,2.0,0.49313582593224087,0.5069894138889242,0.3600201936377826,-0.6122553002405484,0.34498781933276346,-0.18180618105951102,0.6878032890063388
11.9,0.7519499348456761,5.7220142710946895,1.993601810891334,-0.5423820616222211,0.052600790401754687,0.029244099422552766,0.040524166321003995,0.10086166855942885,0.9940747593202361,-1.4354101469823597,-1.828494374098403,4.156340027358669,-3.0067413490434713,-1.3553088347064417,2.6082050607247647,2.0,0.4931294412036502,0.5069968640359246,0.3600359871732042,-0.6122442585317356,0.34498295316114724,-0.18179880548619134,0.6878175079531876
12.0,1.0969670249640133,5.723330416386795,2.028721648747172,-0.5434120444529582,0.046445221984975055,0.03381157332959433,0.040626846371157974,0.10118466709400117,0.9940377431002873,-1.4354169556190228,-1.828487058679098,4.156345844268799,-3.006723130989184,-1.3553151774627787,2.6081758338007432,2.0,0.49313266048960736,0.5070080606403905,0.35999818089915064,-0.6122733353667076,0.3449713427149862,-0.1818011141452766,0.6877968380269588
12.100000000000001,0.9496748648945667,5.679273107168502,2.5056557424728934,-0.5454989195377485,0.045256960540990133,0.028902389969443654,0.04086508666741935,0.1021288150046164,0.9939304635987507,-1.435379981994629,-1.828493649238204,4.1563451097500295,-3.006758094637623,-1.3553324188827405,2.608206272125244,2.5540452945540144,0.4931335436533174,0.507003658978418,0.36000607047214667,-0.6122674060681988,0.34497364233548006,-0.18180326393697066,0.6878003945783803
12.200000000000001,0.9216395031006273,6.051263773923231,2.7979085898586735,-0.5578569029137397,0.052384921098170605,0.029888635893881223,0.04123931684164678,0.10369608090352331,0.9937526981298086,-1.4359800991018041,-1.827935051647039,4.156340253043931,-3.0066078421743825,-1.355220142995016,2.608194623740102,3.0,0.49312086307449593,0.5069812154038692,0.3600083481617351,-0.6122649926584864,0.3449828962786485,-0.1818122965733472,0.6877955138373786
12.3,1.03470177511476,5.440485098954774,2.810187490269438,-0.5195811033604145,0.05493376027763308,0.028231504938240753,0.041472543154833494,0.1046248490773224,0.9936466052794947,-1.4374569211557995,-1.826749854882983,4.156525049011502,-3.0062642629945553,-1.355061334714139,2.608182430267334,3.0,0.4930578211028051,0.5068537520111682,0.36007375523168844,-0.6122123683522043,0.34499862648562596,-0.1818254667579286,0.687830984616045
12.4,0.9893915134347108,5.080843705950486,2.5622569599155502,-0.48595531003168296,0.06444799162087574,0.025757697338670116,0.041557937059382245,0.10488419830105963,0.9936156560157957,-1.4391538787514673,-1.82563877166785,4.156808871088516,-3.005917723331214,-1.354857166174214,2.6081821529367324,3.0,0.4926067748839835,0.506415418117908,0.3600615714346661,-0.6122243602025235,0.3449862221435009,-0.18180279386856119,0.6878325257265402
12.5,0.7385476700719354,5.163729183522669,2.700933449161111,-0.47161458890783364,0.06844860973170196,0.02686247218928718,0.041643330963931,0.10514354752479686,0.9935847067520969,-1.4406057283186327,-1.8244173487193105,4.157030714800612,-3.005571093981626,-1.3546290593837953,2.6082187360776743,3.0,0.49240932008678095,0.5062249130947032,0.36000373504775335,-0.6122635520417625,0.3449808240500818,-0.18180016330671422,0.6878010428173126
12.600000000000001,0.7042975360914577,4.867057961205302,2.6896381703571284,-0.46118960119690916,0.05248367803594548,0.034031363500076,0.04159027701465564,0.10488735191267161,0.9936137044324879,-1.4422669299521862,-1.823120123445753,4.157227948627477,-3.0051682668142496,-1.3543952147113245,2.6082156981321223,3.0,0.4921398222584812,0.5059377803346226,0.36002219214828424,-0.6122535704512445,0.34497706145740364,-0.18180803950788518,0.6878097333625173
12.700000000000001,0.5244166735800534,4.302872772581279,2.69813187904677,-0.44464058857525623,0.030076682795666932,0.03481406973528592,0.04138657420167463,0.10407017798584693,0.9937079320081812,-1.4438736762576858,-1.8220173149696246,4.157490495362022,-3.004845771337912,-1.3541737289298692,2.608182421693847,3.0,0.4916617034772173,0.5054522021907057,0.36005038818065727,-0.6122382975503566,0.34497295295898345,-0.1818100191517599,0.6878248655547694
12.8,0.688313634010723,4.157015173740899,2.6780130635013553,-0.44236605236372073,0.0331735711589295,0.035796710182040836,0.04118287138869362,0.10325300405902225,0.9938021595838745,-1.445271702843209,-1.8209384549954875,4.157696995407243,-3.0044756722124757,-1.353956679919433,2.6081864503325027,3.0,0.4912900529387209,0.5051098533895111,0.3599504662397838,-0.6122834311877521,0.34497582453789044,-0.18179210799421175,0.6877879832102163
12.9,0.7106594195630793,4.220252976415781,2.8773029912329324,-0.4522538655014723,0.03520417941327003,0.03576416139182336,0.04142313828995807,0.10434593945558047,0.9936769783908055,-1.4468191290300205,-1.8195512999400458,4.157910435179814,-3.0041469502302216,-1.353741728768053,2.608199822225789,3.0,0.49095656035972435,0.5047340074346998,0.3599475515753971,-0.6122588721402663,0.34498790393344214,-0.181816442763961,0.687797354433556
13.0,0.7986468822380485,4.147935573431975,2.898160026321352,-0.4325272551173092,0.03221960210007414,0.03768220548018923,0.04167778838644103,0.1055007562697341,0.9935446890571303,-1.4485712051391602,-1.8182422123351039,4.158117723837622,-3.0038043342964014,-1.3534648935879052,2.6081812918854537,3.0,0.49066689433448607,0.5044130535062405,0.36000064377366764,-0.6122180648863385,0.3449958638881323,-0.18183086345734292,0.6878258733293374
13.100000000000001,0.76259802272746,4.014831257849182,2.958332534669576,-0.4252655792300249,0.03662654960498347,0.037320332200446685,0.04178720824647508,0.10605381891558996,0.9934819532072692,-1.4500622929129225,-1.8171730367750885,4.1583123207092285,-3.0034637101550787,-1.3532680652991504,2.6082054697504415,3.0,0.49038959497171375,0.5041285459283973,0.36000230402837746,-0.6122161363740023,0.34499626412090945,-0.18183071959726582,0.6878274271331767
13.200000000000001,0.6237100969256633,4.114862912188357,2.749304679929464,-0.42068742452701596,0.037520965162169934,0.036577542669369585,0.04172663289635729,0.10590251497222315,0.993500631251559,-1.45140115829577,-1.8160908505751614,4.1585164070129395,-3.0031172237791957,-1.3530341834081918,2.608208252705923,3.0,0.490030995256774,0.5037532868991871,0.35995954033252026,-0.6122435920858724,0.3449945193518949,-0.18183960505747432,0.6878015146824589
13.3,0.4443387030239771,4.020797314692672,2.8645405486095954,-0.40381215834318646,0.03584744533102143,0.04156070599398754,0.04166605754623949,0.10575121102885635,0.9935193092958488,-1.4530303928489994,-1.8149122869659196,4.158772696735049,-3.0028041103909886,-1.3528405293131862,2.608152841594581,3.0,0.4896337204756019,0.5033140994867656,0.3599443689971898,-0.6122368050953602,0.3450120292036079,-0.18185283813305672,0.6877952743763126
13.4,0.54722126139564,5.39250487172958,2.5338928827136438,-0.45480254251948016,0.029228933150308247,0.04080918485255265,0.04167615616859863,0.10566949985381412,0.9935275765345831,-1.454488866592355,-1.8137680848585103,4.158933794053287,-3.002512433107475,-1.3526569887427544,2.608168756516666,3.0,0.48911283541966577,0.5028339070222128,0.35982972810044994,-0.6123100934786295,0.34501878212378567,-0.18182997959367014,0.6877326863883797
13.5,0.5747993782504291,4.3588310321155,2.8342418736327257,-0.43554010902729046,0.03600505423096026,0.04368457610133154,0.04168969144421015,0.10559117275646307,0.99353533752855,-1.4558454111781174,-1.8124133549132289,4.1591770650125595,-3.0022583119029007,-1.3524142588147552,2.608188922642609,3.0,0.4888954372161213,0.5026213294647699,0.3598317456253318,-0.6123204110896378,0.34500298082922465,-0.18182161530336313,0.6877336385479791
13.600000000000001,0.6832814057116603,4.159057725284666,2.651121468143934,-0.4181976583123754,0.045594967536356605,0.0356198668457234,0.041620430203142246,0.10525214588390125,0.9935739958667179,-1.4572577107917661,-1.8113741067561153,4.159405060243984,-3.0018955669798792,-1.352216062141934,2.6081505257925173,3.0,0.4884360507263243,0.5020912550326646,0.3600742507681459,-0.6121829343277119,0.3449812627363874,-0.18183105210595463,0.6878644137973425
13.700000000000001,0.7759524759351798,3.8700501445316213,2.796673903053479,-0.3859521627224411,0.04612413348828717,0.03528462918377012,0.041446921672243446,0.10458487760559919,0.9936515563776476,-1.4589570334250677,-1.8102927042225874,4.159645922691169,-3.0015082395869586,-1.3519973832865233,2.6081635361407893,3.0,0.4882526634189125,0.5019452657623523,0.3600443393820134,-0.6121862797313686,0.3449739921911913,-0.1818274227504414,0.6878660421595697
13.8,1.0731596698284565,3.934345621986821,3.614777628546748,-0.39589627335828015,0.0567804428656692,0.03834237773350025,0.041273413141344646,0.10391760932729713,0.9937291168885771,-1.4606326422033096,-1.8091299634144458,4.159862770819481,-3.001141210595602,-1.3517678419696253,2.608180473099025,3.0,0.4879695967931705,0.5016727886691881,0.3599018746736125,-0.6122551552164366,0.34499528018283016,-0.1818207111699996,0.6877958349336692
13.9,0.7939840182389092,3.953666495622002,2.730065650971103,-0.41270248412181876,0.05803625925999478,0.032171682157498147,0.04131404055888114,0.10396474778634211,0.9937225278173389,-1.4620017173077584,-1.8077052932287214,4.1601261609756985,-3.000884837396706,-1.3515496440207422,2.6081461906433105,3.0,0.4874938996209491,0.5011922657577956,0.3597849770648523,-0.6123115019049117,0.3450004881509058,-0.1818246509859295,0.6877420185683243
14.0,0.6387786380500984,3.3543863407914927,2.5371742725318818,-0.3818489702738997,0.04792552251844188,0.04267176460030388,0.041369900575222246,0.10406270569580088,0.9937099527505959,-1.4634318515622815,-1.8063496862593265,4.160341661130045,-3.000542342387147,-1.351365411039226,2.608156720323039,3.0,0.48716832800321586,0.500890129192964,0.359877582683317,-0.612276459236027,0.3449716848222467,-0.1818048956904465,0.6877928860051402
14.100000000000001,0.8644425194710799,3.8904509141964594,2.9800840406053926,-0.3815833319847455,0.04917368565233478,0.048032068024929,0.04144175679156654,0.10426395786782773,0.9936858130706101,-1.4650836107775966,-1.805353525531644,4.1605505269866,-3.0002351306671855,-1.3511195430326433,2.608125120480519,3.0,0.4868926487330677,0.5005882885516277,0.3599847029016018,-0.6122199835909825,0.34496460230420484,-0.18180191930563278,0.6878474954419382
14.200000000000001,0.8249318381229903,3.6814015322679716,2.993445975583495,-0.37952863978707796,0.055230623288135425,0.04907283822863557,0.041535615286481926,0.1046072881046053,0.9936457666226367,-1.4665723780993463,-1.8042455397556534,4.160795633384305,-2.999905519989337,-1.350909008699133,2.608156851632642,3.0,0.4865483465178823,0.5002256032771721,0.35997283705208294,-0.6122206030533404,0.3449706913446178,-0.18180334854231348,0.6878435125586508
14.3,0.7348847546537439,3.6490800745453282,2.826182534346008,-0.36815382920002415,0.0560487407535881,0.048747070174199665,0.041629473781397315,0.10495061834138288,0.9936057201746632,-1.4681123292099194,-1.8030228067467384,4.161009311676025,-2.9995668883092113,-1.350659693274893,2.608151351520152,3.0,0.4860712796772452,0.4997756112410171,0.3598242632275998,-0.6122975629529436,0.34497047036143663,-0.1817966858013966,0.6877768780732046
14.4,0.8615034067858054,3.569405771863094,3.001906053913603,-0.36321451816236605,0.05750937723122261,0.049465342015708874,0.04168640056668745,0.10524591828080022,0.9935720465980993,-1.4696383404818447,-1.8016980714326714,4.161242929886327,-2.9992669648652885,-1.350454148454888,2.6081399989041416,3.0,0.4856599036111756,0.49937412016822785,0.35986922275625005,-0.6122645265592271,0.34496001886891237,-0.18179097979020412,0.6878130375080738
14.5,0.9285998103739135,3.3873938644584145,3.1324721905569817,-0.3568634992412619,0.05944906336097883,0.04999897802027056,0.041739745557065874,0.10553656003687217,0.9935389910898192,-1.4710682146752043,-1.800517008232688,4.161471493906523,-2.998979226041309,-1.3501891203723044,2.6081454094359735,3.0,0.4854261179270905,0.4991002183450689,0.35987742378411197,-0.612257925707232,0.3449748343374105,-0.18179381664222552,0.6878107329150998
14.600000000000001,0.9027966885278784,3.5801559503340394,3.108957956002478,-0.3353361682825048,0.06645063417707374,0.045739336922545594,0.04173253907971566,0.10555249890031179,0.9935375802121271,-1.4725900265706156,-1.7994070723221065,4.1616692543029785,-2.99866246295865,-1.3499608494926212,2.6081486109610883,3.0,0.4849822123600584,0.49856347948557306,0.3599236198410701,-0.6122186319241963,0.3449989744118135,-0.1818235199816262,0.6878257497078408
14.700000000000001,1.2204290727937166,3.443098854557825,3.2090590698570796,-0.3321956851545231,0.06570699017682162,0.05522164213420256,0.041634690359928256,0.10515722252609991,0.9935835396193379,-1.4741303115665707,-1.7982048851433103,4.1619371446951785,-2.998335874839567,-1.3497393766986292,2.6081394228323855,3.0,0.48475045694864777,0.49837184427385306,0.35987217217872625,-0.6122457482561721,0.3449982587657095,-0.18181266499676924,0.6878048415340221
14.8,1.1527979714390255,3.532146611775324,3.273139101669949,-0.33180599652186504,0.07412119852041046,0.051620644296842565,0.04153684164014085,0.10476194615188802,0.9936294990265485,-1.4756946014071202,-1.7969653164638724,4.162153775820663,-2.9979867655663135,-1.3494983818597956,2.6081086628894212,3.0,0.4844365364486974,0.49808733893625873,0.3598385696635468,-0.6122671246931759,0.34499021595527635,-0.18180185473425758,0.6877927046212882
14.9,1.4055982382622791,3.3706266776402836,3.1493348270297936,-0.33684278233730797,0.07345938839768143,0.04672343153436656,0.04145546018510524,0.10446821107187189,0.9936637826340244,-1.4770022697117542,-1.7957872898328917,4.162370818102244,-2.9976584210087753,-1.3492842594039844,2.6081464052890295,3.0,0.4839433120440819,0.49756177649023864,0.3598410724709969,-0.6122415874662464,0.3449944666732255,-0.18181415510405913,0.687810053390807
15.0,1.259938148230679,3.276506595004635,3.167684215800093,-0.31999091486145087,0.07150774242054306,0.0456703793036738,0.0413761009564465,0.10418694554806672,0.9936966324204893,-1.4786266847694172,-1.794623764479764,4.162569509461498,-2.997343182536262,-1.3490913550006312,2.6081461906433105,3.0,0.48373516149175905,0.4973483371086068,0.35991710952595063,-0.612191236064543,0.3449801187632721,-0.18180965146388361,0.6878632558717083
15.100000000000001,1.0503247598431744,3.268864248337169,3.1716617020321047,-0.31063496618215125,0.07760180218636528,0.0479990510246555,0.04113218976895491,0.10325346646988813,0.9938028983537129,-1.480366217500234,-1.7933832008967054,4.162807941436768,-2.9970043889422815,-1.348872787825582,2.6081347465515137,3.0,0.4834199166457692,0.49702675119792045,0.3598515174889827,-0.6122313283033948,0.34498925473375,-0.18180619372092272,0.6878239038350027
15.200000000000001,1.0614474054751284,3.3585226907175247,2.9272289069503556,-0.3185322701102983,0.08267410818195615,0.0504111789501818,0.04061991273727334,0.10125630001689447,0.9940288978126987,-1.4811571909744201,-1.7926376410657634,4.16292492015522,-2.996767021732172,-1.34873961078911,2.6081046640778793,3.0,0.4829207828850822,0.4964784478250188,0.35974359047062726,-0.6122833757483821,0.3449977657360038,-0.18181156195261522,0.6877718846824735
15.3,0.8411810957275547,2.862375236750971,2.739188419003651,-0.30504427089796576,0.07406140407210231,0.05112249338735945,0.04037011189555958,0.10027406555873954,0.9941402256020667,-1.4811406038124864,-1.7926295642321852,4.162949978995817,-2.9967500172057093,-1.3487472615852125,2.6081389272743873,3.0,0.4827461676731098,0.4963232677606541,0.3597737663221066,-0.6122613878976537,0.3449777473118646,-0.18180285264086854,0.6878038016185378
15.4,0.95214083369258,2.9388725236449216,2.878497718418509,-0.3125027103150917,0.07019549676321041,0.05177389231796629,0.040565338217570704,0.10101264359444215,0.994057128107009,-1.4811605139570168,-1.792634294451053,4.162938594818115,-2.9967689548822247,-1.3487229650948729,2.6081312819318705,3.0,0.4827246507956101,0.4962979622501448,0.35980860404054155,-0.6122381266720813,0.3449739625063083,-0.18179842565918297,0.6878275756827426
15.5,0.8109653456189847,3.0987873627174216,2.7721705301416106,-0.307986117447116,0.07570363046154963,0.053758108146618494,0.04076056453958184,0.10175122163014477,0.9939740306119512,-1.481184417680902,-1.792656424047801,4.162945679932321,-2.9967619381346644,-1.348736454543396,2.608121395111084,3.0,0.4827307306750619,0.4962930364707503,0.35983206656832384,-0.612219595302745,0.34497008421369846,-0.18180596632683393,0.6878440220957825
15.600000000000001,0.959023865731653,3.1201114588869254,2.7016416321736814,-0.30737559762928446,0.07220720574877937,0.052534733395069054,0.04080610695271112,0.1019352483056681,0.9939535510261268,-1.4811685791050375,-1.7926629369376053,4.1629379953780985,-2.996761638414656,-1.348726962853189,2.608121395111084,3.0,0.4827261924163018,0.49630481325019804,0.3598171862187272,-0.6122278091002498,0.34496168278688577,-0.1818112991108004,0.6878395152132446
15.700000000000001,1.1637610025947442,3.0125856333150454,2.930776158736053,-0.3135351193193651,0.06677787051502561,0.050311197391770326,0.04058908153872394,0.101146509459804,0.9940429125614277,-1.481186866760254,-1.7926527237467842,4.162931663765633,-2.996767194590079,-1.3487313654395368,2.608089691019724,3.0,0.48273055359050804,0.4963019463681022,0.35981298348900953,-0.612240617217727,0.34496573128672536,-0.18182063058808004,0.6878236177678289
15.8,1.0922951497658058,3.1641202383867277,2.985501339180649,-0.318195727607877,0.06703166886207818,0.05064066407460745,0.04056942072222378,0.10109960028276578,0.9940480691002038,-1.4811892461776734,-1.7926247073211612,4.162957904338836,-2.9967713805038074,-1.3487474609362047,2.60809555153052,3.0,0.48273604341728754,0.4962961196460993,0.3597852547696752,-0.6122528558445067,0.3449703225841166,-0.18182829867186498,0.6878083939939609
15.9,0.9288172683120465,3.411610146719629,3.0223698358826456,-0.31300485158799574,0.06820698938816729,0.05493507176577997,0.04091294705264819,0.10241779408952169,0.9938982729634038,-1.4811896794380486,-1.7926459235001388,4.162913661947166,-2.9967769783483083,-1.348738165686182,2.608115127558666,3.0,0.48271221416341953,0.49631162789542194,0.35978544203384705,-0.6122605315880835,0.34495237022714914,-0.18179695220731426,0.6878188510809231
16.0,0.7249925311441734,3.553838670855131,2.8880760176653326,-0.3093627723279214,0.07354267674240811,0.051295527832488225,0.0412564733830726,0.1037359878962776,0.9937484768266037,-1.4811700294757713,-1.7926393947997035,4.162945947975948,-2.9967931331504074,-1.3487279228727773,2.6081314843276453,3.0,0.48273589355108565,0.496295841951194,0.35979512341557107,-0.6122408117375043,0.3449792267946442,-0.18180690950553688,0.6878203029710718
16.1,0.9581848218094804,3.2820831900463436,2.999597069450065,-0.3151256483587022,0.06743749285499492,0.048132010353066454,0.04127017431932693,0.10376655349446517,0.9937450400281542,-1.4811688138927892,-1.792657335965053,4.162944135157386,-2.9967677192833913,-1.3487268727651018,2.60813366855161,3.0,0.482730752273387,0.4962988319176557,0.3597851863216429,-0.6122476215994495,0.34498011831183334,-0.18180545696089456,0.6878141781285199
16.2,0.8718527200103646,3.1371898081156733,2.913070265388762,-0.3194188261042834,0.07009876212848325,0.04826137773915883,0.04122039034641328,0.10354927595713925,0.9937697745272014,-1.4811948834593647,-1.7926313394122753,4.162934881809372,-2.9967661134987846,-1.348740223681685,2.608097553253174,3.5806075984728487,0.48272537069364885,0.4962968732030812,0.35978397419585834,-0.6122504588814328,0.344977841766382,-0.18180202991108113,0.6878137002196849
16.3,0.758227055005247,3.2331729297994323,2.926379559500626,-0.3171911412154092,0.07442708498876345,0.04755970434320207,0.04116728596796833,0.1033219414680556,0.9937956394396508,-1.481175422668457,-1.7926513157286585,4.162933558027219,-2.9967813104073424,-1.3487398513184479,2.6081264309251786,4.0,0.48272502402695366,0.4962968424728202,0.35977759432784306,-0.6122559184366958,0.3449755761653358,-0.18180992455534073,0.6878078899822346
16.400000000000002,0.8085180417695002,3.377652432056027,3.003279008353798,-0.3131030961561865,0.07149122863199074,0.04863743358881107,0.04110739291801522,0.1030740452309526,0.9938238155171625,-1.4811748982326818,-1.7926509029992919,4.162914356740013,-2.9967496044763426,-1.3487266066285015,2.608140635618066,4.0,0.48272555466807643,0.49629767732519203,0.3597783958156793,-0.6122480708502918,0.34498070076025455,-0.18180289923614879,0.6878141621632917
16.5,0.7368074151336909,3.2979066469435523,2.8027382521082767,-0.30224893591041974,0.07988184440283848,0.04909598266811344,0.04104749986806211,0.1028261489938496,0.9938519915946743,-1.4811754419637282,-1.7926751575865687,4.162928123695906,-2.9967619381346644,-1.3487342232644082,2.6081298204909924,4.0,0.48271281846627123,0.4963026672872336,0.3597781556331663,-0.6122538449001711,0.34498082384131223,-0.1817951094132823,0.6878110196704759
16.6,0.8648350454253213,2.5574515469159556,2.276593235385432,-0.2841673906906956,0.08538291078621893,0.05291087789988201,0.04104181549865011,0.10281092807455625,0.9938537858559798,-1.4811774751781364,-1.7926407231920698,4.162946296793169,-2.996766453318375,-1.3487253677124178,2.6081264521168395,4.0,0.48273146743013934,0.49629048783674373,0.35978201251801734,-0.612253641240708,0.34498577561018307,-0.18181445892694803,0.6878036027379006
16.7,0.3837556685109106,0.954342855257196,0.9784446531603921,-0.1753734033549648,0.04497809503838215,0.04838036196350989,0.041152728676744674,0.10329616891067009,0.993798835421829,-1.4811700571727988,-1.7926390919271518,4.162926197052002,-2.996769068442496,-1.3487399037654941,2.608121395111084,4.0,0.4827469815394437,0.49628208079711666,0.35977369423711286,-0.6122536593001732,0.3449976264010802,-0.1818147224428931,0.6877975728033519
16.8,-0.38519778455517667,0.14516917427608728,0.8023190663860738,-0.07479521860787137,-0.018733742251097443,0.05114077111634911,0.041130654929244066,0.10324169643863716,0.9938050647820245,-1.4811826411654672,-1.7926062727821628,4.162937611534071,-2.996739079560799,-1.3487402927253813,2.608096569969129,4.0,0.4827276307134308,0.49629542236048385,0.3597962004167783,-0.6122286305576983,0.34497690798748265,-0.18180284328006857,0.687833383208553
16.900000000000002,-0.4577828500521752,-0.4888657207807964,0.9364084320324408,-0.03911337099623106,-0.027897511207663823,0.05538403927644693,0.040807621160849926,0.10196580969772465,0.9939497488970941,-1.4811506271362305,-1.7926269970335902,4.162910306924091,-2.9967473588519917,-1.34875414221336,2.6081120028705445,4.0,0.48271297134949576,0.49629381624124214,0.3597884393994043,-0.6122447169600109,0.344970948871962,-0.1818054127201461,0.6878213742641266
17.0,-0.5578929180352283,-0.38174713073269834,0.5930220692454904,-0.020540643682755114,-0.020895565332141063,0.04417525864609442,0.04040858889389791,0.100410938036684,0.9941237783453588,-1.4811655469594043,-1.792576000414248,4.162938594818115,-2.9967738590636195,-1.348746311684269,2.608075464567658,4.0,0.4827222063731609,0.4962872283667137,0.35981947498908995,-0.612229349442781,0.3449659193467711,-0.18181930715936345,0.6878339027077653
17.1,-0.5733508244696778,-0.5928438841268974,0.2758242851149222,-0.017708317120718083,-0.014198024246475422,0.042169298296407566,0.039830346396664086,0.0981981987502291,0.9943670063175338,-1.481189306665141,-1.7926010070625884,4.162919460920932,-2.9967738590636195,-1.3487183109611167,2.608109951019287,4.0,0.48272323269886264,0.4963019604167378,0.35980884199033664,-0.6122325975392349,0.34496525723738064,-0.18181827248467744,0.6878316171856285
17.2,-0.09485203904909001,-0.19218938729921742,-0.3348526766065334,-0.03600054831918455,0.006184173162098971,0.037714424361679016,0.03942428667486165,0.09663029792533866,0.9945392446723956,-1.4811620712280273,-1.7925954480784934,4.162934212433076,-2.99678958154188,-1.3487327734576624,2.608093507974676,4.0,0.4827239121194607,0.49629277692416285,0.3597953255372547,-0.6122419088966566,0.3449756445974774,-0.181817399097579,0.6878183503008077
17.3,0.10055541470698309,0.15319918526410886,-0.7436768804878551,-0.03865662681955509,0.02100032793608633,0.03194578887686899,0.039451916856253516,0.0966866009691058,0.994532676057842,-1.4811983108520508,-1.7926227161391028,4.162935101312535,-2.9967662190291517,-1.3487208525287073,2.6081261897129098,4.0,0.4827236364758221,0.4962941147399667,0.359805629082746,-0.6122388869205798,0.34497697140103334,-0.18180874036967187,0.6878226635335692
17.400000000000002,-0.374572361555305,-0.27725393883836036,-0.6844020480398381,-0.03228760566746859,0.006395873256715417,0.035646948565501574,0.039544811524616766,0.09701988342249854,0.9944963140534336,-1.48120445524351,-1.792604035062265,4.162920052660542,-2.996785120926837,-1.348755956249835,2.608109951019287,4.0,0.48271996079234863,0.4962995929184554,0.3598157636002253,-0.6122371138563766,0.3449727839791369,-0.1818020675453321,0.6878281056824735
17.5,-0.31730832248958013,-0.022443311521732075,-0.6386416536918247,-0.019532714456691046,0.012765226278812552,0.03220715462246869,0.03980981189404105,0.09808357436732684,0.9943813853968397,-1.481194943315673,-1.7926143774157477,4.162918791237915,-2.9967811833399933,-1.3487520186629913,2.60807909346059,4.0,0.48271808344438066,0.49628932680437987,0.35980145084578796,-0.6122492749243292,0.3449717745178801,-0.18181184037863335,0.6878152039892345
17.6,-0.09143817225527819,-0.13048956310473495,-0.3728797899282838,-0.021586149473125486,0.004242861189842401,0.03092588897965478,0.0400975676746228,0.09921723975914702,0.9942569006274341,-1.4812057138500436,-1.7926236634289687,4.16292317190563,-2.99680120290506,-1.3487208525287073,2.608130150814326,4.0,0.48272778070236516,0.49628518948163736,0.3597704036587283,-0.612259490866298,0.344989183559099,-0.1818042921095919,0.6877993736853053
17.7,-0.1005831228726804,-0.27665092384761547,-0.5078924488072836,-0.028685673140230433,0.0038602287931838244,0.03377243240825789,0.04039469129044878,0.10037971188560227,0.9941284818447172,-1.4812141739263498,-1.7926312695359519,4.162922253203668,-2.996781671817227,-1.348724557106967,2.608137645638587,4.0,0.48272759784692,0.49628966199562463,0.3597727228340786,-0.6122542180354221,0.34499226097251023,-0.18180154797651407,0.6878032491347017
