xiamingqian9007/apple-picking-rnn/final_data/grasper_20191127_133151_noimg.csv
,/manipulator_wrench.fx,/manipulator_wrench.fy,/manipulator_wrench.fz,/manipulator_wrench.tx,/manipulator_wrench.ty,/manipulator_wrench.tz,/ground_truth.x,/ground_truth.y,/ground_truth.z,/joint_states.elbow_joint,/joint_states.shoulder_lift_joint,/joint_states.shoulder_pan_joint,/joint_states.wrist_1_joint,/joint_states.wrist_2_joint,/joint_states.wrist_3_joint,/mode./mode,/manipulator_pose.x,/manipulator_pose.y,/manipulator_pose.z,/manipulator_pose.rx,/manipulator_pose.ry,/manipulator_pose.rz,/manipulator_pose.rw
0.2,-0.022202981805448496,-0.19729889363983755,-0.44140453301511096,0.023851010694396893,0.019178885645008144,-0.003481476248654621,0.0034828749822951076,0.0025715345989396924,0.9999906240583484,-0.8847102639337031,-1.9600902955515636,4.149581572508044,-3.9103097014386243,-1.376152366590955,2.0176620042822244,1.0,0.47940925910688387,0.4839965300497119,0.42508898194713807,0.8377849098251808,-0.14541331489755308,0.3009644768860728,-0.4317311621511832
0.30000000000000004,0.07305316422533756,-0.43940711772068464,-0.45125381921765484,0.01058772904968494,0.015450887118739725,0.08434948584210789,0.0035444941139195258,0.0024111185839868947,0.9999907969087759,-0.8822980416707639,-1.9625680244254535,4.1490176239346095,-3.9101035131126363,-1.3765625459328332,2.017480186495645,1.0,0.4794156246557592,0.484017198623136,0.42509800595201874,0.83778317956613,-0.14541398205105777,0.30095871193798474,-0.43173831376048766
0.4,-0.14409468305070433,-0.3556752347242915,-0.2485717278390417,0.002373184389162083,0.010095545358463555,0.1791322484597898,0.0036017382227189246,0.002273541448265959,0.9999909291024792,-0.8794421556879072,-1.96621671806761,4.1484845379615765,-3.909653157157032,-1.3771374612291771,2.0172055265030533,1.0,0.4800092927544168,0.4845172024089424,0.4247749597246926,0.8377498055138299,-0.14545708226500506,0.3009933751906844,-0.4317643902313064
0.5,-0.017551790276155832,-0.2897189476059632,-0.29702444323461547,0.00026412659889566044,0.006251806118295508,0.24855670552167716,0.0036334416461628687,0.0022692940462772414,0.9999908239487125,-0.8763533399148953,-1.9693033464394523,4.147939205169678,-3.9093229452072538,-1.3776171462858593,2.0168937993195892,1.0,0.4812406220822588,0.48581157663892216,0.42373260088288994,0.8378189471574694,-0.1454325399579231,0.3009300549513142,-0.4316826266278685
0.6000000000000001,0.19693861709440585,-0.2501223922965176,-0.1880151577223136,0.007588706849184222,0.0005444970385080536,0.2363254520821848,0.003661957806955124,0.002209521726292639,0.9999908529267156,-0.8734345888905359,-1.972654381720517,4.147435431370985,-3.9090112876446264,-1.3780596891986292,2.0166654493613025,1.0,0.48185853698198794,0.48641988349902665,0.4233614213265422,0.8377883579686817,-0.14542472247380336,0.3009590940211021,-0.431724380909342
0.7000000000000001,-0.2542607976038569,-0.28170178716608035,-0.18860667766780148,-0.002833134820559583,0.007221472909471182,0.22293638892316456,0.003563332576026243,0.002374822416894957,0.999990774971303,-0.870470964930079,-1.9757120288007395,4.1468606450879895,-3.908712026738741,-1.3784793398520903,2.0164494300017486,1.0,0.4829927682986418,0.48760074760846006,0.4225097166507929,0.8378026843160988,-0.14541406119478972,0.3009588931003621,-0.4317003099644273
0.8,-0.02990961795934094,-0.20798922995171054,-0.16682085823904721,-0.0028360427615295994,0.0036666498655450823,0.21929690946990793,0.0033907593436251957,0.0026915194460809936,0.999990588992845,-0.8677182097869001,-1.9787294072632569,4.14638200873962,-3.9084478034535937,-1.3789349956817376,2.016186557603191,1.0,0.4835597218948666,0.4881525774805163,0.4221949698867727,0.8377633555239647,-0.14543194273185106,0.3009952815887287,-0.4317452381159386
0.9,-0.009398675759176738,-0.41012534812436374,-0.21100942763747735,-0.004419373298505163,0.0045914494117062134,0.2173367791129645,0.0034414491955758416,0.0026187335051961885,0.9999906129836647,-0.8647654841079183,-1.9817974572078503,4.145866234077401,-3.9082075545530186,-1.3794141320796953,2.0160181391701286,1.0,0.4843131080606356,0.4889221682071457,0.42161986256338246,0.8377797765763968,-0.14542330794187924,0.30098918516025985,-0.43172053215408535
1.0,0.21229670038389137,-0.44392947700369434,-0.14018069435517733,-0.006063713495658561,0.00036671782280279066,0.21270609316739367,0.0035853329544866925,0.0023964884011423945,0.9999906720581638,-0.8622058348152775,-1.9847357739852236,4.145436369681159,-3.9079576765861823,-1.3798628075349295,2.0157418251037598,1.0,0.48549325826782685,0.49017476941877763,0.42070995060130306,0.8378087108949352,-0.14539687982569655,0.30094985534107405,-0.43170070170860897
1.1,0.20969471064063286,-0.30265386647975834,-0.1200806338379802,-0.003248276749817657,0.0008659840729456046,0.21673140278625525,0.003385018137904553,0.0028789194453319334,0.999989989831092,-0.8593128283236275,-1.9874984732649192,4.1449550668107396,-3.9077633819975794,-1.3803724746265225,2.015526301740783,1.0,0.48608018935410713,0.49076419718872144,0.4202651488742679,0.8378233715892528,-0.14539328608536098,0.3009348490589267,-0.4316839202495247
1.2000000000000002,0.0874962747581795,-0.6219071491698829,-0.2093468384334065,-0.006435332118601282,0.0008189552268088518,0.21316535118048935,0.003250127584170182,0.0032215244932423683,0.9999894520426643,-0.8569451987355121,-1.9903869093495754,4.144499332556823,-3.9075592188074717,-1.3807680910569324,2.0153230650318545,1.0,0.4867747682202933,0.4914373264401493,0.41988405874394846,0.837770646737816,-0.1454112170255728,0.3009537408702328,-0.4317670289448422
1.3,0.0792531526919944,-0.11572697070149425,-0.19252807394799243,-0.002609640979342732,-0.0031496956537620593,0.21334659194687647,0.0037190252679768815,0.0022737016756951894,0.9999902472513623,-0.8541443295871429,-1.9929961101573486,4.144088454258628,-3.9074204719144965,-1.3811267058001917,2.0151341485856102,1.0,0.48770966135821026,0.4923903445992755,0.4191461249107759,0.8378094709636406,-0.14540053516987714,0.30091781130888756,-0.43172033259160575
1.4000000000000001,0.055418274446829494,-0.22326091034940748,-0.16797817995230477,-0.006993417592327978,-0.0010501140835784027,0.2150626312324881,0.004278552557788054,0.001038251335623908,0.9999896207687229,-0.8519620934099597,-1.995742450289347,4.14362383098494,-3.9072472016604776,-1.381438082480845,2.014914991568436,1.0,0.4883076106631382,0.49301563879412935,0.4187547178336907,0.8377914292286232,-0.14539017662720813,0.3009311684732169,-0.4317495217052529
1.5,0.3060853335248958,-0.11574650136707176,-0.2313885771207334,0.0009225551982709511,-0.004050928035097778,0.20773090270738098,0.004866941369745848,-0.00032227822769763875,0.9999881033397089,-0.8493919663834122,-1.9981580878127148,4.143192788564934,-3.9070677257857085,-1.3817504182498952,2.014747192387311,1.0,0.48920230820669286,0.49390905235633753,0.41795926973778424,0.8378654887538242,-0.1454085640762297,0.30090380775328973,-0.43161866355404016
1.6,0.2821764081134096,-0.13863667715794312,-0.11357008055077661,-0.0009240275149489845,-0.001649027590193912,0.2086447082964681,0.004769446021900277,-0.00017400632406451368,0.9999886033679006,-0.847101866004711,-2.000523269098201,4.142820911384642,-3.9069837532439173,-1.3820739214757147,2.0145790027616126,1.0,0.4896976227611521,0.4943856456272712,0.41765288498335607,0.8378448073288158,-0.14542391879050326,0.3009240246608023,-0.4316395418143452
1.7000000000000002,0.14505445331838618,-0.3023927792150759,-0.05088827060075214,-0.004029368858612537,0.0013823874104037974,0.2092728668151679,0.0051160050794034255,-0.0009326984288184611,0.9999853316624446,-0.844786057636061,-2.003095545365101,4.142473556939344,-3.906863443693582,-1.3824335269231458,2.0144122506567625,1.0,0.49023438368569616,0.4949109771072206,0.41734014222327076,0.8378122160023236,-0.14542375638054478,0.30095513468536916,-0.4316811655654661
1.8,0.07493846888205186,-0.36791279110982406,-0.25035509052939753,-0.000418232659064109,4.032042638142425e-05,0.21159429222932957,0.005843790025039512,-0.0024700297170536364,0.999978821879644,-0.8425313228722515,-2.005049293348321,4.142090365227233,-3.9067794432058625,-1.3828165133118493,2.0142074218656023,1.0,0.49107929413256346,0.4957593347830973,0.41678523052560695,0.8377943267752909,-0.14541209634163504,0.3009754041511705,-0.4317056802460534
1.9000000000000001,0.17408057508733651,-0.38240268146371836,-0.05841445125203282,-0.005238509066815643,0.0006290771988744061,0.2042734986413028,0.00670042932054262,-0.004273078558925251,0.9999670953226436,-0.8402994305589838,-2.0075419949493827,4.141754627227783,-3.906624185547437,-1.3831275077558483,2.014111921826443,1.0,0.4918587368627627,0.4965175526211716,0.4163027664480682,0.8377645431051313,-0.14541735444508186,0.30098720416384106,-0.431753478586657
2.0,0.15080354938128843,-0.35450850921939403,-0.2513948420721295,-0.007732376934357516,-0.004379950673310282,0.20487404355774516,0.007666113942543424,-0.006300477890450206,0.9999507352542645,-0.8382852837214784,-2.0094811481157118,4.141418633043383,-3.9066234275646385,-1.3834151977349214,2.013908863067627,1.0,0.4923063420887938,0.49700016531757285,0.4159245733236553,0.837784674901246,-0.14541306797601705,0.30096612716454463,-0.43173055076284655
2.1,0.08150132281969003,-0.19201716030094143,-0.33155074453965155,-0.00254195559512138,0.0008035297258954582,0.2094872620863204,0.008207918759090813,-0.007420607464226849,0.9999375275861931,-0.8361692889703728,-2.0117123403134314,4.141035931342953,-3.906503648807299,-1.3837151579669085,2.013775582049686,1.0,0.49278240353962843,0.4974461454885295,0.41562220728260385,0.8377740885204941,-0.14541668535200025,0.3009732195573016,-0.4317449308726217
2.2,0.35980694676310604,-0.1602274801087404,-0.2664361416841566,0.00455464504234762,-0.005803511775128957,0.20961231518100365,0.008749723575638201,-0.00854073703800349,0.9999243199181219,-0.8341319048354954,-2.01381921901336,4.1408088433394346,-3.90643109897756,-1.3840134888323503,2.013584896586369,1.0,0.4936053742852824,0.49829486039256066,0.4150549754224263,0.8377630909166539,-0.14542072210680193,0.3009682471056041,-0.4317683769266698
2.3000000000000003,0.3328053961120323,-0.1983333041741744,-0.1953664305629183,-0.0024661702904860607,-0.009185167679511412,0.20716910905405264,0.009049582239124066,-0.00919076191576596,0.9999168130718278,-0.8323586430668742,-2.0156995220513996,4.140460682245519,-3.9064071095867283,-1.3843126489149582,2.0134653051566462,1.0,0.4939989341299318,0.4987258310023092,0.41473169569459517,0.8377811142373844,-0.14539607395991683,0.30095828027028904,-0.43174865354851855
2.4000000000000004,0.07820940990457653,-0.31474369635449495,-0.08324758438205719,-0.008726674322450837,-0.004067189652477058,0.20559294472910358,0.008995965672061594,-0.009153979569264734,0.9999176349353168,-0.8302792499565079,-2.017663774883987,4.140184829140852,-3.9063474946731835,-1.384528516429117,2.0133203415099734,1.0,0.4946948746212755,0.4993806251511462,0.4141589550506706,0.8378248060136105,-0.1454081939779555,0.3009391478891625,-0.4316731180187968
2.5,0.3229992748298028,-0.2432138553081854,-0.07191473591154174,-0.0067024274644789565,-0.0027778399672627285,0.2063730487604514,0.008940094811985858,-0.008976052004546885,0.999919738175432,-0.8283758156662014,-2.0194251143429214,4.139992194992234,-3.906323546565629,-1.3847563902484339,2.013225070434603,1.0,0.49501068774745716,0.49971695044231995,0.4140006047979828,0.8377922610677266,-0.14540486154913707,0.3009588681781821,-0.4317236537390671
2.6,0.18753309260574014,-0.16652939466058364,0.03616124562788467,-0.003949509838378421,-0.0028387802647191766,0.21547107934351634,0.00889232587699316,-0.00886527769615932,0.9999211632379936,-0.8268509709604245,-2.0214020230445957,4.139656467078432,-3.9062990514900444,-1.38499623933901,2.0131057894460698,1.0,0.4954361434507485,0.5001852401364068,0.4137394939429659,0.8377697157334818,-0.14539896181187234,0.3009625497724475,-0.43176682241498987
2.7,0.053174507308436786,-0.15633352101702708,-0.1709417091594051,-0.00170721658306517,-0.0006562827558811539,0.20278455453702887,0.008857733285948527,-0.00888558603796715,0.9999212902271052,-0.8249065572565252,-2.023149817477408,4.1393935492544465,-3.906227489511007,-1.3852121714336996,2.0129380919716575,1.0,0.4961061120602895,0.5008473147529574,0.41312721529106033,0.8378331337678104,-0.14541069015762884,0.3009322105346617,-0.4316609500654586
2.8000000000000003,0.13847743822860323,-0.4685361043057679,-0.19054839188912048,-0.0096085491508042,-0.004964487395894329,0.2042385437318201,0.009067604897389253,-0.009366139861892313,0.9999150025462997,-0.8231183433418571,-2.024721450654615,4.139176956886734,-3.9062282876411,-1.3854394981438884,2.012854365275193,1.0,0.49650967629130566,0.5012175237361192,0.41294561130126495,0.8377849686119945,-0.14542693621356256,0.3009737542119591,-0.43171999243363157
2.9000000000000004,0.27318733799986644,-0.528663399070614,-0.23239045699951896,-0.011306607560211662,-0.008007423059411803,0.2081348190378969,0.00898084721306894,-0.009131872609445608,0.9999179331309007,-0.8216812762787562,-2.026602190192815,4.138891029520302,-3.9061793289580287,-1.385643698922377,2.012768406510177,1.0,0.49688514116939814,0.5016216921938788,0.4127350851520093,0.8377565054259416,-0.14541921767960367,0.3009827697817485,-0.4317715380157349
3.0,0.035274473186094536,0.08833418691399804,-0.02756907350642393,0.006105003358443799,-0.0021506446276237145,0.20457634441765882,0.008569351103181615,-0.00824934592603497,0.9999283959953268,-0.8199994458622586,-2.0282225742630535,4.138657500966741,-3.906198918313408,-1.385853490569798,2.0126305315649975,1.0,0.4974890073116029,0.5022534692885511,0.4120972552166288,0.8378553336626691,-0.14542100876683814,0.3009177167462894,-0.43162448703757805
3.1,0.10136658641873204,-0.1865772905922404,-0.33491339405200116,-0.006181953936113042,-0.003471771383744915,0.20552098320494622,0.007666375368620579,-0.006418479806608311,0.9999495852187195,-0.8183316341735036,-2.029513498345846,4.138458320398499,-3.906155970229648,-1.386062774586421,2.0125059238768728,1.0,0.49784186561844135,0.5025878851187698,0.41187389926833473,0.8378465414757073,-0.1454323364931499,0.30092852438605205,-0.4316302024304745
3.2,-0.010439840210155787,-0.23485497184824056,-0.21551877734893612,-0.007568939691114992,0.0041292718647663335,0.2062519100180231,0.00715553733110542,-0.005253409726786425,0.999960237814535,-0.8168682617544328,-2.0311229812106704,4.13821908745337,-3.906215286711607,-1.3862662346849186,2.0124106407165527,1.0,0.4983463858753304,0.5030954109078325,0.4117484768510669,0.8377368447974833,-0.14541361053221694,0.3010071688072081,-0.4317945634991379
3.3000000000000003,0.06709958983238655,-0.19638498935458615,-0.1566215235236249,-0.011007089603862104,0.006764273608507975,0.20501344976077157,0.006856245023643641,-0.004541200644942535,0.999966183257415,-0.8154530977567996,-2.032785502634345,4.138003041788081,-3.9061557255186976,-1.3864935080157679,2.012279386413055,1.0,0.49856505034285553,0.5033378148191606,0.4115458764184638,0.8377555485824176,-0.14540534162116223,0.3009847173267944,-0.4317767100980735
3.4000000000000004,-0.006639004186155775,-0.13932312452680864,-0.18070841607398488,-0.001976709983234416,0.0010702669528713932,0.20505407407149479,0.006832611602735259,-0.004479422768586639,0.9999666240294209,-0.8140275801294584,-2.0339985108203127,4.137808895248346,-3.9061722241530026,-1.3866829078722687,2.012245082717962,1.0,0.4989474132555842,0.5037420595024432,0.4111244430149549,0.8378270718799176,-0.14539406145393252,0.3009336331604918,-0.4316773250379042
3.5,0.23405813858220112,-0.3042081119090305,-0.2570377681511907,-0.007598061424312985,-0.005454756463435667,0.20875767994915578,0.0067162578454299845,-0.004239617196757906,0.9999684314792304,-0.8125747425955214,-2.0352051475044752,4.13760640111187,-3.9061451208112663,-1.386840918111214,2.012145818094329,1.0,0.4994866860027902,0.5042587688474144,0.4108700297876777,0.8377705153918268,-0.14539691708891983,0.30097556914557366,-0.4317568839273425
3.6,0.07685527080067689,-0.18503585869380396,-0.21189341897637165,-0.007426764590529331,-0.0064430811200390905,0.20569763019395695,0.006638178166241695,-0.004061311931757091,0.9999697191331794,-0.8113003633998445,-2.0367201153073857,4.137415134987788,-3.906156296561088,-1.3870332876788538,2.0120384107911113,1.0,0.49967521326712566,0.5044176120836206,0.4108060089292095,0.8377384910835544,-0.14541502377390356,0.30100015741665737,-0.43179578118947864
3.7,0.1718788873543585,-0.16384248922395353,-0.21995717061960182,-0.006831670553134353,0.00023451841201025715,0.2053605321396118,0.006682962255285855,-0.0040934104714394895,0.9999692901562501,-0.8098593761968643,-2.038128615662095,4.13721227645874,-3.9061795673766078,-1.3871902859776515,2.011948127167851,1.0,0.5002086882952077,0.5050165864511805,0.4102757045228847,0.8378020269018335,-0.14540203591517167,0.30093547295062795,-0.43172196236800875
3.8000000000000003,0.19785690516768004,-0.20347787625832003,-0.17726719325342494,-0.0031711281986873075,-0.006382563950628034,0.20824796620423766,0.006811007380986194,-0.00435529376056962,0.9999672859832983,-0.8086735619584511,-2.0392277732748236,4.137014389668249,-3.9061862076644625,-1.387373491779437,2.011879166965064,1.0,0.5003752747499426,0.5051921526358036,0.4101823207424049,0.8377920207709001,-0.14538864646887897,0.30094140931923596,-0.43174175101269824
3.9000000000000004,0.30042964923886384,-0.17902534707132647,-0.20154406097642455,0.0010147154908297833,-0.0018019645099807864,0.20552009561302018,0.006966115372738225,-0.004703850800865753,0.9999646172698771,-0.8074237228545565,-2.040374795345223,4.136829858496196,-3.9061928873664247,-1.3875363563190932,2.0117974172544333,1.0,0.5006832766024245,0.5054682471583358,0.4099920748022139,0.8377829631569944,-0.14539686035498312,0.30095921457025115,-0.4317441497091275
4.0,0.1802559654361651,-0.2916322717485946,-0.04326250998786381,-0.010209277411909922,-0.0012274098963442602,0.20622076584315874,0.007139437584618264,-0.005130411813443056,0.99996125095172,-0.8062115347778435,-2.041635556016986,4.13662665373952,-3.9061685667774957,-1.3876917997943323,2.0117374133381167,1.0,0.501162090903337,0.505914815491064,0.4096801603124072,0.8377744663954372,-0.1454055301124475,0.3009675048414632,-0.431751938383677
4.1000000000000005,0.24123973658942935,-0.4857678172069604,-0.034483475081919776,-0.012879655982323665,0.00011120755454033932,0.2083348404744685,0.007071370337312142,-0.005013575745401198,0.9999618920055782,-0.8047807387866343,-2.042893493821205,4.136441341422112,-3.906215942623302,-1.3878297111463873,2.011645593557831,1.0,0.5013688908624916,0.506098773885752,0.4095142429339092,0.8377856116858148,-0.14542193532794168,0.30096249714359263,-0.43172827668661523
4.2,0.0004775630515082424,-0.22212278034524718,-0.21084175669998684,-0.003634748335268907,0.004298243323064134,0.20558651539823067,0.006320411850726292,-0.0033594683024778596,0.9999738699224923,-0.8036104864419633,-2.0441854807200395,4.136289119720459,-3.9062520466246546,-1.3880026410338118,2.011578939627846,1.0,0.5016865066726273,0.5064389547200817,0.4093128359229735,0.8377674899524161,-0.1454130211085182,0.3009680961517681,-0.4317625402576073
4.3,0.002325307060356151,0.006118404153273244,-0.450141939689312,0.007019356534305196,-0.0010065999746034905,0.2025977688676172,0.006061944081865863,-0.00285760588166922,0.9999775360875819,-0.8024340197085478,-2.0453254124165645,4.13611173020231,-3.9063259460598383,-1.388146702443258,2.011476062897934,1.0,0.5021132752107025,0.5068764544804212,0.4089794408636253,0.8377810221239947,-0.14542749314251768,0.3009640673145396,-0.43173421614767404
4.4,-0.02372247697296498,-0.5086775050548705,-0.22975339145056714,-0.010550044630029341,0.002906329510542802,0.2054785425011182,0.006006099788447571,-0.002795788912619198,0.9999780501070746,-0.8013037003615936,-2.046535266205989,4.13598736760318,-3.9063172122566825,-1.388279542382767,2.0114020485450546,1.0,0.5023468254656508,0.5070982064823164,0.40879810758153273,0.8378010705471046,-0.14542617301691868,0.3009502159964021,-0.43170541099631543
4.5,-0.007414208080926896,-0.3409469408049912,-0.14303332433620125,-0.00341527275430498,0.003351710462213924,0.20459424993114075,0.006076906360285151,-0.0029265493631156023,0.9999772424637032,-0.7997930406716948,-2.0477493379865255,4.135769890592167,-3.9063107555158543,-1.388420725550056,2.0112968628968195,1.0,0.5025880306783141,0.507361773092166,0.40858609982837785,0.8378201862999621,-0.1454063379017635,0.3009403346330056,-0.43168188208131847
4.6000000000000005,0.08013441383714762,-0.2022076271698479,-0.11431772666576687,-0.0010166510499320823,0.001307920953540795,0.20655909362703864,0.006085560771876499,-0.0029469622307432657,0.9999771177285663,-0.7984797510046665,-2.048967023889059,4.135590727978285,-3.90632734399962,-1.38857290907063,2.0112191757294853,1.0,0.50304381293375,0.5078220356764629,0.40835598923680766,0.8377646697264964,-0.14542481002030744,0.30097784121506654,-0.4317572487939606
4.7,-0.00803917143094228,-0.24727664806195093,-0.12812605505813557,-0.008150459274451686,0.0006870881155595339,0.21083453962512733,0.005892735944871206,-0.002609660307938979,0.9999792067834339,-0.7973347491740552,-2.0501637101273844,4.135406445514543,-3.906384130517477,-1.3886885308098655,2.011108282463667,1.0,0.503276611257566,0.5080390763396291,0.40822957982334307,0.8377500109077324,-0.14543015478866447,0.3010012630977922,-0.4317675635290047
4.800000000000001,-0.02145900283456713,-0.09055411283254794,-0.04436551288616224,-0.0019589865147642167,0.002887200717322147,0.19890097330210796,0.006095942845753314,-0.003073186182477933,0.9999763644187132,-0.7962524254254507,-2.0514618286116937,4.135259144169656,-3.9064302326802753,-1.3888561414685483,2.0110669208938203,1.0,0.5035504942405132,0.5083087570048241,0.4080235685612173,0.8377557225944177,-0.14542722137657488,0.3010009925998006,-0.4317576577166046
4.9,0.11451672825783983,-0.2474415294365624,-0.1509856797974662,-0.0018929949253360945,-0.0032927344160500254,0.20616924947645207,0.006449515731815107,-0.003840771687161041,0.9999716496844007,-0.7948354861234725,-2.0527328913806793,4.135090351104736,-3.906467174456919,-1.388998475834454,2.010982804202209,1.0,0.5039970082368754,0.5087541462228221,0.4075698808207367,0.8378277508056247,-0.14542609743258544,0.3009475604671984,-0.431655506178664
5.0,0.11179341552683318,-0.34526972924848315,-0.09251862131456659,-0.004245998663835715,-0.003828128350837324,0.20531511414786607,0.006380613353852679,-0.003685046301501293,0.9999727592873174,-0.7934014364880602,-2.0538612356340407,4.134946346282959,-3.9065053199467976,-1.3891557858489951,2.0109213822925054,1.0,0.5042390808394368,0.5090194706627061,0.4073910752380077,0.837825435164659,-0.14543457059611856,0.3009480693189893,-0.4316567912588021
5.1000000000000005,0.06358491479686114,-0.2802147319013394,-0.01215520736864504,-0.003780490305658948,-0.0013005001148178085,0.20609335988537095,0.006170610328877116,-0.0032057026413447503,0.9999758097655278,-0.7921126083777916,-2.0550574360153067,4.134779749283905,-3.9065536556503164,-1.389296833668844,2.0108399391174316,1.0,0.5044900185312859,0.5092793149216522,0.40730935569092275,0.8377802304299822,-0.14542532614298775,0.30098003299906195,-0.43172535222381303
5.2,0.17679171141215289,-0.10521457833221246,-0.1259587450979125,-0.007061798357596807,-0.002995282116967582,0.20698114671633466,0.006069348581766004,-0.0029046772620521977,0.9999773441077494,-0.7910466050285945,-2.056380255455445,4.134599454443711,-3.906609729296209,-1.3894642035113733,2.010787642762227,1.0,0.5049145092414653,0.5097455095517336,0.40702260949973623,0.8377721768295077,-0.14540359894584354,0.3009791238364896,-0.43174893185572993
5.300000000000001,0.25099611462916527,-0.5414111506931779,0.00504016844774554,-0.00754831205554728,-0.0020039289733378204,0.2091704572282699,0.005889680439809328,-0.0025424257149211428,0.999979367333579,-0.7896926906042037,-2.0577895232323185,4.134458785738534,-3.906646489530216,-1.389597241078512,2.010650041444096,1.0,0.5051393446947391,0.5099624704351654,0.40680320331579894,0.8378078770718795,-0.14540732075063975,0.3009569255483489,-0.43169387435185663
5.4,0.5135278696877105,-0.017860343749030193,0.05109896427952437,-0.0008574385170832589,-0.009238098638052512,0.2094097675408662,0.0057162809695958895,-0.0022255716977298036,0.9999811852200757,-0.7882745502696049,-2.0589722033071665,4.134307873686978,-3.9067072563049012,-1.389752994615542,2.010623240302564,1.0,0.5056237268095891,0.5104800711618893,0.4063402045312869,0.837850605444714,-0.14542176222212427,0.30092399191190644,-0.4316290364652745
5.5,0.1939639028629775,-0.03536535580429628,0.02445793062316022,-0.0006331633150297012,0.0001709668568923607,0.2059414399079521,0.005731151621368886,-0.0022427433861135306,0.9999810615692096,-0.7869043757376759,-2.060011167760899,4.134144610502399,-3.9067694566500744,-1.3898981603584974,2.01054290460103,1.0,0.5057901519328066,0.5106404269106366,0.4063105360884703,0.8378122644202182,-0.1454167490269833,0.3009519652263828,-0.4316856417763601
5.6000000000000005,0.2522277743096139,-0.22734520578892828,0.029931293970215454,-0.00412002076658253,-0.003618403515463676,0.20207954621607485,0.005738805005330357,-0.0022381865448403656,0.9999810260597446,-0.7856712341308594,-2.061182202605739,4.133940463677809,-3.90688785728091,-1.3900760166620612,2.0104461337781823,1.0,0.5060748037353542,0.5108956848455025,0.4062349532114455,0.8377623906130236,-0.14542036910834527,0.3009903837994241,-0.43175442323503754
5.7,0.21580520809411927,-0.25122183961683664,0.022240950459616916,-0.00406330724322297,-0.005253826037254666,0.20507451040399607,0.005710565282542051,-0.0021255688064441935,0.9999814288974219,-0.7843566132632703,-2.062707792269631,4.133803791886109,-3.906945828148473,-1.3902340475145039,2.0103964805603027,1.0,0.5064573997564222,0.5113030019537017,0.4059741737126096,0.8377619249719411,-0.1453959629311115,0.3009725134932878,-0.43177600344643446
5.800000000000001,0.15729830861798086,-0.15662560479691806,0.06624366343161822,-0.003291097548975498,-0.002037939847602547,0.20490193973853355,0.005763342246396923,-0.0021954810647966875,0.9999807874332248,-0.7830317227419746,-2.063969275656742,4.133650997442351,-3.9069619152345663,-1.3903843567599046,2.0102972726167225,1.0,0.5067140004544473,0.5115726697157729,0.40567125330774045,0.837823050448625,-0.14539104633426725,0.3009420718513084,-0.43168026266280674
5.9,0.3376963802159022,-0.4069049019862522,0.03401457849913268,-0.005838621489682408,-0.002482512963028925,0.2087864998520726,0.006250134174751286,-0.0032432258332328982,0.9999745515333656,-0.7817321996967003,-2.0650301746235957,4.1334619443115255,-3.906976917040099,-1.3905446538980097,2.010189157550531,1.0,0.5071767581848048,0.5120480931295845,0.405295836168354,0.8378356582430357,-0.14540544940071654,0.3009288458685098,-0.43166016122093304
6.0,0.14786725084847316,-0.4843428196832015,-0.14541215548722058,-0.007198840685921564,0.0013719684421687837,0.20549062189195114,0.006608030953145526,-0.004008691604387557,0.9999700459834184,-0.7803874811377685,-2.0661240318768064,4.133267879486084,-3.907103042090426,-1.3907140034584224,2.010165737910105,1.0,0.5073301035074268,0.5121968996800994,0.4052872296253763,0.8377862489459346,-0.145408055943479,0.3009603517689528,-0.43173321045171764
6.1000000000000005,0.04527613649340022,-0.2021587918939785,-0.15151762735992336,-0.005371179338146646,9.879223625103512e-05,0.20239301652980696,0.006233419393572125,-0.0031699719643312274,0.9999753739744426,-0.779024146619344,-2.0674763555393256,4.133132104772322,-3.9072009244096266,-1.3908756302176988,2.01007036898184,1.0,0.5076144281401938,0.5124592730146312,0.4051712690170309,0.8377551434870474,-0.14541660025644548,0.30097085628629827,-0.43178336651282245
6.2,0.1317537241339527,-0.07443330013539251,-0.1702465396505725,-0.0027390195963749343,-0.00011870485727314599,0.2037330242698446,0.0065828641846162545,-0.00392646731645144,0.9999697116879298,-0.7777216228823234,-2.068893297977068,4.132944583892822,-3.9072475266872178,-1.3910224544809826,2.0099808814793665,1.0,0.5081277551615985,0.5129865848575903,0.40476559635309417,0.8377770082155792,-0.1454120107661113,0.3009708674148395,-0.43174247949196426
6.300000000000001,0.2236220966497239,-0.18415777722075,-0.07195910457739421,-0.0017424307942455464,-0.0015835067595987421,0.2065096121944619,0.007154417021879681,-0.0051712853684337525,0.999960751784195,-0.7764636083185588,-2.070088291851413,4.132778033476957,-3.9072620669685056,-1.3911669391470158,2.0099041417361323,1.0,0.508306839778251,0.5131905144094665,0.4045653828782899,0.8378113312481728,-0.14538845601858322,0.30095362514745644,-0.43169582532067774
6.4,0.23188052551746235,-0.12676673909083785,-0.0823170158109491,0.000426861777718049,-0.0018199817929856373,0.20633721863504453,0.0065380159110615425,-0.0037921842939604286,0.9999703059769325,-0.7751566198936869,-2.0711236936898505,4.132650953998155,-3.9073480059353916,-1.3913200229772853,2.009817651147637,1.0,0.508591711194984,0.5134673712428467,0.404359944310166,0.837810224633583,-0.14538570672746343,0.3009461275806271,-0.4317041256149935
6.5,0.39995141666488315,-0.3892735208537227,-0.02846210370340603,-0.009283919685664601,-0.0030668226341772986,0.2098787851105585,0.005962653150426927,-0.0025033037913083332,0.9999790611655723,-0.7736042114988547,-2.0724165988395944,4.132473820375825,-3.907483676159442,-1.3914654890643519,2.009736062390985,1.0,0.5090223889457874,0.5139052331226286,0.4041614028683679,0.8377628965027695,-0.14538123681090565,0.30096829590325136,-0.43178201686466094
6.6000000000000005,0.48415191235139143,-0.47371536536664904,-0.009872676847269597,-0.012560824162924741,-0.006227469486519224,0.20876194118901797,0.005755720839697385,-0.0020315252185222356,0.9999812771533129,-0.772367047715461,-2.0737829055524144,4.132272178518361,-3.9074670041359427,-1.3916188157785276,2.009657812666619,1.0,0.5092104023746371,0.5141128357767286,0.4040937599760926,0.8377208458704895,-0.1453850474255392,0.300993932028996,-0.43184444567555774
6.7,0.300808652317219,-0.23551675213131118,0.03545380132251305,-0.006567354547217255,-0.0025617831736961987,0.2048247082931104,0.006197070811080547,-0.0030415385479608268,0.9999759040996716,-0.7712547563475849,-2.075004486498192,4.132108241082104,-3.9075352148045415,-1.391752313393366,2.009617328643799,1.0,0.5095344154793939,0.5144239160710498,0.4037914773705044,0.8377591123021978,-0.1453957777948786,0.3009691170646669,-0.43178389053711863
6.800000000000001,0.056053828875161686,-0.184090796138967,0.05619777094662302,-0.007057641779765251,0.0009245417040436158,0.20130944114440014,0.006359345290790927,-0.003423773655196098,0.99997391729364,-0.770071128175234,-2.076179817287899,4.131959584943595,-3.907511234550732,-1.391885933928013,2.0094971656799316,1.0,0.5100107801991817,0.5148986044968458,0.4032773400479983,0.8378487159150285,-0.14539198495781996,0.30091252485272535,-0.4316507295676924
6.9,0.3069727207249727,-0.3421259516105375,0.03456412953113716,-0.007272008522322206,-0.0012958967411848563,0.20320716209597262,0.006337725470185192,-0.003392339915218034,0.9999741618251978,-0.7682587815369497,-2.0775043006032563,4.131790371045007,-3.9077657661833705,-1.3920392120382534,2.0094467966863285,1.0,0.5101804760429155,0.5150811122198931,0.40315182959809454,0.8378357495253117,-0.14538335555488102,0.30092701817790635,-0.4316686999025019
7.0,0.488145522010499,-0.19995851434664802,-0.3367004088084142,-0.006079713906138027,0.023932381985739173,0.2065033381181209,0.006237446886145322,-0.003217127830606576,0.9999753597168862,-0.7672388021459176,-2.0783588036384626,4.131590579875926,-3.907907062066563,-1.392132133452253,2.0094091620489554,1.0,0.5106478575742204,0.5154908720566207,0.40310926571272804,0.8377212149741379,-0.14542097396074513,0.301011341317432,-0.43181949783774604
7.1000000000000005,0.10177185742413888,-0.2214819484210271,0.1325349635188847,-0.001472166429103726,-0.002399821642870232,0.19725391549461274,0.005979082174905195,-0.0026735595119584442,0.9999782794181841,-0.7672913667356225,-2.0783603688474463,4.131608336213788,-3.9078764819702223,-1.3921473662005823,2.009371130708417,1.0,0.5107727962911047,0.5156455871798974,0.40298476044280024,0.8377378428760165,-0.14540830581318065,0.3010016202179602,-0.431798281423331
7.2,0.08438856005323618,0.03995447119033693,-0.05663484970362784,-0.006299809423650195,-0.003641776116238369,0.1992565974371297,0.005646705241049167,-0.0019383494875013676,0.9999819582950878,-0.7673120498657227,-2.078374531881145,4.131628506564798,-3.9079143363147684,-1.3921675531022428,2.009376055813131,1.0,0.5107901883902648,0.5156563521095807,0.40294735468242876,0.8377588173154452,-0.14539365795943998,0.3009868554647669,-0.43177281187313243
7.300000000000001,0.20600298043497922,-0.034184315814592636,-0.012716384419272558,-0.004700552947702754,-0.0009688067269833802,0.19945250804970047,0.005452851425914963,-0.001522604416658909,0.9999839632237384,-0.7672968582582139,-2.078368345210855,4.131639003753662,-3.9079265271187227,-1.39215777045236,2.0093579482138857,1.0,0.5107983904028913,0.5156500970234643,0.402942131910135,0.837757077196206,-0.14542408468667886,0.3009844627490364,-0.4317676092348587
7.4,0.13508543565155928,-0.3259268242591452,0.052361541070623754,-0.015607413271648204,-0.004393376908999427,0.20315301804405034,0.005412572294834932,-0.001452427860423002,0.9999841635102987,-0.7673518662458877,-2.0783942538890914,4.131636958246392,-3.9079348644412346,-1.3921693198979352,2.0093437622736277,1.0,0.5107866244645247,0.5156458182553986,0.40291886529262744,0.8377857478316021,-0.1454024801541587,0.300960392692334,-0.431736032230041
7.5,0.30449237051268313,-0.2774827847729039,0.26049060411585095,-0.0068371628664931705,-0.0022429070346415116,0.20649444076761064,0.006139233407309858,-0.0030198084124762503,0.9999758759641495,-0.7673376438755326,-2.0783802784662906,4.131606610137534,-3.907910740334779,-1.392165439046649,2.0093655586242676,1.0,0.5107936034945837,0.5156528202313905,0.4029043345567462,0.8377853317845203,-0.14539421244756806,0.30096609432220395,-0.43173564932941505
7.6000000000000005,0.07855355879606782,-0.047208919830627374,0.22423958517339504,-0.002707780217109923,0.00227305348951679,0.20117202253612285,0.006304964576145862,-0.0033784932217677593,0.9999742136318628,-0.7673195162048269,-2.078369709110001,4.131624814066164,-3.90790691341436,-1.3921578227185285,2.009381689559933,1.0,0.5108201189739475,0.5156339943120634,0.40288595661884463,0.8377892299981156,-0.14541569746181035,0.30096634147257617,-0.4317206762844153
7.7,-0.1565502136393923,-0.10735098689674041,0.15088708730207206,-0.0045783442373246285,0.010304601352820424,0.19780897568438996,0.006004570296626562,-0.0027327676739209205,0.9999780567656635,-0.7672912536892369,-2.078390276154533,4.1316131622178816,-3.907922699482313,-1.3921254471098552,2.00932756565505,1.0,0.5108028151277073,0.5156418504840045,0.40291165878892554,0.8377793034195974,-0.14541061973064623,0.30096734845338025,-0.43174094732404666
7.800000000000001,0.21107853544193833,-0.10265825277594634,-0.05263680996208545,-0.003995107274427949,-0.0024017871081010323,0.20131063463951573,0.005822465574186059,-0.00233271675533705,0.9999803175425699,-0.767298698425293,-2.078380056005491,4.131606387676735,-3.907936521154417,-1.3921473662005823,2.0093674428687573,1.0,0.5108014626767792,0.5156479180885192,0.4029040969355491,0.8377827541709865,-0.14541149132989817,0.3009681395555196,-0.4317334061378398
7.9,0.25194734048216694,0.0317728187932461,-0.02960838443805562,-0.0013253021759296268,-0.002978990116077428,0.19902299760905812,0.00574876706009964,-0.002159598747198332,0.9999811395204518,-0.7672793667504523,-2.078403979012923,4.131597923944626,-3.907939224444383,-1.3921559851761456,2.0093454214629753,1.0,0.5107922916089326,0.5156603770710262,0.4029126881867499,0.8377816700945031,-0.14539460866988707,0.30096770881037316,-0.4317414958940479
8.0,0.18293561304781772,-0.27990386839288645,-0.03972886826722927,-0.008645450981325015,-0.0015376295215638505,0.1983924336115133,0.005902203437393845,-0.0025214199630817164,0.9999793249726799,-0.767317699719791,-2.0783983683170524,4.131635191755157,-3.907940968417785,-1.3921577817274726,2.0094122137751813,1.6608783964957157,0.5107989189140993,0.5156462628382477,0.40290597836711206,0.8377883006783433,-0.14540361673772456,0.3009608421075009,-0.43173038230361593
8.1,0.16279624078628321,-0.32638935712481343,0.0356250425542034,-0.009119578600424214,-0.00349102569735795,0.19984901075684272,0.0060483222593629695,-0.0028672611067125067,0.9999775925817053,-0.7673153237551613,-2.0784207980430276,4.131603914415117,-3.9079414782842132,-1.3921780313642103,2.009398435875354,2.0,0.5108092844084721,0.515639465045353,0.40289917359772126,0.8377876186731406,-0.14541420814244252,0.30096556702528576,-0.4317248447025527
8.200000000000001,0.23200597132162049,-0.1981292989781132,0.01025571340983214,-0.008258308392285436,-0.0014238585739308673,0.2029039591180553,0.005761817527056083,-0.0022683392320426163,0.9999807174092933,-0.7672846202422603,-2.078408642825679,4.1316317568177165,-3.907914181484399,-1.3921728775174709,2.0093866596401297,2.0,0.5108162958683107,0.5156469902977382,0.402894921014511,0.837782408993968,-0.14541530119602433,0.3009738269716876,-0.43172882789587946
8.3,0.07606803897282688,0.09139426492795028,-0.1343164899785994,-0.010028356204652308,0.00429498902014489,0.19997756157735777,0.005621512287782539,-0.002000896771125086,0.9999821965826626,-0.767331156664636,-2.0783903228585374,4.131598401805971,-3.9079088173308314,-1.39213946299285,2.009380004640416,2.0,0.5108209616706579,0.5156467781218701,0.4028723169193494,0.8377955703429272,-0.14541782621235205,0.30095743723250634,-0.43171386253847105
8.4,0.15015300805581464,-0.21867732922312216,-0.13067981870468354,-0.014196788077231126,-0.006517102458344503,0.2026594936692628,0.005623338306656425,-0.002055709778739522,0.9999820758947758,-0.7673120498657227,-2.0783783846522055,4.1316008119358285,-3.9079097934277365,-1.3921607010197246,2.009378971531162,2.0,0.5108279063120386,0.5156409185140676,0.402882720340792,0.8377858401312882,-0.14542446834297973,0.30097944520689746,-0.43171516494747036
8.5,0.1942745075710528,-0.3828903458687913,-0.00898106416203276,-0.006691686653082224,-0.006004162961184822,0.20527333611641657,0.005595101703316715,-0.0019397017097986524,0.9999824623799802,-0.7673109841611855,-2.078435085581262,4.131615161895752,-3.907911690926994,-1.392138299837352,2.009390354156494,2.0,0.5108170792220852,0.5156466424445408,0.40288163810699607,0.8377891918766422,-0.14541479582777872,0.30097171970873626,-0.43171730456933716
8.6,0.025258044534339323,-0.03741647495040379,-0.056662454444303435,-0.007630762955751167,-0.004812518826870029,0.19910936212950833,0.005764525922171973,-0.0022778688488915635,0.9999806881237373,-0.7673225351986784,-2.0784131939523864,4.131601725474227,-3.907921756941055,-1.392180569754942,2.009402836903702,2.0,0.5108165315694647,0.5156565526513985,0.4028807365366548,0.837786799267172,-0.14540065699065555,0.30097625264992134,-0.43172354957908365
8.700000000000001,-0.019246598096709845,-0.0849322497454631,0.07325812243409578,-0.005055172404892408,-0.007233226139738282,0.20079775861014837,0.005871540757084876,-0.002481814597607625,0.9999796216813557,-0.7673120498657227,-2.078420493696616,4.131617133804985,-3.9079328976073207,-1.3921597639666956,2.009399826339058,2.0,0.5108138630643969,0.5156397819750363,0.40287513326126123,0.8377977660422117,-0.1454085190332,0.30096828830900846,-0.4317051716618606
8.8,0.04697261846212863,-0.17639095621948406,0.07944504624419953,-0.005912950206832714,-0.0036781909407523003,0.2024273751248048,0.005684898266153848,-0.0020206939193206834,0.9999817938501805,-0.7673228968108866,-2.078400125029647,4.131615460469068,-3.9079204367007367,-1.392159608708571,2.009401201101658,2.0,0.5107976564171836,0.5156630773977964,0.4028680747145223,0.8377992775618432,-0.14540588692882978,0.3009467147068901,-0.4317181643971257
8.9,-0.29290354954906506,-0.11835012360320325,0.023516664606791773,0.006984318278906302,-0.021392277487730392,0.19697359441967213,0.0056260241898876545,-0.0019222029617861716,0.9999823235528587,-0.7673333512414775,-2.07841259194722,4.131602764129639,-3.9079672961368477,-1.3921243177465916,2.0093775438203427,2.0,0.510803120796699,0.5156565889799607,0.40286814230017876,0.8377997946568303,-0.14539757248380006,0.3009581331202611,-0.4317120013360274
9.0,-0.8178818393752216,-1.1359951100083576,0.21675166424135836,0.026096607410002776,-0.09483306959741189,0.18975067478772956,0.005588379765104443,-0.0018681474853554857,0.9999826397358302,-0.7673219104673964,-2.0784052227229397,4.131607778515028,-3.9078999899104314,-1.3921818903769723,2.0093401332762344,2.0,0.5108068711152391,0.5156506127561935,0.4028788016617008,0.837797747247673,-0.14539716067651148,0.30096375256533303,-0.43171219581536696
9.1,-1.6443236306480233,-1.9452808553299412,0.33550629965694423,0.061918085553816796,-0.1922816963317808,0.18058719173936952,0.005570842932794532,-0.0018528621105157006,0.9999827661371009,-0.7673156283492939,-2.078382023838975,4.131615161895752,-3.90791887446626,-1.3921854696181324,2.009337989179304,2.0,0.5108136245860385,0.5156428053666333,0.40288795697426494,0.8377890472635466,-0.1454104120078457,0.3009671768727241,-0.43172222876545274
9.200000000000001,-2.6272030844503327,-2.2003098312920466,0.39265317814626965,0.10452460112541206,-0.2708137377479934,0.17185390180734395,0.005884882272859517,-0.002452809845238767,0.9999795299884184,-0.7672941191194186,-2.078404790622833,4.131632138967739,-3.907906514014502,-1.3922019147023252,2.0093416537670112,2.0,0.5108165332859373,0.51565189692859,0.4028861069040763,0.8377856535031776,-0.1454118135936582,0.3009599332130025,-0.431733392097579
9.3,-3.119086803702376,-2.5227871321985362,0.38796635146428404,0.1305838877554688,-0.31820135036365865,0.16367314009039688,0.005823469251360402,-0.002258622086662326,0.9999801880640729,-0.7673830345736821,-2.078435946958875,4.131615248434275,-3.9079089994223075,-1.3921459356891077,2.009377862640314,2.0,0.5107959753357858,0.515674455979371,0.4028655107317423,0.837797811020504,-0.14540480541184542,0.30092761804540724,-0.4317346860166703
9.4,-3.3358923917855177,-2.7403793420453,0.5778040536008234,0.15074054857663974,-0.3547509474441668,0.15443730583496387,0.005557197864341573,-0.0016861896487660047,0.9999829776053021,-0.7673376649804153,-2.0784267382233486,4.1316403672192115,-3.9078953469587305,-1.3921473662005823,2.0093739708756977,2.0,0.5108037427395161,0.5156580379433251,0.4028957394602716,0.8377842737162456,-0.1454173378217836,0.30095536786820065,-0.43173739139190176
9.5,-3.217565830969599,-3.2728434436104723,0.5584633139369422,0.14658057662847038,-0.37799208486027935,0.15706583424313544,0.005896543051805415,-0.002469726419703248,0.999979505536937,-0.7672972256825025,-2.078412962298797,4.131662109240177,-3.9078751326270678,-1.3921465991470456,2.009390354156494,2.0,0.5108062319785205,0.51567379790764,0.4028690570264745,0.8377898588829449,-0.1454132286878435,0.3009508239933718,-0.431731104755243
9.600000000000001,-3.001239634126248,-1.8640822870173461,0.7602440181227612,0.09818041037505099,-0.35617318896956207,0.1606345235160321,0.006033512408110056,-0.0027671842904530043,0.9999779656603501,-0.7673286409661321,-2.0784540587150544,4.131628760252848,-3.9079307847701994,-1.3921375166805694,2.009356103085055,2.0,0.5108001197048503,0.5156670976578157,0.4028777978918109,0.8377916557878097,-0.14540909001737629,0.3009513460336826,-0.4317286478254061
9.700000000000001,-2.7226720849009918,-0.8742214497946401,1.0418054518814053,0.043665666906593806,-0.3299474925010316,0.15831922803570472,0.006222239551790073,-0.003212490087728673,0.9999754071228186,-0.7673449203655578,-2.0784217936262617,4.131653555419757,-3.9079378044414557,-1.3921354452716272,2.0093971531523835,2.0,0.5108057443606148,0.5156640011426157,0.4028497859479068,0.8378083391802602,-0.14540599751947467,0.3009583021248936,-0.43169246352870483
9.8,-2.257615418131222,-0.6972528642131836,1.1439534760272674,0.025083153366263426,-0.29870592395107076,0.1659633340743072,0.006469441690642333,-0.003777916839438985,0.9999718052094805,-0.7673465747830898,-2.078424116174215,4.131633321545239,-3.907924513937752,-1.3921473662005823,2.0093655586242676,2.0,0.5107995847075067,0.5156707096928966,0.4028362171946935,0.8378164425692618,-0.14541593329733823,0.3009387790590501,-0.43168700022388795
9.9,-2.1159422449443572,-0.4643194337047728,1.269843681400817,0.0031579951539005002,-0.2829857984214223,0.1696904667984368,0.006798998676535411,-0.0044990000019183,0.9999666994409165,-0.7673503880681899,-2.0784049470729817,4.131634330996985,-3.9079424821579374,-1.392125954176144,2.0093541145324707,2.0,0.5108022873715916,0.5156525256246617,0.4028694590813707,0.8378016752530957,-0.14542055700091452,0.3009554348279455,-0.4317024910655165
10.0,-1.8848742412484323,-0.5838845251220125,1.551793355389137,0.010478697986620659,-0.27171123221258175,0.16744151612520602,0.005784366414979067,-0.0022630239461794524,0.9999800301979165,-0.7673468258541832,-2.078447448070879,4.131615161895752,-3.9079562295039842,-1.3921354452716272,2.0093774464291343,2.0,0.5108085310366112,0.515668304936515,0.4028329462472008,0.8378131171352359,-0.14541308317324972,0.30093387840557884,-0.4316978304624258
10.100000000000001,-2.1008250045521804,-0.19348901350243963,1.7778975918652413,0.016835158973982575,-0.26375916200864835,0.16527035444425248,0.005466118344495109,-0.0015708606445349394,0.9999838041609003,-0.7673373051233675,-2.0784025503490464,4.1316289730616,-3.907928300021183,-1.392134995547689,2.0093531879713744,2.0,0.5108040241185238,0.515664738417748,0.4028421892543176,0.8378149685357179,-0.14540286504332306,0.30093455793534535,-0.4316972054286954
10.200000000000001,-1.9917511187899146,-0.021708947410332434,1.9081620882364028,4.288167855411376e-05,-0.2657400853369715,0.1666626898802346,0.005493494633090617,-0.0016282085914104004,0.9999834620670381,-0.7673191195698914,-2.0784384043778434,4.13161745477278,-3.907913641926244,-1.3921449777870119,2.0093783165520986,2.0,0.5108093436497976,0.5156595120338798,0.4028483510717579,0.8378087765581519,-0.145404439273993,0.3009466860785158,-0.4317002375490515
10.3,-1.8282220983076165,-0.0788759125816954,2.0110657407214423,-0.018440649823526264,-0.27221712310043433,0.17129510936141298,0.005838304316847512,-0.002355492343161011,0.9999801013642866,-0.7673548351820104,-2.078424116174215,4.131595264763058,-3.907913626160465,-1.3921811566248394,2.0093297441073146,2.0,0.5107921196249879,0.5156524617843223,0.4028584543611532,0.8378067177752678,-0.14541149643537904,0.30094069820949376,-0.4317060302060175
10.4,-1.9147588977377858,-0.18726023575652367,1.9496237407202373,-0.0229140697342767,-0.2806882111362346,0.1708045893102332,0.005983105332460717,-0.002665824392528803,0.9999785322224345,-0.7673249725955927,-2.0784479580321253,4.131615161895752,-3.9079328976073207,-1.392193986505568,2.0093810368863667,2.0,0.5107911090793429,0.5156728970023222,0.4028525295447789,0.837807610752112,-0.14539503163694076,0.30093618420161883,-0.4317129893567019
10.5,-2.0435545763961627,-0.10085909759696118,1.8348123283633675,-0.019453407514281477,-0.27835260787016225,0.1695974212023769,0.006181963921370377,-0.00309532718578742,0.9999759072518973,-0.7673216067447114,-2.0784218942901145,4.131617294904489,-3.9079599224009978,-1.3921496769600472,2.009352915062226,2.0,0.5108101738664649,0.5156516739206678,0.40286617610901876,0.8378003030818507,-0.14540959343150955,0.30095696094235236,-0.43170778305977453
10.600000000000001,-2.1839220499382836,-0.07979450558298713,1.8359898856917947,-0.016476886263544006,-0.27390735315159176,0.16645942164281932,0.006616216007488065,-0.004030630744616978,0.9999698429477397,-0.7673391458502168,-2.078422093193013,4.131613057995302,-3.9079349205885228,-1.3921514121629865,2.009367662524718,2.0,0.5108291762812122,0.5156485302950116,0.40285060569036646,0.837802684201443,-0.1454164675353959,0.3009472458850537,-0.43170761923851364
10.700000000000001,-2.0247891612917677,-0.22747920177451908,1.9111215762016824,-0.018907732879554405,-0.2789976288893172,0.16778672650839674,0.006116192548114892,-0.0030115236679203123,0.999975921034517,-0.7673302223906587,-2.0784146513174777,4.131615161895752,-3.907930392413659,-1.3921548326601236,2.009340096963431,2.0,0.5108133556662822,0.515643536887067,0.4028716186831869,0.8378007075593048,-0.14540446169011126,0.30095209478269525,-0.4317121188704862
10.8,-2.073715062993316,0.11727266355572674,1.766209329129574,-0.01141963206541076,-0.2792890318356763,0.162779440014737,0.005578012785122197,-0.0019204674996669477,0.9999825971693755,-0.7673302904214708,-2.0783956153058587,4.13161924724346,-3.9079137070226273,-1.3921306039926216,2.0093351139535662,2.0,0.5108268852572663,0.5156360015992828,0.4028859715123595,0.8377864262921737,-0.14541916314382486,0.30098131176223925,-0.431714513169316
10.9,-2.4382422457084014,0.04420147828704968,1.8711256902662687,-0.01108605626289651,-0.2709371484858971,0.16190432884064346,0.005595181371678197,-0.00201167431167497,0.9999823221336728,-0.767359733581543,-2.078416668304816,4.131636421825604,-3.9079182556366536,-1.3921621472849033,2.00940664884008,2.0,0.5108323154176296,0.5156324875380801,0.4028650830736916,0.8377949690855924,-0.145426503892925,0.30097497123386574,-0.4316998823617241
11.0,-2.29548163411794,0.04089342825027947,1.8200577969608456,-0.011051567232248505,-0.27532355980411516,0.16294827200685488,0.0057579473290036865,-0.0023098486429529333,0.9999807022698434,-0.7673565405671314,-2.078404972988907,4.131617473017785,-3.907918330841002,-1.3921473662005823,2.0093804601059166,2.0,0.5108087392045245,0.5156500759949721,0.4028834055471014,0.837792823406874,-0.14541621509857677,0.3009620505781925,-0.4317165198902082
11.100000000000001,-2.1153553462376053,-0.23775276951914084,1.6349513296460514,-0.01841431435314805,-0.28007264149791583,0.16934614709470405,0.005826447242800465,-0.0023930761214843287,0.9999799964583455,-0.7673325038836166,-2.0784096596559896,4.131595640389208,-3.9079062310297754,-1.3921621981323955,2.0093877171436527,2.0,0.510814266985375,0.5156562486235101,0.4028511650591019,0.8378000718698548,-0.14542378809921588,0.3009518694031489,-0.4317069998650596
11.200000000000001,-2.262200820235478,0.03051099993247984,1.7669137510824426,-0.010943464902392635,-0.2784619802439553,0.16152331776172218,0.005352070277242045,-0.0013856997058186544,0.9999844757883009,-0.7673211181619539,-2.07841219524526,4.131590366363525,-3.9079467908213,-1.392145443411299,2.00940667266178,2.0,0.510807525153338,0.5156549773181922,0.40285981316726843,0.8378015780918802,-0.1454212957996124,0.3009494474205,-0.4317066047352217
11.3,-2.199776199516715,-0.09686219736942447,1.7043285196551377,-0.014388446889547343,-0.2778095744872685,0.1670224140072632,0.005264770496586291,-0.001231443527984398,0.9999853617231801,-0.767318122765318,-2.078424116174215,4.131597965742341,-3.9079328976073207,-1.3921712080584925,2.0093949245894414,2.0,0.5108147082883303,0.5156379978093598,0.40286485536960465,0.837798667484154,-0.14542042936367913,0.30096124593626467,-0.4317043200269727
11.4,-2.2939664225440457,-0.3510872582969238,1.7876249081768323,-0.01723490260971007,-0.2766750001200167,0.16077884383879368,0.005398279018262015,-0.0015533986300648942,0.9999841857808657,-0.7673016817472674,-2.078425620194145,4.131615161895752,-3.9079486951506213,-1.3921543300588135,2.009398238650284,2.0,0.510809217128815,0.5156366696798204,0.4028662247555434,0.837803933381466,-0.1454210580524242,0.30096306010427937,-0.43169262390979746
11.5,-2.1119862476632867,-0.24936552473967166,1.8667939244945846,-0.01350234317663474,-0.2893241002794004,0.16865706690168442,0.0056257983807408065,-0.002033368555728889,0.9999820818765767,-0.7673285009707103,-2.078407784836091,4.131621598974358,-3.9078922976442603,-1.3921405524250818,2.009398974694305,2.0,0.5108225746114035,0.5156397359264252,0.4028749260711733,0.837791082968921,-0.14543222867728808,0.3009643589298654,-0.4317128939627062
11.600000000000001,-2.287329054228297,-0.3686649979520901,1.7357654348649236,-0.013714851560766187,-0.2838754813304312,0.15981346359272713,0.005425424172443119,-0.0015861640264972757,0.9999839757583304,-0.7673200479029142,-2.0783910554269416,4.131605574250814,-3.907930141526937,-1.3921555804009411,2.009390354156494,2.0,0.51081377586422,0.515635495061701,0.4028838292164917,0.8377958360996953,-0.14541666633153247,0.300965813917508,-0.4317078977966562
11.700000000000001,-2.127960945134492,-0.2550005736621743,1.7580722276210936,-0.01181623769271982,-0.2884135754220656,0.16696726944013845,0.005589544920181554,-0.0019156561285472691,0.9999823525676219,-0.7673396948959443,-2.078395111532869,4.131626605987549,-3.9079396041250054,-1.3921354452716272,2.0093831191738167,2.0,0.5108184956013438,0.5156437401114045,0.402896659814701,0.837782108183443,-0.14542015027126573,0.3009723338105417,-0.43172881926438994
11.8,-2.276306395416612,-0.1996511359086981,1.8173366032252893,-0.009559796222383116,-0.28489718505229183,0.1648892947360801,0.005878280993835132,-0.0025155849395672074,0.9999795435130097,-0.7673235774976643,-2.0784060381322758,4.131623839355883,-3.9079120348976706,-1.3921597639666956,2.009377956390381,2.0,0.5108109264891748,0.5156512720711717,0.4028838870548654,0.8377895813698868,-0.1454084211172697,0.3009684390226635,-0.43172098296065486
11.9,-2.3071640406583027,-0.21106649163579946,1.870471718428082,-0.008951089227847642,-0.28440427391578976,0.16005397452228137,0.005746221160196951,-0.002248095701131561,0.9999808937833163,-0.7673345462423691,-2.078427747889533,4.131617814444116,-3.9079115804020437,-1.3921382083428397,2.009380829984442,2.0,0.5107973589968082,0.5156541124902404,0.40287236109344043,0.8378002377032561,-0.14540237537755696,0.30095321129078023,-0.4317129550438561
12.0,-2.1544568252159375,-0.2374661512234373,1.755142908578989,-0.013614471212995184,-0.292745770454244,0.16645180011677776,0.00561416132655877,-0.0019806064626959148,0.9999822440536231,-0.7673334465801644,-2.078402762471966,4.131631439760452,-3.9079207382597865,-1.3921354452716272,2.009385178792719,2.632950079390998,0.5108004964722876,0.5156395033036201,0.4028788925835355,0.8378028863782578,-0.14540484702675344,0.3009568686816964,-0.4317044327206916
12.100000000000001,-2.3318786618093545,-0.008100016672350177,2.419776839953774,-0.014353807199759164,-0.2879975459699912,0.16665410842310707,0.005441754549781522,-0.00160143881977105,0.9999838087199077,-0.7677364349365234,-2.078035970727438,4.131636571920143,-3.907947339493359,-1.3921135584100781,2.009409519411483,3.0,0.5108057383672132,0.5156361331360784,0.40287070267028213,0.8378052170247425,-0.14541482900734587,0.3009538534850868,-0.4316986494110975
12.200000000000001,-2.321897582834401,-0.041841182825367085,3.3421951256036073,-0.012142007748578088,-0.2910244299256115,0.15031040278682092,0.00524597393937404,-0.0011575735258339678,0.9999854975902961,-0.7689752578735352,-2.07687749552699,4.131656885822501,-3.907838548553962,-1.3920028845416468,2.0094649601252828,3.0,0.5107097593281335,0.5155043025797184,0.4029632555853154,0.8377994654717194,-0.14540984742331126,0.3009568798342208,-0.43170937956926664
12.3,-2.6648040250375193,-0.2289616908932137,3.8792430154152417,-0.006980160836729257,-0.3012936557333391,0.12061731311890199,0.005085966369822118,-0.0009330218839711756,0.9999866234542912,-0.7704293747901586,-2.075727379321956,4.13180729587859,-3.9077588677405353,-1.3918534117885089,2.009494767800865,3.0,0.5105468755629913,0.5152498359301572,0.40309268256358705,0.8378013960959718,-0.1454444376118852,0.3009681466086258,-0.43168612555231833
12.4,-2.4464605163124165,-0.0739782526209741,4.352613933995137,-0.029998377188023215,-0.31164695475595866,0.09114428045086384,0.0049722273718197174,-0.0008632665892993945,0.9999872639357923,-0.7716566165787636,-2.07442925783439,4.132106724840941,-3.907683541659447,-1.3916672981537397,2.009623630891508,3.0,0.5101359275451729,0.5148403300171757,0.40331283271288915,0.8378310604934852,-0.1454480435537493,0.30096720673461763,-0.43162798932542695
12.5,-2.707768183355199,0.13541318740887226,4.789448274463129,-0.040633030648943795,-0.33058035797452306,0.058270756695929626,0.005048309410803738,-0.0009687205898363896,0.9999867795656738,-0.7728882456004712,-2.073094961152071,4.132272135608903,-3.9075743814808113,-1.3914988447233603,2.009688870340119,3.0,0.5099073694704207,0.5146702479340376,0.40348669993287956,0.8378217554380177,-0.14542533324975399,0.3009652288395056,-0.43165508174182354
12.600000000000001,-2.731088644693046,-0.030736242580102963,5.091886030315021,-0.04100234591486,-0.34110562073726036,0.03334316974237578,0.005135531346330407,-0.001101093006073077,0.9999861905640379,-0.7742838713371029,-2.0718514768987975,4.132438014604302,-3.9075123272337855,-1.3913656472530715,2.0097861289978027,3.0,0.5096432635861279,0.5144021559240042,0.4037301292968304,0.8377915486498578,-0.1454343688850368,0.30098840829368156,-0.43169450243282015
12.700000000000001,-2.5853016247488245,-0.26469542770701915,5.255144838659507,-0.040843737958516715,-0.3424230673017483,0.010925910283253506,0.005315984227999952,-0.0014587484269357064,0.9999847258904125,-0.7757677712719055,-2.0706815959871694,4.132628556106235,-3.907452007333273,-1.3911776185501912,2.0098429142841634,3.0,0.5091715474067571,0.5139397404248572,0.40404407828019895,0.8377934603463202,-0.14544394697967158,0.3009796576797218,-0.4316936665633526
12.8,-2.6354038648518188,0.20169675759448974,5.147424665338797,-0.0567987969465425,-0.3485819198892707,-0.01106402524608482,0.005472314782218647,-0.0017690426625734837,0.9999834594852922,-0.7769956167878936,-2.0696074550242676,4.132787269717233,-3.9074071382239532,-1.3910355747723955,2.00993013381958,3.0,0.5089183036000835,0.5137303145736524,0.4041532607933176,0.8378271531586354,-0.145428800281952,0.30094797018370667,-0.43165546993053994
12.9,-2.6420588206583817,0.5576603257246222,5.537508154624685,-0.08404878037164668,-0.3519238947271305,-0.03222434560365668,0.0054045563933571485,-0.0016393661714359682,0.999984034933113,-0.7782800483703614,-2.0681214930612186,4.132943840026855,-3.907302662332688,-1.3908980417198897,2.010032375653585,3.0,0.508538723368751,0.513323845323613,0.40441774907102684,0.8378271465935008,-0.1454437983218838,0.3009652448119949,-0.4316383849658786
13.0,-2.5990426458622564,0.2682910216369141,5.599921563325968,-0.09761711961808574,-0.34829602044969793,-0.05224024895232263,0.005336798004495651,-0.0015096896802984528,0.9999846103809339,-0.7796098902272773,-2.0668031362527644,4.133156290360506,-3.907260080377096,-1.3907424942914886,2.010094266212471,3.0,0.5083389040751992,0.5131107676588273,0.40464864808194567,0.8377887838954508,-0.14544887571305193,0.3009820094312142,-0.43169944189394044
13.100000000000001,-2.986576537964554,0.5773515234958703,5.694324075445845,-0.06132515791870034,-0.357267590243853,-0.06133669640396505,0.005338292948460477,-0.0014669058097640456,0.9999846745371322,-0.7810390089988491,-2.065697922555181,4.133296610166008,-3.9071939788016508,-1.390625301991598,2.0101789271351858,3.0,0.5077949745907087,0.5126141857770979,0.405076833617362,0.8377662091847833,-0.1454054740667959,0.30097775698187823,-0.43176083270918125
13.200000000000001,-3.117649679947371,0.7455512628679498,5.787789229891644,-0.0645974320037993,-0.35476947632001105,-0.04886232608893431,0.005392174880151619,-0.0015002442990377665,0.9999843325050307,-0.782261848449707,-2.0646094696570687,4.133510112762451,-3.9070937631741245,-1.3904395154413336,2.0102816437813695,3.0,0.5076596179772513,0.5124738593713825,0.4051079276161454,0.8377962884695992,-0.14541307204452997,0.3009670008863256,-0.4317074030899018
13.3,-2.7355238502610564,0.6397239689372383,5.931548944354947,-0.09713513532484784,-0.3594491113092257,-0.041047263434135554,0.005492859646472868,-0.0017086413923034138,0.9999834275381081,-0.7835977506462618,-2.063262334605827,4.133680847148554,-3.907049436470402,-1.3902806908800145,2.0103167643362507,3.0,0.5074179129136746,0.5122389131918533,0.40523232880183113,0.83781217796727,-0.14542009004059164,0.3009650885580072,-0.4316755347846303
13.4,-2.8378997393651595,0.9027281275453319,5.9696173963941215,-0.1255756441590688,-0.3598542451658864,-0.035969438011883494,0.005580314798654209,-0.0018882207708109373,0.999982644391131,-0.7849199050779826,-2.061785348798301,4.133842576682298,-3.90698455375941,-1.3901393933498145,2.0104398843192737,3.0,0.5069421072438146,0.5117874946585687,0.40560765409170035,0.8377872860789355,-0.1454155725479535,0.30096401183112376,-0.4317261147157508
13.5,-2.8304217985023383,0.7721528857343549,6.0519374795150584,-0.13044316911820075,-0.36299354703993486,-0.03720845102877439,0.005501577890735555,-0.0017057884283130293,0.9999833915614794,-0.7862319770496562,-2.0605743242771,4.1339898109436035,-3.906936069528097,-1.3900110664557086,2.0104908250415034,3.0,0.5066861695870107,0.5115164616021178,0.4058171957491964,0.8377757871625484,-0.14543271914417574,0.3009609900711893,-0.43174475920603017
13.600000000000001,-2.74332054290784,0.68215837369219,6.193022421039564,-0.13052885407921333,-0.36228355773786414,-0.030595451658488215,0.005429132367248791,-0.0015387314911363954,0.9999840781780054,-0.7874644883729841,-2.059547133840656,4.134173429388617,-3.906851907769674,-1.389846233299585,2.0105806338741417,3.0,0.5062924710380226,0.5110922181945423,0.4061274700336696,0.8377656331914474,-0.1454143900695521,0.3009807801382463,-0.43175684012115656
13.700000000000001,-2.7277523628481335,1.0427120291479128,6.242387406942482,-0.12724531544332915,-0.35609536648106205,-0.0296369309757695,0.005443486571034671,-0.001583802902344928,0.9999839293575403,-0.7888758738253342,-2.058379330479897,4.134391637672294,-3.906825131390977,-1.3897150198565882,2.010630754600655,3.0,0.5060782054531686,0.5108968740768766,0.4062109005643836,0.8377929396376306,-0.14542882828904283,0.3009502475732152,-0.43172027365116183
13.8,-2.848090266611345,1.342958696303872,6.301546483029657,-0.15244498707457604,-0.3620436802303451,-0.03005237672224366,0.005217819491735656,-0.0010826373129790145,0.9999855266734453,-0.7902323498668898,-2.0569129197713285,4.13456179498369,-3.9067677460112513,-1.3895590941058558,2.010738645584432,3.0,0.5057953429887929,0.5106114022713827,0.40631347981218396,0.8378358954413909,-0.14543029514588957,0.3009263989441666,-0.4316530365724289
13.9,-2.704313618035882,1.3082782742034185,6.299648417187603,-0.17173675149310758,-0.3626870288335904,-0.02724657944101882,0.004832824682744881,-0.00021856518166014672,0.9999882943859678,-0.7914319089387885,-2.055562187418262,4.134711771333985,-3.9067348153838566,-1.389409665933555,2.0108142764319417,3.0,0.505363064983515,0.5101981088332971,0.40667738850957846,0.8378053156999485,-0.14540395727691202,0.30094211294408757,-0.4317103043128248
14.0,-2.6690762507595744,1.094002051219113,6.398962293267037,-0.16530199051911745,-0.36464886551367076,-0.023398684842463643,0.004951799805235289,-0.000495944439477095,0.9999875948668863,-0.7925936676113027,-2.054544641627053,4.13486855285133,-3.9066697482370656,-1.3892467657672327,2.0108805702034203,3.0,0.5050815034022158,0.5099011587383638,0.40698054477436413,0.8377562228665565,-0.1454103688157698,0.3009807767245028,-0.43177645574016393
14.100000000000001,-2.5892699808728836,1.1482232644425383,5.967225602523993,-0.15793513913125126,-0.36068328500328745,-0.02533389216827569,0.004987378580814244,-0.0005963500772707867,0.9999873842070272,-0.7939863136013098,-2.053332741868166,4.1350530094033875,-3.906638445492726,-1.3891044583583918,2.010951918200957,3.0,0.5046899329867724,0.5095131950081083,0.4072214542857368,0.8377752674156507,-0.14542021950322198,0.30097085194883,-0.431743103411583
14.200000000000001,-2.6789972270260853,0.9209336843516307,5.860541267239298,-0.1421246328737878,-0.36874856040251097,-0.025188519789454647,0.004954068821783409,-0.0005474304594043113,0.9999875785729523,-0.7954220088366267,-2.052055948494509,4.1352362632751465,-3.9065877399840296,-1.388977646410989,2.0110595513429566,3.0,0.5045029628222013,0.5093230951935793,0.4073067701357827,0.8377992306104897,-0.14541814936265512,0.30095592157868456,-0.43170770700919503
14.3,-2.796946544632718,1.1120003593857206,5.829912653077081,-0.16350518744498344,-0.3720408765478183,-0.02312464947338913,0.004953664851209977,-0.0004818455652986692,0.9999876133857678,-0.7966507992891945,-2.0507881522426867,4.135445301464121,-3.9065574172012587,-1.3887895007441284,2.0111501058967796,3.0,0.5042034344824645,0.5090384813922861,0.4074817500682287,0.8378123843809575,-0.14540023994042492,0.3009431943851475,-0.43169708425749764
14.4,-2.855313351764312,1.3785023381310788,5.570865410829468,-0.16557986487772397,-0.3596724477326366,-0.02310779401016152,0.004874093946982376,-0.0002673699998601518,0.9999880484831498,-0.7977560432707576,-2.049541991381729,4.135649632031247,-3.906509888648156,-1.3886089715381054,2.0111883782807674,3.0,0.503714603158033,0.5085335825666938,0.4078875363484031,0.8377862163377716,-0.1454052029684607,0.3009589517685562,-0.4317352105336241
14.5,-2.6729092940513466,1.1300710461900834,5.537364227142098,-0.15866269898562668,-0.35588359855863466,-0.025688429204402518,0.004725807437513919,7.420054505906628e-05,0.9999888305108526,-0.7990321913925841,-2.048426865056325,4.135781667488269,-3.9064437351622523,-1.3884589531971456,2.011310976645001,3.0,0.5035169293160423,0.5083463288263541,0.40807901191567303,0.8377579720573257,-0.14539413955552194,0.3009769586813277,-0.4317811885437398
14.600000000000001,-2.9658427780499745,0.7993761272137888,5.486297746283052,-0.129906627566852,-0.39406694448728796,-0.023918930757532417,0.004720208884622306,1.1549214619595513e-05,0.9999888586852839,-0.8005315704124455,-2.0471559963622035,4.135988275551923,-3.906407733956808,-1.388303891789413,2.01135257914079,3.0,0.5030994627939706,0.5079200756048676,0.4083060784326043,0.8377913252768971,-0.1454053018319633,0.30097277417532453,-0.4317156271148232
14.700000000000001,-3.20246238282177,0.8102154668640803,4.90429161043376,-0.1287662069131577,-0.39609119025946626,-0.0294898535429962,0.004759805413762137,-0.00010410696557180792,0.9999886621579054,-0.8018598883815066,-2.045896636697738,4.136112722701575,-3.906407733956808,-1.3881298711186074,2.011415958404541,3.0,0.5029036102539216,0.5077611152935576,0.408378322150842,0.8378093205485663,-0.1453995174440812,0.30094683078272255,-0.43170073867299996
14.8,-2.6887075187882914,1.509891827021253,3.9668293424576087,-0.16736885847066907,-0.3419911930109065,-0.02201794263948126,0.004708074813500929,3.995617724577427e-06,0.9999888465614146,-0.8029146194458008,-2.044693072789413,4.136294460787583,-3.9064013030375486,-1.3879845053940447,2.011517809839629,3.0,0.5026098018348775,0.5074253876085856,0.4085889267541408,0.8378116362661288,-0.1454028023889225,0.3009562276357534,-0.4316885871108672
14.9,-2.825508045284056,1.1222895357093488,4.070621856514162,-0.16900289401538243,-0.34694924862919085,-0.012155974016643319,0.004517819033160097,0.00039327028743807164,0.9999896452649345,-0.804028912788428,-2.0435475599620156,4.136446475982666,-3.9063696904140475,-1.3878642812390551,2.0115696455545473,3.0,0.5021435746041754,0.5069670762028828,0.4089762377670505,0.8377889625824688,-0.1453989571134444,0.3009736107869168,-0.4317217657881044
15.0,-2.696947274137169,1.4786196541349719,4.094311571874783,-0.1780887571788389,-0.3443515381059843,-0.013200232591858367,0.004307468939049255,0.0008521637686367627,0.9999902758968017,-0.8053834285090196,-2.042238234038206,4.136588251170572,-3.9063595734038294,-1.387698468594312,2.0116712069956284,3.0,0.5020044260667625,0.5067922686906274,0.4091166899264759,0.837772243193265,-0.14540578181260186,0.3009871363526274,-0.4317424821587929
15.100000000000001,-2.4596045505647752,1.175118908579815,4.160362591301674,-0.18462671824988675,-0.3286885289061454,-0.009010278541685063,0.004075959690498218,0.0013843653110620392,0.9999907295505398,-0.8058762925826062,-2.041781087914938,4.136673450469971,-3.9062518082060755,-1.3876391695177528,2.0117154121398926,3.0,0.5015292083574231,0.5063181662090926,0.4094578263998839,0.8377706964971291,-0.1454076660954485,0.30097295166450777,-0.43175473720359303
15.200000000000001,-2.665968655057095,1.0219301784604193,4.271626609045742,-0.17878836600914177,-0.3419742505544862,-0.016164191968621962,0.004101385696641455,0.0013244175991998543,0.9999907090423409,-0.8058865164839717,-2.0417999294852653,4.1366598511612915,-3.9063397379101774,-1.3876670042621058,2.0117154121398926,3.0,0.5014647699456791,0.5062435320901011,0.40951909927514507,0.8377502219751921,-0.14541003512448106,0.3009915032483976,-0.43178073398182487
15.3,-2.7929961662068767,1.27585682737018,4.352965753405662,-0.1744800362791605,-0.34817454704644263,-0.016110709530223713,0.004132526206637039,0.0012512998799799144,0.9999906779882937,-0.8059173505978441,-2.041804929772848,4.136693771176839,-3.9063221145689186,-1.3876682911874365,2.011697196603785,3.0,0.5014512493186798,0.5062268010881177,0.4095057424241428,0.8377769822998953,-0.14540281246703207,0.300973782918306,-0.43174359526344175
15.4,-2.4877771700992297,1.015745239780492,4.291662138968984,-0.18259594948219188,-0.3435900116886538,-0.010536062297020843,0.0042137157003587205,0.0010134058221391673,0.9999905914937451,-0.8059366797232349,-2.0417894693573464,4.136666371496878,-3.90634642079529,-1.3876871650540075,2.0117073659551803,3.0,0.5014660090514611,0.5062188350985538,0.40948481510918266,0.837784608868346,-0.1454153092657986,0.3009732012719023,-0.431724992432205
15.5,-2.6552598875251494,0.9925355986126306,4.163793247463059,-0.18003460777239239,-0.34022214128855705,-0.009119033155933074,0.004334075188452626,0.0007594803025918241,0.9999902845885223,-0.8058967590332031,-2.041810680219706,4.136658797727483,-3.9063628970634574,-1.3876576917370411,2.0116624548143727,3.0,0.5014664977838991,0.5062352186708526,0.4094784991203845,0.8377883226168867,-0.14540815091777873,0.3009687212634943,-0.431723319910418
15.600000000000001,-2.69011673943268,1.0116045056565681,4.187019300533172,-0.1781663602397593,-0.3400872073133722,-0.009020591874156549,0.004498352976088416,0.0004933520876530095,0.9999897215056011,-0.8058763339862925,-2.0418156073072216,4.13667686728097,-3.9063453080528365,-1.3876855667101518,2.011695271827232,3.0,0.5014585084501384,0.5062542542822582,0.4094766921420166,0.8377880915211078,-0.1454004114034594,0.300955892041491,-0.43173531835446943
15.700000000000001,-2.7509703492883624,1.3499513093146018,4.173237811072933,-0.17088422691353392,-0.3371342004781596,-0.008591250876705765,0.004516608563410784,0.0004932969822276161,0.9999896474864282,-0.8058951782135106,-2.041791762533116,4.136676239202412,-3.9063190061001283,-1.387673786165309,2.0116986866941016,3.0,0.5014617163835435,0.5062397438510572,0.4094918742487253,0.8377808845350315,-0.14540456957291076,0.30096162451627306,-0.4317439069906404
15.8,-2.6350682659085947,1.1183671805251183,4.2656479150757916,-0.17281733475906474,-0.33935679998129287,-0.011158541498596847,0.004357666862053948,0.0008161204082517236,0.9999901669439322,-0.805915045276604,-2.041790231036638,4.136646719692516,-3.9063598118224085,-1.3876601621105018,2.0117138097574423,3.0,0.5014642264597281,0.5062527119002298,0.40945961068057707,0.837792361332234,-0.14540471979586517,0.30095093373377924,-0.43172903798472
15.9,-2.72366896560101,1.2376478565419984,4.281285623913085,-0.17245616754542628,-0.3357408317408081,-0.006754423529159531,0.004826728907829319,-0.00017332853460747476,0.9999882914747753,-0.8059025219074697,-2.041797037174185,4.136643845737794,-3.906351080745303,-1.3876403341936305,2.0116948877279057,3.0,0.5014582424516797,0.5062468844656888,0.40947628266632796,0.8377837220953185,-0.14541742647971162,0.3009474637214513,-0.43174394164569063
16.0,-2.8981385794643892,1.2190746143276785,4.2699099260688005,-0.17462107413339686,-0.3325714546591417,-0.007391552072740798,0.004917898585032569,-0.0004192631683704462,0.9999878088777101,-0.8059091567993164,-2.041804929772848,4.136659567445618,-3.9063332380293425,-1.3876639870058214,2.0117154121398926,3.0,0.501463494593657,0.5062248312159954,0.40948814598909133,0.8377865633512634,-0.145411153305446,0.3009634726908301,-0.43172938152080276
16.1,-2.7573262182967593,1.1246734156843952,4.274999319349727,-0.1761599996630034,-0.3354443092464131,-0.007336267859406824,0.004849270936274484,-0.000294878166603511,0.9999881162200158,-0.8059183045920717,-2.0418013282862906,4.136677979707577,-3.9063430065487657,-1.387674846867345,2.0117119547127973,3.555204305023395,0.5014647365818596,0.506236862543816,0.40947610574804943,0.8377847732287768,-0.14541567377135112,0.3009651738600083,-0.43173014684064603
16.2,-2.8648039211583187,0.9632895589373286,4.291653859527627,-0.1762268315371457,-0.3408341053728429,-0.007169701336809978,0.0046043355837161,0.0002520513910731889,0.9999893464688079,-0.805909693798039,-2.041796179129392,4.136663812802054,-3.9063774881221898,-1.3876514362104935,2.0117070115221747,4.0,0.5014536978262111,0.50625570297201,0.4094554682662956,0.8377975401791011,-0.14538938826522535,0.30096375423909777,-0.4317152140983901
16.3,-2.8701780346941432,1.0754890110088395,4.238452361252905,-0.17156602256717243,-0.34669361144227917,-0.004105339879921978,0.004336207226731102,0.0007791062573291827,0.999990120568425,-0.805872917175293,-2.041815807938694,4.136690040217317,-3.906375431327751,-1.387690846120016,2.0117046790162583,4.0,0.5014671602407581,0.5062355624540731,0.4094559199722346,0.8377999539139849,-0.1454112017732625,0.3009510139879681,-0.4317120646914955
16.400000000000002,-2.7944839164001123,0.8049723613505326,4.184394109139455,-0.17855857960002477,-0.3477407569852465,-0.0052024171183662395,0.00406592111699005,0.0013043120888762633,0.999990852230369,-0.8059149674650683,-2.041816850701803,4.136655903499959,-3.9063656799745385,-1.3876968487954504,2.011703306586243,4.0,0.5014774441486866,0.5062175376309583,0.4094642109721544,0.8377967452138353,-0.14543290866126068,0.3009551814277718,-0.4317080744660752
16.5,-1.465754507589672,1.9868094219433374,3.707139756132162,-0.23165052116050025,-0.22984247931766183,0.007015877808901352,0.004238935179040432,0.0010028080118806607,0.9999904583691462,-0.8058748205106276,-2.04179697412584,4.1366639097135085,-3.9063458685996606,-1.387648633489958,2.0116801261901855,4.0,0.5014632914367165,0.5062438665960587,0.4094799685538118,0.8377870345870795,-0.14540563678553087,0.300954755857235,-0.4317364015179792
16.6,-0.5035845619710243,1.3447434209910736,2.465352886466888,-0.16321845193847645,-0.11764103177549423,0.018023512792053893,0.004287108740622782,0.000931072953202322,0.999990306395413,-0.8058683311254418,-2.0417487541490456,4.13662576675415,-3.9063678268932325,-1.3876312885954774,2.011732083487207,4.0,0.5014621290550191,0.5062403639744129,0.4094922207838663,0.8377799204410079,-0.14540510358368117,0.3009747783729377,-0.43173642832292725
16.7,-0.29435771210767736,0.2653126146744087,1.6616981137490872,-0.08101760278502969,-0.0758172611406511,0.012206413480669656,0.004069892760349443,0.001349524271955177,0.9999907114427913,-0.8058481216430664,-2.041784670220456,4.136622041156412,-3.9063406546363075,-1.3876979035998191,2.0116872908012216,4.0,0.5014677209448369,0.5062308420449434,0.4094984296651626,0.8377778640600252,-0.14541173947536798,0.3009826309300749,-0.43173270943047615
16.8,0.16575574420639966,0.2993217522924755,0.9823629387922579,-0.05364882339208396,-0.04326461793547574,0.005953541356650249,0.003916445102729084,0.001651272022794711,0.9999909627336295,-0.8058560487489492,-2.0417686901488246,4.136633388971346,-3.9063357315459193,-1.3877547494765514,2.0117031560521186,4.0,0.5014693904583087,0.5062265501348863,0.4095097477354691,0.8377682152978293,-0.14541874696514911,0.30098030442542745,-0.43175069405358535
16.900000000000002,0.102892170151068,0.053799112294371454,0.02463845503669071,-0.02843065670117821,-0.030625981202282264,0.006243545947584656,0.0038671009042321896,0.0017624981383398386,0.9999909630128835,-0.8058644009706398,-2.041762590383942,4.136634282958804,-3.9063717327513636,-1.3876126677031944,2.011689153842212,4.0,0.5014622811685573,0.5062292985238184,0.4095121714503883,0.8377694230638153,-0.14541480787456024,0.3009582186057936,-0.43176507279277954
17.0,0.08216557810378872,0.030169369232144857,0.09013872565453776,-0.022415395606846644,-0.026405798529433453,0.006899815431581996,0.0038968979099077822,0.001667699627529392,0.9999909660607744,-0.8058759126513816,-2.0417867682687083,4.136628762230239,-3.9063420345268556,-1.3876282045719042,2.0117039680480957,4.0,0.5014809617681325,0.5062206610044625,0.4095131124505976,0.8377653795801262,-0.14542837594127467,0.3009907072013767,-0.4317457011094207
17.1,0.11946693764167544,0.0034062938626811395,0.106816288996617,-0.02140148173563814,-0.021519762495700236,0.00492568254702847,0.004065847742283478,0.0012106510166986421,0.9999909739767192,-0.8058807451406875,-2.0418005424405643,4.136617286458306,-3.906355424490125,-1.3877008827779103,2.0117353435026772,4.0,0.5014933997582292,0.5062086290712312,0.4095165560757979,0.8377626813923722,-0.14544278180410913,0.30099841105650704,-0.43174071319346674
17.2,0.13840363955426693,-0.15132408699993502,0.05980280982605166,-0.019931727329494858,-0.026884733671640994,0.005509843500331478,0.004280131006616641,0.0008847326989645605,0.9999903804543201,-0.8058691650629044,-2.0417849963653425,4.1366051609317465,-3.906336087373231,-1.3877463467366458,2.0116801261901855,4.0,0.5014690876540129,0.5062325404217168,0.4094822752098242,0.8377871367805485,-0.1454147910463332,0.3009488610154661,-0.4317372291608581
17.3,0.2722027083992234,-0.14193370179319809,0.08684878463557756,-0.020785087537297332,-0.023673640667813228,0.008261531685484772,0.0045037346661512346,0.000585774311281331,0.999989663278299,-0.8058784745757549,-2.041793008843893,4.1366373446717795,-3.9063419861554625,-1.3876246326679418,2.0117095254485577,4.0,0.5014487778056052,0.5062419166529865,0.4094553013428761,0.8378085849929684,-0.14540477997723544,0.3009096682441899,-0.4317262980512344
17.400000000000002,0.07717334753563629,-0.26317542475865446,0.12087388150898662,-0.020385052007568,-0.017569730096254274,0.0028686766996753746,0.00435692255014991,0.0008236100555809129,0.999990078304865,-0.8058829241716712,-2.041824280707575,4.13665116546543,-3.9063253075913584,-1.3876307646380823,2.0116692852774425,4.0,0.501466014829415,0.5062330134519326,0.4094818873997865,0.8377827221221439,-0.14542454326240148,0.3009625831175855,-0.4317329455736767
17.5,0.1582309122449791,-0.2930685738272293,0.13419188004376997,-0.02217598254047368,-0.018079498628683854,0.004940259782586949,0.004127320746086425,0.0011814218421431599,0.9999907463840956,-0.8059008935684873,-2.0417969787434553,4.136621320017429,-3.9063598118224085,-1.3876507956170179,2.011699521311375,4.0,0.5014707245234199,0.5062360442641052,0.4094828993983593,0.8377782070285007,-0.14541673343081304,0.30098623645135286,-0.4317278482253296
17.6,0.40108488690995736,-0.08808265976613067,0.11180469572054991,-0.018308272889124882,-0.02534686334613007,0.005302746915060712,0.004137373473445827,0.0011479894501476757,0.9999907675154254,-0.8058967590332031,-2.0418010378105653,4.136641579645388,-3.9063438408022586,-1.3876546064959925,2.011688155156858,4.0,0.5014758761815084,0.506225178182723,0.4094874716101129,0.8377791913199779,-0.14541875766806872,0.3009886527485631,-0.4317235717749549
17.7,0.26654815196375814,-0.07041258346090415,0.09914466122253619,-0.011260247012649632,-0.022115273451892764,0.003065203892335307,0.004220324594580237,0.0009955479494099372,0.999990591857391,-0.8058888205317979,-2.0418167182854696,4.136662006378174,-3.9063357315459193,-1.3876784483539026,2.01168393667086,4.0,0.501470583158081,0.5062300087839077,0.409485616120252,0.8377807325326703,-0.14541273177830394,0.30098024027989,-0.43172847554319704
17.8,0.013710313789014689,0.19057073167569638,0.13929718202840424,-0.011373482237569059,-0.016960613172825434,0.0037995081142273165,0.004374852491452054,0.0006908024018307534,0.9999901459639051,-0.8058690308683256,-2.0418011053167415,4.136629653061117,-3.9063595070773625,-1.3876947324269833,2.011675824896921,4.0,0.5014836618487123,0.5062290579749582,0.40949533373392444,0.8377732711182124,-0.1454232891024993,0.30098305368837913,-0.43173743708290924
