xiamingqian9007/apple-picking-rnn/final_data/grasper_20191127_124513_noimg.csv
,/manipulator_wrench.fx,/manipulator_wrench.fy,/manipulator_wrench.fz,/manipulator_wrench.tx,/manipulator_wrench.ty,/manipulator_wrench.tz,/ground_truth.x,/ground_truth.y,/ground_truth.z,/joint_states.elbow_joint,/joint_states.shoulder_lift_joint,/joint_states.shoulder_pan_joint,/joint_states.wrist_1_joint,/joint_states.wrist_2_joint,/joint_states.wrist_3_joint,/mode./mode,/manipulator_pose.x,/manipulator_pose.y,/manipulator_pose.z,/manipulator_pose.rx,/manipulator_pose.ry,/manipulator_pose.rz,/manipulator_pose.rw
0.30000000000000004,0.1897580829148843,-0.46428251087605205,-0.18044610515067122,0.002358834638613236,-0.007349159691754242,0.06619290157575425,0.01059002443214992,-0.036524734214259114,0.9992766027455856,-1.942358451516621,-1.8707966648637513,4.173193324961065,0.6109586715483152,1.326964390897605,-1.0024027373759925,1.0,0.45654451341157504,0.45830321238488836,0.3344381110846194,-0.6999042010801211,0.19820204152211568,-0.3334895809237648,0.5996955556464921
0.4,0.20119820335684477,-0.5135310241980333,-0.10798668476531487,0.008761484837532738,-0.015542109615147657,0.0810536288765225,0.010663269415459774,-0.03690747173068304,0.9992613221578734,-1.9381787839917985,-1.8736311513250903,4.172187527691266,0.6100048644908744,1.327718423423932,-1.002438857990873,1.0,0.45750131367235825,0.459378484741047,0.3340267393109537,-0.7000990921282049,0.19823183066474515,-0.3334100323040144,0.5995024210723452
0.5,0.09903219310171593,-0.015047873565683267,-0.14542752888283644,0.012999540784532086,-0.00988365488831013,0.08945190890713751,0.010861004579943951,-0.0380240471602589,0.9992172919928037,-1.9340255482220539,-1.8768008244934948,4.1713738441467285,0.6090878905030596,1.3288639818908776,-1.0024630696843673,1.0,0.45812863291199835,0.4598585913572464,0.33407745050746773,-0.7000252175178705,0.19826470106153832,-0.33351279558185837,0.5995206571380259
0.6000000000000001,0.3109589785167901,-0.4146871901824845,0.010804038178817414,0.005381892208836063,-0.015851402844130984,0.10954563202628465,0.010908908947014375,-0.038158469336961286,0.9992119124694997,-1.9298806850476566,-1.8797179705803744,4.170634767393172,0.6080265263128275,1.3294841972799043,-1.0025436809337782,1.0,0.45913118805738556,0.46087781866622474,0.3341191930791738,-0.699951148566792,0.19821353304729533,-0.3334531333914994,0.599657229397202
0.7000000000000001,0.1372447929343522,-0.33442030456682165,-0.08733541952466699,0.005233073211279064,-0.008613105817563154,0.13043818232285237,0.010786027284405584,-0.03717337498241554,0.999250589240133,-1.9259799926395134,-1.8826416027315005,4.1699586129459565,0.6069530877691979,1.3301997077329546,-1.002640489054365,1.0,0.46012196968464303,0.4618699035757393,0.3341823558389645,-0.6998755945574566,0.19820711448594558,-0.33346543438127807,0.5997406906179596
0.8,-0.023110232539669692,-0.36601840789710727,-0.0010205912137559933,-0.0007629551072710448,-0.009168419803861504,0.1399464718360971,0.010758117301425387,-0.03729435887153028,0.9992464051017221,-1.9219338446031675,-1.885516360934939,4.169145969650586,0.6060590638567928,1.3308843839922968,-1.002664868031637,1.0,0.4613996286687322,0.4631894038402678,0.33406000530138225,-0.6998913237018858,0.19822069085083166,-0.3334850760828962,0.5997069257190768
0.9,0.005627466472797077,-0.4362636319084261,-0.06686523815382903,0.00027328863415256445,-0.0063780319683055696,0.14882564723111774,0.01086069898656205,-0.03788319824800985,0.9992229902644658,-1.9182933317704955,-1.8883611096314072,4.1683889512060865,0.6051825495286667,1.3316881343032267,-1.0027128194569113,1.0,0.4622652325457452,0.46400744585492426,0.3340601736833574,-0.6998328102749158,0.19824433030201774,-0.3335251999703058,0.599745082639771
1.0,0.31586663605942017,-0.40811554888427065,-0.15883088954693453,-0.0016861153242884624,-0.01256448408642355,0.15519941145351482,0.011011972785946662,-0.038393082039009895,0.9992020204970167,-1.914810769040795,-1.8910214243725338,4.167695181882557,0.6042008492080403,1.3324653338640928,-1.0027365595451367,1.0,0.4634945487877745,0.46531645633946883,0.33393357322814426,-0.6998579195533168,0.19815606232361907,-0.33348300740261244,0.5997684146206856
1.1,0.2162195563500183,-0.7010765408524116,-0.16951970816340833,-0.0009196889014774481,-0.0030845400645594205,0.14717134430082637,0.011026668082977498,-0.038141205507185194,0.9992115163046389,-1.911205412486489,-1.8935744809634285,4.1670333755910125,0.6033303666144532,1.3330160466420726,-1.0027986310847592,1.0,0.46404576012275484,0.4657917259971707,0.3338412688317812,-0.6999061298916028,0.19817091789882077,-0.33348484393852906,0.5997062243320411
1.2000000000000002,-0.06233476136161248,-0.10993503013751466,-0.06308415224917141,0.012675389612412906,-0.006935059554631807,0.14923870932287445,0.0110158171341636,-0.03861082333921562,0.9991934630370098,-1.907938014635851,-1.8962034904114005,4.166328692038895,0.6025630670734863,1.3336049752663937,-1.0028450049904154,1.0,0.465293406801,0.46692888603863725,0.3337798320955264,-0.6998562953706657,0.19825062706340996,-0.3335361517486737,0.5997095048235421
1.3,-0.09798494046245765,-0.17659260187366327,-0.1289183372937544,0.004613484860491042,-0.010002689717990376,0.14386567296409677,0.01100294550666785,-0.039137510546095815,0.9991732306691952,-1.9046460515129506,-1.8986417019420934,4.165827947633328,0.6017208409389537,1.334118539077476,-1.0028758682001273,1.0,0.46577925791908126,0.46735864989160514,0.33367981609487196,-0.699880270743599,0.19828531106133773,-0.3335437808545078,0.5996658138450578
1.4000000000000001,-0.031558919105535904,-0.4998421742235284,-0.15751673447052228,0.006713772122714664,-0.004639392616036396,0.13986415956408588,0.010686881241264818,-0.037729439062189556,0.9992307286264583,-1.901414460091641,-1.9009272723865547,4.165249485132803,0.6008874612995605,1.334721949850217,-1.002904491059656,1.0,0.466561273729376,0.4682086099104428,0.33361422440308197,-0.6998691580122436,0.1982665465247696,-0.3335519902035482,0.5996804215777158
1.5,0.17957597412201362,-0.21514654875028683,-0.10532912816448306,0.0006563288588890831,-0.010431621099799664,0.1415209247127048,0.010765583517018507,-0.03756465467926186,0.9992362000817219,-1.8983433020121916,-1.903430990992888,4.164793449601683,0.600014807538207,1.33545290294151,-1.0029528776751917,1.0,0.4676763926474555,0.46938607999645454,0.3335170325392122,-0.6998842272666232,0.19825546377523937,-0.33351258501979486,0.5996884150457477
1.6,0.08962384238489235,-0.24697827810317344,-0.18327028340497958,0.003204093136595261,-0.008467257248050999,0.14462342513891246,0.010888923815001568,-0.037550072197976576,0.9992354179169499,-1.8953982141100532,-1.9053297701073768,4.164260309045454,0.5992643062067835,1.3359759726844276,-1.0029328491082936,1.0,0.46812981395713066,0.46992203654603126,0.33336304571574155,-0.6999777624702626,0.19818675083959858,-0.3334574581436625,0.5996326103933435
1.7000000000000002,0.1291995680704588,-0.4037400834427779,-0.1020794317737103,0.006193376587916933,-0.010109894064038755,0.14379911815136717,0.010793062091189218,-0.037230401693483475,0.9992483511863312,-1.892386081839078,-1.9076488208688063,4.163717687630732,0.5985800727774532,1.3363968093256182,-1.0029949575528883,1.0,0.4687859189566303,0.4706120935230965,0.33345936842728635,-0.6998893825823764,0.19817005453644754,-0.3334574631203311,0.5997412791552993
1.8,-0.11664384511974149,-0.18243135104958508,-0.36554915817159234,0.0074635853947454135,-0.01053273027810733,0.13980607947672746,0.010672304929436265,-0.03687608141757868,0.9992628421591359,-1.8897194978857415,-1.9097496626474022,4.163210861101786,0.5977887214687292,1.3368440022879047,-1.0030012979386616,1.0,0.4698636727560601,0.4716544382835778,0.3332899284839416,-0.6999024757156319,0.1982010329242589,-0.33349609819951054,0.5996942783790656
1.9000000000000001,0.08925720163357126,-0.5345687618941313,-0.12456700544910937,0.005368433899870426,-0.00747583213954457,0.13726102551722497,0.01077575871567733,-0.03745867523860934,0.9992398263101894,-1.88690191545675,-1.9114052257933558,4.162710219813336,0.5970107752033691,1.3373200852076048,-1.003039843734774,1.0,0.4702498238716872,0.4720317395185534,0.3332102956513382,-0.6999266680739011,0.19822493973541433,-0.33348520624604183,0.5996641975313294
2.0,0.18718499777910014,-0.28164004755644556,-0.18583782875802501,0.00318694014395919,-0.016893472991522274,0.14189107619799157,0.01090640166503103,-0.0381548848773867,0.9992122621592819,-1.884380511203708,-1.913588773588695,4.162240301626343,0.5962928290706514,1.3378376787717483,-1.0030844847308558,1.0,0.4708355817429781,0.47259018221532223,0.3333397465792683,-0.699842363800723,0.19823026629405308,-0.3335225625511897,0.5997400500417601
2.1,0.16792876142175034,-0.41441713700916316,-0.257400386073089,0.001350487342637347,-0.01263067289522242,0.13585544420888268,0.01076022799984188,-0.03779443443192125,0.9992275219498028,-1.88162068993799,-1.9154940601035804,4.161665439605713,0.5956603723713378,1.3383073806762695,-1.003109024097246,1.0,0.47185146879289214,0.473541111126498,0.3331497366234561,-0.6999071685537659,0.19826443413861933,-0.33352065219293925,0.599654187114157
2.2,0.3457539381520708,-0.46642089454016633,-0.11380559775114282,0.0020624674034882854,-0.01695548310854885,0.1385143886771794,0.010714480266080849,-0.03764108756026395,0.9992338331417311,-1.8792486190795898,-1.9171257981596792,4.161210536956787,0.594977541560791,1.3387866880949697,-1.0031444801380833,1.0,0.47230920337873195,0.4739502712894331,0.3331028926178519,-0.6998933985245694,0.1982776258101,-0.3335291131721474,0.5996611914001433
2.3000000000000003,0.23046757568989484,-0.34900583184415424,-0.23256836690737653,0.004579610478891392,-0.019339516982696505,0.13967281465165315,0.010901807193556209,-0.03807707246506379,0.9992153139458284,-1.8767991180437498,-1.9190435706162832,4.160898772716193,0.5943194190216002,1.3392184123386575,-1.0031448389030093,1.0,0.47304392355009,0.4747213753265646,0.33311324479526355,-0.6998676985919947,0.1982242094819271,-0.33351400757906946,0.5997172450341564
2.4000000000000004,0.19852506968810796,-0.20308164128114933,-0.15429697089736888,0.006626967108845078,-0.01647976174578259,0.13560935681086622,0.010554967761806954,-0.036509227278385945,0.9992765043062881,-1.8743767519017231,-1.920710394655958,4.160502661229182,0.593697461243342,1.3395897204870937,-1.003192504301138,1.0,0.473427121981972,0.47514723590902697,0.3330456207733958,-0.6998889473813749,0.19821865597555172,-0.3334963709094259,0.5997040906537822
2.5,0.3590575382994864,-0.38709161629471955,-0.14744667583313972,-0.000741740207847336,-0.01942081929091627,0.1362022000453352,0.010475137411228371,-0.036162077115003785,0.9992902152410272,-1.8721701231306813,-1.9223642757928585,4.16013160613239,0.5930158334919433,1.3399504013016486,-1.0031922499286097,1.0,0.4739726653937238,0.4757080357826866,0.33300409939375286,-0.6998845236164317,0.19822420589684409,-0.3334931657328142,0.5997092013703578
2.6,0.14931269067859979,-0.3957396870330203,-0.025832298639169242,0.003347328668805113,-0.020177848983410105,0.14022990325881995,0.01087783573423929,-0.037929388951467385,0.9992212112774396,-1.8698917014974998,-1.923969981912172,4.1597239167097,0.5924421773578601,1.340345154788233,-1.0032521794757454,1.0,0.47481704206033715,0.4765344973265305,0.33291291572949083,-0.6999099347003606,0.1982378509941477,-0.3334893254203297,0.5996771694600793
2.7,0.11133395203539206,-0.3639004184607617,-0.0810751164390335,0.0017758166982019502,-0.018141713195217093,0.13980913266441716,0.010894609023290517,-0.03802305240524868,0.9992174672396602,-1.8678271181118506,-1.9254345462057634,4.1593765439341785,0.5918917488273583,1.340656683016122,-1.0032765727934525,1.0,0.47514059307922096,0.4768743000119764,0.33292689818601756,-0.6998775715748408,0.19822483238264801,-0.33351041857372166,0.5997075131563351
2.8000000000000003,0.12465620720548698,-0.22910919072908723,-0.12219640795792991,0.0044041965523837125,-0.018236338119884093,0.13993199269504614,0.010851998664703247,-0.03786320006707524,0.999223868716367,-1.8657405925451187,-1.9270289252730137,4.159088744142761,0.5913401053734222,1.3409809454500168,-1.0032883773222907,1.0,0.47559719165403747,0.47734530367491307,0.3329426123821132,-0.6998359235333569,0.19821861029300386,-0.33352611368454016,0.5997494428144232
2.9000000000000004,0.22490879306538175,-0.4951400564949228,-0.15415847525411838,-0.0015166307683570183,-0.016157901407374727,0.14333129715814755,0.01068727044327075,-0.03718201217707626,0.9992511336562628,-1.863774519964943,-1.9285626471476265,4.158752964444435,0.5907672009490889,1.3412929007708814,-1.003264387388655,1.0,0.47637232948120894,0.4781435362743099,0.3327776234829312,-0.6998836797745839,0.19823941075588952,-0.33350746259762976,0.5996972095983404
3.0,0.29460485151320615,-0.39138316166302284,-0.023299765049095728,-0.0007766069899073232,-0.014056947644770144,0.14480705418217235,0.010666974126158038,-0.0370332586643022,0.9992568794438622,-1.8616631245981419,-1.9298437622704392,4.158441913328551,0.5902057616430658,1.3416413359304493,-1.0033128361857808,1.0,0.47663441092410214,0.4784244192109253,0.33272010150720044,-0.6999084806186345,0.19822862393683724,-0.33349787086627625,0.5996771644292311
3.1,0.06805715723870266,-0.2770110324011016,-0.18640762808809455,0.002291804635747084,-0.012247464066249205,0.13809013803972325,0.01097198994871997,-0.03808373718621685,0.9992141564287377,-1.859866650012525,-1.9310808236674355,4.1581037610478315,0.5896205471163238,1.342012882232666,-1.003348309464198,1.0,0.4770214894647859,0.4788406599599375,0.33276369530987177,-0.6998718810702962,0.19821334283587944,-0.3334856232023546,0.5997317399690367
3.2,0.19216756888832096,-0.3620666349792975,0.045532535235313504,1.5378720653085737e-05,-0.01636423582126312,0.13309846807719178,0.011163788449435613,-0.03881843654873663,0.9991836953590654,-1.8581840620433776,-1.9326291619388254,4.157806873321533,0.5891763406940917,1.3423599910951207,-1.0033363119278214,1.0,0.47771609351025457,0.4794712557418864,0.3327319332221885,-0.6998814443262545,0.19822207774467493,-0.3334945734128076,0.5997127156285664
3.3000000000000003,-0.01029540028431572,-0.26916025054963805,-0.09790597195733405,0.006610553949482503,-0.015455816470333159,0.13348133906790544,0.011327211929924638,-0.039473993957632576,0.9991563074317757,-1.8562047672007425,-1.9339813669669148,4.157519407062045,0.5887467769614596,1.3426602361747797,-1.0033607570211538,1.0,0.47802450659136164,0.4798215555381227,0.3325764889558349,-0.6999538522346621,0.19820267353021273,-0.3334633741771996,0.5996519682529939
3.4000000000000004,0.032903797729800094,-0.5123917141729707,-0.25864467359542886,0.0020530643613191155,-0.013234113910178476,0.1345716165407968,0.011284873380126,-0.03932421252908577,0.9991627107563806,-1.8545771368032704,-1.9349876069024414,4.157195769199084,0.5882074437331781,1.3428997993469238,-1.0034082571612757,1.0,0.4783629743181468,0.48021164858302445,0.3325419066854997,-0.6999443004902879,0.19818872532011625,-0.333454668313732,0.5996725686130125
3.5,0.3081154921706715,-0.35189074433775913,-0.12390198785074433,-6.119921386067234e-05,-0.023500998257042667,0.14022273725984322,0.011188397520344949,-0.038962541286745034,0.9991780047761053,-1.8530873401380337,-1.936111759659134,4.156931455298788,0.5877849481996936,1.3431534675484686,-1.0033844153033655,1.0,0.478771615794192,0.4806066963022083,0.33258660337097323,-0.6998959335671882,0.19819719327254406,-0.33347357904078345,0.5997157050109081
3.6,0.3719835437241989,-0.574546928783854,-0.007399817943263713,-0.004011329933511453,-0.023552348348256417,0.1404689099808477,0.011228798259806608,-0.03926484167469203,0.999165675591328,-1.8512451370770473,-1.9373416641724774,4.156611071040965,0.5873099856594589,1.3433995701461103,-1.0034197156504985,1.0,0.47934486232227025,0.4811098661474578,0.3326051383989052,-0.6998716582864651,0.1982086905681224,-0.3335033294419716,0.5997236915128029
3.7,0.052578988954404535,-0.472991466342796,0.05407613585248185,0.005517863324983031,-0.014753942266595257,0.13479659732542004,0.011198780896319985,-0.039294943375160936,0.9991647456216115,-1.8496717369148323,-1.9386471594613377,4.156358893282778,0.5868102714158902,1.3436482857712755,-1.0034331299497135,1.0,0.4798490175641447,0.48161785892217046,0.3325707343378407,-0.699858024194913,0.19822456745016814,-0.33351320582346644,0.5997288623791089
3.8000000000000003,-0.11046033555580213,-0.08182001304028463,-0.017634062436860692,0.014531505718104867,-0.01555665333047079,0.13586390114743707,0.010902823053371096,-0.038197101245766966,0.9992106686999092,-1.8483860603910922,-1.93968077915582,4.156101114913445,0.5864243945374558,1.343917597140646,-1.0034472010889166,1.0,0.4800831947685775,0.48183271327050653,0.3324995606655399,-0.6998729721160954,0.1982504430034712,-0.3335036247283063,0.599708193243507
3.9000000000000004,-0.10183731639647303,-0.0465267348889165,-0.04518923753145878,0.010996068731992818,-0.012277928026691866,0.1341955453793674,0.010717865098276104,-0.03752415820992227,0.9992382370020517,-1.8468757057725518,-1.9405529344523875,4.1558824280827436,0.5859528519729207,1.3441472053527832,-1.0034691219229022,1.0,0.48042663644555755,0.4821699473440436,0.3323480729158284,-0.699951934203753,0.1982489788123155,-0.3335034996613546,0.5996165840918078
4.0,0.2513469087776309,-0.25913300060065153,-0.08911126033379102,0.007940084053585168,-0.015653371051518795,0.13778518696745565,0.010665855067694595,-0.03734785347704664,0.9992453984667966,-1.8452739207743722,-1.9414691958919459,4.155648708343506,0.5855740410231077,1.344350784874733,-1.0034683386432093,1.0,0.48091080051835033,0.4826152725995882,0.33244409966911254,-0.6998786405462971,0.19825815096001953,-0.33352321422738057,0.5996881353307048
4.1000000000000005,0.04519784969740415,-0.27592994716998936,-0.10941872443414466,0.0037789424849763885,-0.012492351002510645,0.13800847205768324,0.010644052655844366,-0.037274384318382675,0.9992483790320494,-1.8438208874035258,-1.942642438123341,4.155394106278778,0.5851639137598683,1.3445863578866122,-1.0035085796943064,1.0,0.48110232546199855,0.48283083434251595,0.332565433655872,-0.6998005340419345,0.19823863724868498,-0.3335413715617253,0.5997756319767672
4.2,0.22773107224044054,-0.5248708592096065,-0.12323872173352056,0.0024874784398596335,-0.018864910032291477,0.13630048806420972,0.010632900735029364,-0.03723717254799506,0.9992498855111469,-1.842445301125047,-1.9437893386777623,4.155128636921051,0.5847628230076611,1.3448427701805532,-1.0034993503895888,1.0,0.4814539072426216,0.48317375600046525,0.33249339442865133,-0.6998183213013311,0.19824512608694644,-0.33354425181537306,0.5997511310824519
4.3,0.1910424989243527,-0.36329358755826735,-0.23208286802777645,-0.003927122578436589,-0.017673816016656872,0.1366052132453653,0.010436504557669323,-0.036373592397345236,0.999283086175518,-1.8409185409545898,-1.9448182611824296,4.154925752412069,0.5843421031045022,1.3450854591611159,-1.003477205590341,1.0,0.48200312114555993,0.4837332637269225,0.33227036605950006,-0.6999195977835755,0.19823397222697914,-0.3335341182026117,0.5996422607591946
4.4,0.17885601089408892,-0.35927831210030886,-0.24669619808825374,0.002190593203609807,-0.01947393638880922,0.13718983450774414,0.01017175324166307,-0.03520508227877528,0.9993279819956207,-1.8394387758362034,-1.9458346629029624,4.154705449070385,0.5838949677040285,1.3452973742654664,-1.0035246060156104,1.0,0.48219880785507757,0.4839580741841905,0.3322961095793679,-0.6998915221900773,0.19825255756072513,-0.3335118112411355,0.5996812923126293
4.5,-0.061209581758608134,-0.523155819295883,-0.2841353496884969,0.004494379832868532,-0.012621345377816154,0.13631114945225348,0.010208223565905769,-0.03523873492063729,0.9993266459605377,-1.8380379020027895,-1.9468023414670481,4.154454833916964,0.5834740982549159,1.34556245803833,-1.0035617358174174,1.0,0.482539150618458,0.48428130277198744,0.332298447078806,-0.6998727869449569,0.1982476735686961,-0.3335187225756139,0.5997009285552504
4.6000000000000005,0.06861321659690439,-0.34636763769084267,-0.16943767386731626,0.0004678092676109302,-0.01201510419980322,0.13617994449520743,0.010367877129651584,-0.03576400663448109,0.9993064036155185,-1.8364992096195918,-1.947772163149201,4.154198178638689,0.583010840791297,1.345838535721214,-1.0035760994632983,1.0,0.48300969372376,0.4847905140906172,0.33230311501024246,-0.6998779551945358,0.19821129450335992,-0.3335034354018859,0.5997154234627939
4.7,-0.014888066723089108,-0.49683227182960504,-0.1445613349929507,-0.0003023938006117638,-0.018005613003842708,0.13412745760790534,0.010455250960620718,-0.03618706614190073,0.9992902983768674,-1.8350620337034165,-1.9489812626402847,4.154006506444343,0.5826515975796346,1.34600702527485,-1.003576735683196,1.0,0.48324923665216196,0.48498706369973443,0.33233442293272364,-0.6998366069359855,0.19823588026478128,-0.33352726651956666,0.5997422962039283
4.800000000000001,0.14413540167629124,-0.2938887197920239,-0.17232901680948637,0.005263848565273689,-0.019319197183461277,0.13700772433570244,0.010511463676303224,-0.03653791553236798,0.9992769712404922,-1.83365199959457,-1.9500380955138148,4.153822189919132,0.582268544029509,1.3462700843811035,-1.0036108821184762,1.0,0.48373449314361916,0.4855059793228352,0.3321984863344353,-0.6998902398481879,0.19822672944793854,-0.3335186369716308,0.599687530877711
4.9,0.24094251884977644,-0.34740221088224177,-0.25250153376672385,0.0043902427218986875,-0.02182772983482723,0.140132361858502,0.010566697486258566,-0.03676739483932645,0.9992679399678959,-1.8321903493104459,-1.9510686223675013,4.1535765923303725,0.5818099419977527,1.3465021002832054,-1.003623445264296,1.0,0.4839441077215848,0.4857044778036235,0.3321193563933821,-0.6999215666265577,0.19822778448781017,-0.33350924707173724,0.5996558414171603
5.0,0.16341061498436088,-0.4640258608355771,-0.23784847271833373,0.005264050643957911,-0.02208908144389465,0.1413836873975971,0.010621931296213909,-0.03699687414628492,0.9992589086952997,-1.8305188535019876,-1.9520282927838677,4.153392271254953,0.5813623155947558,1.3467227939688866,-1.0036479243521186,1.0,0.4844438458487214,0.48622071964018776,0.33215401604576056,-0.6998586512069549,0.19823522787344708,-0.33351873751559025,0.599721530784706
5.1000000000000005,0.07627703705661099,-0.13644591363100678,-0.15105918472507568,0.009102819632786226,-0.016707814793056622,0.1386744991295486,0.010669677953302946,-0.03712653035089744,0.9992536082610906,-1.8292071241903878,-1.9530613985441614,4.15316343602214,0.5809610317229073,1.34694242477417,-1.0036205992496372,1.0,0.4846291009027938,0.48640991634684994,0.33222918276217184,-0.6998018265456419,0.19823768751198761,-0.33353576526217915,0.5997775555189235
5.2,0.10735336698769353,-0.5937038360958402,-0.10318268181729007,-0.0022939775536772048,-0.016689085534856606,0.13754998635189034,0.010730357041183743,-0.03728923922601,0.9992468434069957,-1.8278644418112768,-1.954145304181933,4.152924542782862,0.5804871473846708,1.3471400455821807,-1.0036687435559764,1.0,0.48493738382130547,0.4867545686383857,0.33215661021822607,-0.6998450363093504,0.19822296603525869,-0.3335066470759223,0.5997481948664162
5.300000000000001,0.06791689394766312,-0.37476445191657315,-0.06388203219447083,0.007570759350719749,-0.020501117318546095,0.13648695992328316,0.010890334844128866,-0.03793602747361194,0.9992206058396395,-1.8262567520141602,-1.9551340542235316,4.152657456662642,0.5800911101313924,1.347379632260787,-1.003654116896575,1.0,0.48539956681771235,0.48725370980981786,0.33201703787415726,-0.6999070964329165,0.19820988071614792,-0.33348599681756913,0.5996915786268194
5.4,0.23331176081921884,-0.3006039345097593,-0.23850221601472768,0.0036411849769524044,-0.020933459577101292,0.1369938373917666,0.011015823499265703,-0.03845726871469791,0.9991995164064781,-1.8246026099915524,-1.956190007070773,4.152471783816577,0.5796650917426776,1.3475785624221026,-1.0036952762516242,1.0,0.4855928995206552,0.4874274442319675,0.332019832510572,-0.6998932263163562,0.19822063255895897,-0.33349666128874933,0.5996982820499533
5.5,0.16910781038924894,-0.28879888506685486,-0.26072078591880943,0.002352308408125659,-0.01997484541525076,0.13816944115600527,0.010920477172967517,-0.03817462894929177,0.9992113906210606,-1.823318050746188,-1.9572493384899001,4.1522233819136405,0.5791992717105159,1.3478055000305176,-1.0037070982021359,1.0,0.48598529966342746,0.4878042406084219,0.33205655132834383,-0.6998491557243933,0.19822550603299618,-0.33352093543617434,0.5997346026498687
5.6000000000000005,0.2562259579684904,-0.40336762100804024,-0.20403310864650184,-0.001302971614530207,-0.021314729176248107,0.14039801200260052,0.010790538260342585,-0.03761421787281862,0.9992339214765869,-1.8220031031715773,-1.9583727322020472,4.151980346722157,0.5788225177954306,1.348042732079945,-1.0037203737629656,1.0,0.486396767458292,0.4882229766810525,0.33201152121059196,-0.69986208174513,0.19822357020136458,-0.33351648434026865,0.5997226337443875
5.7,0.27191869201801494,-0.3744667040360995,-0.11554383973595977,0.004721507902510601,-0.02227010429119023,0.13716100788879076,0.010663259364787308,-0.03699581420430167,0.9992585226136663,-1.8203043228578442,-1.9593944105101744,4.15176076187742,0.578349237697044,1.3483011543336394,-1.0037201086627405,1.0,0.4866667270472037,0.4885009097495947,0.3318912798530464,-0.6999246955218701,0.19822380706382386,-0.3334908105084409,0.5996637576326957
5.800000000000001,0.13103897622007651,-0.4710864509822811,-0.013814632474237587,0.0036536009488439382,-0.02016063548408075,0.1345944486639178,0.010714014512469476,-0.037199189620347066,0.9992504122556202,-1.8187358741936046,-1.9604131689423423,4.151501178741455,0.5779622111538637,1.3485180932146064,-1.0037201086627405,1.0,0.4871285748479692,0.48896217372578715,0.3318621867272818,-0.6999059236655257,0.19822281898583194,-0.33349573878339966,0.5996832532800394
5.9,0.3335063348210353,-0.4762333810879526,-0.024142292565198717,-0.0017289106390710577,-0.02611181956298738,0.1358946185390336,0.010748593403900884,-0.03734563785221238,0.9992445883728651,-1.8175020217895508,-1.96135459538566,4.151294538271746,0.577470729287355,1.3487176895141602,-1.0037493781233953,1.0,0.48750547898482793,0.48933941734543845,0.33195394832287195,-0.6998375823516736,0.19822056213359474,-0.33351407577861225,0.5997535563322194
6.0,0.15586166358213285,-0.31891804859804856,-0.018276312603607098,0.004423948826871605,-0.021666164741320538,0.1349695963189715,0.010649346923744142,-0.03702113029194199,0.9992576803876283,-1.8160354393325904,-1.9624160024290298,4.151030232270823,0.577063696150839,1.3490184193236965,-1.0037903581622862,1.0,0.487833187358415,0.4896374047145057,0.3318857849835155,-0.699869403933074,0.19822609052924217,-0.333516583746857,0.5997132004864341
6.1000000000000005,0.18630642741095635,-0.18835123205651028,-0.02179212147455295,0.003046871829540328,-0.02159772889108075,0.13673101367594298,0.01058154036826854,-0.03679799551855144,0.999266660421599,-1.8143880395886318,-1.963589396277281,4.150839975596388,0.576594691152558,1.3492755680105968,-1.0037809381826572,1.0,0.48830595124393505,0.4901002614573926,0.3317998373853478,-0.6998898067499111,0.19822974310466734,-0.333518394055993,0.5996871752693574
6.2,0.09316899981650176,-0.2163284106481364,-0.08012251072635776,0.003069106927432489,-0.01958839890118068,0.13537634894487044,0.010810069212484797,-0.03753034475546243,0.9992368831912315,-1.8128650249466327,-1.964795980399307,4.1506028175354,0.576126982706154,1.3494953966078769,-1.0037792293147014,1.0,0.4885072270373883,0.49034362474183757,0.3317573546068494,-0.6999128477363844,0.19820020443660846,-0.333493639460947,0.5996838141670353
6.300000000000001,0.17625935844891022,-0.2517480325373058,-0.09382235080774567,0.011555504289152209,-0.020241426062293046,0.1345736676586001,0.010925308999762686,-0.03793490801570287,0.9992204778287714,-1.8114691967710397,-1.9655608291165745,4.1504006979338595,0.575695200557373,1.349672487811493,-1.0038098069872574,1.0,0.48901656821051676,0.4908831544226517,0.3316369993171897,-0.699952950896827,0.19822459782816287,-0.333476494619186,0.599638476820148
6.4,0.06462409883305274,-0.18813140523247002,-0.16917455574457368,0.00921303721611397,-0.015472817630980575,0.13098645631313746,0.010947322939113548,-0.03805645896174247,0.9992156030539239,-1.8099604151879085,-1.9664890024180717,4.150149847181357,0.5752040582844238,1.3499462084809182,-1.0038402716266077,1.0,0.48912299281023797,0.49099145912283415,0.3316881793712585,-0.6999248919344525,0.19822023869909744,-0.33347040025795294,0.5996760581951045
6.5,0.10115191878799547,-0.23972387031761266,-0.1542354414353334,0.009335719976713359,-0.019871013424648226,0.13872557637493732,0.010808243741402317,-0.03755307651151896,0.9992360455393363,-1.8084378476056282,-1.967480033249608,4.149887685665536,0.5747501045860561,1.3501296639114404,-1.0038158196165827,1.0,0.4895406674528215,0.4913762935372324,0.33177510320776354,-0.6998594532668919,0.19822242284431707,-0.33349153770366224,0.5997399528418486
6.6000000000000005,0.037008247195271966,-0.07420836830689875,-0.09535087914885107,0.008867982719489865,-0.016471620499410387,0.13592086733009984,0.01067941179790344,-0.0371001156445863,0.9992544855371479,-1.8070151576027842,-1.9686901219817083,4.149643399777222,0.5743161874958496,1.3503785240341184,-1.0038453014017532,1.0,0.4899487876627565,0.4917492622028139,0.33181246290637345,-0.6998238832241526,0.19822498544674494,-0.33351846260042367,0.5997656398280541
6.7,-0.024246375540122267,-0.5109250716739138,-0.22176973041711956,-0.0020167711426257316,-0.020010907058171382,0.1387109396259845,0.010686556239961318,-0.03731622617061994,0.9992463534386256,-1.8054893888635086,-1.9699081664369775,4.149448183540667,0.5739044657935967,1.350560667007423,-1.0038655430575885,1.0,0.4902842014022437,0.4920632616544813,0.331690549222892,-0.6998767860573152,0.19823674438496786,-0.3335180622794141,0.5997002414932955
6.800000000000001,0.08340271966799158,-0.157043343322097,-0.10344848156342237,0.008684099899458909,-0.01958874326701417,0.13670100771089153,0.01070632911710596,-0.03746669239724918,0.9992405194648947,-1.8040256425381203,-1.970869774022906,4.149229864860501,0.5734225497436147,1.3507501611116655,-1.0038880489210993,1.0,0.49065843084271327,0.49246194803752513,0.33155143921176233,-0.6999249122135947,0.19824502977963177,-0.33350350910300364,0.5996494266206276
6.9,0.1197071132945212,-0.2959130290907511,-0.16063357595577224,0.007922997510321408,-0.02016749845592775,0.13441872476289063,0.010724405797436092,-0.03752541921744101,0.9992381063177788,-1.8025407791137695,-1.9717282803830614,4.149017224713411,0.5729627903649396,1.3509554064085416,-1.0038784452926959,1.0,0.49115383116548933,0.49294279796571305,0.33154616602547576,-0.6999080017362543,0.1982472485251433,-0.333509816902076,0.5996649227591334
7.0,0.28489441168348006,-0.6623109852563763,-0.12858745882990724,0.00768525027992953,-0.023171940322734754,0.13923364725000062,0.010538176262340037,-0.03686254153399052,0.9992646653372147,-1.8016012484795703,-1.972245943040916,4.1488699763815715,0.5725795465656738,1.3511167678151872,-1.0039068456892306,1.0,0.49133763803629377,0.4931271903722993,0.3315761153027348,-0.6998925522790084,0.19825753258578924,-0.3335265191272609,0.5996702652927051
7.1000000000000005,0.3747446682008996,-0.889339534332419,-0.08368092302551934,0.004699215724115705,-0.021892581210921275,0.13994952166834923,0.010206167287609678,-0.035402011397985135,0.9993204317080246,-1.801629108909765,-1.9722603407541908,4.148884886220761,0.5725954906538402,1.3511186070481926,-1.0038919731963294,1.0,0.49153249399106974,0.49331834449005746,0.3316312223629682,-0.6998753678252355,0.19825168418124295,-0.33352394441002914,0.5996936865900523
7.2,0.27241799852896786,-0.27886512383375894,-0.06315169987185858,-0.00308358371685653,-0.024045475515723815,0.13546645344065741,0.010125964072336237,-0.03494224486958606,0.9993377543606127,-1.8015708871319562,-1.9723501577699911,4.148879252708411,0.5725886038706656,1.3511261940002441,-1.0039142834365935,1.0,0.4916097419362529,0.493412574589864,0.3316417112800483,-0.6998763141415335,0.19821977309572547,-0.33352521184577943,0.5997024258086411
7.300000000000001,0.13297146876781346,-0.48348291742311433,-0.10643982076191569,0.0027273324702855274,-0.01422535317448098,0.13226103695497451,0.010369089593219293,-0.03592782824045998,0.9993005902186916,-1.8014971757591158,-1.9724405079677714,4.148884317619686,0.5726043420979003,1.3511109246099569,-1.0038870689283488,1.0,0.49162094085152597,0.49342823920573586,0.3316178637094277,-0.6998820487081907,0.1982288061268524,-0.33352197935598793,0.599694545251174
7.4,0.05891466179825562,-0.3380840050843501,-0.13889488089165175,0.003094266278941223,-0.015444075123784092,0.12851212036137988,0.010433210360881047,-0.036181384649233754,0.9992907417794161,-1.8014882650163508,-1.972441217523862,4.148888323035048,0.5725987504793495,1.351144419772529,-1.003929546135465,1.0,0.49162984491900286,0.49345439667652363,0.33160812114340277,-0.6998814478992866,0.19822880003820637,-0.33351166048799685,0.5997009871930763
7.5,0.04559739557308079,-0.09449117154574385,-0.10128836141643761,0.007370239715279308,-0.019342158125963096,0.13023307486611185,0.010497766011783257,-0.03643651387606602,0.9992808283425703,-1.8014781926538828,-1.9724290036099648,4.148906068632402,0.5726239480346177,1.351111194140998,-1.0039223031064684,1.0,0.49163770851068656,0.49346128587598803,0.331595578124339,-0.6998786345850341,0.19823389852616247,-0.33351326830843075,0.5997016910003976
7.6000000000000005,0.1503446199745616,-0.407204541654421,-0.25176241122319354,0.001640409684937588,-0.020422922735945336,0.13288190964997268,0.010584361305257974,-0.036771352653913465,0.9992676208647354,-1.8015027883894965,-1.9724475346007289,4.148905621993985,0.5726089429312119,1.3511286861182878,-1.003876034413473,1.0,0.4916459418628424,0.49347370493089276,0.3315842260341704,-0.6998956050411729,0.1982362198440862,-0.33350186271011,0.5996874608951439
7.7,0.18178100346105047,-0.5322189933508124,-0.19120882119925464,-0.0028346135120636985,-0.024621602768325618,0.13251921064853708,0.010664896238689232,-0.03711177949662189,0.9992541781424658,-1.8015069956524308,-1.9724336273735672,4.148882705369253,0.572608155790457,1.351122221403831,-1.0038696749939078,1.0,0.4916368853009273,0.4934726131443297,0.3315956545558521,-0.699886413510791,0.1982354162016116,-0.3334982622067915,0.599700456104067
7.800000000000001,0.4412002606359334,-0.6288183349957976,-0.1897651582359694,-0.00433120229036014,-0.030417141915198304,0.13351963069021672,0.01073941885749424,-0.03745775010304322,0.9992405020407357,-1.8014951593031263,-1.972413266473835,4.148888546640029,0.5726048203890911,1.3511499532348907,-1.0038641547961498,1.0,0.49162630416855724,0.4934683689285191,0.3315982377516746,-0.6998777218271873,0.19823438225583132,-0.33351120895448705,0.599703741595258
7.9,0.15472849394414892,-0.6058041080605432,-0.275312964753636,-0.00397702613463463,-0.02347285150087508,0.13525825345931752,0.010790513460838121,-0.03772079871082125,0.9992300384007754,-1.8014933203071153,-1.972424368591236,4.148889416229995,0.5725920179470648,1.351102703583511,-1.0038882932666366,1.0,0.49165670473094764,0.4934466654554164,0.3315946438091046,-0.6998794732393753,0.19825182725390958,-0.3335119232512803,0.5996955335650689
8.0,0.044500912670521,-0.3526938175196051,-0.261595202513887,0.0001333747444900498,-0.022692972014318816,0.13443158434978783,0.010906162236930202,-0.03814480899528274,0.9992126083768147,-1.801481932307091,-1.972459455529684,4.148912178361888,0.5726157861896972,1.3511261940002441,-1.0038767531156183,1.7665151811498325,0.4916321855570346,0.49346796523281067,0.33160024315977005,-0.6998762816807422,0.19822825739066757,-0.33351825997022044,0.5997035255682881
8.1,0.10625769976989693,-0.25314803481684545,-0.17117188768412694,0.0010995207768519045,-0.02201290292995163,0.13536268953380262,0.011089647184313508,-0.03873809071446073,0.9991878542643818,-1.8014682767647971,-1.9724588592616301,4.148912334229397,0.5726145459521452,1.3511600485520523,-1.003900472539437,2.0,0.49161617200014784,0.49348602976846034,0.33158702720064076,-0.6998950197494995,0.1982161348296362,-0.333494313903295,0.5996989810039852
8.200000000000001,0.19292296711477405,-0.17503393865031597,-0.2241096820859771,0.008054851990555154,-0.021288952402444123,0.12804962434598105,0.011275564009817576,-0.03971804188815384,0.9991470419439908,-1.8014791164274895,-1.972440392713506,4.148903348563264,0.5725894314876958,1.3511120480367167,-1.0039286883326948,2.0,0.4916357534874238,0.4934820736908012,0.33156553247134596,-0.699906531040626,0.19823717433311705,-0.3335145413139258,0.5996673421583506
8.3,0.03074828739598131,-0.1770943125318567,-0.15044039506951568,-0.004430052054569973,-0.021358189927583537,0.13175036977438612,0.011207255553154894,-0.039490255872790765,0.9991561205732639,-1.8014917977766476,-1.9724375375652194,4.1489070580106535,0.5725731513471111,1.3511223462133528,-1.0038898792358737,2.0,0.49163931554642715,0.4934739489493756,0.3315915463693657,-0.6998856490183416,0.19822980903374943,-0.33352103321112464,0.5996905381231237
8.4,0.13250635105060288,-0.5034090664395912,-0.11412373018555337,-0.003653479829647985,-0.020215980249263885,0.12886290901960387,0.01085012907916096,-0.03788135294030813,0.9992222544234493,-1.801468849182129,-1.9724407837313795,4.148867704559519,0.5726043420979003,1.351119919968053,-1.0038947062117773,2.0,0.4916251694229688,0.49347728667135893,0.33158617488789455,-0.6998834558980093,0.19823473132465663,-0.3334993933595922,0.5997035051470722
8.5,0.2339065706966577,-0.591302343535475,-0.11616945024000859,-0.0050917038683375585,-0.028450318143477725,0.13444896349266863,0.01080144180517277,-0.037646229915150764,0.9992322617992464,-1.8014660984877129,-1.9724433550827574,4.148916945376898,0.5725922523003073,1.3511305406989345,-1.003884393449416,2.0,0.4916222384229836,0.49347728418735687,0.33160786686467475,-0.6998728172101437,0.19822775254913536,-0.3335020639786596,0.599716742447324
8.6,0.2661567116904245,-0.19306866782441529,0.0808165085528626,-0.0024028604479657233,-0.02617790000258284,0.13670662808752485,0.011117469444883423,-0.039035537313662,0.9991759022467726,-1.8014731790277674,-1.9724436686671232,4.148893085359768,0.572600012252262,1.3511107293374973,-1.003879255019127,2.0,0.49162599257435924,0.49347568049171475,0.33160071557215165,-0.6998738276598517,0.19823122442732416,-0.3335112118268639,0.5997093284288386
8.700000000000001,0.20305010838327228,-0.5316687329145602,-0.12596480506176083,-0.007624510507325939,-0.025424057687758,0.13522509419962805,0.011142085509845006,-0.039139949817726775,0.9991716152159674,-1.8014749422862422,-1.972441706775887,4.1489129066467285,0.5726020972700692,1.351106360763461,-1.0039057842686476,2.0,0.49164208995774017,0.4934631883096446,0.3316205162003955,-0.6998663012701076,0.19825496351991587,-0.3335232843653922,0.5997035505750634
8.8,0.0494994929171963,-0.3931172130208974,-0.1517910463187689,-0.004354357467145746,-0.025795522684641234,0.14136584924869663,0.011151709330523708,-0.03917825836503571,0.9991700071589332,-1.80146765931335,-1.9724767832107097,4.148908173928413,0.5726055319666791,1.3511261940002441,-1.003885894243298,2.0,0.4916320890333163,0.49347947035170925,0.3315767793527711,-0.6998930742646327,0.1982406412150985,-0.3334999190300949,0.5996900339124774
8.9,-0.10266175564805369,-0.6992400048689977,-0.0764402800957277,-0.01302460606292052,-0.040829225853293696,0.12968639956139896,0.01099102805457097,-0.03852365730158761,0.9991969661229271,-1.8014723403298336,-1.972459455529684,4.148919390206752,0.5726455422536976,1.3511242258807887,-1.003887955342428,2.0,0.49164599325168273,0.4934547020707221,0.3316002423123665,-0.6998790049397887,0.19824322128803218,-0.3335196021548059,0.5996946545003844
9.0,-0.2501867150258119,-0.14066528996754535,-0.17879138854784168,0.0020514317699970126,-0.030950176452070904,0.13857858357791938,0.010815499077233923,-0.0378086463315053,0.9992264156441976,-1.801497702006611,-1.97244637852181,4.1489077395187115,0.57259831378188,1.3511187147143893,-1.003876034413473,2.0,0.4916341680714525,0.49348009739527005,0.33157258615230234,-0.6998929942957336,0.1982435780209843,-0.3335037076029933,0.5996870494885204
9.1,0.3506798776943314,-0.5458923519800265,-0.1098413191837483,-0.007155347912236706,-0.029254642364482907,0.14128593440188816,0.010711501211905216,-0.037358351845835594,0.99924438658847,-1.8014936447143555,-1.9724382108309217,4.148901462554932,0.5725967656992905,1.351131969042064,-1.003899876271383,2.0,0.49163196679860127,0.49347578210714704,0.3316045125868944,-0.6998812299436069,0.1982296345661742,-0.3335125397944897,0.599700476698338
9.200000000000001,0.20039491360286624,-0.4055682588649384,-0.00603812365118836,-0.0119096148922677,-0.02710765796907341,0.1344034436631141,0.010615222403548412,-0.03693662341439339,0.9992611188578873,-1.801492498060356,-1.9724451457382297,4.148880298093704,0.5726181750521964,1.351102352142334,-1.003887955342428,2.0,0.491630289825531,0.4934719110040183,0.33159844620142104,-0.6998868954430187,0.19823899259127967,-0.3335009366548318,0.5996972241505519
9.3,0.12449061169184755,0.40895295543555665,-0.3597471298946838,-0.04910161756929797,-0.031609262416253614,0.1375966358905129,0.01061915742188732,-0.03698274449144282,0.9992593374356459,-1.8014741852538276,-1.9724643523697503,4.148893072473184,0.5725909906574707,1.3511184493094,-1.0038676067261993,2.0,0.4916342276807212,0.493466722295804,0.3316165729589188,-0.6998737741265286,0.19823254779940988,-0.333515564032172,0.5997065330902657
9.4,0.1408873436055302,1.095094645229585,-0.7637552303738299,-0.0921217173805973,-0.037183882097370294,0.1425343655378519,0.010783100951556863,-0.03777586731314992,0.9992279957387477,-1.8014905211407406,-1.9724475346007289,4.148918796967811,0.5725599660009301,1.3511039229405994,-1.0039085434778225,2.0,0.4916372833838617,0.49346843218152026,0.3315998116592526,-0.6998707131213276,0.19826961364572981,-0.3335033166594254,0.5997046631442684
9.5,0.4242651515821468,0.8532814753713688,-0.6402340268257618,-0.10561095492725318,-0.03896356899177413,0.1420799748008441,0.010918047091910285,-0.038239608549084564,0.9992088991851702,-1.8014831156772773,-1.9724356136717738,4.148859497931102,0.5725929732760278,1.3511166562724444,-1.0039218117652962,2.0,0.49161846361508205,0.4934865990752475,0.3315836330467422,-0.6998900397739508,0.19823654275267047,-0.3334938974303073,0.5996982789031751
9.600000000000001,0.4841349451997474,0.685675479720177,-0.2661948811927928,-0.10981043902007705,-0.048767567705161635,0.141285987288195,0.011012649284220083,-0.0385620920563785,0.9991955117097482,-1.8015037110025516,-1.9724565851055156,4.148919448747538,0.5726353798198383,1.3511480042913357,-1.0038550629797311,2.0,0.4916238605467994,0.49347804730757283,0.33159490304737915,-0.6998833734862377,0.19824533817653706,-0.3334969981818339,0.5997014270555806
9.700000000000001,0.3921086843533309,1.1489064867756293,0.3317131700692843,-0.1199510580304392,-0.03771105407907701,0.14022663974500973,0.011043352929890948,-0.03872313261964602,0.9991889408449832,-1.8015122670649861,-1.972440116495457,4.148937702178955,0.5725795465656738,1.3511038925820151,-1.0039222369372922,2.0,0.4916379299545767,0.49348032930114755,0.3315860998696628,-0.6998879566089489,0.19821922278395207,-0.33352590736091436,0.5996886334021636
9.8,0.2587977825030572,1.1921494658622438,0.7484813749405789,-0.12132975850025783,-0.028452463830954504,0.1380996377542365,0.011036116082211764,-0.03871466537956754,0.9991893087625363,-1.8014706042689523,-1.9724726970875393,4.148869475641288,0.5726000218841812,1.3511155599485196,-1.0039203429623251,2.0,0.4916253011306269,0.4934795287344895,0.33161370697412684,-0.6998644651045223,0.19823577074052792,-0.33351119407984675,0.5997187616760914
9.9,0.7430836842551917,0.7624732434593815,1.8067970027454254,-0.10948029643110888,-0.023999032298427182,0.1382318961574072,0.010957926938030226,-0.03838920257985033,0.9992026528566473,-1.8014232406512127,-1.9724477939988418,4.148902251125195,0.5725555396037108,1.3511026219163715,-1.0039120565984512,2.0,0.4916302133392033,0.49348302253635884,0.33156702241547337,-0.6998979287896496,0.1982387786878808,-0.3334983999311216,0.59968582870006
10.0,0.608750343814577,1.0314856038590718,2.2508768769926144,-0.10353408876046992,0.004557596380289037,0.14281369100799393,0.01087973779384869,-0.038063739780133124,0.9992159969507584,-1.8014793275192873,-1.9724406513338693,4.1489181458153075,0.5725743073970946,1.3511147499084473,-1.0039168348624337,2.0,0.49162691129867225,0.49348777081451684,0.33160318228609736,-0.6998793411085368,0.1982263093900521,-0.3335146058228455,0.5997026311914195
10.100000000000001,0.5863473963126509,0.8583034823691218,2.5301351646248573,-0.11198651739591618,0.011367091610183618,0.14272530300739245,0.010879154214320359,-0.038062203923165935,0.9992160292667591,-1.801467162257263,-1.9724819818670825,4.148924390661873,0.5726440129206084,1.3511147499084473,-1.0038671862184314,2.0,0.4916362251619243,0.49347325681164245,0.33159190685644263,-0.6998879967363342,0.19822329340703088,-0.3335254724001837,0.5996874829738452
10.200000000000001,0.6549388489319882,0.8939883332586284,2.583321642532717,-0.1039402207696668,0.0035662838302902727,0.141427782376088,0.011030560976116469,-0.03869507832805001,0.9991899904922699,-1.8014731875581218,-1.9724899296803484,4.1489129066467285,0.5725795465656738,1.3511176041031794,-1.0039103701029721,2.0,0.49164476763678144,0.4934824447409754,0.3315486106709589,-0.6999054355593991,0.19824264354108123,-0.33351267506295557,0.5996678506711887
10.3,0.675603227849191,0.7357451858141211,2.531027019138627,-0.08480825813109188,0.000989296295585751,0.13997916121802623,0.010993361717926345,-0.038548744889374716,0.9991956262129933,-1.801484230952343,-1.9724773448471022,4.148895494166468,0.5725778080309278,1.351110981043917,-1.0039019911982416,2.0,0.4916411799164737,0.4934817331259143,0.3315955222246982,-0.6998856824724089,0.19822449298183248,-0.3335099037364158,0.5996984458558756
10.4,0.6303026694498495,0.958423947830855,2.5440762407553428,-0.10206969692812205,0.004583829894115751,0.14167411598464583,0.010572263765448092,-0.036816370486877845,0.9992657338808756,-1.8015020484636315,-1.9724443675772698,4.14893111477016,0.5726272302814941,1.3511147499084473,-1.0039233211206318,2.0,0.49164550823383285,0.4934782703141577,0.3315773679737121,-0.6998953634337282,0.19823591029769547,-0.33351237985009874,0.5996819962272817
10.5,0.7120512594695592,1.2296077282163225,2.667747575515721,-0.12326388640977512,0.00864266122178849,0.14457653695182718,0.010902690267407441,-0.03812440931238206,0.9992131899043016,-1.8014781430490592,-1.972459455529684,4.148901893232945,0.5725830244858161,1.3511241004324313,-1.0038805647621256,2.0,0.4916314503524945,0.49348046706164617,0.3315878325926424,-0.6998878140232287,0.19822718431876227,-0.33351627615867663,0.5996915246325325
10.600000000000001,1.0681316863881292,1.2300917244607674,2.7950979694529767,-0.13872986042294205,0.010859340220195971,0.1439782464860913,0.010738690616754015,-0.03734357389615508,0.9992441547532407,-1.8014625973350802,-1.9724455434394672,4.14890208947017,0.5725907964292949,1.3511329668345469,-1.0038922601783111,2.0,0.49162331685984395,0.49348739786063234,0.33161260616383986,-0.6998724453297309,0.19822302548165552,-0.3335048543959352,0.5997171871235875
10.700000000000001,1.0791830054672136,1.4773348980255991,2.7787649193850297,-0.15047331316847565,0.017122955121151244,0.14266137025028017,0.010536128936303724,-0.036455076612377825,0.9992796887897912,-1.801477553978293,-1.9724475346007289,4.148920989671738,0.5726071567074896,1.351149821304118,-1.0039117972003382,2.0,0.49161751567974,0.49349731671485586,0.3315938445373997,-0.6998839673340657,0.19821819099725838,-0.3334995828158171,0.5997082701515618
10.8,0.8409534238982908,1.540664097669642,2.844572077084764,-0.17529756549164524,0.028981298466395154,0.1451248895067673,0.01063056169506785,-0.03694107678736562,0.9992607870867729,-1.8014925607196355,-1.9724718532957972,4.148907013443769,0.5726108567215099,1.351125943419893,-1.0038995196941727,2.0,0.49162473663065726,0.49349012536644216,0.331593871926382,-0.6998795570627114,0.19823358679843697,-0.33349980010408176,0.5997082073819459
10.9,0.9699742140729114,1.9111374518639632,2.9318377521210652,-0.191301476153638,0.03298423696137592,0.14630290265029636,0.010703681301132362,-0.03729427747036458,0.9992470004524273,-1.801468849182129,-1.9724645298978116,4.148886815758961,0.5725964553616083,1.3511194339405652,-1.0039069180002154,2.0,0.4916334760008796,0.49347697684598435,0.3315778938520309,-0.6998894765808685,0.1982442964569117,-0.3335043315923847,0.5996905704634503
11.0,0.86474429232221,1.9987201976969382,2.915555931541613,-0.2061396703449307,0.03983671671105658,0.146333784710534,0.01072197107701484,-0.03730584058821165,0.9992463727510019,-1.801468849182129,-1.9724475346007289,4.1489129066467285,0.5725795465656738,1.3511079585501198,-1.0039083790737762,2.0,0.4916303897940161,0.4934855532652895,0.331578282539958,-0.6998905576920744,0.1982279149463337,-0.33350442473586683,0.5996946720382839
11.100000000000001,0.9797325924460292,2.226908237523441,2.8728679416120615,-0.22574809056648995,0.03807087131301848,0.1467744868618112,0.010762455638173733,-0.03750448682657121,0.9992384436795118,-1.801510623249943,-1.97245311964533,4.1489017365575265,0.5726048901030895,1.351120832357427,-1.0038942912267819,2.0,0.4916274905667536,0.49348886797753855,0.3315793473862277,-0.6998979068823569,0.19822426408357713,-0.3334935796183571,0.5996933328156604
11.200000000000001,1.1798429635863619,2.337500979517208,3.0558807697642343,-0.24148024804020277,0.035104486701191574,0.15143971229653244,0.010809585170462096,-0.03775914450721928,0.999228328626374,-1.8014793666739757,-1.9724855821807776,4.148922330460102,0.5726091963249066,1.3511160810273144,-1.0038861473864027,2.0,0.4916182254063861,0.4934875776436042,0.3315891501770401,-0.6998861598842337,0.19822662095763785,-0.33349084704591625,0.5997077829099896
11.3,1.1954930971308007,2.3301086390593326,3.0555109754410754,-0.24367715217844035,0.037214079110165624,0.149125425785859,0.010856714702750457,-0.03801380218786736,0.9992182135732364,-1.8014842310582706,-1.9724809048881866,4.148916252820452,0.5726023565784948,1.3511171424078547,-1.0038924811386227,2.0,0.4916373821553225,0.4934726204330918,0.3315892561606872,-0.6998800531574292,0.1982365481871715,-0.3335130378762259,0.5996992877449169
11.4,1.083546536055746,2.1522383675249253,2.905626516074923,-0.2483584954111413,0.038066755526190474,0.1508390143999195,0.010969842713731028,-0.03847455193041239,0.9991992256250035,-1.8014861112029978,-1.9724558445841625,4.1489089960662895,0.5726194091206155,1.3511271334131718,-1.0038796453589944,2.0,0.4916236759532256,0.4934838514330972,0.33159650540587104,-0.6998820572730006,0.19822796682154706,-0.3335035819257219,0.5997050441006988
11.5,0.8317130131600343,2.198337021773393,2.8922285023653993,-0.24210800115251435,0.04312333936944897,0.1472843642671003,0.01110356853574701,-0.03899962202444082,0.9991774684884479,-1.8014922248552603,-1.972459455529684,4.148918343140132,0.5725971023742824,1.3511422116281664,-1.003877698418233,2.0,0.49163420840274413,0.4934887300582543,0.33157744767892694,-0.6998864642903941,0.1982389518242,-0.33350099463749744,0.5996977085653517
11.600000000000001,0.8120094178739194,2.3315244755626043,2.9252557211151187,-0.2351829518668191,0.045539182820895766,0.14592610410459225,0.01086380506025433,-0.038043833212030365,0.9992163927487945,-1.8014822006225586,-1.972459455529684,4.148886167300637,0.5726048756790636,1.3511385917663574,-1.0039145832466663,2.0,0.4916435871361711,0.4934818009988518,0.33157328951498893,-0.6998934218974258,0.1982397578735875,-0.3335047281219062,0.5996872457400333
11.700000000000001,1.3866656851168542,1.809305570947436,2.9443868369171007,-0.24874682999026554,0.03437917064411353,0.15047314272924933,0.01063515494291423,-0.03712914004643719,0.9992538093164047,-1.801498280296381,-1.972461784756711,4.148927633639869,0.5726064921536176,1.3511192291911915,-1.0038953969886388,2.0,0.4916523627786226,0.49345811711632714,0.3315916112546152,-0.6998791989778894,0.19825485200397833,-0.3335158301716761,0.5996926808956786
11.8,1.0389318476857254,1.9134272717090974,3.104751524123802,-0.24218743076572619,0.04117625656214931,0.14620111721168835,0.010805536210870331,-0.0377876068718032,0.9992272951237852,-1.8015050888061523,-1.972459455529684,4.148904892910956,0.5725909906574707,1.351134584898471,-1.003928022022276,2.0,0.4916391628862265,0.4934658476879252,0.3316117903886112,-0.6998631032898341,0.19824391518596035,-0.3335123923855363,0.5997169923143256
11.9,0.9843633232614486,2.145115551540946,3.088946079515791,-0.2364127150300531,0.04119637461122397,0.1419916963272126,0.010892032618253118,-0.03807902998003729,0.9992153536528808,-1.8014921633069636,-1.972457912396984,4.148884567862129,0.572618872455097,1.3511162313158391,-1.0038667846380673,2.0,0.49163547161751625,0.4934688506162923,0.3316146024384491,-0.6998639313348745,0.19823127545191918,-0.3335255616411178,0.5997128802862052
12.0,1.2482005865714485,1.6945408427993096,3.1099055889554896,-0.24344581372705926,0.03485017161990456,0.14978238802361007,0.010949207370295734,-0.03824215425943668,0.9992085060251394,-1.801516400833805,-1.9724475346007289,4.1488770191937565,0.5725672203343054,1.351151055564543,-1.0038998074879746,2.7266084291477677,0.4916193703493138,0.493489524399199,0.3315956005446761,-0.6998848952295442,0.19822223405194403,-0.33350622424399357,0.5997021575311374
12.100000000000001,1.1494607496746412,2.086477114645512,2.9692982243756143,-0.23962758957919197,0.035440272146508245,0.14815509927875364,0.010833463758403158,-0.03768126676157805,0.999230748140297,-1.8022792523957367,-1.9718677718301238,4.149011803920555,0.5728225910888176,1.3510302235288412,-1.0038883609658162,3.0,0.491625988770697,0.4934772021689737,0.3315617957694833,-0.6999064100969605,0.19822676776437775,-0.33349845616978785,0.5996798690795289
12.200000000000001,0.9727457837970459,2.3906005073899474,2.934464767959795,-0.2344908829615714,0.03874466897951992,0.15099382034835562,0.01065428833459332,-0.03685478931806087,0.9992636612741846,-1.8036912858557184,-1.9709214376127717,4.149201352453698,0.5732421831578307,1.3508485934266823,-1.003876810679826,3.0,0.49137633709957934,0.49323829006465775,0.33166101255237745,-0.6998590903576639,0.19820486557569061,-0.33349409138986597,0.5997447589716088
12.3,0.9598484677715166,2.235856728134382,2.9595309509743184,-0.23999074599813094,0.0447941042357744,0.14418362315553482,0.010566911195235524,-0.03654975265998266,0.9992759596393761,-1.8052764016563143,-1.9698184968119428,4.149475273886603,0.5737438326026032,1.3505412268773935,-1.0038455906724744,3.0,0.49119662535278913,0.49301935078331655,0.3316680382812995,-0.699866346259666,0.1982306108431424,-0.3335180136145836,0.599714479475427
12.4,1.0985105570686238,2.519864963223889,3.0424399426691773,-0.24231600200233905,0.04263523327162406,0.14348892574144442,0.0105150372400962,-0.03644638434870382,0.9992802851983762,-1.8068851993080608,-1.9686314571626387,4.149680360009529,0.5741918657622329,1.3503221962125043,-1.0038636366473597,3.0,0.490870330851005,0.49269724675324367,0.33164611636079944,-0.69989453457751,0.1982234651113924,-0.33351569492820715,0.599685233755441
12.5,0.8948178333892906,2.603643046408828,2.9344999670125707,-0.2485126840424634,0.04739796638432948,0.13710029425334577,0.010603774829385692,-0.03691616703596536,0.9992619595450997,-1.8083147387147223,-1.9675547085204066,4.149953668533099,0.5746147261030858,1.3500845850152141,-1.0038839054674469,3.0,0.4902922487184253,0.4921007739515639,0.3317577743803885,-0.6998672462038136,0.1982286060950743,-0.3335381009962355,0.5997029202868028
12.600000000000001,1.1796553009246629,2.077714409937749,3.20683113814706,-0.24505477552436028,0.047119323696076736,0.11387192600305718,0.010733777730482045,-0.03754645906807294,0.999237223719588,-1.8097997612226409,-1.9666873583480304,4.150132100289639,0.5750865319286946,1.3498300550152378,-1.0038004306411996,3.0,0.4901088552431373,0.49191709716994986,0.33178774668687944,-0.6998553328564129,0.19822583677596278,-0.3335387006829938,0.5997174049947266
12.700000000000001,0.9912718248229742,2.025515369683194,3.2408812366729407,-0.23680459072132626,0.05300733135171158,0.1088233722232224,0.010757867383360544,-0.037689421687230204,0.9992315229588831,-1.8112725357103057,-1.9657531609560104,4.150408054363655,0.575597028883488,1.3495997314512367,-1.003746441512041,3.0,0.48967963032433,0.4915058869648915,0.3317289113704117,-0.6998869611080639,0.1982611251912825,-0.33350948703606365,0.5996850756570052
12.8,1.1334167521465905,2.0526369319159876,3.264351029041166,-0.25008918889468273,0.04896829862467809,0.1132008800768245,0.010593795198931787,-0.0369541544461837,0.9992606992139065,-1.8127932490868632,-1.9647113013429485,4.150547647157183,0.5760449474869876,1.3493809155950347,-1.003771409937506,3.0,0.48945040692330394,0.4912879742644452,0.33170160591715486,-0.6999072346749475,0.19826462414601506,-0.33349150185361537,0.5996702592703156
12.9,1.1220232367690994,2.2929163681931537,3.3959540822255367,-0.25313617193295496,0.04982876591273573,0.11948488885884487,0.010641605602445663,-0.03717167705637142,0.9992520186348451,-1.8142161148439777,-1.9635262458372074,4.150823842602425,0.5764993753804849,1.34918212890625,-1.0038139384908291,3.0,0.48893738290585925,0.49076225009711427,0.33175162345977527,-0.6998940740538946,0.19825060131838634,-0.33351340752513453,0.5996780729542422
13.0,1.225736863350282,2.172284626521223,3.5744213724504066,-0.2602879104698071,0.054661170176658405,0.11522441232794807,0.010790063524980534,-0.037841789639176775,0.9992253554718178,-1.8158017612442865,-1.9623422151710113,4.151048183441162,0.5768966121067348,1.348968365098487,-1.00376071714961,3.0,0.48877266742138814,0.4905665596363627,0.3318124947662375,-0.6998698451599872,0.19825318812091933,-0.33352170954297744,0.5997008775207495
13.100000000000001,1.2986644435523098,2.0189159038508597,3.415250112251645,-0.2551148806655005,0.05406822771125787,0.11489673851380139,0.010784737361229636,-0.03778302440598145,0.9992276855624895,-1.8173063039673178,-1.96146883587026,4.151258315631139,0.5773331838582196,1.3487373997985173,-1.0037439505206507,3.0,0.48836346120722396,0.49016723847781585,0.3319246064851671,-0.6998404122401706,0.19823280713885572,-0.33352294846224206,0.5997412728989142
13.200000000000001,1.3034715419540328,2.190115626209338,3.350132805896691,-0.2605497842078058,0.05683183285061953,0.11786151667677368,0.01070313797133121,-0.0373627532209256,0.999244395613075,-1.8185821531452575,-1.9605022686948528,4.151520919887332,0.5777067126825225,1.3485375767721954,-1.0037585964173532,3.0,0.48785260449294304,0.4896661688976083,0.3318530975240008,-0.6999065201853515,0.1982404303436088,-0.3335047650137039,0.5996717156014342
13.3,0.9574363917058883,2.3938582555736203,3.510734658586211,-0.2514537441692001,0.06399773535122075,0.10609044579196565,0.010690277788594528,-0.0371874345614095,0.9992511251610023,-1.820115285453983,-1.9594876591109,4.151749656633095,0.5781585413166503,1.3482995392271733,-1.0037448225619932,3.0,0.48767578523879407,0.4895006914655534,0.33190269160999464,-0.6998780041110814,0.19823309800210465,-0.33351307665574076,0.5997027979904708
13.4,1.0114585393321756,2.121878385446511,3.494339341587811,-0.2580206566802206,0.0638820559957075,0.10542140894672576,0.010717922610313173,-0.037187890012964006,0.9992508047805603,-1.8217632041924772,-1.9583732275749612,4.151977850342435,0.5786565248670378,1.3481153122570735,-1.003683524127835,3.0,0.4873298286623876,0.4891846181201643,0.33193688624980244,-0.6998787489786105,0.1982195717076876,-0.3334934393976939,0.5997173200757608
13.5,0.9861807660587928,2.2812218065488383,3.632449034558996,-0.26927842684050834,0.06596272466805073,0.10046070838181793,0.010771905548743004,-0.03746761547643379,0.9992397658266335,-1.8232295212455105,-1.9572644020488896,4.152205306626628,0.5791100785376588,1.3478584071066113,-1.0036919101754898,3.0,0.4868041133442933,0.4886168068620741,0.33189294495552957,-0.6999325340208534,0.19823616139275035,-0.3334807845333051,0.5996561001794826
13.600000000000001,1.0531662645233397,2.252857926557981,3.681554289349319,-0.28228764887951713,0.06351995494984469,0.08738313941348595,0.010859459826540636,-0.03785060998371113,0.999224310324849,-1.8244780626704649,-1.95625897135664,4.152433563372516,0.5795251566120605,1.3476336408565734,-1.003677117449433,3.0,0.4865701373932496,0.48838057208889585,0.33195431121220853,-0.6999266526585489,0.19822302667149858,-0.33348946831585824,0.5996624776637235
13.700000000000001,0.9737847823487293,2.153847488452104,3.713476361645871,-0.27202954069966034,0.06635621529877968,0.08509479345289486,0.010966547671448699,-0.03829369184036539,0.9992062850437347,-1.82609052607308,-1.955245727189478,4.152640471996239,0.5799571710773925,1.3473707859537039,-1.0036365007485875,3.0,0.4861179343163657,0.487949121025297,0.3321116591795078,-0.6998348686036432,0.19821844290771048,-0.33351214700505766,0.5997584958780005
13.8,1.0027640942898892,2.1402727786920437,3.675368538459573,-0.256484323533808,0.06716752256166837,0.08039858429301912,0.010831593599230468,-0.03777537742912619,0.9992273939152926,-1.8277609335552163,-1.9542447715574878,4.152893543243408,0.5803856499160538,1.3471198081970215,-1.003652018777644,3.0,0.4859199432497393,0.4877464210291757,0.3321094273362605,-0.699838260522136,0.19823898151672908,-0.33350942405094797,0.5997492637642552
13.9,1.0443708445375588,2.2881122293006704,3.59114272832242,-0.2760080420056545,0.06619601070674676,0.07380327921878373,0.01060482416934849,-0.03693516681798735,0.9992611819181161,-1.8290624618530273,-1.9532135576030514,4.153081896374837,0.5808450418659667,1.3468784132710832,-1.0036193197646108,3.0,0.4855233857738208,0.48734405238784767,0.33199722112247987,-0.6999325819805708,0.19824060258355777,-0.33348674168302517,0.5996512630612554
14.0,1.1191369351273022,2.5216659917966098,3.869589760038556,-0.2762138437731748,0.06560324821119361,0.07394136801902013,0.010412709281794417,-0.03625986229474246,0.9992879873918503,-1.8304305995074386,-1.952112245304472,4.153333193043111,0.5812369190722433,1.3466426363728312,-1.0036276052239692,3.0,0.4850805415609065,0.48683726181363884,0.33210564309232343,-0.6998808961201691,0.19826317317793146,-0.3335256858021557,0.599682467909183
14.100000000000001,0.5548532362280356,2.5166252192229743,3.7792718353635326,-0.2632495614624186,0.07406836853657879,0.06531278925791456,0.010344794086655477,-0.03598122579107558,0.9992989224263426,-1.8320074592175344,-1.9511354367260834,4.153610815961989,0.5816824775484152,1.3464075578431205,-1.0036099940070065,3.0,0.4848785322509161,0.4866751420279588,0.33218159661505803,-0.6998477942954718,0.1982489928740521,-0.3335248985629085,0.5997262239412151
14.200000000000001,1.0658205170259432,2.1652039063531467,3.806431996483484,-0.27129783587943995,0.06626657076444689,0.06789406907576262,0.010380182567552203,-0.03606222415644768,0.9992955626692839,-1.8335949118022519,-1.9500632831852203,4.153803223138388,0.5820988849182588,1.3461453350839816,-1.0036011946824268,3.0,0.48453064995106965,0.48633445498287003,0.33213638804397827,-0.6998986911623293,0.19823963783319506,-0.333519002644174,0.5996731968132787
14.3,0.9700777792704306,2.2511986414290326,3.663867527669968,-0.29124076706359914,0.06697332883436498,0.05595737918231542,0.010618919054231424,-0.03707551451444664,0.9992557973041986,-1.834943345017713,-1.9489657193253342,4.154093265533447,0.5825754739569619,1.3459398696709859,-1.0035699355382248,3.0,0.4839804685356818,0.4857985884812147,0.33212086468988716,-0.699929681961573,0.1982467712489345,-0.3335045018156146,0.5996427313553154
14.4,1.04122638109447,2.3973379094019105,3.912710162776855,-0.288631129317495,0.06673832539567852,0.054250303869251025,0.010714955758480625,-0.03741120912135727,0.9992425025637062,-1.8364022721423594,-1.947881704313418,4.15431955348844,0.5830041605183105,1.3456933211148316,-1.0036094063178858,3.0,0.48377594561796017,0.4855880723589864,0.3321908917886137,-0.6998918395155611,0.19823581136063445,-0.33352417918132066,0.5996795794214954
14.5,1.205474982309445,2.330797678885057,3.8673605439605674,-0.2795616003443461,0.06449814656696212,0.0498482996494721,0.010724374786579281,-0.03733139900053083,0.9992453680806084,-1.8379325372916329,-1.9468968958887911,4.1545616985068765,0.5834328618126796,1.345498062521184,-1.0035736971543836,3.0,0.4834235502308867,0.48525970250755124,0.3322853411604901,-0.6998534803868937,0.1982256744940033,-0.33351490198065264,0.5997328556270576
14.600000000000001,0.9378422446827638,2.3685185474204262,3.901085068683838,-0.2698597624890815,0.07570717130072936,0.04185974838283218,0.010914693488723617,-0.03807196379198837,0.9992153803245026,-1.8393984541778738,-1.945974966088766,4.154836112748266,0.5838194219035147,1.3452725385431556,-1.0035280058626592,3.0,0.4828508031042554,0.4847093842908952,0.33224293304164637,-0.6999033756245034,0.1982265948597076,-0.3334947228146947,0.5996855440432932
14.700000000000001,1.173955310121779,2.4427164665236916,3.924281843804573,-0.2809451471345611,0.06929559590050388,0.03986283823606796,0.010809260826459884,-0.03763287585525779,0.9992331205998687,-1.8408174865154854,-1.9449287529755768,4.15503984941832,0.5841776716335225,1.3450794132374617,-1.003516503575992,3.0,0.4826918399933336,0.4845520768054429,0.3322113729970438,-0.6999405312144954,0.19822956187654267,-0.33348316374248416,0.5996476240774309
14.8,1.1583874200523752,2.387502963182939,3.9807323911247465,-0.28981882818668137,0.06771172155452618,0.03896023270629779,0.010583427599773852,-0.03666265873846946,0.9992711041782161,-1.8423094643881155,-1.94373157474128,4.155232510500176,0.5845841903829544,1.3448290004286656,-1.0035273622120058,3.0,0.48237409505652945,0.4842261243527213,0.33226664943563206,-0.6999319924434242,0.1982161390515953,-0.3334982879693275,0.5996536167615305
14.9,0.9193015905899196,2.6264197895640593,4.060111481965506,-0.29358507972383985,0.07322120304269454,0.03543450378435986,0.010278793104866275,-0.03534058589866595,0.9993224496941299,-1.8437229333889606,-1.942592283288473,4.155508483550455,0.5849568348272985,1.3446245193481445,-1.0034683386432093,3.0,0.48185674650247334,0.48368572174756613,0.3323785524567622,-0.6999056625784783,0.19821585474584003,-0.33349891613826205,0.5996840929627547
15.0,1.03633284021831,2.3726342878624274,3.691461142796165,-0.29452677994370713,0.06623213815037376,0.03190028425697607,0.010464281667630563,-0.036070130286900516,0.9992943330135604,-1.8438877040069772,-1.942394760372035,4.155553517963375,0.585060684061875,1.3445534706115723,-1.0034905625369375,3.0,0.48161611473319443,0.4834363390662987,0.33245407036957236,-0.6998827913826577,0.19822389094547072,-0.33348562091668427,0.599715522582725
15.100000000000001,1.0967970959909077,2.180507343951244,3.506643677958823,-0.2919759619816412,0.060140854553751164,0.030215399396539763,0.010534588830344352,-0.03638313892074032,0.9992823858821107,-1.8438985813592916,-1.94243277651301,4.155515591095498,0.5850320367989496,1.3445308606869921,-1.003482826099935,3.0,0.4815177381746052,0.4833269090376835,0.33252015071723834,-0.6998415572091916,0.19822343236124662,-0.3335056651156575,0.5997526465149636
15.200000000000001,1.1053122847678962,2.1171678151385995,3.7782568470102253,-0.29065011636423815,0.058552235499598905,0.03521659396058657,0.01050329369236155,-0.036328251178951096,0.9992847071689186,-1.8439400704818387,-1.9424421840596586,4.155525995139656,0.5850852653386559,1.3445251711650463,-1.0034616415152395,3.0,0.48150751664855057,0.4833086738169127,0.33251919548963255,-0.699843919542407,0.1982147595570576,-0.33352114655425436,0.5997441472614757
15.3,1.2590280699320884,1.9901763699000072,3.7895109168886516,-0.2893841819097121,0.057547916872054114,0.03601042058088345,0.010705927500778322,-0.03708667561866032,0.99925454847975,-1.8440046310424805,-1.942460398486319,4.155504590457606,0.5850878221501739,1.3445496595996687,-1.0034998922368346,3.0,0.48148627594257726,0.4833274953137735,0.332507126672186,-0.6998531546380989,0.19821157785819535,-0.33350027670167837,0.5997460277367163
15.4,1.1083066889319706,2.168112882633433,3.6975131813533815,-0.2817422702572342,0.061893266054703515,0.03687217326629475,0.010688165677711026,-0.037007355125702315,0.9992577246078802,-1.8440046310424805,-1.9424373403400041,4.155509530149205,0.5850544800776848,1.344549736135206,-1.0034585269524876,3.0,0.48149141207093427,0.4833175611504758,0.3324666642982673,-0.6998707849504447,0.19822832706070953,-0.3334955531036126,0.5997225448352563
15.5,1.0464402953127525,2.4178766001711267,3.722642433678346,-0.2759585376236714,0.06168331236177338,0.035954384295304925,0.010674171044953551,-0.037008926692564406,0.9992577061069294,-1.8439961299262084,-1.9424393554531987,4.155509553845886,0.5850801455999759,1.3445594919307153,-1.0034833251716693,3.0,0.48148760630719056,0.48331545033887896,0.3324575386695616,-0.699875649369594,0.19822488357303547,-0.3334909050217406,0.5997205909585944
15.600000000000001,1.0424247519631917,2.310975049867307,3.7984790452190333,-0.27886945763238447,0.06184262662199422,0.03640926103201501,0.010881470044312079,-0.0379190463170235,0.9992215599062303,-1.8439798750295682,-1.9424734563973012,4.155524710922716,0.5850807314228201,1.3445534706115723,-1.0034930594963136,3.0,0.4814965264162682,0.48331627596276033,0.33243633623835955,-0.6998890698109129,0.1982310507137251,-0.33349142588428354,0.5997026007562541
15.700000000000001,1.084568856738902,2.0618124885301947,3.79856761232031,-0.2846869199857535,0.06128162151758165,0.03865131694658874,0.010858512680732148,-0.03781956320506167,0.9992255803553861,-1.8440149082141968,-1.9424778423705042,4.155523968710889,0.5850789508822143,1.3445581976531402,-1.0034997037117313,3.0,0.4815013638022561,0.4833170302588134,0.3324347765841737,-0.6998958365242901,0.19822823898439326,-0.3334862184274915,0.5996985287659478
15.8,0.9460873099665338,2.173084527389957,3.794517432267579,-0.27998205892786726,0.06310123774398982,0.04021122530141479,0.01083310491609916,-0.03770933584448528,0.9992300282602694,-1.8440008667254328,-1.9424743986357087,4.155534694474115,0.5850783517762761,1.3445333930707097,-1.0034841807357557,3.0,0.4814973309827595,0.4833110175607256,0.33244296934699896,-0.6998904608385833,0.1982281737318385,-0.3334931231543194,0.5997009844704891
15.9,0.9189673340709095,2.1768626930241117,3.8602684494153716,-0.27817800419567945,0.06418609626272397,0.03393300681715049,0.010779938951113243,-0.03757291504281538,0.9992357368386999,-1.8440046310424805,-1.942479206849609,4.155514443645161,0.585056370414303,1.3445280479355963,-1.0034975889751432,3.0,0.4814977272980656,0.483304802347461,0.3324747869797591,-0.6998690470688289,0.19823157154381144,-0.33351252452859464,0.5997140626838794
16.0,1.3869749144216756,1.9961228263437572,3.760893965142032,-0.28176771311110116,0.05314023864452892,0.04738365326891247,0.010864900133250803,-0.037915892367468756,0.9992215625404011,-1.8439784607281513,-1.9424473558566893,4.155524965404299,0.5850085492094702,1.3445346939757903,-1.0034775090139014,3.749891511987366,0.4815003107127134,0.483300200841192,0.332466610242208,-0.6998692731879177,0.19824158943343612,-0.33350498917770366,0.5997146778759884
16.1,0.9653771799911105,2.246731817735643,3.630418349598359,-0.2764880450200437,0.06275187270479793,0.03918298776982075,0.01110393195659826,-0.0387921989381278,0.9991852651014438,-1.8439931869506836,-1.9424610917358427,4.155524645841589,0.5850507456013183,1.3445407958434366,-1.0035111926533231,4.0,0.4814866326806622,0.4833164483723428,0.3324746094851572,-0.6998707159568943,0.19820668735757624,-0.3335066736708709,0.5997235935409837
16.2,1.0541447940689324,2.04355525683533,3.7130943784774493,-0.28047028258608636,0.05519649769037273,0.044552205657721576,0.011089027466117505,-0.03870375411692816,0.9991887794642025,-1.8440018059970078,-1.9424526423176554,4.155501540758033,0.5850682134797595,1.3445465654671476,-1.0035110065744992,4.0,0.481478192613173,0.48332063336540254,0.3324539314802753,-0.6998902608280462,0.1982039989370235,-0.3334911662070263,0.5997102964476256
16.3,1.0916256633562051,2.0973039072866158,3.6498319311522485,-0.2811941253557724,0.0570067050381756,0.043989089190198324,0.010759357620214915,-0.03741945703586804,0.9992416423259144,-1.8440046310424805,-1.9424678953214511,4.155529559223432,0.5850807218919759,1.3445592227422092,-1.003535413697159,4.0,0.48149243771341066,0.48330227531343994,0.33246156598303245,-0.6998787295748592,0.19822266203221547,-0.3335043895333418,0.5997102319516786
16.400000000000002,1.0095968509082671,2.102186516640901,3.653555643236723,-0.27554016234870127,0.06204478747909951,0.04093311277768703,0.010705712733125072,-0.03714877078858654,0.9992523973932962,-1.8439885993434204,-1.9424778423705042,4.155530041815141,0.5850771938752352,1.3445370279993822,-1.0034956746674144,4.0,0.48149388729919806,0.48330592736586536,0.3324578619010361,-0.6998798173307701,0.19822119720721235,-0.33350085416868913,0.5997114127141004
16.5,1.0244366194162948,2.184496926404457,3.5770152524863885,-0.2724512717741963,0.06072282815408427,0.039344399178272295,0.01088832524340254,-0.03796287725047142,0.9992194068624818,-1.843989099194992,-1.942442079583639,4.1555095038685534,0.5850311792902104,1.3445534706115723,-1.0034802595721644,4.0,0.4814943072561782,0.483308615208586,0.33244700953532813,-0.6998798925398261,0.19822615709880173,-0.3334994274667521,0.599710478930985
16.6,1.0906720465899347,2.165316539741448,3.688287711701485,-0.2738374764611213,0.05738620686827758,0.042976541674186325,0.011087800912652811,-0.038855736007892126,0.9991832469793028,-1.8439975659033605,-1.9424512024017158,4.1554951667785645,0.5850478355660048,1.3445534706115723,-1.0035164991961878,4.0,0.481499432326708,0.4832977529395146,0.3324566572725633,-0.6998784185823894,0.19823169406840707,-0.3335024186958378,0.5997087054507457
16.7,1.1135917563099842,2.081679248715479,3.6127942977868135,-0.27555800998926777,0.06053663500043451,0.04505268740365664,0.011006461251380835,-0.03846104883943625,0.9991994089865414,-1.8439952454576882,-1.942456144790724,4.155518054962158,0.5850586832689214,1.344541072845459,-1.0034824038502943,4.0,0.48148714660498854,0.48330783587056836,0.33246195488501995,-0.699884620781731,0.19820939879641028,-0.3334960216162058,0.5997123938923903
16.8,1.1141606532155932,2.0782763290247894,3.751179704517922,-0.2768821308390294,0.058455938832528975,0.04160876402494357,0.01093643792849772,-0.03817826303747422,0.9992110958306993,-1.8439931869506836,-1.942454000512594,4.155489597819394,0.585041501031211,1.3445544939819984,-1.0035003598525458,4.0,0.48149505145094423,0.48330625645000075,0.33247733631171095,-0.6998666042129306,0.19823562390149435,-0.33349984034366886,0.5997226277326827
16.900000000000002,1.133618520830765,1.9767752356601134,3.7681776867233596,-0.27880275863167553,0.05618480449350203,0.04493650359434016,0.01087328048407984,-0.03798345113770341,0.9992191687113275,-1.8440253795791859,-1.9424649852147227,4.155481815338135,0.5850666122207354,1.3445448307698713,-1.003474629194099,4.0,0.48149803755361237,0.48329930080583605,0.3324745967825452,-0.6998597525577153,0.1982347714918524,-0.3335110217210948,0.5997246872623958
17.0,0.753820530925952,1.5233887846528231,3.1824042025875356,-0.24494264056555443,0.012901202690693843,0.04709741890735405,0.01076213657697765,-0.03746046074487995,0.9992401298665549,-1.844001712486465,-1.9424659214415492,4.155524372403239,0.5850753040174966,1.3445534706115723,-1.003477459130758,4.0,0.48149618482642964,0.48330595699923135,0.3324673505179008,-0.6998752230657639,0.1982158698035673,-0.3335161806433736,0.5997100118771734
17.1,0.5576072412769855,0.6131320684114938,2.0145042117455425,-0.15583705527898944,-0.002354221455283252,0.05833480591792068,0.01073057895551881,-0.03723217730503068,0.9992490139012722,-1.8440030890499786,-1.9424886981441156,4.1555165129696565,0.5850756019279797,1.3445550126040742,-1.0034802595721644,4.0,0.48148906683173226,0.48330847711369507,0.33246829924156096,-0.6998693762879262,0.19821531132841064,-0.3334983748287942,0.5997269215867194
17.2,0.5233386136546848,-0.30985996957729367,1.502185857988037,-0.0367339309071858,0.014214103149008816,0.03858686469992423,0.010779848814452637,-0.03744425356924692,0.9992405513238244,-1.843961529972343,-1.9424325454493105,4.1555157636393165,0.585095947050727,1.3445677652909762,-1.0034897806623153,4.0,0.4814916180767439,0.4833042529385421,0.3324620367499979,-0.6998674847171034,0.19822100340323467,-0.33349713152822114,0.5997279390757267
17.3,0.5225669953462797,-0.9192820854742156,0.7352523585280952,-0.008016491976702397,0.0021446347282989215,0.03582969075662065,0.010787982800389792,-0.0374783404650031,0.9992391745660343,-1.843968391418457,-1.9424731113384281,4.155518054962158,0.5850876716421451,1.3445658683776855,-1.0034802595721644,4.0,0.481492430129449,0.4833014464302875,0.33248061636210036,-0.6998623953945403,0.19822087761339546,-0.3334985601939476,0.5997331252643593
17.400000000000002,0.0803373604100609,-0.5352364888677306,0.2340821732642333,-0.02543260786930676,-0.017762397219435944,0.03217696110945274,0.010710348686886913,-0.03714132037453861,0.9992525717085106,-1.843981659129554,-1.942428530423166,4.155496729880822,0.585036784732948,1.3445773124694824,-1.0034921805011194,4.0,0.48149825285412656,0.4833008503389042,0.33248280841789557,-0.6998561789236953,0.19822599806533542,-0.333499063949841,0.5997384070225168
17.5,0.13240075299519474,-0.7607630067446749,-0.0589228965128207,-0.028808721930423636,-0.024611749156655257,0.03805774252419834,0.010686815707603962,-0.0370737698486746,0.9992553341062153,-1.8440046310424805,-1.942463021215545,4.1555294473165905,0.5850374197628837,1.3445172309875488,-1.0034882748634337,4.0,0.4814946345406454,0.4833052295101111,0.33246275123088664,-0.6998799608820603,0.19820901167798294,-0.3335040485672671,0.5997134962918584
17.6,0.21781636847110242,-0.6576260193589838,0.017524718763290634,-0.03772881295772089,-0.025228172066105888,0.029300850322526748,0.010781041241214874,-0.03759275665987486,0.9992349485284227,-1.8440147201578339,-1.942454000512594,4.155507288358583,0.5850147257060377,1.3445418067910326,-1.0034914747842218,4.0,0.48149948442784773,0.4832901904737492,0.3324830625909164,-0.6998714629776456,0.19822878058999283,-0.33351193186411626,0.5997124954172623
