xiamingqian9007/apple-picking-rnn/final_data/grasper_20191127_134036_noimg.csv
,/manipulator_wrench.fx,/manipulator_wrench.fy,/manipulator_wrench.fz,/manipulator_wrench.tx,/manipulator_wrench.ty,/manipulator_wrench.tz,/ground_truth.x,/ground_truth.y,/ground_truth.z,/joint_states.elbow_joint,/joint_states.shoulder_lift_joint,/joint_states.shoulder_pan_joint,/joint_states.wrist_1_joint,/joint_states.wrist_2_joint,/joint_states.wrist_3_joint,/mode./mode,/manipulator_pose.x,/manipulator_pose.y,/manipulator_pose.z,/manipulator_pose.rx,/manipulator_pose.ry,/manipulator_pose.rz,/manipulator_pose.rw
0.30000000000000004,-0.1406246362684625,-0.16568974118954324,-0.004096546511689213,0.0026447170970987943,-0.019620612021756162,-0.03269621065104605,0.12227394196592875,-0.5619956043023743,0.8180524868768861,-1.177667585874405,-1.8578508872989892,4.164723112372805,-3.71426242485338,-1.3651666856957176,2.2588690373302094,1.0,0.45999778829201354,0.46782039715212476,0.36745168070949424,0.813589994030793,-0.24153378861173957,0.24818190272551768,-0.46705298814093404
0.4,-0.05067392164755105,-0.021042362996846337,-0.07855754386208524,0.004562545463928093,-0.011265814533370107,-0.025733287261027662,0.1223326365279464,-0.5623104528317094,0.8178273886569176,-1.1754766500068976,-1.8609248325811705,4.1641582166045525,-3.7134665620544656,-1.3658050993437703,2.258513988738555,1.0,0.46045171765010584,0.4682488923052573,0.367224973245045,0.8135564720309827,-0.2415735771972051,0.24820469924388433,-0.4670786881135766
0.5,0.04900240321043217,0.14663557394008042,-0.007431848274295855,0.0014484812682912956,-0.007755170631271462,-0.031990857983364894,0.12243715504225769,-0.5624822802308538,0.817693574709092,-1.1728421361999646,-1.8641944533180665,4.163600655601498,-3.712761193867239,-1.3663857141028004,2.2582268714904785,1.0,0.46112726216695904,0.46896378235408415,0.3666788298012841,0.8135969262262891,-0.24152892647598234,0.2481864872950216,-0.46704099052936665
0.6000000000000001,0.1062799703071527,0.1712627532728349,0.19607464078429124,-0.00699696563007037,-0.015368601362563962,-0.028941033200856385,0.12250986434056918,-0.5623686708469603,0.817760771832662,-1.1702119559592643,-1.8675781703125756,4.162971499033252,-3.712057570696005,-1.3670857714525946,2.2579379081726074,1.0,0.46238908413149415,0.4703604955538537,0.3657718761277752,0.8135935558902126,-0.24145773203946122,0.24814294969294826,-0.4671068036005921
0.7000000000000001,0.058122312607111634,0.04787808653903608,0.2095250389064495,-0.008458109097703136,-0.013479759055165413,-0.02608372935890345,0.12254756631885547,-0.561940926816968,0.8180491897151784,-1.1678037643432617,-1.870604334172766,4.162276144222017,-3.7114594364894433,-1.3675291902388864,2.2576387803330746,1.0,0.46309942999846987,0.47113726405303064,0.3652110613003531,0.81362208481109,-0.2414280441385097,0.24810322831758114,-0.46709355669876584
0.8,0.1369788163800385,-0.22330633477803602,-0.02940987064623779,-0.009039208164799249,-0.01227833520891046,-0.029887135191364902,0.12249996790999958,-0.5623948182131145,0.8177442446747097,-1.1652074575563116,-1.8736217351390503,4.161579781292119,-3.710838527708568,-1.368007094416832,2.257375099203023,1.0,0.4643597792675085,0.4722998792595302,0.3642733419890432,0.8136471361990179,-0.24149119433239608,0.24813598882445562,-0.4669998628106434
0.9,-0.00028899279637817354,0.008279892218292118,0.1656061370503235,-0.008043594070088929,-0.012793511022514458,-0.035830334010959725,0.12240384347997153,-0.5624754888343068,0.8177031866182712,-1.1630309102415755,-1.8764551528743705,4.160994287527262,-3.7103118289146013,-1.368427813243225,2.2571358680725098,1.0,0.46489932149188035,0.47275375400011566,0.3639974378836604,0.8136058743449771,-0.24153005081258694,0.24817748058236636,-0.4670296071103028
1.0,0.05247133950959176,-0.056002759261952556,0.4101076609029733,-0.0071076988640457655,-0.00992223341890916,-0.040484086330272256,0.1222544548942028,-0.5620907093946046,0.8179901381543646,-1.1606125497953075,-1.8793030289756605,4.160551381719011,-3.709643960276399,-1.368942114736495,2.2569067599753145,1.0,0.46601828726785116,0.47387106924273453,0.36315047840814807,0.8136325635579131,-0.24154910748803113,0.2482002834336326,-0.4669611327438066
1.1,0.13602313610788536,-0.12331135224970652,0.2237168770968704,-0.00681811381693035,-0.012003232588151067,-0.03983618093615443,0.12221829550274767,-0.5617419997404384,0.8182350021050677,-1.158384344198633,-1.8819163131749708,4.160047582281889,-3.7091532634760664,-1.3694808298848289,2.256653185481974,1.0,0.46645344478365575,0.4743194550294618,0.3628812689497102,0.8136200714741068,-0.24152680254917394,0.24821898360048142,-0.4669844955940032
1.2000000000000002,0.07971170363333265,-0.08339846313660514,0.05110553495767342,-0.004905969821444963,-0.01250287875554648,-0.035056384910561664,0.12207384703527602,-0.5607528199964024,0.8189327582238741,-1.1561765670776367,-1.8847248209261624,4.159556081356597,-3.708616271941846,-1.369924560948648,2.2564045692106016,1.0,0.467198862955902,0.47508825047906833,0.36243661458835136,0.8135746099921162,-0.24150264900118903,0.24820462462851195,-0.4670838134795553
1.3,0.037972590799040425,0.11717613601735877,0.045315269351800205,-0.001190155539701669,-0.01005878317348919,-0.03157344974221791,0.12178878222987657,-0.5589687425962087,0.8201935683220778,-1.1540063753588699,-1.8872099576745582,4.159124699738082,-3.7081980583134198,-1.3704159837261436,2.256176611545951,1.0,0.4682995619146891,0.47627558009388826,0.3616391279926544,0.8135856545593902,-0.24148616351666993,0.24815891899658946,-0.4670973843296625
1.4000000000000001,0.06937844454211962,0.11314997304841051,0.266219101279498,-0.0003727747657890194,-0.010834066349665003,-0.03025251074099887,0.12181619155722807,-0.5588125982160346,0.8202966301865015,-1.1518237403259421,-1.8897505775022334,4.15874102931422,-3.7077088455698815,-1.3707880094183345,2.255972204691304,1.0,0.46871667691985897,0.4767345977156883,0.36131226517967646,0.8136055937816561,-0.24145800677193424,0.24814049865014376,-0.4670869958183179
1.5,0.055301766715393524,-0.16226739527255718,0.06918256912189485,-0.010733537137848683,-0.01379049612294666,-0.033632243458628364,0.12224476687524373,-0.5607464551968102,0.8189133315222786,-1.149858320145833,-1.892173101331561,4.1582722663879395,-3.707326080585392,-1.37117096546848,2.2557684417971946,1.0,0.46934642362565343,0.47740752819227006,0.36087336066621,0.81361218810484,-0.2414404140014211,0.24814762553454423,-0.4670808171993842
1.6,0.07314098798209834,0.10679809906064633,0.10547216803168266,-0.0035617973089376183,-0.01185416223307694,-0.032555149887399853,0.12268858223508006,-0.563139906642761,0.8171974758268067,-1.147915818676374,-1.8945114579749835,4.15775728225708,-3.706860224675025,-1.3715184171236006,2.2555890267363434,1.0,0.47021918017579734,0.47829322447348144,0.3602541837861606,0.8136069015216466,-0.24144991252082404,0.24815529417059679,-0.46708104169955
1.7000000000000002,-0.05942480795168034,0.20527939973460285,0.1456712971262941,-0.004315650067041108,-0.009558273733283478,-0.03722780436419438,0.12313354032151123,-0.5655678193339222,0.8154566843884816,-1.1458424488580048,-1.8969341916437303,4.1573625564689065,-3.706501623193258,-1.3719013412745533,2.255408461852572,1.0,0.47082950415438357,0.4788613520151691,0.3598068906176216,0.8136160587800851,-0.24147210002552788,0.2481663574718463,-0.46704774148215134
1.8,0.032294936724668155,0.11028627553496151,0.071191189362764,0.00014921615528149662,-0.010863049992302903,-0.037894958360806696,0.12308010798371233,-0.5654424904282027,0.8155525447959945,-1.1441516308741322,-1.899090954911474,4.156989918645647,-3.706057403423195,-1.3722377079775752,2.255170386015886,1.0,0.4714055717525875,0.4794497852951795,0.35943436544029167,0.8135955880419278,-0.24148190167482328,0.24818797073479879,-0.4670668490320884
1.9000000000000001,0.11450680136384428,0.15890002799035524,0.16904303846171817,-0.006155419640617324,-0.01170165215959336,-0.03638985199769016,0.12298187966968244,-0.565018054011265,0.8158614370947938,-1.1422681684449725,-1.9012636863304202,4.156511696784485,-3.7057329616942347,-1.372621194627051,2.255013942718506,1.0,0.4723073246672261,0.48034798146524643,0.35874302631315824,0.8136148545349968,-0.2414899182272811,0.24816302684187344,-0.4670423963445472
2.0,0.09809889929062912,0.06861480649331739,0.04074776518736334,-0.007848440220873967,-0.010911572439032848,-0.03426703476728922,0.12288953253624317,-0.5645200503019983,0.8162200790597496,-1.1403019636059433,-1.9035152319344821,4.156092617370978,-3.705395845420603,-1.3729792221103643,2.2548337018478666,1.0,0.4726759830769819,0.4807092974456194,0.3584755097423417,0.8136235683249167,-0.24148903658667537,0.24816492702932452,-0.46702666226587003
2.1,0.07458269329264555,0.013729746077441294,0.020336798949713478,-0.007814698856494537,-0.009872292124046287,-0.03516483093063554,0.1227761297241798,-0.5640056871720951,0.816592424677986,-1.1388060171408139,-1.9052387946017248,4.155732003946833,-3.7050610846692007,-1.3733027617083948,2.254676969747015,1.0,0.4731942176467041,0.4812270855088978,0.35815861177931163,0.8136066398504131,-0.24149728409802915,0.2481819385391305,-0.467042848941674
2.2,-0.21150849312185882,0.23517478987983817,0.1974198277269354,-0.0027725023793301394,-0.00538170330631099,-0.04057758382350553,0.12266018573648953,-0.5634893496503076,0.8169664241678612,-1.1371136392105077,-1.9073538595600217,4.155409336090088,-3.7048066346442976,-1.3736505306410782,2.2545580059802,1.0,0.47402735250618244,0.4820365793454077,0.35759306009687664,0.8136069686782714,-0.24150427058175805,0.2481666446950798,-0.46704679023596085
2.3000000000000003,-0.2502939420329875,0.18279943344292732,0.19081217473183107,0.0008952377930251843,-0.005504145018100624,-0.04247897743782592,0.12270140116427543,-0.5635964733827887,0.8168863418628525,-1.1352912382168532,-1.909328545801993,4.155048955533262,-3.704542721979972,-1.3739741484271448,2.254401603639639,1.0,0.4743979346151476,0.4824069762358489,0.3572924348336506,0.8136263529504406,-0.24151123222447185,0.24814461962524947,-0.46702112398158435
2.4000000000000004,-0.08493947853506313,0.06164201289701081,-0.029500345628060115,-0.007757200497902629,-0.010197982983110636,-0.036560062591929655,0.12276356177089222,-0.5637866879528454,0.8167457425066132,-1.133801623753139,-1.910832680605542,4.154736641475132,-3.7042260745308,-1.3742288612131381,2.2542504855564665,1.0,0.47483509386287054,0.48287918858871337,0.3570110016865988,0.8136155044158007,-0.24150129879600132,0.2481415603951938,-0.4670467852996156
2.5,0.22374725061809095,0.19342303446774098,0.22333555214276204,-0.004323942338010404,-0.016892766165478527,-0.03257778046092005,0.1227649009923332,-0.5637820805628259,0.816748697923573,-1.1323667333887966,-1.9127856866321464,4.154438680576959,-3.703978000599326,-1.3745127740631935,2.2540667437695934,1.0,0.47546882613310404,0.4835473082250312,0.35663185281649296,0.813588852837771,-0.2414864709699864,0.24815563493952306,-0.4670933993585692
2.6,-0.17550211807440436,-0.25508401945547254,0.1279997693066031,-0.007987672251288627,-0.007891553692684482,-0.037938862457668796,0.12266442827509755,-0.5634513510137206,0.816991956808193,-1.1307568089062014,-1.914535939628813,4.154114246368408,-3.7037117816108145,-1.3747395548020447,2.2539463542155085,1.0,0.4759626795706152,0.48402624985751347,0.3562240750557046,0.8136151543991008,-0.2415013904358722,0.24815170329436775,-0.46704195860947234
2.7,-0.10538776264461369,-0.03565944440308,0.06465996211786348,-0.006415568276807339,-0.009425479506747471,-0.043744026466304396,0.12258852252064978,-0.5632204792228532,0.817162617358651,-1.1292383689728993,-1.9161159829580838,4.153839051534259,-3.703484472026736,-1.3749917787166162,2.253803050707257,1.0,0.4765885903131853,0.48463334480295467,0.3558166407121768,0.8135966293529888,-0.24152142278000266,0.24818227886984606,-0.4670476244439621
2.8000000000000003,-0.24970452491066925,0.20572233984266908,0.006210677840768682,-0.007147344657919719,-0.006632296015808883,-0.04371143407035699,0.1225551454344977,-0.5631624744450359,0.8172076005716598,-1.1278842279509413,-1.9178088351263274,4.153539016010188,-3.70327947771618,-1.3752077261554163,2.253645432747188,1.0,0.47693357855074847,0.484988189002921,0.3556362595697617,0.8135676305011346,-0.2415098317705787,0.2482047018796334,-0.46709221543904866
2.9000000000000004,-0.3058027102154938,-0.06356865547900689,-0.14533050319281,-0.010875069745362112,-0.0036425337114367783,-0.042008005829849385,0.12279688038474547,-0.5643128842448586,0.8163763193205521,-1.1265745418525182,-1.9194868041241155,4.153347492218018,-3.7030165625774845,-1.3754590193377894,2.253525591774221,1.0,0.4775179834079412,0.4856231145307153,0.3551220481598482,0.8136120873675363,-0.24150444553483819,0.24817556902629906,-0.4670330406029361
3.0,-0.20286269469638302,-0.15376243101033413,0.029025497392744418,-0.009279365266524574,-0.00437945112463774,-0.03788294283354291,0.12289434769682539,-0.5646975306921093,0.8160961703691582,-1.1252194587856221,-1.9208775390946367,4.153128730756136,-3.702811387325039,-1.3757116930843274,2.253404710305075,1.0,0.47778071171949377,0.48591373685339445,0.3548803324933871,0.8136381862285269,-0.24151806631741352,0.2481490938031379,-0.466994596111916
3.1,-0.1010395301092803,-0.0669873773465505,0.02214811641700545,-0.010887663470867965,-0.009359344241473097,-0.042867126129530156,0.12275034260248112,-0.5637951533798911,0.8167419260153356,-1.1238656968890497,-1.9223427410881326,4.152854035575435,-3.7026183198568807,-1.3759506092078824,2.2533216589801714,1.0,0.4781130644478424,0.4862786715461024,0.3546778288531686,0.8136254105102894,-0.24149002966074512,0.2481470643601233,-0.46703243077528195
3.2,0.04929820820082753,-0.22069739017815335,-0.011250017165732887,-0.013836736508137094,-0.009501958775378948,-0.038207716612302114,0.12281430815111173,-0.5639504475024475,0.8166250629363855,-1.1226316525220843,-1.923778453447415,4.152509352489626,-3.7023796086432013,-1.3761780897723597,2.2531910969495743,1.0,0.47876745850643576,0.48692817903453034,0.3542535653648746,0.8136116098426169,-0.24148136956332986,0.24816424788510566,-0.46705181998868595
3.3000000000000003,-0.275917280828564,0.10746307951398504,-0.019783791227631256,-0.0030046706512636204,-0.006144617714067668,-0.041199171379088136,0.12285760591006235,-0.5642237731427813,0.8164297375038015,-1.1213345926282816,-1.925124193255213,4.1523408883303805,-3.7022344081111687,-1.3763940780433366,2.2530488582195023,1.0,0.4790131367675326,0.48717194500333055,0.3540650441660278,0.8136224135720723,-0.2414786854965833,0.2481628579633876,-0.46703512556492094
3.4000000000000004,-0.20606837266219413,0.21260720359518367,-0.10214376946033452,-0.0005453033576094834,-0.0049674127778728885,-0.043867077010065814,0.12284137941016025,-0.5641245152520008,0.8165007654127371,-1.1201963174597818,-1.9265349014154685,4.152095696180766,-3.7020587359680652,-1.3766037834209095,2.252978238897408,1.0,0.47952669122113006,0.48772123999347433,0.3538060309436571,0.8135688596875641,-0.2414761914204304,0.24816975297282037,-0.46712603570467975
3.5,-0.04874879713214575,0.24089126525736004,-0.10393374439467025,-0.006991069072683204,-0.006391212943959621,-0.03691343475214696,0.1228468512157497,-0.564123385014454,0.8165006895685974,-1.1190473834199381,-1.9279510148473706,4.151884323657271,-3.701873451409046,-1.376812985361091,2.25281978962245,1.0,0.4797564132034544,0.4879309061909406,0.35363913979552664,0.8135812334783662,-0.2414652929498175,0.24817967061019522,-0.467104848966797
3.6,0.013877629893072563,0.16399322054402496,0.043403947133103374,-0.00958237319516295,-0.008271473085560602,-0.03967326016267516,0.12292436792411505,-0.5644933055780612,0.8162333335022397,-1.1179987217978464,-1.9291132150838235,4.151644703434405,-3.7017418346800746,-1.3770289318460305,2.2527721633626876,1.0,0.4800513644422869,0.4882303662800193,0.3533552241305581,0.813615226800053,-0.2414680964715325,0.24816802501716778,-0.4670503746541602
3.7,-0.04140530322973704,0.08137928487415519,0.09306100780688344,-0.010883001102718226,-0.009291607711597663,-0.041732064557323305,0.12286747371767927,-0.5641613702270961,0.8164713546539362,-1.116796881354866,-1.930300637692113,4.151453495025635,-3.701545264886845,-1.3771958136661382,2.2526402473449707,1.0,0.480415587013517,0.48860564994575517,0.3530612886879538,0.813630990056951,-0.24147148617140957,0.24815106454782002,-0.467030173060478
3.8000000000000003,-0.11733731761263927,0.15482391935924109,-0.0024315137742577098,-0.003852758764229523,-0.0074297679512448115,-0.04078828245593253,0.12283423532278467,-0.564177451054203,0.816465270808123,-1.1156410288061924,-1.9314410307542214,4.151225416932384,-3.7014174354808667,-1.3773878198761198,2.2525209493712763,1.0,0.48089244134618525,0.4890666523079245,0.3528263490704834,0.813586675471538,-0.2414838401061965,0.2481559253255023,-0.46709839775852235
3.9000000000000004,0.09471348060755318,-0.0118531120073333,0.04309511737715202,-0.012246851361661301,-0.011387688889844247,-0.03682232383229104,0.12283349279096809,-0.5642759106789441,0.8163973474381779,-1.114731464512503,-1.9328910375434136,4.151033579136184,-3.7012859721182494,-1.3775672815948723,2.2524959370943787,1.0,0.48129744640213096,0.48945068468417424,0.3526339813774262,0.8135539631591953,-0.2414946676996139,0.24819248718564685,-0.46713034990805535
4.0,0.045048210068639044,-0.0881027884258293,0.19113569520258047,-0.015129705871325085,-0.01106575334063849,-0.043580591670777484,0.12287851162023021,-0.5642803378274787,0.8163875128505448,-1.1137718653570028,-1.9339932184507356,4.150865504730782,-3.70115177064208,-1.3777121111228783,2.2523999214172363,1.0,0.4814900620342708,0.4896834977882404,0.3523662658568877,0.8136108057259543,-0.24147303395956432,0.24816598981955063,-0.46705660489196477
4.1000000000000005,-0.013262180768479931,-0.10545911076197993,0.01456933924671916,-0.011930488241894322,-0.009844787770717149,-0.039231319726280835,0.1228497159843213,-0.5641626763682728,0.8164731476161284,-1.1128012551489352,-1.9349534932392183,4.150674021716726,-3.700985853397483,-1.3778441445835277,2.252326502714467,1.0,0.48177203916367833,0.48998038408707356,0.3520864448863773,0.8136451738839332,-0.2414813910449679,0.2481424602347953,-0.4670049124184821
4.2,-0.04031316035142793,-0.11558268212661853,-0.10800515065153793,-0.011223403465155272,-0.004772216739232132,-0.0410428412642711,0.12279876426813334,-0.5639836880056536,0.8166044504387734,-1.1116727806380056,-1.9360194843672156,4.150470300994999,-3.700888296166891,-1.3780344168292444,2.2522196769714355,1.0,0.4821861669404617,0.49037118696199183,0.3518221337114794,0.8136388385802682,-0.241488895480709,0.24815322938678774,-0.46700634734248275
4.3,-0.07624985042654178,0.23418726333849094,0.0076181189735851085,-0.002682404773534361,-0.0036206940916083006,-0.041960377975891375,0.12274148581141399,-0.5637315683529569,0.8167871311524378,-1.1104616922893265,-1.9371859241843925,4.150291462465312,-3.7007542843298094,-1.37819272826788,2.252146700290604,1.0,0.48244225625012216,0.4906365114496474,0.35174142055368757,0.8135922518087945,-0.2414800645198844,0.24818085096858794,-0.46707739342498183
4.4,-0.21794535614003316,0.16523746691614077,0.07145170953650007,-0.002656651150895784,-0.001878974149511519,-0.04629186348894713,0.12287869100274001,-0.5644806779938495,0.8162487907004834,-1.1094916288068304,-1.9385637104829978,4.150109319225453,-3.7006352359059997,-1.378407050993984,2.252053120533108,1.0,0.48272989976013203,0.4909392130696445,0.3515890507352877,0.8135697084480769,-0.24148374485366253,0.24818737693630527,-0.4671112890914101
4.5,-0.03265600580980922,-0.12653423410036474,0.014162484475072554,-0.014704568273602692,-0.010148669655486435,-0.043961818998665185,0.1229565065077794,-0.5649606944426033,0.8159050359874026,-1.1085806587618676,-1.9397363051611656,4.149882793426514,-3.7004910908141078,-1.3785622421655706,2.251967840156295,1.0,0.48306190186462133,0.4912751545090099,0.35128169112158775,0.81360231290149,-0.2414941902767032,0.24817918232000258,-0.46705345086715794
4.6000000000000005,0.0011618333994960484,-0.12601792129581307,0.053345918236929205,-0.011831043773133067,-0.005876379095005432,-0.044076430006472746,0.12297004841399103,-0.5651084391811585,0.8158006908380047,-1.1077049564243546,-1.9406719509671901,4.149679604634443,-3.7003714316886858,-1.378706306306388,2.2518964353807474,1.0,0.48344306623348293,0.4916335805682134,0.35095024046594303,0.813628963402819,-0.24150954376727002,0.24817589167868587,-0.46700083187385066
4.7,-0.19182346773642683,0.27054718149164236,-0.06967520694660173,-0.00047167755720743253,-0.002306096740025603,-0.04586787123182534,0.12289977484194214,-0.5647885298459798,0.8160327876781923,-1.106587119180648,-1.9416798475692487,4.149452484631148,-3.700261991665498,-1.378898519239733,2.251775524264476,1.0,0.48373404042901386,0.49190536603161444,0.35078505391218734,0.8136141796567713,-0.24151010094015296,0.24818032739255846,-0.4670239425346829
4.800000000000001,-0.24518989904344374,0.25161528170473124,-0.010859913863760423,-0.00016704612078418963,-0.004794667001633572,-0.044512218449318,0.12281219031037907,-0.5643594932039031,0.8163427358572254,-1.1053663538308116,-1.942976790546651,4.149290116400784,-3.7001425228514613,-1.3790589318116402,2.2517285346984863,1.0,0.4840597831219637,0.49224794811040473,0.35065033189397166,0.8135733407687896,-0.24149773044145534,0.24819890030457228,-0.4670916090763546
4.9,-0.13268028416877398,0.2674884014962838,0.03491990592905442,-0.004746322043722041,-0.008680637673406332,-0.04226898109873328,0.1227852321688815,-0.5642575470393655,0.8164172994204849,-1.1043346217295544,-1.9441994718623363,4.1491023045477755,-3.7000209672185997,-1.3792095909377757,2.2516324430789685,1.0,0.4843593717872962,0.4925651412183771,0.350489482388774,0.8135472798425266,-0.241502688027251,0.24821331306522648,-0.4671267776028488
5.0,-0.2556853227416341,0.4370749757133257,-0.03491225238519094,0.0006481899527548934,-0.0031178548187567713,-0.047039284509029486,0.12285558933703582,-0.5646226794607712,0.816153850762508,-1.1033464389946985,-1.9452836434741296,4.148943031709468,-3.699878179479286,-1.3794061930116224,2.251563703957117,1.0,0.48476176437472757,0.4929865432700618,0.35013964485357696,0.8135789374206281,-0.24150830364869763,0.2481860525825167,-0.46708322080519926
5.1000000000000005,-0.08164136754765267,0.3009534490300096,0.008108225500880972,-0.0008292334135281739,-0.0062433538552568646,-0.047816984622248024,0.12317767262583534,-0.5661244879494173,0.8150642007394121,-1.102462238623672,-1.946441996489562,4.148721686447767,-3.6997327129096496,-1.3795929001387646,2.2514761083652846,1.0,0.4849594543809063,0.4931989346605778,0.34996988150001007,0.8135920507068368,-0.24150696608285527,0.24817437528856923,-0.4670672754649238
5.2,0.17428288519513785,0.19003602145471182,0.11421289176183452,-0.0030643299042128844,-0.011425031720869085,-0.04254031583549733,0.12345508493136342,-0.5674008770840594,0.8141345518388765,-1.101396954971931,-1.9474394086781455,4.148551858383796,-3.6996030607123096,-1.3797459447032594,2.251346882351561,1.0,0.4853733748726162,0.4936133888448055,0.3496274529378529,0.8136158417297934,-0.2414898970960586,0.24815580100341986,-0.4670445269085235
5.300000000000001,0.0958031917092166,-0.0015286139512025176,0.07238988592158092,-0.005737173890963995,-0.010728460357273617,-0.04354446045183597,0.12346646518314384,-0.5676108969137391,0.8139864114143368,-1.100217728247853,-1.9487143652406382,4.1483986862075275,-3.699512113806312,-1.3799055914476144,2.2512929277210647,1.0,0.48555312064818784,0.4937667117448245,0.3495494134615897,0.8135938874516522,-0.24150419925774685,0.24818368111256534,-0.46706056188849787
5.4,-0.014145381176130324,0.04439046007997855,0.06347548657141715,-0.006253751808969571,-0.009200907367200636,-0.04506788678557806,0.12333321767446512,-0.5669062736835134,0.8144968713964122,-1.0991016942886966,-1.9499336871398585,4.148191522522603,-3.6994007484400684,-1.38009178496012,2.251224994659424,1.0,0.48586341286882395,0.49409176397856297,0.34936089197731096,0.8135833307460052,-0.24149939698929612,0.24819836701316067,-0.46707362995361146
5.5,0.03608845312298453,-0.0449042274991823,0.055951434667074355,-0.010949029424020141,-0.008828232313740126,-0.04652404142536554,0.12315721242641724,-0.5658938442335437,0.8152277820539755,-1.0980863571166992,-1.9510762008448312,4.148016984950837,-3.6992441391228224,-1.3802600388463533,2.251120067962035,1.0,0.4861945014508041,0.4944692600086319,0.3491196417814885,0.8135860297506083,-0.2414858687201521,0.24818292950300452,-0.467084126155474
5.6000000000000005,0.12871306779582062,-0.022496941153415398,0.04028718859505786,-0.01037627492180384,-0.012894747190727428,-0.041231749268036105,0.12314476381557113,-0.5656927234336568,0.8153687528222593,-1.0971320078317532,-1.9521369493251612,4.147851188426792,-3.699162717838067,-1.3804368691713191,2.2510150982974637,1.0,0.48659109521966193,0.49487613226692284,0.34881770813635365,0.8136027314179399,-0.24147229329089093,0.24818009137855493,-0.4670635601772394
5.7,0.03242408854838005,-0.1199448914509911,0.07563459501952541,-0.012075403565412611,-0.010579983751352287,-0.04655603648857085,0.12338021977522237,-0.5669101351942258,0.8144871336643866,-1.0960752012960653,-1.9533292746582192,4.147629261016846,-3.699069277041045,-1.3805994446380387,2.2509391338341413,1.0,0.48685978477277686,0.495132102870238,0.34862907408339233,0.8136024799460821,-0.24148520767752726,0.24817612073625972,-0.4670594311164563
5.800000000000001,-0.1615122992731718,-0.021335673956502006,0.11168684584356434,-0.005940953587743888,-0.007036383610244165,-0.04343766051556837,0.1230808696774346,-0.5653526803397173,0.8156146983587202,-1.0949640274047852,-1.9544859363369185,4.147459887637068,-3.698939939538473,-1.3807550593296798,2.2508530616760254,1.0,0.4872286783949911,0.4955494807907616,0.34833844232873573,0.8136115227716777,-0.24147356444498186,0.24815218548895818,-0.46706241609065574
5.9,-0.008688508499393136,-0.027876971743487328,-0.08636732117688335,-0.011149169041414778,-0.00843773143177025,-0.047021978637586614,0.12317817179959989,-0.5659075016186325,0.8152150946213521,-1.0938953462151122,-1.9555545118974564,4.147258554269926,-3.6988207066674517,-1.380956136835882,2.250747654625346,1.0,0.48748349927337403,0.4957789287325865,0.3482001550064696,0.8135969657171304,-0.24148112527078083,0.2481650559921757,-0.467077026301055
6.0,-0.2540242274070657,0.0018025654603334466,-0.16532467082728544,-0.006971497532167515,-0.0057285181129289936,-0.04456724071948518,0.12323057569166004,-0.5662270900415116,0.8149853332674695,-1.0927864856925402,-1.9567840027608319,4.147071909884727,-3.6987384810144155,-1.3811373392293136,2.2506860256590127,1.0,0.48789028222153685,0.4961874555126517,0.3479552077083465,0.813578669274246,-0.2414846212262963,0.24817301582152293,-0.467102858941357
6.1000000000000005,-0.1695626490303338,-0.2146151965682475,-0.12309262041487465,-0.014086188623378591,-0.004517669558324472,-0.041187863604836346,0.12328794124248547,-0.5664860859316498,0.8147965877302032,-1.0917948254594863,-1.958024583182078,4.14688845615936,-3.6986053999397766,-1.3812687032301552,2.2506002800876965,1.0,0.48809397057984,0.4963697378659632,0.3478218379997739,0.8135693540027267,-0.24150311743715286,0.24817780729128822,-0.4671069753962264
6.2,-0.08676424026783067,-0.29964362545038115,-0.057187204802817755,-0.01628414550987277,-0.0035665677547733416,-0.04044836031082239,0.12335974839062161,-0.5667753026157151,0.8145845878764264,-1.0906512280013905,-1.9592135791726808,4.146717548370361,-3.6985204348638243,-1.3813914924952972,2.2505379830301684,1.0,0.48837054307142364,0.49667930688665074,0.34755189338766135,0.8136074029764717,-0.24148848988012145,0.24816491842233662,-0.46705511060444943
6.300000000000001,-0.016454938177157846,-0.12002480134346291,-0.020026730515081186,-0.009783369654833257,-0.006842569652481881,-0.04503677481522721,0.1233383211570916,-0.5667698025588979,0.8145917002468134,-1.0895142663963429,-1.9602676542743738,4.146515777791034,-3.6984340837750262,-1.3815343331090486,2.250445376778423,1.0,0.4886875593963875,0.49701109823684864,0.3473127608067609,0.8136132257611465,-0.24149272431459157,0.24816181035416718,-0.46704442920497474
6.4,-0.10491378762410314,-0.008243672955279557,-0.04087980785539473,-0.009895150292928635,-0.007896293294107397,-0.04045926997062668,0.12329506131240367,-0.5666105169006218,0.8147090530789064,-1.0885294292623449,-1.961383119972817,4.146381697481339,-3.6983488659787787,-1.3817008177386683,2.2503857612609863,1.0,0.4891478832560819,0.4974877172669016,0.3470547556729319,0.8135795003070138,-0.24148718196386149,0.24818070496429648,-0.46709600224233083
6.5,0.03554984766445907,0.03008713025491966,0.08594584652623263,-0.008600730690592506,-0.010308385570435778,-0.04487911110532014,0.12343423764585248,-0.5673600804380464,0.8141652940226423,-1.087470554400366,-1.9625125658554112,4.146155927341586,-3.6982503191834533,-1.3818875309368377,2.2502779960632324,1.0,0.48939126162538693,0.4976888171310079,0.3469049322289986,0.8135779194372332,-0.24150575267471364,0.24819681005911104,-0.4670805967985444
6.6000000000000005,-0.01396190049330416,0.0708545641958915,0.050926188515363895,-0.00879266007610323,-0.007543390647015459,-0.042579871639088676,0.1236341114946338,-0.5684266925835136,0.8133914574328138,-1.0864097197342963,-1.9638963996702539,4.145974196417488,-3.698165388632845,-1.3820585363738829,2.250205077154793,1.0,0.48979290559160343,0.49810897755341443,0.3465792386881527,0.813598196347797,-0.24150160464264372,0.24818102646364448,-0.4670558081836602
6.7,-0.2987618627140219,0.3488608666212468,0.08344325191278028,-0.00342154477531903,-0.0045471762792440645,-0.04446981771377849,0.12358574058396989,-0.5680472285107708,0.813663820349136,-1.0852380052794877,-1.9651469235264518,4.145819187164307,-3.698061783247899,-1.382194019724515,2.250110149383545,1.0,0.489988450740849,0.49833839941620073,0.34634480267293727,0.8136377379153729,-0.2414959613263181,0.24815875205681537,-0.46700167652872143
6.800000000000001,-0.12479229010254983,0.12275511118146137,0.017437183468597656,-0.013154034864994585,-0.006465448424622347,-0.0431134982634193,0.12355840692810383,-0.567887573008478,0.8137794690101433,-1.0840140397903957,-1.9660234330755357,4.145659542843462,-3.6979891766883095,-1.3823799299791029,2.2500220306364307,1.0,0.490445997107365,0.4988177583297511,0.34605561444805866,0.8136314087103435,-0.24148842282550312,0.24817041740925397,-0.46701040280082623
6.9,-0.002590210224927364,-0.18442293640577337,-0.07211834791729835,-0.012309932172950637,-0.007405542201150134,-0.04756955119842812,0.12354191386780039,-0.56785389222796,0.813805468145285,-1.0829933003353274,-1.967183418762582,4.145434834212853,-3.6979537774318563,-1.3825266774947342,2.249874843281203,1.0,0.49059305630196093,0.4989733922223828,0.3461208026463282,0.8135469609962291,-0.2414875844850939,0.24819896908098296,-0.46714276248326053
7.0,0.08419116353926712,-0.1953211781412699,-0.024268842250738817,-0.012305179440160956,-0.007666989008921998,-0.04325976243455347,0.1234967040294772,-0.5676429221311122,0.8139594626173693,-1.0821546682039698,-1.9683686695494593,4.14525709974252,-3.697819441553167,-1.3827192141364846,2.2498466103915344,1.0,0.49087330325400735,0.49923857944061817,0.3459337847030316,0.8135532238059446,-0.24149269170928517,0.2481951756211196,-0.46713123068829465
7.1000000000000005,0.15032699925202883,-0.6186841762483603,0.04838414815704839,-0.0028045842883348566,-0.005055282972239519,-0.04251379657442332,0.12348183073938077,-0.567574291061863,0.8140094591250604,-1.0815122005821423,-1.9694017752592214,4.1451015217044604,-3.6976066526664684,-1.3828479130659914,2.2497441878413347,1.0,0.491342729691789,0.4996907398621343,0.3454070314586766,0.8136425462479424,-0.24150172039217901,0.24816000619158285,-0.4669896543926605
7.2,0.12850217590053553,-0.39227867123167015,0.03009385979949601,-0.00016023081207939757,-0.007238556254555884,-0.03848194136805189,0.12377275968905724,-0.5689379919573186,0.8130128178811775,-1.081426799506886,-1.9693096848841305,4.145068123046052,-3.697595918933917,-1.3828302203488785,2.249786853790283,1.0,0.49151650842974204,0.49988808789391526,0.3451366783304401,0.813697379076809,-0.24150524293143988,0.2481255392574866,-0.46691060138782403
7.300000000000001,0.007615734096600796,-0.09340255569578382,0.0014132928812408407,-0.008931777484880905,-0.010766888458987354,-0.04052206285542195,0.12385645044390843,-0.5692997930485718,0.8127467185055164,-1.0813206340905896,-1.969305352181804,4.145099117759271,-3.6975953456722586,-1.3828499952899378,2.2497506141662598,1.0,0.4915576006422318,0.4999253664945291,0.3451436941987528,0.8136739089292306,-0.2414933853587074,0.24814176902736435,-0.4669490092288312
7.4,0.15782447397531887,0.12398318321447131,0.0008953200158231811,-0.009862691230914595,-0.009590328064461046,-0.043224603576306725,0.12371638790250852,-0.5687173571852335,0.8131753526229574,-1.0812874539700803,-1.9692861392102807,4.145064830780029,-3.6975654514727627,-1.3828743139850062,2.249773049163453,1.0,0.49157214863082,0.499907094014037,0.3452817102664396,0.8136073594893343,-0.24150615871547315,0.24816841862358208,-0.4670441905057384
7.5,0.09203759993904977,0.13249532946848225,-0.05802922841659416,-0.0021325620540482114,-0.007048231188534804,-0.04615561115874443,0.12359468739323708,-0.5680326225872137,0.8136727080808276,-1.081284523010254,-1.9693302172560188,4.14506269058986,-3.697618146935934,-1.3828862349139612,2.249772315834001,1.0,0.49156715213711116,0.49992930417675846,0.345282493853099,0.8136056628376019,-0.24148858529884726,0.24815866836987577,-0.46706141339425344
7.6000000000000005,-0.21428668400068981,0.18324113215296245,-0.18991382016087924,-0.0073742642817353045,-0.007375144359474484,-0.04412412253094992,0.12360694145583265,-0.5679983126138657,0.8136948013849062,-1.0812714768094727,-1.9693008860226735,4.145087299401667,-3.6976105173703298,-1.3828414121070416,2.2497773169330704,1.0,0.4915622272301591,0.49991899743777485,0.3452992221750668,0.813609664797365,-0.24148112676094996,0.24816391761205878,-0.46705550929414896
7.7,-0.11601193512844532,0.22338622187995244,-0.024139849913912326,-0.004844452202416593,-0.0074028296992336064,-0.04609228317108451,0.12360911983385271,-0.5681154177126589,0.8136127196880908,-1.0812754706207213,-1.96929534898106,4.145067322136555,-3.6975807114607786,-1.3828743139850062,2.249753105522785,1.0,0.4915637388753424,0.4999224337208458,0.3453029152783073,0.8136010615275288,-0.24148838551005358,0.24817412651102955,-0.4670613185391334
7.800000000000001,-0.05858726427838015,0.00980159843477027,-0.014950273421889017,-0.010818151574438222,-0.010486794811317694,-0.04801368267833068,0.12362271429839124,-0.5681257693278758,0.8136034258428171,-1.0812612332648923,-1.9692979391118808,4.145105293898613,-3.6976140598001574,-1.3828743139850062,2.2497854555596226,1.0,0.49156306128008986,0.49991322757318535,0.34530116842701075,0.8136085692189124,-0.2414850409866512,0.24816524208378982,-0.46705469026091995
7.9,-0.16451938465143395,0.027096705858104184,-0.05238417595520718,-0.00992191126212462,-0.005417196882290514,-0.0474527105661275,0.1236191576155202,-0.5680809463821919,0.8136352612092866,-1.0812968461885524,-1.969294904108358,4.145054191186919,-3.6976173016604514,-1.3828734687095239,2.2497825936018523,1.0,0.4915723723272202,0.49990423396829325,0.3452872837785612,0.8136145480325777,-0.24148631948286842,0.24816973612441431,-0.46704122602217946
8.0,-0.23043348335572372,0.13470342228421442,-0.11624269960657146,-0.0067284525093939205,-0.004784117098121124,-0.048513923346126565,0.12356194554787943,-0.5678247421837856,0.8138226880265415,-1.0812856854574067,-1.969307304705827,4.145097791835431,-3.697616936053483,-1.382870681337654,2.249773293577017,1.0,0.49155747095265956,0.49992391383252405,0.34530671825795844,0.8136046290891114,-0.24147408944527113,0.2481737764965294,-0.4670626813510126
8.1,-0.15514482577953828,0.0002453078348299831,-0.010602345870514063,-0.008950332791367801,-0.006801158853505514,-0.049017143942881335,0.1234671006854153,-0.5674077919780117,0.8141279144497009,-1.0812837832802724,-1.9692735233534764,4.145077228546143,-3.697606226006979,-1.3828838924356868,2.2497422522827186,1.6153735845798907,0.49156054650297004,0.49992379302205736,0.34530023691759715,0.813601005161597,-0.2414870307682318,0.24817547217736657,-0.4670614021521403
8.200000000000001,-0.0077104026848600765,-0.10437467598745259,0.05819117919273539,-0.013192899990845658,-0.008264993013285453,-0.0518494617453575,0.1234689324844405,-0.5673829002605125,0.8141449913366079,-1.081260405968053,-1.9692959888646568,4.145053693066821,-3.6975936750515714,-1.382874919779672,2.2497286139241335,2.0,0.4915696314998016,0.4999195068706477,0.34529957156122404,0.813600861725521,-0.24148025794814226,0.24818363837335872,-0.46706081452477954
8.3,-0.057983363182373085,0.010576731965182024,0.07082010941430063,-0.006560216616025686,-0.008600893109350994,-0.05169111119550438,0.12347355348936466,-0.5673693197719218,0.8141537548583873,-1.0812789050467086,-1.9693175234531068,4.145066345573375,-3.697607682539042,-1.3828399494689214,2.2497839407261573,2.0,0.4915702523820738,0.49991440220733285,0.34531152699469536,0.813598876747857,-0.24147794081642407,0.24817916127289524,-0.46706784920776445
8.4,0.07326294013918201,-0.04064999141113873,-0.027042148444406763,-0.011289079374741431,-0.012756744627319223,-0.04984654464556312,0.12348800375165206,-0.5675409756919907,0.8140318822441847,-1.081284523010254,-1.9693042773461042,4.14505537152849,-3.697609108011657,-1.3828528772946158,2.249799767139367,2.0,0.4915665474090021,0.4999147393116494,0.3453091223157835,0.8135982627479703,-0.24149431014475847,0.24816511471493452,-0.4670679188937251
8.5,0.02363126675350083,0.17354670505792796,-0.02161498680644358,-0.010127445365130194,-0.0043017648417475254,-0.046873316968998276,0.1235028245958296,-0.5677196153806096,0.8139050843966299,-1.081284523010254,-1.9693075204159245,4.1450866822932335,-3.697619181915181,-1.3828499952899378,2.2497650022770794,2.0,0.49156807271935843,0.4999171472345104,0.3453047611513292,0.8135976651422094,-0.24150268731634084,0.2481694957718633,-0.4670623006221658
8.6,-0.13272554687516042,0.09693523896140246,-0.08011464123296096,-0.014164200011554698,-0.008140673730701842,-0.046389024722046174,0.12332582131443794,-0.5668376272287143,0.8145455656838565,-1.0812946051605477,-1.969307096899212,4.14509739284673,-3.6976500737451974,-1.3828318849358532,2.249764373873876,2.0,0.4915744696663153,0.4999107224018413,0.3452732972650298,0.8136176936753159,-0.24149154702012254,0.24817810360187575,-0.46702859671423186
8.700000000000001,0.11164570244494278,0.3547652689248199,-0.09753121743967424,-0.005294828186054831,-0.0125722376421105,-0.05440271720624261,0.1231398630932623,-0.5659061257092132,0.8152218659194508,-1.0812383694935994,-1.9693069216308132,4.145057278644607,-3.697614959021005,-1.3828727200275417,2.2497538020811887,2.0,0.49157616532197906,0.4999070611680183,0.3453045219052938,0.8135974777816576,-0.2415007054702749,0.24817386598398755,-0.467061329642314
8.8,0.03426347234860061,-0.13157594912003173,-0.2185458651922875,-0.01994155892891764,-0.011648668001972447,-0.044148261506408944,0.12320942423164552,-0.566325704707276,0.8149200022990403,-1.081258676554135,-1.9693074208758898,4.145080556471801,-3.697618146935934,-1.3828829069883022,2.2497972469581877,2.0,0.4915737048227499,0.49990908126746914,0.3453120278839485,0.8135846006948255,-0.24150781895767562,0.24817970932883365,-0.46707697735170306
8.9,0.008241773654836512,-0.17575901889026746,-0.2124202079513846,-0.01734525959656232,-0.01429061885821259,-0.047777645853476144,0.12334162536173372,-0.5669423898052017,0.8144707180007916,-1.0812962072554357,-1.9692612937058898,4.14507745022619,-3.6976176851025016,-1.382850466360039,2.2497861518034656,2.0,0.4915706748531556,0.49992117540449604,0.34532575865233783,0.8135807165595575,-0.24149611291461653,0.24817448955067203,-0.46709256879748284
9.0,0.026350942767918044,0.10508282838354915,-0.05327697636920159,-0.020359568741745576,-0.01584010194294195,-0.0498510224867646,0.123477267308871,-0.5675677349418241,0.8140148285171269,-1.0812959671020508,-1.9692965946593226,4.145064830780029,-3.697606933667626,-1.3828413818407281,2.249752765454626,2.0,0.49157510010997013,0.49991563539708184,0.34533554685459067,0.8135800191831977,-0.24149709432549993,0.24817526865264516,-0.4670928621242199
9.1,-0.2167771059193824,0.35310343481747875,0.029759961554555847,-0.008573228104757576,-0.012852890539707392,-0.04697970981296757,0.12341334582363886,-0.5672953568128186,0.8142142511047528,-1.0813064178382936,-1.9692734105817742,4.145042304482843,-3.6976543865599574,-1.382862393056051,2.249786853790283,2.0,0.4915742536008268,0.49990873542838177,0.3453129451205889,0.8135971770211224,-0.24148547179643903,0.24819017579451888,-0.4670610635597847
9.200000000000001,0.19296852929301048,-0.1523952591072158,-0.054624992937789094,-0.022159186050857267,-0.009899282014408638,-0.04788377552732015,0.12333321531147995,-0.5669500634186637,0.8144668997312519,-1.081262440072833,-1.9692753610656486,4.145066187077432,-3.697627884272526,-1.382873009852888,2.249765620196609,2.0,0.491575936227925,0.49990025114588715,0.3453445049473061,0.8135799119519164,-0.2415023418261819,0.24818982710164247,-0.4670826002796925
9.3,0.09926987920469536,-0.02013285458413125,-0.0796522516429251,-0.02169616272541859,-0.008468081599421702,-0.04853845238971457,0.12335518086591753,-0.5670709185183896,0.8143791783271845,-1.0812622713638207,-1.9693170892990837,4.145045139472624,-3.6976288376207913,-1.3828743139850062,2.249854161869146,2.0,0.4915852431375662,0.499892409807433,0.3453292457938952,0.8135886605509401,-0.24150235426280992,0.24819463639956513,-0.46706479932760414
9.4,-0.1500906712533884,0.2890319133273203,-0.10580312428746305,-0.011833031141303546,-0.0072355061899162035,-0.05080906019063033,0.12352020360992198,-0.5678449417143853,0.813814529832693,-1.0812392532380706,-1.9692846737303675,4.145076402723319,-3.6975835271951407,-1.382850821112761,2.249717678635357,2.0,0.4915798060441484,0.49990170122213373,0.3453008055680508,0.8135946528807264,-0.24152775268314608,0.2481682764272901,-0.4670552344882002
9.5,-0.08235309113436419,0.6625118523729583,-0.03409335226854533,-0.048045778835633476,-0.015608972002605402,-0.048359164068657416,0.12349357952357516,-0.5676058770172915,0.8139851236137358,-1.0812616283335583,-1.969271055608974,4.145054198094052,-3.697575554797429,-1.382848365985197,2.249764641237114,2.0,0.4915693824494801,0.49991221247807804,0.34529628421580577,0.8136070851716557,-0.24148923589558918,0.24816554050673514,-0.4670549479558553
9.600000000000001,-0.06397532573265607,1.070821120080819,-0.036353227573066325,-0.09243613610924296,-0.021483391947076165,-0.047403303327262565,0.12334608418386384,-0.5668411651313356,0.8145407661703865,-1.0812849253681243,-1.9692981059343306,4.145061808230014,-3.697630544702047,-1.3828586995040855,2.249761023820207,2.0,0.49157193697291457,0.49990670338180127,0.3453060455819296,0.8135995797143856,-0.24149425125773277,0.24817252621233604,-0.46706171726167994
9.700000000000001,-0.07874204366980986,1.494161708256071,0.05686105465029079,-0.12937909922342916,-0.009564464538605532,-0.047339351334589684,0.12335678318245408,-0.5670124074183622,0.8144198684127103,-1.0812491659942733,-1.9692855223919472,4.145064830780029,-3.6976411401322644,-1.3828858105831714,2.249786412486262,2.0,0.4915757043490418,0.4999008595550432,0.3452973247114849,0.8136062905780403,-0.24149909236651174,0.24817661781565795,-0.46704534971196654
9.8,-0.24422970601344945,1.628223064100977,0.23761222650685715,-0.12260212634416918,-0.01464690867193199,-0.042320349939441254,0.12322881476767371,-0.5663266930939734,0.8149163146246144,-1.0812959671020508,-1.9692965946593226,4.1450886726379395,-3.6976401980588838,-1.3828843695650446,2.24977445602417,2.0,0.4915785007568199,0.49990842773774447,0.34529755926261757,0.8136034898750512,-0.24149794460872812,0.24817387428049043,-0.4670522798761486
9.9,-0.40612170765717553,1.5211685420593266,0.31009352573029303,-0.11202696332921597,-0.03485973399201064,-0.04100986673212734,0.123313900881059,-0.5668723523199019,0.8145239789270003,-1.0812943246403568,-1.9693085155882777,4.145054212347418,-3.6976253435733493,-1.3828589712608552,2.249766433727569,2.0,0.4915827165158557,0.4999026357499092,0.3453022855940062,0.8135990725249709,-0.24150973440358975,0.24817603345171316,-0.4670527312788021
10.0,-0.4798634018734184,1.2244639923079557,0.385313534089021,-0.10360283703598122,-0.05515885341530433,-0.04658243509836851,0.12327932446996863,-0.5666927400083401,0.8146541429004036,-1.08128288778335,-1.9692846737303675,4.145052433013916,-3.6976097008641493,-1.3828675031401254,2.2497728207972663,2.0,0.4915703454239476,0.49990927648289046,0.3452974377938372,0.8136069207852341,-0.24149566213576878,0.24817101039604442,-0.46704900515789893
10.100000000000001,-0.6233595317606293,0.29001968817302526,0.5603615612474389,-0.058097947830464076,-0.08376203635623442,-0.04840551392003795,0.12321870997671285,-0.5663569047093818,0.8148968974995426,-1.08129727378439,-1.9693204365172328,4.145073383637101,-3.6976162984219716,-1.382862393056051,2.2497525366207807,2.0,0.49158063512534395,0.4998996523174026,0.3453020507625608,0.8135995142929393,-0.24150105068481312,0.24817651318037523,-0.4670561970106552
10.200000000000001,-1.048588079904062,-0.21181709546964658,0.6203332285351323,-0.007403303796069523,-0.10000805390968513,-0.0447959343651219,0.12327623854702438,-0.5665564199481938,0.8147494384096036,-1.0812789161581438,-1.9692965946593226,4.145058039866026,-3.6976080703662255,-1.3828843905547146,2.249786853790283,2.0,0.4915739982777353,0.49991611013163234,0.34531963168471147,0.813584364387067,-0.24150189036315642,0.24817198263125986,-0.467084559809874
10.3,-1.0520680861578204,-0.6136329035034329,0.8035917643996161,0.004571433476744467,-0.11927967002264703,-0.044838529146992906,0.12335647874315321,-0.5668588500829618,0.8145269652898304,-1.0813002865288848,-1.9692647918426924,4.145062771595507,-3.697590345107789,-1.3828579944298125,2.249776515208692,2.0,0.49156948878137463,0.4999232003558042,0.3453043204218924,0.8135977705004374,-0.24149064637369233,0.24816934184641512,-0.4670684246641502
10.4,-1.3191595776589824,-0.612522638235098,0.9200621028430792,0.011584992025745644,-0.15101665067515924,-0.04688446229855635,0.12336002307653725,-0.5667655168714985,0.8145913870584076,-1.081284523010254,-1.9693030607331217,4.1450543240303706,-3.6976126193493757,-1.3828706046835,2.2497708194540658,2.0,0.49156037921703377,0.4999264961970723,0.34530130766426875,0.8136010246307879,-0.24148129234900606,0.2481620620127077,-0.46707146042419156
10.5,-1.6469767433889118,-0.6333152921822894,0.990624430302452,-0.005800663837036157,-0.18030377796766048,-0.05027610442095086,0.12331952714216945,-0.5665057502071902,0.8147781665604789,-1.0812670609635804,-1.9693073410073165,4.145070418880986,-3.6975996782520206,-1.382891608087958,2.249793139635043,2.0,0.4915656835605406,0.49992302270757627,0.34530003559323696,0.8136031865892515,-0.24147108146292942,0.24816554345962588,-0.4670711237363396
10.600000000000001,-1.363035975500013,-0.4102103767281807,0.9436638675202589,-0.020852905267317104,-0.19705179096453657,-0.05319890322938076,0.12324049776733671,-0.5661202597546336,0.8150580300677246,-1.0812597274780273,-1.9692965946593226,4.145092782368074,-3.697618146935934,-1.3828683205514383,2.24981503202058,2.0,0.4915719709317846,0.49992490320777866,0.345299340331895,0.8136009868026001,-0.24148560544169606,0.2481617119813324,-0.46706948235223766
10.700000000000001,-1.574449324065186,0.08226807528470158,0.5994094848444614,-0.03587530072149627,-0.21644010527922475,-0.05349936083372197,0.12320956517544811,-0.565857931237828,0.8152448560252212,-1.0812862695657635,-1.9693085155882777,4.145094731516915,-3.6976383501365326,-1.3828696703706744,2.2497886003457928,2.0,0.4915484696763533,0.4999406528972932,0.345303949056214,0.8136112288072948,-0.24146690775340993,0.24814333815761333,-0.4670710701239014
10.8,-1.0476909384541326,0.4217465983919904,0.6155674611275497,-0.06906599834076513,-0.15476421221680806,-0.04682121847680907,0.12325675990559055,-0.5662018269086719,0.8149987879661629,-1.081284523010254,-1.9693105928873005,4.145077228546143,-3.697618146935934,-1.3828996071847968,2.249780538801254,2.0,0.4915733378841823,0.4999206345262394,0.3453105991236615,0.8136002440358201,-0.2414840865082655,0.24816530285587296,-0.4670696536134362
10.9,-1.2468400822677084,0.6585973924218111,1.0504674028843002,-0.09004464770108464,-0.14847306678633437,-0.05324884633432074,0.12330284566497043,-0.5665772490305996,0.8147310154062463,-1.0812792535610793,-1.9693067822168386,4.145075425839846,-3.6976270086243117,-1.3828605903497544,2.249786853790283,2.0,0.4915682931988965,0.49991650563858914,0.3452964869041846,0.8136103118604858,-0.24148871038881164,0.24816439832889986,-0.46705020564291233
11.0,-1.527142903597542,0.8954458614267725,1.5333252892835973,-0.11163499802417384,-0.17580916435060284,-0.06320703428621365,0.1232769337973502,-0.5665220966806814,0.8147732873162168,-1.0812792298231941,-1.9693085155882777,4.1450750674174515,-3.697618146935934,-1.3828499952899378,2.2497899858486514,2.0,0.4915675571388514,0.49991453335527797,0.3453144853917303,0.8135964594066096,-0.2414937241967464,0.24817876669808597,-0.46706410927712244
11.100000000000001,-1.8496759500789646,1.1865885976645252,1.8106831091145512,-0.13051323172714444,-0.21481824798355648,-0.07696877015857086,0.12326655765878979,-0.5664709985667654,0.8148103828947556,-1.081297269213799,-1.9692965946593226,4.145100116729736,-3.697607478037506,-1.382851297401686,2.24979829788208,2.0,0.49157376494933014,0.49991898292554554,0.34531288385530534,0.8135946659589853,-0.24149701504340582,0.24817187828834986,-0.46706919195665686
11.200000000000001,-1.9261315605951101,0.9398707865362607,1.961665242628539,-0.14688019464659277,-0.24690319999501525,-0.0846186562117846,0.12326193900251706,-0.5664214029373408,0.814845560144491,-1.081274929801152,-1.969288529735982,4.145092682883778,-3.6976208275678992,-1.382859712424086,2.2497823222756232,2.0,0.49157033816908885,0.4999240882541872,0.34529163747239333,0.813606361473168,-0.2414938083272435,0.24816935131530557,-0.46705181958508385
11.3,-2.1408497986725115,0.8342607470236981,1.8714730621246107,-0.1559960340267915,-0.2697110207666471,-0.08856859518494428,0.12336817842649721,-0.5668516052374566,0.8145300515894888,-1.0812657011962978,-1.9693323574461878,4.1450886726379395,-3.697618146935934,-1.3828762790239109,2.2497648983697216,2.0,0.49156041969207304,0.4999303286880489,0.3452839696250716,0.813614660974775,-0.24148713285780618,0.2481638602911833,-0.4670437308822337
11.4,-2.374603737397102,0.9810193150071225,2.0208812962589238,-0.15580978962822817,-0.27352667209480425,-0.09114708524346402,0.1234628598759429,-0.5672394668570935,0.8142457703602364,-1.081289291860949,-1.9693154300864064,4.145100116729736,-3.697618146935934,-1.3828845661036857,2.2497646139902376,2.0,0.491551640443875,0.4999299529516133,0.34529874208180383,0.8136124856411203,-0.24148385254211108,0.24815558615850167,-0.4670536127990321
11.5,-2.341351160360811,0.989889578374323,1.8087074957031732,-0.15559633708822337,-0.28779764664229207,-0.09049816475991623,0.12335179196430632,-0.5667657546857111,0.8145922714790663,-1.0812585202953484,-1.9693273275183587,4.1450886726379395,-3.697630544702047,-1.3828837199500466,2.2497855460090475,2.0,0.491566858174838,0.4999124621007758,0.34530765858647006,0.8136016580286399,-0.24149043276476867,0.24816623200123009,-0.46706341564122134
11.600000000000001,-2.5336789010960272,0.9523012711123735,1.8447325615221586,-0.15995009797350174,-0.30365047479978896,-0.09750716852179557,0.12324644217445595,-0.566302666488392,0.8149303851486586,-1.0812898981357697,-1.9693184401467456,4.1450867561222715,-3.697624475735766,-1.3828702413892122,2.2497606758735156,2.0,0.49156599640380394,0.49991414619117114,0.3453241762378014,0.8135941293726012,-0.24148708345328326,0.24817624172684427,-0.4670729431448637
11.700000000000001,-2.5244109342788246,1.1148957748059463,1.9435081391685998,-0.1635491965972677,-0.3181943658560657,-0.09649988603232358,0.12316417245915183,-0.5658824598739647,0.8152346445281718,-1.0812888812409953,-1.9693160782864914,4.1451025573389515,-3.6976084051223497,-1.382862393056051,2.24977445602417,2.0,0.4915628797111806,0.4999133621212937,0.3453127792264901,0.8136009968236716,-0.24148742356375424,0.24817237786768076,-0.4670628577521114
11.8,-2.570147055524502,1.283711463399006,1.9601057647701317,-0.1625817152301731,-0.3204272747798185,-0.10151528969724823,0.12318206028403993,-0.5660207526329485,0.8151358623764333,-1.081252199492613,-1.9693031401983194,4.145108929929795,-3.697630544702047,-1.3828764958313384,2.2498019682628643,2.0,0.49156458980252093,0.4999122796994722,0.34531184858829406,0.8136020721818946,-0.24149247487572797,0.24817395360261724,-0.46705753550603313
11.9,-2.573591875997396,1.1032432443651388,1.908374520138888,-0.16646541445721852,-0.32042780408429283,-0.10198898232164473,0.12324499297202553,-0.566410224961309,0.8148558162822799,-1.081273078918457,-1.969306348461952,4.145104626294757,-3.697604058880653,-1.382836297386762,2.249780265726253,2.0,0.4915685262399018,0.4999155635938024,0.3452965316349922,0.8136061911491268,-0.24150102853980213,0.24817066489460346,-0.46704768495711335
12.0,-2.5024285915479867,0.9755327851394306,1.8545912638492492,-0.17485886363182804,-0.32091005473941675,-0.09609439885385199,0.12317952383622097,-0.566026417642986,0.8151321398627843,-1.081257110708471,-1.9693107224188378,4.145086554080602,-3.697611438171031,-1.382853477460588,2.2498039868832906,2.0,0.49156401491079277,0.49992184364192505,0.3452890679544177,0.8136095939504092,-0.24149615482432626,0.24816441530913802,-0.46704759801457996
12.100000000000001,-2.4572525713162454,0.9450245633068507,1.989130718797345,-0.17639874172344538,-0.32061418118388235,-0.0977433645710244,0.12307371587270272,-0.5654138886358757,0.8155734120468034,-1.0812888953209818,-1.969313878051141,4.145093219841097,-3.6975798086027614,-1.3828472958195965,2.2497673842431007,2.572124983163807,0.4915608637917169,0.4999225983084843,0.34530547975909665,0.8136031526398274,-0.2414813556256009,0.2481735833253746,-0.4670615991913693
12.200000000000001,-2.4380400409995318,1.190937165567165,2.300589164564355,-0.1949087922770343,-0.3149873728205043,-0.09893652600936072,0.12307250439857913,-0.5655031056201553,0.8155117275241109,-1.081442830530373,-1.9689518421994099,4.145109501722697,-3.6975800766438476,-1.382836643849508,2.2497668258241705,3.0,0.49155373242225525,0.49993145409529804,0.3453203005101078,0.813593949070657,-0.24147793720622862,0.2481676054996094,-0.46708257456131713
12.3,-2.275822416915731,1.594451634542265,2.7348070334149117,-0.2043075417459503,-0.31282756782302323,-0.1244499928775912,0.12307129292445554,-0.5655923226044348,0.8154500430014184,-1.0823059103978696,-1.9677278037009514,4.145111485668855,-3.6976210068615107,-1.3827536741839808,2.2498231707617293,3.0,0.4915413492961269,0.4998654020411174,0.34537777130016917,0.813578494785365,-0.24149668974938937,0.24818101797356712,-0.4670926717263617
12.4,-2.2269523498428065,1.460088008254395,3.1360995361757773,-0.19939460684794927,-0.30528421104563397,-0.15027109234361993,0.12297894883909216,-0.5652724011035307,0.8156855279628917,-1.0833122550593648,-1.9669316532777865,4.145288130571865,-3.6977569920105466,-1.3825679188407498,2.2499369720335416,3.0,0.4913874541722147,0.49961130317526753,0.3456386759202292,0.8135063177189273,-0.2415346001860822,0.2482244379959038,-0.4671757017717839
12.5,-1.848483506264771,0.8337956234132863,3.6061171217051746,-0.19010741762643524,-0.2836461850832931,-0.1694695021287185,0.12283819660066853,-0.5647351519287658,0.8160788644955933,-1.0845804026754073,-1.9658524389746768,4.145594041807524,-3.6978594656470403,-1.382382257928977,2.2500386050374677,3.0,0.49102295055168754,0.49921717849285613,0.3459029071899988,0.8135012950080284,-0.24154648013117153,0.24822752373517953,-0.4671766661733046
12.600000000000001,-2.0620197168449423,1.0737096328694025,3.949389990838544,-0.1810960652944294,-0.2828652678788376,-0.20070522498526258,0.12273437867942266,-0.5641986432286513,0.8164653290233417,-1.0857564559597603,-1.9647432206861337,4.145766713986473,-3.6979433498778285,-1.3822178235577707,2.25014333660507,3.0,0.4907028319930519,0.49898535685819195,0.34593882110269153,0.8135891305648781,-0.2415082996225819,0.24817721800946851,-0.4670701620754378
12.700000000000001,-2.203094411707471,0.9947725212671836,4.400080655539616,-0.18027896645763866,-0.2975545910192843,-0.22996518929991483,0.12265097611943103,-0.5636625438242446,0.8168479950657144,-1.0869092999762604,-1.9633525627892336,4.145952861001643,-3.698054141379414,-1.382039066412559,2.2502188682556152,3.0,0.4902746530851467,0.49857004416841266,0.3461225536340781,0.8136445646208433,-0.24150101889716957,0.24815593637353972,-0.4669886632212384
12.8,-2.1008462713155702,0.8843209120381973,4.882398633474786,-0.17618036595906392,-0.30709058537489,-0.25411498117299547,0.12255854359151509,-0.5630761245937682,0.8172663952971687,-1.0878191153957655,-1.962045848434323,4.14619127121571,-3.6981670979703942,-1.381900831125216,2.250291347503662,3.0,0.49002685316692,0.49830033655569494,0.3463788149463411,0.8135985637178811,-0.2415078659957167,0.24818231532562895,-0.46705124573006573
12.9,-1.979749422219345,0.6751252272565271,5.243788003292711,-0.1561237561654279,-0.3102369151195948,-0.27617386253587,0.1224076565855462,-0.5621639656493437,0.8179161167679591,-1.088882926860522,-1.9611353999017302,4.146355462202753,-3.69829772513579,-1.3817187580073007,2.2503983295259324,3.0,0.4896514416954634,0.4979466654515364,0.34673158054655256,0.8135595024759876,-0.24148926812600918,0.2481895860336013,-0.467125035397866
13.0,-2.1965076256990583,0.5322599184427725,5.454855770192947,-0.13549305719540264,-0.30782636726248985,-0.29936742430240704,0.12227571729247833,-0.561376553471361,0.8184772520908099,-1.0898827966262052,-1.9600315008108995,4.14657967629083,-3.6983602291785465,-1.381529497454381,2.2504830360412598,3.0,0.4893957550078046,0.4977265677453763,0.3468438188774269,0.8135944244841704,-0.24148049392597581,0.24816331977233322,-0.46708270169330085
13.100000000000001,-2.4366880533165474,0.33151663799134,5.700788628543111,-0.1201414364864803,-0.30684491263537594,-0.31583098870866594,0.12227677948159112,-0.5614647881284706,0.8184165662451556,-1.0910098332472769,-1.9588324415232694,4.146742213681744,-3.698474761591639,-1.3813393751727503,2.2505431175231934,3.0,0.48915142001640216,0.4974921754911894,0.34696436638099876,0.8136150236747854,-0.24148655606080818,0.24815674664885612,-0.4670471770444862
13.200000000000001,-2.618622422927395,0.4125536784992012,6.226480346196475,-0.1106959039526268,-0.3089982377313168,-0.3192411863249947,0.1222131808980808,-0.5612262639141159,0.8185895481582404,-1.0922166173029193,-1.9576403942718883,4.146948337554932,-3.698614526286531,-1.381164711849438,2.2506226361329817,3.0,0.488724936905855,0.4970351443475205,0.3472609528646628,0.8136136886958953,-0.24150021652129863,0.2481726453160497,-0.46703399137927737
13.3,-2.436735490244478,0.42530679912350117,6.443047693322316,-0.10936013007328778,-0.31530628924847215,-0.31587618873914075,0.12211590007060442,-0.5608035965427026,0.8188937785045471,-1.0931706717777643,-1.9564581399176997,4.147110806163952,-3.6987170637140943,-1.3810222473779548,2.250730707397865,3.0,0.48834456078876715,0.49665053812921606,0.3475380226793658,0.8136090767965067,-0.24149820259267252,0.24817751314766676,-0.46704048032979323
13.4,-2.4703884989638465,-0.0701108730604311,6.530610442390454,-0.10471075662018081,-0.32609904879069057,-0.3173534231796283,0.12207894336534321,-0.5605669151639094,0.8190613085298225,-1.0942019062679784,-1.95535648175465,4.147331714630127,-3.6987871188969965,-1.380859676991598,2.2507737940206765,3.0,0.4881544343844087,0.496475039415246,0.3477177655552703,0.8135894547781312,-0.2414866628986206,0.24818439648063206,-0.46707697016600513
13.5,-2.7002070729458194,0.13569850107887976,6.565053036668134,-0.10059418364347886,-0.3324969875584941,-0.3126637099839417,0.12189325096218086,-0.5598058706151419,0.8196090119523456,-1.095188889696945,-1.9542457578094272,4.147516497564202,-3.6989705174325156,-1.3806789136013005,2.250916523125405,3.0,0.4877761162352033,0.49603095812918546,0.3479713861084789,0.8135922757648775,-0.24151919176294115,0.2482113214985336,-0.46704092829842536
13.600000000000001,-2.8254990893599103,0.6215104220970369,6.56360329317258,-0.10165952008579746,-0.33101383917674326,-0.30874297928338823,0.12162262902845984,-0.5584769968776323,0.8205544252383755,-1.0963306943908988,-1.9530779542639023,4.1476715260005115,-3.6990718717744233,-1.3804990364431244,2.2509822933488723,3.0,0.48752408587429635,0.49583327552306433,0.34811884276069593,0.8136109669522014,-0.2414877847342195,0.24818399232004928,-0.4670391313748184
13.700000000000001,-2.6827906785517204,0.42004670151548446,6.389040526547796,-0.09740687342317861,-0.3316055159671617,-0.3001571552528188,0.1213327533723374,-0.5568628693266736,0.821693585062205,-1.0973160246194829,-1.9518856179196733,4.14788010217973,-3.699179100259121,-1.38035756746401,2.25104533045774,3.0,0.48724509297101676,0.49553572934640633,0.3483236946409901,0.8136101155576871,-0.2414923286280698,0.24818227041930502,-0.4670391800754178
13.8,-2.670717419926087,0.1337168327336638,6.18400025648768,-0.07861246222103979,-0.3208550873404537,-0.2934099002174432,0.12065721555370353,-0.5535584982810114,0.8240187920528088,-1.0982806993441554,-1.9507784928612126,4.148076430604695,-3.699281962540196,-1.3802117589601453,2.251133234591958,3.0,0.48693838397840455,0.4952060430924126,0.34857512587560935,0.8135950937825052,-0.24149660183748242,0.24819024730129835,-0.4670588997316138
13.9,-2.608141404587457,-0.30841965956522777,6.1565814072443485,-0.06926564515154247,-0.3115075135701642,-0.2934494870566257,0.11995967960048498,-0.5501213462442396,0.8264175737233039,-1.0994278776043636,-1.9496114270281937,4.148232790560826,-3.6994238561048967,-1.3800337950335901,2.2512033594256655,3.0,0.48653795467712696,0.4948009849743842,0.34888647382029025,0.8135814880063801,-0.24150005856439055,0.24818967533331543,-0.46708111623642423
14.0,-2.689345811460412,-0.3007515792406693,6.391620286652149,-0.07630277768320377,-0.3146336076966515,-0.29469210559716547,0.11926649984270311,-0.5466799103298368,0.8288040986500924,-1.100503484466876,-1.9484160005545397,4.148427923461591,-3.6995032688657328,-1.3798779513707302,2.251299608192153,3.0,0.48625285220462017,0.49451000814995816,0.3490689257533985,0.8135874065080628,-0.24150277740509168,0.2481829766424989,-0.46707296066244275
14.100000000000001,-2.7140430248046394,-0.033042820162460865,6.467330588949194,-0.08057028149738805,-0.3186645052318362,-0.2970355628793611,0.11894940031992375,-0.5449706043183601,0.8299734770945716,-1.1016147174844901,-1.9472308863166234,4.148634709133736,-3.6996206870433546,-1.379710420392509,2.2513956921610907,3.0,0.48588857660209245,0.49414582697811604,0.3492975185673963,0.8136008122707024,-0.2414839870343802,0.24818234531257435,-0.4670596597369364
14.200000000000001,-2.6616436029443484,0.09109086428687947,6.681757943572269,-0.08739446425196926,-0.31676479201875524,-0.29208310420950206,0.11889251745990005,-0.5446562140576093,0.8301888960343409,-1.1025660264216681,-1.9462216043393994,4.148844651521975,-3.699771066705221,-1.3795188109027308,2.251460813256385,3.0,0.4856415502042049,0.4938676002886567,0.34946523503320526,0.8136060696033618,-0.24149259175527665,0.24818585847651004,-0.467044185580087
14.3,-2.9115380373291946,0.4585686063374629,6.895479613119587,-0.09430158516776496,-0.3166377834422699,-0.28932388427275646,0.11903355560572552,-0.5454021639865437,0.829678923293558,-1.1034892566586187,-1.9451361313481736,4.149034023284912,-3.699874305830612,-1.3793582731390426,2.251591055537964,3.0,0.4852207604626383,0.493491536899027,0.34970169149735875,0.8136231645358735,-0.2415036111276262,0.2481474388201254,-0.4670291217364926
14.4,-2.8406595120736156,0.49596488241653963,6.9080787330272955,-0.11277835847535961,-0.32296012773657357,-0.29694191278183346,0.11862822142573136,-0.5432018495639589,0.8311771924880337,-1.1045829124314606,-1.9438487192860356,4.1492502523460795,-3.7000506521727288,-1.3791924953937194,2.251640922532779,3.0,0.48501396964314525,0.4933171191375641,0.34987809966187566,0.8136159780542067,-0.24147723105273208,0.24815836829088794,-0.4670494742371586
14.5,-2.6423514491875926,0.4962430724711864,7.0525492934949225,-0.1218062613969479,-0.3295108173658057,-0.2952306744652541,0.11842561517498432,-0.5420864209285264,0.8319361030073507,-1.1056685184527626,-1.9426423248735598,4.149432155995487,-3.700184647329904,-1.3790678857595915,2.2517229565086443,3.0,0.4847236327970496,0.4930217100099751,0.35014845613767953,0.8135895585434022,-0.24146676179577087,0.2481696802924192,-0.46709489716820357
14.600000000000001,-2.8332757680106133,0.5009116794761237,7.178977529881925,-0.11862570497721825,-0.32982423967785024,-0.2962589173467115,0.11841172038157743,-0.5420537969208793,0.8319593398124083,-1.1067956544834907,-1.9415667251872937,4.149570783756895,-3.7002955728775713,-1.378871266041891,2.2518058908055383,3.0,0.48421735848545605,0.49248794039627214,0.350512329306308,0.8135941218920077,-0.2414612460108983,0.2481626676070021,-0.4670935258637332
14.700000000000001,-2.81534243406732,0.2471308183795699,7.266515515811243,-0.13127852021894293,-0.32604982052793285,-0.29913282895778387,0.11839937320818207,-0.5420996936605098,0.8319311535074396,-1.107778118163582,-1.9405615153070113,4.149760226502506,-3.7004136604694784,-1.3787069042783897,2.251899967544035,3.0,0.48403708026127645,0.49227964394333534,0.3505612911480115,0.8136294193239451,-0.24148782017532855,0.24814956599834742,-0.4670252601437958
14.8,-2.704330974812776,0.7103608982453478,7.317135809304413,-0.1322549664454289,-0.3371927917580565,-0.2911727098707708,0.11793283098201351,-0.5399683850863247,0.833380176885763,-1.1086081559904013,-1.9395130037096093,4.149974256301681,-3.700553079644674,-1.3785423382619388,2.2519963596080586,3.0,0.4838016892949468,0.4920184582653361,0.3507010440196028,0.8136374140736259,-0.2415056145758998,0.24815349257563826,-0.4670000435443372
14.9,-3.0009046778486224,0.9445968611159624,7.37473786543309,-0.14462851086551132,-0.33494596513807534,-0.2941555248864159,0.11733402677196941,-0.5370404947102639,0.8353470410903167,-1.1095425197153572,-1.938122575249642,4.150129580001568,-3.700764162644822,-1.378392521535055,2.25209177707659,3.0,0.48337463699326455,0.4915963567840506,0.35109260672453685,0.8135942983341133,-0.24149127953437918,0.2481793580826813,-0.46706882346046014
15.0,-2.797383103611417,0.272671588916907,6.785831347021132,-0.11820773184356363,-0.3314789034288924,-0.2924706548199314,0.11660147575534685,-0.5333070798058575,0.8378375595966947,-1.1106830783817234,-1.936820771280873,4.150328159332275,-3.7008590085027575,-1.3781999802153662,2.2521639242515383,3.0,0.48312437220969495,0.49134260662698404,0.3513719484606784,0.8135577254706747,-0.24148599626271552,0.24818141391281603,-0.46713416351645887
15.100000000000001,-2.60010887557539,-0.1537871255839432,6.372718102452483,-0.07888922055575753,-0.3202501085802671,-0.28810038061442367,0.11601597745197333,-0.5303448375529355,0.8398042849858128,-1.1119758239287036,-1.935804167642506,4.150541811601974,-3.7009585293673593,-1.377988025486686,2.252293109893799,3.0,0.48283731288528364,0.4910335596115734,0.3516051546929121,0.8135436160139689,-0.2414938076642813,0.2481842874656331,-0.4671531709813165
15.200000000000001,-2.7090182816506103,-0.03917115026608459,6.3393362854182875,-0.06772017547136201,-0.30947743262342287,-0.2868612469890617,0.11558530913233409,-0.5281945534505812,0.8412195150775398,-1.1131034997793345,-1.9347639522948206,4.15066614151001,-3.700983282128805,-1.3777931372271937,2.2523655891418457,3.0,0.48239518833012707,0.49060843938183024,0.3517184549253126,0.8136139805532376,-0.2414879176591438,0.24816840947939456,-0.46704209318800555
15.3,-3.031910087852162,-0.48104605531317035,5.925916729503253,-0.05897826306735326,-0.3364641865681403,-0.29223609044636273,0.11505168899623856,-0.5259132651690749,0.8427206352233471,-1.113294672411028,-1.9344769464114309,4.15075643007094,-3.701036160967517,-1.377737392561267,2.252415881783685,3.0,0.4821834099694733,0.4903437470534504,0.3517962973738948,0.813634543448074,-0.24152020757039738,0.24817293845699046,-0.46698716434268245
15.4,-3.1513855076888633,0.18233645042374869,5.577749761592112,-0.07314846222053355,-0.34493291693936995,-0.2939906384918137,0.1147598957934167,-0.524512433171937,0.8436322825506142,-1.113252026140191,-1.9345210103493315,4.150783061981201,-3.7009981387352777,-1.3777453267084625,2.252387353629123,3.0,0.4820840452121626,0.4902458927203181,0.351873331786373,0.8136275864048366,-0.24153317891971576,0.24817080561732752,-0.4669937101944988
15.5,-3.200356652652119,0.267856827415451,5.499087097856385,-0.0915352675980961,-0.3494225401307223,-0.29440104241141146,0.11460839071179993,-0.5237369721190465,0.8441353562199518,-1.113319750055522,-1.9343517345697574,4.150783061981201,-3.7010379411493917,-1.377741487764757,2.2523999214172363,3.0,0.4820424734089597,0.49021421750085153,0.3519331650376844,0.8136144497210188,-0.24152239693013472,0.24817178025713205,-0.4670216552476896
15.600000000000001,-3.2179610175245568,0.19671209436054932,5.3238245434342035,-0.09568938448857528,-0.3524077347852856,-0.2892974830097406,0.1146053945125643,-0.5235636596062746,0.8442432297335196,-1.1132942222910787,-1.9343427060539218,4.150760840209442,-3.7009987701322906,-1.377763390883864,2.25238672223211,3.0,0.48202835511031683,0.4902130411072779,0.3519651815526827,0.8135996571077231,-0.24151555597260502,0.24818276023130803,-0.46704512812083565
15.700000000000001,-3.139648392178721,0.016968689767403913,5.281153471118792,-0.09591109071269283,-0.3535124170156803,-0.2891049718382604,0.11458965188793561,-0.5232464018753514,0.8444420639815521,-1.1133398038019426,-1.9343178730694877,4.150791979871683,-3.7010302038057143,-1.377764382010388,2.2523971052412946,3.0,0.48201182070828574,0.49021196892005525,0.3520159548760038,0.8135880665887539,-0.24147935501146442,0.24818970919950584,-0.46708034346896365
15.8,-2.9076345669595005,-0.017973984098577173,5.204761901564538,-0.09895852960425476,-0.35726234523360934,-0.2917143294547064,0.11472346441541376,-0.5240168100828334,0.8439456947320291,-1.1133254118779519,-1.9343272122593418,4.1507740809209634,-3.701031546310047,-1.3777361289037902,2.252379364853437,3.0,0.48201491301618105,0.49020640564851264,0.35201902931750656,0.8135843460296337,-0.24149113634127448,0.24819814704081855,-0.4670762494171987
15.9,-2.9749228880413567,0.15958700855359387,5.262394057211105,-0.10103624080843422,-0.35673007077778945,-0.2911628662622338,0.1147477196115623,-0.5242134602766615,0.8438203934923231,-1.1133235395874912,-1.9343452281981632,4.150792817497337,-3.700987634734984,-1.3777506046147123,2.252392401167302,3.0,0.481987575483648,0.49020875478459963,0.3519652045439057,0.8136173412362983,-0.24149541629593485,0.24814827966044614,-0.467043057168385
16.0,-3.028439777824975,0.3355297398860278,5.38276998602777,-0.09966817548553339,-0.35557307005607464,-0.28811853989733927,0.11460179049481006,-0.5234843666378473,0.8442928693885049,-1.1133364240519694,-1.9343273417549134,4.150781169433337,-3.701012350757599,-1.3777912555217526,2.252343515574186,3.0,0.48200756636723474,0.4901988151603946,0.35198241800278535,0.8136021165347938,-0.24150287490144637,0.24817154534376135,-0.4670533604055642
16.1,-2.859192940251213,0.39637176390642326,5.1726028580189105,-0.0983669168780021,-0.35961984316432893,-0.29181693403835257,0.1147088071200986,-0.5239683065817188,0.8439779696118191,-1.1133451461791992,-1.9343147380720624,4.1507980825016695,-3.7010099287537246,-1.3777767059009816,2.252394457345663,3.0,0.482005461314515,0.49021153992757366,0.3519853532157308,0.8135965057292287,-0.24149566153138566,0.2481747760348367,-0.46706514734752635
16.2,-3.2206277420551213,0.5234805725626835,5.0892175244436615,-0.09731630245963428,-0.35490117322951625,-0.2883016647098058,0.1147678935765291,-0.5242266552216751,0.8438096155435467,-1.1133603067425586,-1.9343093495004622,4.1507754816995215,-3.7010164099881635,-1.3777583281146448,2.2523929242341474,3.5921705734709426,0.4820246252237922,0.49019985786624704,0.3519649062912654,0.8135965546558416,-0.24150957314541838,0.2481808503239147,-0.46705464119710927
16.3,-3.0151444552574462,0.39111300537385624,5.007045328222929,-0.10150319497494946,-0.35940177460571293,-0.29103681368496975,0.11471976354668438,-0.5239771189696658,0.8439710975451695,-1.1133425159572188,-1.9343147458508387,4.150800939376441,-3.7009878339245694,-1.3777583281146448,2.2523829976963134,4.0,0.48200798402333256,0.4902034256936333,0.3519770301966421,0.8135964990628884,-0.24150082588248994,0.2481791312297883,-0.467060174530771
16.400000000000002,-3.1552072323980425,0.6652828445763432,5.119155691243798,-0.09815463820989688,-0.3551839959178674,-0.291793201938871,0.11467163351683968,-0.5237275827176565,0.8441325795467922,-1.1133423594959169,-1.9343268297603167,4.150779488712149,-3.7010094128050746,-1.3777583281146448,2.2523826717352677,4.0,0.48200456638239025,0.4902046742497032,0.35200081278643247,0.8135893167810997,-0.24149068911048488,0.24818205976901517,-0.46707637052351036
16.5,-2.834525777945414,0.4002869375163002,5.103019103793844,-0.10775494625009178,-0.3646543979851195,-0.28430885809428075,0.11466387837919143,-0.5236868540763389,0.8441589147648575,-1.1133398493666236,-1.9343394925534914,4.150776402428711,-3.701030385556173,-1.377755569358095,2.2523646354675293,4.0,0.48200439855157,0.4902015961133459,0.35199397018907863,0.8135977940268753,-0.2414869812318209,0.24817867915216366,-0.4670653173426947
16.6,-2.8947092919162727,0.40218265835840483,4.962146075082208,-0.10699536172079846,-0.36466963675045744,-0.2832796324979313,0.11466105235790733,-0.5236716174414348,0.8441687507630821,-1.1133070130618115,-1.9343148610762682,4.150800939438478,-3.700994032838645,-1.3777762055719216,2.25238537583711,4.0,0.4820040946527084,0.4901979721276197,0.3519807148365183,0.813606795637978,-0.24149703619847385,0.2481728417677031,-0.46704753955887335
16.7,-2.7349700665432457,0.337396203960197,5.068069283006964,-0.10682672301356078,-0.3667063140870531,-0.28681495188078804,0.1146800882380899,-0.5237847762050717,0.8440959197244913,-1.1133364642437813,-1.9343272161555016,4.150788816473657,-3.7010121749614537,-1.377749284431918,2.2523731521163644,4.0,0.481998205797875,0.4902196330377931,0.35200048429335684,0.8135921660270062,-0.24148769339203865,0.24817031655632585,-0.4670791959614667
16.8,-2.846850085228492,0.6658787074192578,4.9958206876297,-0.10182578477301273,-0.36585076599768024,-0.2834121838277511,0.11473444614662089,-0.5241053819702417,0.8438895244841623,-1.113336429289355,-1.9343148468716431,4.150788743651936,-3.7010007766655573,-1.3777520888564248,2.252379841185922,4.0,0.48200556409113404,0.49019958594724633,0.35197507868719247,0.8136102428943991,-0.24150533495377383,0.24816728025482096,-0.4670401983310514
16.900000000000002,-2.885182717179987,0.4389366047667119,4.949664551756673,-0.10523931264450337,-0.3643131817615678,-0.2836717626152474,0.11473746202940262,-0.5239935773899536,0.8439585427897006,-1.113397715074169,-1.9343393025618607,4.1507676863845715,-3.7010094128050746,-1.37777236560892,2.2524123191833496,4.0,0.4819926765286072,0.49021380506759993,0.3519901798416891,0.8136061688072623,-0.24147529453687913,0.24817346137223278,-0.4670595436104707
17.0,-2.839854208875614,0.41477222748443904,4.931020818495582,-0.1122329485960355,-0.36067018902940373,-0.2869601383154541,0.11482291617575721,-0.5243765306662708,0.8437083670818536,-1.113375606199457,-1.934347768823141,4.150773794833794,-3.7010179670949888,-1.3777732592538945,2.252415449802056,4.0,0.48200708087627986,0.49019515126702096,0.35201455533366255,0.8135846353864882,-0.24149373988377226,0.2481964021759446,-0.4670753264805379
17.1,-3.0460603646211486,0.3285407785069464,4.950906668603527,-0.11284448572743963,-0.3591550413372869,-0.2806342745860113,0.11506953090128015,-0.5257589507779329,0.8428143064307205,-1.1133699417114258,-1.9343424269868235,4.150811182014022,-3.701011976886507,-1.3777464071856897,2.2523945795809186,4.0,0.4820111750990512,0.4902159609398568,0.35201940319841496,0.8135732524070572,-0.2414956586803629,0.2481908406320369,-0.46709711670347914
17.2,-3.0096496162742867,0.5284621806520219,4.993289480771617,-0.10927152755533143,-0.3610883921060516,-0.28240452564348867,0.11527555998426894,-0.5267613441455049,0.842159584202306,-1.113358497619629,-1.9343239269652308,4.150803407675814,-3.701004008869075,-1.3777768719960848,2.252367178496235,4.0,0.48200067910038785,0.4902127093895645,0.3519993523525631,0.8135879482444461,-0.24150061464155348,0.2481760330913353,-0.4670768247282163
17.3,-2.864341519973262,0.5435205626196822,5.0935857011466785,-0.11081130112257645,-0.3663295565946555,-0.280319554871552,0.11547429056358927,-0.5276953974200619,0.841547902129157,-1.1133813858032227,-1.9343120060362757,4.150783061981201,-3.701007468477555,-1.3777620672060282,2.252394387561989,4.0,0.48199218223527746,0.4902189536557336,0.35201310816395553,0.8135827198587238,-0.24149552731619603,0.24817066133714683,-0.46709141619712596
17.400000000000002,-2.7755124934046047,0.336161765090932,5.127151268544287,-0.11354180884392279,-0.3668717309652628,-0.27838811192046764,0.11536773851727383,-0.5272014374122934,0.841871766985754,-1.113356546596503,-1.9343154325366516,4.150806903839111,-3.7009878883299336,-1.3777464071856897,2.2523911597765696,4.0,0.48200009007130334,0.4902044993128155,0.3519909697233175,0.8135943396141421,-0.2415013527608647,0.2481711373142067,-0.46706791130056646
17.5,-3.1722826188462387,0.30274150143916234,5.06593347819721,-0.1171774933744968,-0.35899039413534295,-0.2839875865453455,0.11520230877599652,-0.5264320666101401,0.8423760641438535,-1.1133337020874023,-1.9343120060362757,4.150759220123291,-3.7009970150389613,-1.3777526925406625,2.252367652437916,4.0,0.48199815612154556,0.49020367181959146,0.3519847927045373,0.8135994102029644,-0.24150366774219342,0.24816970349434558,-0.46705864348279125
17.6,-2.9037982888199863,0.3497299701694915,4.875282476267012,-0.1174674292619909,-0.36408388182800455,-0.2808737429331374,0.11509386443469118,-0.5258374583071,0.8427621932712124,-1.113363404477069,-1.9343182918385418,4.150815607717536,-3.701044524916363,-1.3777639632413339,2.252391494510527,4.0,0.48200223281678894,0.49020306547518533,0.3519666546216351,0.813603982598695,-0.24150239077464716,0.24816600986953688,-0.4670533013426894
17.7,-3.0820927694593645,0.690757402450775,4.812993693424659,-0.10976436645995014,-0.3627755938963581,-0.28223811231050794,0.11507610573788168,-0.5256448573927021,0.842884843725184,-1.1133690531482436,-1.9343138572095722,4.150785875764612,-3.7009988662122577,-1.3777491839456344,2.25239807024394,4.0,0.4819944170219678,0.49021912077550134,0.35196738430474067,0.8136091077431185,-0.2414904147092305,0.24815652204290695,-0.46705560693409853
17.8,-2.9792499078545363,0.5876428093288669,4.75411616415625,-0.11267224850240053,-0.3660227994209343,-0.28421720633031006,0.11510969057235951,-0.525753790637293,0.8428120834761531,-1.1133668430452885,-1.9343152338135021,4.150806903839111,-3.701026799108532,-1.3777789421953286,2.2524032783055516,4.0,0.4819841770863241,0.49022368073978084,0.3519906213988631,0.813606108306881,-0.24148125808076554,0.2481502086916721,-0.4670689204472313
17.900000000000002,-2.8786869193635134,0.6938955144675095,4.765813474544362,-0.11098607673727251,-0.36621086208487913,-0.2824662312652281,0.11488345276674868,-0.5247994270491213,0.8434376115055487,-1.1133399969612774,-1.934290834778145,4.150822449042162,-3.70101480413353,-1.3777702490436,2.2523884773254395,4.0,0.4819958930358599,0.4902247358070339,0.35197786008846027,0.8135997026113987,-0.2414972455253059,0.24816700867615898,-0.46706288668557366
