xiamingqian9007/apple-picking-rnn/final_data/grasper_20191127_121611_noimg.csv
,/manipulator_wrench.fx,/manipulator_wrench.fy,/manipulator_wrench.fz,/manipulator_wrench.tx,/manipulator_wrench.ty,/manipulator_wrench.tz,/ground_truth.x,/ground_truth.y,/ground_truth.z,/joint_states.elbow_joint,/joint_states.shoulder_lift_joint,/joint_states.shoulder_pan_joint,/joint_states.wrist_1_joint,/joint_states.wrist_2_joint,/joint_states.wrist_3_joint,/mode./mode,/manipulator_pose.x,/manipulator_pose.y,/manipulator_pose.z,/manipulator_pose.rx,/manipulator_pose.ry,/manipulator_pose.rz,/manipulator_pose.rw
0.2,0.09095346709640614,0.42968745574344874,-0.3591447749512413,0.00026658871628587686,0.019337154785484367,0.007322987579036458,0.31951007180159635,0.6665103150111911,0.6735557230499483,-1.6417986805712967,-1.8658378854180993,4.14910491508221,0.22529586633517262,1.3591159052861452,-0.31501643911217864,1.0,0.49742894870229776,0.5058209459385326,0.4222347055570419,-0.6185621989629491,0.4312438722829122,-0.1099644886646842,0.647547171922845
0.30000000000000004,-0.010131099141502118,0.5353730015850082,-0.08109176213335503,0.0056404372696296345,0.028984265665310094,0.010939070811871704,0.3195007539481866,0.6664422959638313,0.6736274374691514,-1.6385253276314817,-1.8684676917593128,4.148598254784449,0.22482576902650492,1.359659197473878,-0.315041556776834,1.0,0.4975146950318585,0.5059183878894531,0.42222903846031884,-0.6185580164931878,0.4312317044859224,-0.10994800819459274,0.6475620686638626
0.4,0.03189158231469033,0.5045632178240006,-0.012135980271722645,0.0010793482217176576,0.021136832084902194,0.0638471784014205,0.3194989280538547,0.66639267771605,0.6736773897525463,-1.6343899344604638,-1.8724258730134347,4.147950147593652,0.22410715996921168,1.360341340301296,-0.31518424325983885,1.0,0.4979076185112839,0.5063452368883753,0.4221423650485766,-0.6185845064090789,0.4312268449372729,-0.10994247641344652,0.6475409396448691
0.5,-0.23345558186371995,0.09411185066605016,-0.1029801340584866,0.001784641526164184,0.015632264568426833,0.10040444460413385,0.31957014087892754,0.6665224479063624,0.6735151841057592,-1.6301098920480546,-1.8756024334319932,4.14730375030313,0.22348481756586,1.3608929450267806,-0.315257051489081,1.0,0.4995734223211881,0.5080281368833808,0.421697415245599,-0.6186393337962122,0.4312544529850774,-0.10992386206718455,0.6474733322762839
0.6000000000000001,-0.05035402291787722,0.2988710441260213,0.09733112706295513,0.0021442188956226735,0.03092687130480149,0.13259819162607966,0.3196438432678684,0.6666691091455966,0.6733350437548078,-1.62613597566404,-1.8791390799843448,4.1467162678555445,0.2229102530605324,1.3614324018975306,-0.3153643431156779,1.0,0.5001377493217358,0.5085581881001203,0.42172669337708196,-0.6185569495748754,0.43123652812230295,-0.10993893582190392,0.6475614158796018
0.7000000000000001,0.1881454045840233,-0.044931048861571246,-0.02254098769519588,-0.0006971753843581462,0.022184170557425057,0.1563849899139617,0.3197446507116278,0.6669996711928659,0.6729596398294678,-1.6222468030932211,-1.882188220025322,4.146140211134447,0.22235895918313894,1.361925396542278,-0.3154364866458867,1.0,0.5012204788111224,0.5096768110847918,0.42138041001432136,-0.6185957674199167,0.43128762205425814,-0.10993867901055032,0.6474903477661754
0.8,0.09150488451239633,0.30396602938589984,0.044203637195956935,-0.009904689635272435,0.02892397801968877,0.1871791705871399,0.31962921688891643,0.6668381905359385,0.6731742524499116,-1.618445638486339,-1.8853879157359772,4.145614188591792,0.22176087112695764,1.3625005895385547,-0.3155324680750986,1.0,0.5025220566035112,0.5109327898917165,0.4212978680868186,-0.618503639155417,0.4312596348564944,-0.11000212241891891,0.6475862172392816
0.9,0.038585874450260946,-0.022263823822600583,-0.12335688736706751,0.0025403544924580126,0.024248348199866147,0.20648190786175177,0.31938230883546287,0.6663564411209423,0.6737685248248823,-1.6149039063822894,-1.8884675380719773,4.145088506869861,0.2211707538986932,1.3631266179716057,-0.31555769896595737,1.0,0.5030985035979042,0.5115598493407444,0.4211196061230927,-0.6185393646183177,0.4312541526697351,-0.10999752337954632,0.647556526546558
1.0,0.16000656347014391,-0.14256342181548348,0.049468284847940386,-0.006965840237187364,0.023822026580304002,0.22200942593630638,0.31954298295895295,0.6665028452399674,0.6735474697380449,-1.6112123048000437,-1.8914073935121152,4.144558574081561,0.22056324195460772,1.3636744507034868,-0.3156521006313053,1.0,0.5039408670033277,0.5124252612977663,0.42097894015842496,-0.6185565532533532,0.4312172788977956,-0.10996595727956551,0.6475700248211782
1.1,-0.09229770168864432,0.30469686342474445,0.12989975915924698,0.005492103250514821,0.022679762807913475,0.23101836369980716,0.31951482065743964,0.666341433666288,0.6737204641374773,-1.6078627739438136,-1.894298868170343,4.144079742622541,0.21994034826245112,1.3640953306360504,-0.3157360591436656,1.0,0.5051642451802987,0.513698618435779,0.4207603700696874,-0.6185574087411636,0.43119534564274176,-0.10991362435759054,0.6475926969693471
1.2000000000000002,0.3524665801818017,0.4111314949435272,-0.008359023832942956,0.002552551309965396,0.0137159082697821,0.2504469771617341,0.31948857636235933,0.666342266986973,0.6737320611069781,-1.6045689065909545,-1.8972235176423846,4.143588306250295,0.2194015222736816,1.3645384570133607,-0.3158188760398707,1.0,0.5058251397890831,0.5143170680210305,0.42059077169649867,-0.6185478389055024,0.43123552933448617,-0.10994995069139112,0.6475689133736259
1.3,0.07030924757942993,0.18702387509354212,0.13586055038119904,0.001185820954308929,0.016644822726581424,0.2525112473971969,0.3195822140678476,0.6666644679580805,0.6733689126011743,-1.6011588501994563,-1.8998107996029443,4.143132582007889,0.2188979822346191,1.3649456873517836,-0.3158795463480317,1.0,0.5068600161931391,0.5153776463367995,0.4202992485851943,-0.618571104541558,0.43127052124372706,-0.10996250369959634,0.6475212536376834
1.4000000000000001,-0.06160816416004302,0.21847453685473767,0.07795665397858173,0.004856211862625516,0.025583750347069046,0.2445756362768892,0.3195068419863456,0.6665426324506298,0.6735252419632274,-1.5981964562291966,-1.9025974510834385,4.142736686716246,0.21835988486272978,1.3653541381200425,-0.3159513502531846,1.0,0.5073622542572268,0.5158829612236436,0.4201571420857955,-0.6185892180914853,0.4312888186842453,-0.10996167342704452,0.6474919030505609
1.5,-0.01788762075366654,0.2585749519675695,-0.01231535053187531,0.012420150014430576,0.024526550801641973,0.23864612228898516,0.31943666874844767,0.6664289631365529,0.6736710235223214,-1.5949623478044943,-1.9049542509774628,4.1422583010238085,0.2178090235372989,1.3658108729317942,-0.3159880697193479,1.0,0.5080804791674952,0.5165922823147767,0.4200890506416435,-0.6185522073036244,0.43126066092930576,-0.10998511008826067,0.6475420331789323
1.6,0.22920151661359295,-0.11511855988716496,-0.003023330193602708,0.0032537737817364054,0.016205152848553894,0.23548514466060277,0.31958434885414116,0.6666575339666662,0.6733747661471468,-1.592014951934679,-1.9073445655008656,4.141862302056635,0.21722151677003473,1.3662429289666724,-0.316059459724877,1.0,0.5092052770241642,0.5177433736551527,0.4199193182091925,-0.6185239375603973,0.43124759224698384,-0.10997181086190184,0.6475799978857555
1.7000000000000002,0.33383805793004984,0.3635498006756331,0.21086071436373632,-0.0022759139375914,0.01789670762977246,0.2346657673472883,0.31951461758561545,0.6665479560828323,0.6735163048121581,-1.5891659075075442,-1.9098462222044306,4.141453922593103,0.2166836218059267,1.366685715724814,-0.3161073241472556,1.0,0.5096237336999808,0.5181445385273332,0.4198537482899124,-0.6185281781766582,0.4312581745215203,-0.10997878385120412,0.6475677160053921
1.8,0.20295919399228177,-0.15271380288938485,-0.17488425299002158,-0.006119207702030877,0.021932346470881707,0.2298116846943868,0.3196056847604159,0.6667360378064039,0.6732866655967049,-1.5862697156617767,-1.9118390409139208,4.141022227796266,0.2161816936940864,1.3670578115147103,-0.3161427767931948,1.0,0.5103767537619152,0.5189220914166986,0.4195233117029743,-0.6186187502287537,0.43128996815960885,-0.10996706971259226,0.6474620056876886
1.9000000000000001,0.28594632779425355,0.13529912070477268,-0.14867616794914706,-0.0020818900045685247,0.022394922756714206,0.23276517396610355,0.31985518032534804,0.6672173918492404,0.6726913193953001,-1.583656267878803,-1.9142847049759275,4.140675449731725,0.215737681779332,1.367393669881627,-0.3162041536508835,1.0,0.5109860889845382,0.5194939358198941,0.4196057338232489,-0.6185251473076305,0.43124014076921524,-0.1099653960433715,0.6475848939022943
2.0,-0.011349593453338747,0.09516553591278702,-0.06323746964492179,0.014850845443391237,0.015976895037764637,0.2263646850660224,0.3195761840831587,0.6666298597294902,0.6734056781471156,-1.5807448966440567,-1.916334260359271,4.140341339377202,0.21527023627344025,1.3677519853729168,-0.3162749149951353,1.0,0.5120221476573132,0.5205735251952034,0.41928955689552455,-0.6185822939678207,0.43125832467413094,-0.10997741722323169,0.6475161547711982
2.1,0.08984860614688152,0.019384950968282674,0.0791215595777131,-0.0008935369443440824,0.02469289000748573,0.22630243399822636,0.31952081831233947,0.6664920188044398,0.6735686084400523,-1.578434679537016,-1.9184701706817258,4.140029152262637,0.21479112285439908,1.3680529594421387,-0.31632245976486684,1.0,0.5125842754545941,0.5211398861107785,0.4193280263069726,-0.6184983063311387,0.4312325885742539,-0.10996863859050582,0.6476150076577997
2.2,0.2896182549133701,0.01768181863813842,-0.056708420586823634,0.0019413636703292446,0.019019130787445937,0.23152075182110893,0.31970424489453436,0.6668343873922512,0.6731426924059303,-1.5757343069359002,-1.92056887174079,4.139727151497738,0.21431271612133784,1.368382580253805,-0.31631850556446106,1.0,0.5129360646519605,0.5215191879104772,0.41923907749844136,-0.6185053074914125,0.43123627258050934,-0.10995849220201907,0.6476075909132634
2.3000000000000003,0.4111409593784052,0.21538136393738894,-0.028591297237208817,0.0012085622938816038,0.021176216116571733,0.2295866817985282,0.319594641412466,0.6666653261129805,0.6733620912260928,-1.5735233773505894,-1.9224270102243555,4.1393810311476305,0.21383299263010774,1.3686047817172458,-0.31643082103997533,1.0,0.5136057467576711,0.5222592518887459,0.4190587367481873,-0.6185389211571309,0.4312231132141847,-0.10995953140371366,0.647584072609198
2.4000000000000004,0.12156431436790205,0.09702051303412768,-0.04610980563789356,0.005210659687712782,0.021373190355669903,0.21965495251640443,0.3194782081413537,0.6664843446981027,0.6735965307020079,-1.571054536142088,-1.9243324252559255,4.13909387588501,0.21341391684008693,1.3689414066454448,-0.31646648936984856,1.0,0.5143377558766928,0.5229837551364985,0.41886145384668266,-0.6185719134569301,0.43125534473992355,-0.10997247727337442,0.6475288949211759
2.5,0.019560298771633428,0.3980077875777399,0.2624221299933203,0.00938440700787103,0.018417573254249642,0.22078693509157166,0.3196797381460886,0.6668140075931024,0.673174385877745,-1.5688182138554783,-1.9261188077200995,4.138830535404024,0.21294717600953086,1.369287909357427,-0.31646621982120243,1.0,0.5147747991161528,0.5234371187438316,0.41878267405169683,-0.6185652063822697,0.43124978628044,-0.10997830090098797,0.6475380148047422
2.6,0.21783772672912283,0.15474347582408343,0.11820141665539223,0.0010827580596786122,0.02038168750633545,0.21708061765288658,0.3197380935830026,0.6669204382001684,0.6730413292918481,-1.5666848664412223,-1.9280365840194098,4.138543345108115,0.2125287668384187,1.3695876243653988,-0.3164919190355838,1.0,0.5154055501662044,0.5240986964863034,0.4187111339908677,-0.6185507834830932,0.4312286189326519,-0.10995574770805162,0.6475697182634872
2.7,0.18633639900909182,0.22477836341199747,-0.04722610926780414,0.004081486946276435,0.01766876449520122,0.21968597925255312,0.3196139217902655,0.6667416760872101,0.6732774097037542,-1.5643970322486478,-1.9297147594563262,4.138254413495368,0.21210984294604185,1.3699115561892121,-0.31657434142348423,1.0,0.5157825637445577,0.5244660620393924,0.4185511370084807,-0.6185922761394602,0.4312475372372753,-0.10996220361721085,0.6475163868992304
2.8000000000000003,0.18256872793382561,-0.07523422953674089,0.01715856404522596,0.0016369568268937082,0.01766224704317482,0.22039007838637872,0.3195990208654279,0.6666483766349203,0.6733768625933747,-1.5623981430017424,-1.9312964797285268,4.1379794184291265,0.21172653752884193,1.3701521827661467,-0.31659882225918884,1.0,0.5163679552923075,0.5250864161090419,0.41844834279066034,-0.6185921699331594,0.43122641346388674,-0.10994226862720123,0.6475339413479133
2.9000000000000004,-0.01009421542401772,0.14097179429795406,0.018433872322381854,0.0047813379595195,0.025335200676388718,0.2181300292379099,0.31953954384975913,0.6664603509839659,0.6735910935930337,-1.5603279817022573,-1.9331219531299841,4.1377272605896,0.211331501525204,1.3704275045324548,-0.31665794913150647,1.0,0.5169447918828936,0.5256278581679554,0.4183882592059679,-0.6185491946186485,0.43123202931080934,-0.10994270073075904,0.6475711800946125
3.0,0.07609707227740568,0.21390363777890453,0.1266743589359531,0.0047229334292120595,0.019910899012517802,0.2197042802639956,0.31941478322850664,0.6661441504216973,0.6739630110454345,-1.5584096908569336,-1.934688732751385,4.137451040069068,0.21094846746517906,1.370655085174582,-0.31669471880121386,1.0,0.517303110560633,0.5259940962166798,0.4182991475552123,-0.6185555668230238,0.4312303217202439,-0.1099331144313291,0.6475678580139159
3.1,-0.008478779407446825,0.09985654197388431,0.05063744285841951,0.004273026538630773,0.01913200401734941,0.22186242599421202,0.319722412875797,0.6668550493457098,0.6731129431882877,-1.55643210597025,-1.9359731410808783,4.137199878692627,0.2105628157125638,1.3708711222519783,-0.31672973717514163,1.0,0.5178135375832702,0.5265382799254819,0.4180867839683794,-0.6185955963720546,0.4312585956751683,-0.10993963074614478,0.6475096828594806
3.2,0.14156889109263895,0.13121695461162902,-0.005242340185538069,0.004814984459871351,0.020182053292183085,0.22440059870724766,0.3197038724271749,0.6668537190752134,0.6731231151517048,-1.554649627771047,-1.9373983420923564,4.136952418189885,0.21014500544599712,1.371111605861456,-0.31674479854863136,1.0,0.5181794159647467,0.5268630470975306,0.4181772249761632,-0.6185255039944905,0.4312318676744978,-0.10995594410055728,0.6475916673084061
3.3000000000000003,0.340076317409003,0.4063409992939595,0.008066472039189903,0.005629325737575658,0.01772417607606337,0.22119399034904655,0.3193940516835899,0.6662270187719913,0.6738909341723927,-1.5528886852430261,-1.9391403427685596,4.136708798085088,0.20980827040680192,1.37130326176519,-0.31677818601883023,1.0,0.5186438676654166,0.5273031646382228,0.41813387872127766,-0.6185118484275232,0.4312300922768662,-0.10997161787549808,0.6476032304826003
3.4000000000000004,0.1002137378224437,0.22120096890014346,-0.12791863563226305,0.008054727419967746,0.02189875775268935,0.22048603814050416,0.3193941428568645,0.6663059127664845,0.6738128832967071,-1.5509721113020374,-1.9404264658431487,4.136456058871362,0.20944232446021685,1.3715448494880431,-0.3168075951144125,1.0,0.5193701845480191,0.5280681579922594,0.41772289344348784,-0.6186291244637351,0.43129581792782,-0.10997858491792023,0.6474462407510428
3.5,0.12785853030467004,0.31442927060441206,-0.018575797872742036,0.010950573865942911,0.020885732754783108,0.2217068912930795,0.3193657381532097,0.6662513202672704,0.6738803055762657,-1.549297663187601,-1.9414645634093226,4.136301053784428,0.2091348164948477,1.371745215602255,-0.3168596711707382,1.0,0.519700956419293,0.5283622599089692,0.41786298345911577,-0.6185284568871763,0.43125787685874745,-0.10998522369639634,0.647566554291146
3.6,0.1149296728043574,0.37424743979127156,0.10151310165258773,0.009938624248043386,0.02424945753053413,0.21827615527226038,0.3194515347139727,0.6663895689840216,0.6737026733168341,-1.5479387010532706,-1.9428440443248611,4.136097431182861,0.2088053785739156,1.3719181356316212,-0.3168857733355921,1.0,0.5199523474133109,0.5286114272828967,0.41794168237509793,-0.6184661997528481,0.43123615670866133,-0.10998480517335897,0.6476405480985505
3.7,0.15163592734697462,0.15177090791223752,0.09256035317327876,0.004344955196023217,0.015417908357417541,0.21406063249294394,0.3194576915342033,0.6664958424332397,0.6735944071624737,-1.546179413171572,-1.9442708667879,4.135917775474976,0.20850019600950517,1.3720946263932736,-0.3169094951486336,1.0,0.520278562185735,0.528931680878714,0.417790408029702,-0.6185086241004037,0.4312555495759903,-0.10999005820761486,0.6475862258949164
3.8000000000000003,-0.13967870179114375,0.45137865107102304,-0.17160057347467236,0.017323574424978262,0.025699480323842474,0.21722659352720697,0.3191016119059881,0.6657849264019936,0.6744661100380054,-1.5445168118901553,-1.9454588510924866,4.135690045411762,0.20821144152095897,1.3723342111047974,-0.31691014320208694,1.0,0.5208308807698422,0.5295217861824913,0.4176064054473256,-0.6185395589161348,0.4312644789253828,-0.11000721520738364,0.6475478174431353
3.9000000000000004,0.3185999831000874,0.4406895772724476,0.12698180444786136,0.008793840624887552,0.016736678006885188,0.22284360014099744,0.3190553317410769,0.66553015278859,0.6747394190074649,-1.543223911188289,-1.9465965803773915,4.135534749384976,0.20784108221020503,1.3724785314404695,-0.3169341615872896,1.0,0.5210774772552534,0.5297844063995606,0.4176259332472597,-0.6185011632412107,0.4312479843547183,-0.10997525513459994,0.6476009035797755
4.0,0.2583957506358808,-0.08701093378224269,0.0042445926235777295,-0.002592496244219392,0.023081270666691633,0.22360554960074974,0.31912296489142455,0.665719732994128,0.6745203832374068,-1.5418199217368547,-1.947640132464825,4.135270693665179,0.20756456767806086,1.3726935896853851,-0.3169816176043909,1.0,0.5214969862286999,0.5302008574319027,0.4174714385893694,-0.6185451831041942,0.43126371509935246,-0.10998072276355571,0.6475474539504494
4.1000000000000005,0.2651352672093005,0.01305809942858855,0.11393015840208459,-0.0009167493428417692,0.018141589507316667,0.22250170085169513,0.3191982430091155,0.6658333211198464,0.6743726381643135,-1.5401187364517075,-1.9489841267907602,4.135186378500646,0.20725193675606415,1.3728854044562788,-0.3169817644594147,1.0,0.5217241559270852,0.530424491776132,0.4174262912582399,-0.6185513312390271,0.4312667700218422,-0.10998220623191152,0.647539294568072
4.2,0.15072768254559646,0.13004815362129346,0.06933978169430757,0.0017125199469844757,0.020096213959390718,0.22043534027362763,0.31922593092511886,0.6658497345855692,0.674343324336723,-1.538590248900403,-1.9502280797626246,4.13500551243985,0.20694039119780558,1.3730645547518951,-0.31700633958253427,1.0,0.5220684246584081,0.5308130331565266,0.4174327084819431,-0.6184984884079092,0.4312527098574952,-0.10995934187843755,0.6476030135903937
4.3,0.22894993970167798,0.22024940720828526,0.13221963857510893,0.0022752760159357945,0.01961101699075764,0.2243995204911048,0.31916024156731826,0.6657251908118742,0.6744973682850923,-1.5373516612294886,-1.951389997675653,4.134812884831783,0.2066299158283691,1.373267189632301,-0.31705410746378737,1.0,0.5223857425871924,0.5311258795979678,0.41735979636169523,-0.6185103841083877,0.43124952662578064,-0.10997131489318446,0.6475917390113921
4.4,0.03781239949665091,0.20326925550716876,0.054597953657014114,0.0010857861203132564,0.019406650695204586,0.21627782820394664,0.319112875948277,0.665687747958008,0.674556737851238,-1.5357941786262865,-1.9524729055349892,4.134646771720696,0.20632939077144516,1.3734364096227296,-0.31708930331075563,1.0,0.522757339224056,0.5315021863646239,0.4172121409836686,-0.618557613820611,0.4312575758763326,-0.10997941722234554,0.6475398902162355
4.5,0.027130961880401275,-0.013341643588062954,0.0583580367787624,0.0003535121690528874,0.01776287598980358,0.2159669820929271,0.31907395822906276,0.6656357926788166,0.6746264053652845,-1.5342121392758168,-1.9536717358832425,4.1344434774703736,0.20598141729321284,1.3736165541801328,-0.31710063250462317,1.0,0.5230942333665171,0.5318468547252456,0.41712513472384544,-0.6185713236613438,0.43125753880001416,-0.10998032317320694,0.6475266645372406
4.6000000000000005,-0.0388903457829918,0.003928075057637752,0.020538655140380224,-0.0016495506158798762,0.024067670669933268,0.21922896077473372,0.31904474022140955,0.6655062736706487,0.674767992391396,-1.5327381022072843,-1.9548352692334388,4.134275698301453,0.20564592351826244,1.3737957942674366,-0.31713726610238974,1.0,0.5234600678582499,0.5322271153004828,0.4171033425714391,-0.6185468228674361,0.43124108067544886,-0.10997371918217724,0.6475621509536447
4.7,-0.025578705063369178,0.15656359501033232,-0.016285019675388035,0.008505844062250446,0.023543207722404414,0.21833127507215,0.31910245507831714,0.6655708789524533,0.6746769755613478,-1.5313219560071674,-1.955938432105699,4.134108549550419,0.20536949600807447,1.373940566796338,-0.31716088209680326,1.0,0.5238875744574045,0.5326858939768442,0.41704275478541636,-0.6185441124392083,0.4312206371539995,-0.10995904231309575,0.6475808459743677
4.800000000000001,-0.07274401947267971,0.25338371003064214,0.018589295665394898,0.010388274480117844,0.02199076628506175,0.2181654482798407,0.3192622709704454,0.6658759970931823,0.6743001551580533,-1.5297040939331055,-1.957152758969946,4.133939683680171,0.20503598604788517,1.3741312414365376,-0.31718574264688565,1.0,0.5241070783527721,0.5329215831108484,0.4170028910072355,-0.6185432719712134,0.4312189661804841,-0.10995156665408941,0.6475840307602492
4.9,0.30406305027563174,0.08659833085339931,0.1463155626295537,0.003719307147205258,0.015409922221628104,0.21499865869209497,0.3192964876077375,0.6659687305366334,0.6741924078583238,-1.5282045145870335,-1.958421369592184,4.133747577667236,0.2047589929675868,1.3743102105362537,-0.31719734190407245,1.0,0.5245117767347179,0.5333404005391597,0.41693745791147613,-0.6185327085655274,0.4312273869812522,-0.1099502136576817,0.6475887426975115
5.0,0.05660120101247393,0.2820496130009444,-0.011178316657594889,0.00620826454975777,0.019843780209883286,0.21953336537819304,0.3190509351714094,0.6655044738603735,0.6747667103437819,-1.5267643330292373,-1.9596193876737893,4.133579870519332,0.2043985862583305,1.3744895159103707,-0.3172209898578089,1.0,0.5249752802078206,0.533785311187025,0.4167638178458762,-0.6185678355007007,0.4312422413634611,-0.1099678811147872,0.6475422976693652
5.1000000000000005,0.2053655292817437,0.5484793376570125,0.04120013776663027,0.009694698287614151,0.014152455969823707,0.21420013822774486,0.3190723799927119,0.6655220963541881,0.6747392717621716,-1.5251930818407289,-1.9607116995489284,4.133424005874443,0.20407393608462535,1.3746574928206445,-0.31725736758159795,1.0,0.5252782192709995,0.5341302323192496,0.41668334997278006,-0.618581101333953,0.431235401208888,-0.10995638661088156,0.6475361324745991
5.2,-0.030788321079728793,0.12070727514904357,-0.09130930907680525,0.00517035925600636,0.02296232672811478,0.21320530011952737,0.3191503410587665,0.6656464893099467,0.6745797221360941,-1.5237543211794056,-1.9617781117791535,4.1332197007913445,0.20375077306713862,1.3748252581519775,-0.3172808238502827,1.0,0.5256982340231539,0.5345443073397984,0.4167086331067047,-0.6185303910890477,0.43122151647764423,-0.10995877259108142,0.6475934120698061
5.300000000000001,0.12181616208389692,0.3767049795484116,0.03748129256923792,0.00864984114134797,0.020959981181528742,0.21682579748080008,0.3191009272289667,0.6655417030139269,0.6747064772683217,-1.5222683079783779,-1.9630137881621217,4.133039951324463,0.20340269201331054,1.3750042966709706,-0.3172929947866126,1.0,0.5260234187633163,0.5348402278143565,0.41665990201919095,-0.6185157265901798,0.43123638010271675,-0.1099595546866836,0.6475973878650481
5.4,0.27699406721280967,0.16961436326201343,0.04729773972081947,0.0005928051478754446,0.021447935185722158,0.21869919756965925,0.3190750854963266,0.6655435267494025,0.6747169046411002,-1.5207546245029995,-1.9644991322177419,4.132884692055838,0.2030544011712123,1.3751600287083217,-0.3173411528216761,1.0,0.5262121402214845,0.5350443623399371,0.41661807043928073,-0.6185194824615126,0.43123188543426083,-0.10996492395544938,0.6475958819355071
5.5,0.29584036471942204,0.20388089428089723,0.04794689799205111,0.0071612751338898635,0.015152112615055507,0.21945435382173636,0.31905714837857546,0.6655811008568783,0.6746883229204954,-1.5191019357657691,-1.9655143212485098,4.132681369781494,0.2027674812496411,1.3753390054927868,-0.3173769156085413,1.0,0.5267765181741859,0.5356690414081517,0.41624912466799907,-0.61864610994092,0.43126762818239095,-0.10996713098000367,0.6474507345280638
5.6000000000000005,0.4032218107585045,0.11386094192210802,-0.19813008859561068,0.011269917073530478,0.01704809444154307,0.21473583594144396,0.3190084477215385,0.6654591863533423,0.6748315625146186,-1.5177111919288417,-1.9664861124314221,4.1325249671936035,0.2023711116575961,1.3755069783354519,-0.3173647938070222,1.0,0.5269940028026054,0.5358892895631223,0.4163078412969967,-0.618594408046571,0.4312564996976895,-0.10996206321680393,0.647508404930093
5.7,0.07694885342798119,0.5371725472066478,-0.06850689255876918,0.011084968779992137,0.024224316116003175,0.21834482401095004,0.31897971634537764,0.6653526194329313,0.6749502330851017,-1.5163062623474333,-1.9676241606251517,4.1323336175415255,0.2020715253611139,1.3756868731644418,-0.31741284451575913,1.0,0.5273641872339052,0.5362263230558607,0.41635289424540883,-0.6185391355073523,0.43124825781369125,-0.10996899467369996,0.6475655165224051
5.800000000000001,0.21871193371366177,0.17604374686238786,0.024210378857870196,0.008944115702363397,0.01821219594924557,0.2202172679889364,0.31905460261546015,0.6654870654599884,0.6747822674249224,-1.5145829702909195,-1.9689778992782672,4.132157886308352,0.201755022234654,1.3758783340454102,-0.3174271892953409,1.0,0.5275638220980943,0.5364506080755856,0.4163073233237028,-0.6185521339134833,0.43124274581650535,-0.10995722960112511,0.6475587691245968
5.9,0.23540231985747373,0.25670909535736824,0.03611656357324497,0.012239289673534024,0.020895731787243084,0.21245029500978313,0.3191041508248253,0.6656499439886713,0.6745981429150861,-1.5130774745618196,-1.9702968455160772,4.1319700594109845,0.2013915591411313,1.3760544176263168,-0.3174966017352503,1.0,0.5279994237365983,0.5368803055797151,0.4162457293674886,-0.6185358046883416,0.43122123341892493,-0.10997508674890322,0.6475856595553814
6.0,0.2579910287128544,0.22017793999518998,0.02699372147452296,0.0069398248288533755,0.0195450510578754,0.21574151482186604,0.3191144498203335,0.6657433763803728,0.6745010615759582,-1.5117999079867768,-1.971341296311168,4.131802669452559,0.2010757166096191,1.376237257954434,-0.31745180295984976,1.0,0.5284759661517225,0.5373729785307533,0.41601889154567206,-0.6185977805346817,0.43125219276559434,-0.10997414103739979,0.6475060003239496
6.1000000000000005,0.11220918470059754,0.2929736666037649,0.06778074809412897,0.01401379513123369,0.024441304930149108,0.20898911714802285,0.31901647038047276,0.6655407145853854,0.6747473169225084,-1.5101278803565286,-1.9723090623904516,4.131578109481118,0.20071523335336577,1.376429013338956,-0.31748453710491525,1.0,0.5286842696499348,0.537587737699538,0.4159333241498633,-0.6186218005794583,0.4312742615433362,-0.10996172848378488,0.6474704606751858
6.2,0.20502984701484883,0.12804905626405363,-0.0007469192897666815,0.003575890296898596,0.017020617360361524,0.21818564475545615,0.31898022277703164,0.6654370506730412,0.6748667137111086,-1.5084032173810584,-1.973496077265188,4.131445219237414,0.20036714445211332,1.3766083717346191,-0.3175564827977904,1.0,0.5290251104463619,0.5378738385667304,0.4159865946022756,-0.6185748277378514,0.4312572262256882,-0.10998658177665657,0.6475224622716186
6.300000000000001,-0.00781938790172796,0.5613091725886962,-0.08979531121372913,0.0073810459970058044,0.022968250413347192,0.21122250540523171,0.3191807477012831,0.665713093250397,0.6744995443586813,-1.5070375957973348,-1.9748502905409921,4.131242500406655,0.19997252327349208,1.3767883206912943,-0.31755689972547035,1.0,0.5294515317764751,0.5383320435426246,0.4161320668623881,-0.6184690895206681,0.43119426780091774,-0.1099595170099598,0.6476699725493245
6.4,0.22670971413841562,0.17125965247964733,-0.12189927591798594,0.0008669614191952474,0.02378159710550696,0.2170771192595853,0.3191848133617691,0.6657742916821774,0.6744372766170135,-1.5056615977502692,-1.9760320208309996,4.13101762677844,0.19969886124679537,1.376943588256836,-0.3176022092343045,1.0,0.5297182311819757,0.5385959975340356,0.4159674914727011,-0.6185181891083135,0.4312224948794177,-0.1099622364662401,0.6476038265818739
6.5,0.04250578366065757,0.46710833029632104,-0.1504405637039681,0.01278090387507427,0.020830897238674033,0.2157957980929842,0.31908942806251805,0.6656773734356201,0.6745780014509712,-1.5040375809499074,-1.9771505698844294,4.130847230578647,0.19942011168965845,1.3771114384822063,-0.3176753989705539,1.0,0.530072016652851,0.5389517517148502,0.41569504570679205,-0.6186176553362158,0.4312553441712668,-0.10997968883039946,0.6474839709790612
6.6000000000000005,0.19619685937396808,0.458916982798512,-0.19632532512113324,0.011930138593990622,0.017984624495630517,0.2184060736403946,0.31893402116077474,0.6652918116996658,0.6750316638679701,-1.5024038790748233,-1.9782291463611863,4.130702979314895,0.19898859346537848,1.377302212851388,-0.3176295824452345,1.0,0.5305559157837414,0.5394000506161069,0.41574208135608465,-0.6185326148814072,0.4312510749589537,-0.10997651354491975,0.647568591844308
6.7,0.15512065854570026,-0.042841360595917026,-0.09158145797853331,0.0004102530580324566,0.01495239579429717,0.21996110559161705,0.3190133978302517,0.66541497281407,0.6748726879769966,-1.500980903325456,-1.979452984853019,4.130556868524587,0.1986426521524365,1.3774482956093348,-0.31762932681331874,1.0,0.530799658017198,0.5396689626630676,0.4157326755939957,-0.6185168954165117,0.43124349476407253,-0.1099777383227862,0.6475884459912747
6.800000000000001,0.1447229249971321,-0.001048705676717436,-0.119930403108528,0.0005345887229787566,0.021868250930994055,0.22033520313177984,0.31916108631095136,0.6657068188656536,0.6745150975123114,-1.4994652152797672,-1.9806993851094663,4.130379743598702,0.19835402185361184,1.3776248300330372,-0.3177105640047592,1.0,0.5311885149619463,0.5401096657814011,0.4156012504040831,-0.6185539749966997,0.431230105381597,-0.1099613283399439,0.6475647322840196
6.9,0.03959834037831324,0.49488832019284823,-0.035885595363373025,0.014183802963529231,0.02583547800551262,0.2186071521793161,0.31905536229758347,0.6655585724334365,0.6747113698513394,-1.497930105619057,-1.9819347125970663,4.130189633552264,0.1980866865424631,1.3777752780826553,-0.31770021120180303,1.0,0.5314654261608324,0.5403607841571249,0.4154663848193486,-0.6185802437026691,0.4312608299812859,-0.10997612449284926,0.64751666439261
7.0,0.18450388938210707,0.4620257441022211,-0.006231797986038207,0.010073453297359192,0.02205362798856851,0.21363675233945928,0.3190056858742627,0.6654459278301917,0.6748459666264578,-1.4963617324829102,-1.9830574464595396,4.130043221533524,0.19767973326204075,1.3778897502765344,-0.317736141979636,1.0,0.531802861081088,0.5406999538918176,0.41540968365265596,-0.6185535300527721,0.43125729603607355,-0.10998082335494606,0.6475437387305026
7.1000000000000005,0.4502603626182041,0.545818215306336,-0.06151483621840624,0.007237812769790926,0.030788292836946455,0.2144263104470937,0.3189769082866525,0.6653285425178517,0.67497528662995,-1.4961309432983398,-1.9832192860045375,4.130031546756361,0.1975500500021818,1.3779833458819568,-0.3176891649445583,1.0,0.5322196334861624,0.5411655443953717,0.4153500406448499,-0.6185505992684655,0.43126016172982773,-0.10996371742299897,0.6475475348574034
7.2,-0.08973392496233148,0.46497399232360537,-0.019734398441273546,0.00978049138246011,0.020582803372027298,0.21372537023004334,0.31887109899281124,0.6650426854506127,0.6753069283662468,-1.496130587928201,-1.983207035089025,4.130044119408299,0.19754933717055687,1.3779489187387035,-0.3177366085782019,1.0,0.5322937479005506,0.5412414255303601,0.41536895838758003,-0.6185434920181541,0.43125493363228434,-0.10995489582351932,0.6475593035268977
7.300000000000001,0.29308738039731613,0.2548852862050518,-0.09012099435047519,0.00919727505975466,0.01615571830187141,0.21665949579934274,0.3188671269925463,0.6651114700402013,0.6752410559726333,-1.4960964462276611,-1.9832020763213243,4.130004657861666,0.19749603990744227,1.377922414631535,-0.31775355680797585,1.0,0.5323013061341714,0.5412372607063998,0.41535674808274914,-0.618563227414275,0.43125631322015645,-0.10996963718722973,0.647537029748495
7.4,0.14960473016931866,0.1907410736476663,0.016755270943129796,0.007912177845922325,0.020493318432783306,0.21573213395398638,0.31892456254275686,0.6652657360591979,0.6750618652699829,-1.4960222244262695,-1.98324401020811,4.1299967765808105,0.1975151184410024,1.3779478624203256,-0.31778168527028217,1.0,0.5323052206467919,0.5412329675515009,0.41540281996373557,-0.6185358665941191,0.4312459060970988,-0.10998079153642575,0.6475682015851114
7.5,0.056171323045092945,0.11165343537827205,0.11941337838245379,0.0034390695855902147,0.025234764273903535,0.22401824781269236,0.31902435929678846,0.6654789703357791,0.6748045033986633,-1.4960354437845114,-1.9832669697203578,4.130031848266383,0.19751413610170185,1.3779715186790857,-0.31774837175478154,1.0,0.5322999461290283,0.5412678831320894,0.4153645826168727,-0.6185710145993262,0.43124368024303317,-0.10996936783216665,0.6475380500685641
7.6000000000000005,0.21092726332768483,0.36434382774804275,-0.045578392990087264,0.011477321832987846,0.022295279403322307,0.21739347339290258,0.3190034277299168,0.6654445607273194,0.6748483413318851,-1.4960808361524538,-1.9833133146927047,4.130045413970947,0.19753949224438472,1.3779590077724622,-0.3177711185005647,1.0,0.5323060674526817,0.5412653584870081,0.4153611555667716,-0.6185498058072663,0.4312526450286345,-0.10997398319604497,0.6475515554082133
7.7,0.21548433317870128,0.31992703609707696,-0.17245910081459354,0.006450755852740762,0.020493897790362085,0.21728017205869027,0.3189241888452211,0.6652881095931313,0.6750400320124864,-1.4960222244262695,-1.9832785097750427,4.130009555221194,0.1975509363361816,1.3779362672573268,-0.3177833651756211,1.0,0.5323184523349648,0.5412588972769118,0.41534685866534526,-0.6185627659955117,0.4312568349388709,-0.1099764906036074,0.6475359591227379
7.800000000000001,0.2649799542502778,0.3808429395669723,-0.2036526816863746,0.00828262161678094,0.017057438906451446,0.21816543957501733,0.3191612235586985,0.6657542358019503,0.6744682420751466,-1.496047019958496,-1.983277760221294,4.130045413970947,0.19747884896984785,1.3779251959099388,-0.3177355971793287,1.0,0.5323064985194071,0.5412676899667395,0.4153644865022347,-0.6185591321940207,0.43125044018724323,-0.10996809573026808,0.6475451148291889
7.9,0.10832989419688788,0.1799471986628502,-0.11380652288977276,0.005085695245864684,0.021391964828994504,0.21446556151056606,0.31918510946927514,0.6658281887262605,0.6743839283722146,-1.4960449254324653,-1.9832933023827635,4.130044366707931,0.19752403324791856,1.377937900350394,-0.31773702125168374,1.0,0.5323214250419511,0.5412457883654229,0.41538405403172834,-0.6185465646377126,0.43125636482388885,-0.10998468920206676,0.6475503558140429
8.0,0.005969975650000479,0.26711863799395896,0.04604876169127719,0.005462733469477307,0.022841224097903325,0.2188912172585041,0.319188697000994,0.6658683075873982,0.6743426224424525,-1.496045558897153,-1.9832749487905343,4.130012734721164,0.19751469671215816,1.3779559733844131,-0.31774837175478154,1.5792011342721493,0.5323178004654383,0.5412527458241433,0.41536957946410963,-0.6185420377269437,0.4312549043746176,-0.10997673165482572,0.6475570040637055
8.1,0.22594914700382251,-0.06651583630399915,-0.07403181153064711,-0.003319681566149986,0.021950962116069155,0.21752601280449832,0.3191757419988906,0.6658762862424896,0.6743408752738013,-1.4960221561248404,-1.9832788906493128,4.1300451236898725,0.19752709447827144,1.377948352450599,-0.31778406339432463,2.0,0.5323226858493388,0.5412445562163557,0.41536847890395545,-0.6185439437198954,0.4312649846644798,-0.10998894908190644,0.6475463950711506
8.200000000000001,-0.014933763561843644,0.26166202801707217,-0.1194263365730634,0.007998167890636202,0.026652235199705356,0.21359876532295272,0.3191417174541529,0.6657685526643631,0.6744633202410253,-1.4960572790621676,-1.9833020471444889,4.130056858062744,0.1975612865927857,1.3779703941013581,-0.31777162111862894,2.0,0.5322957236278268,0.5412648812004354,0.41538394798404854,-0.618556744959582,0.43123525031855264,-0.10998011004828907,0.64755547062894
8.3,0.14789819366014326,0.08365357657900027,-0.1993809457192423,0.007542943060953779,0.02081688880732073,0.21556834764328048,0.3189650708786302,0.6653845859041554,0.6749255050385758,-1.4960108629451585,-1.9832670557731555,4.1299971276762255,0.19751461410147234,1.377959645630281,-0.3177360634835779,2.0,0.5322895265712643,0.5412768128960767,0.41536957740503716,-0.6185659528699602,0.4312360955999167,-0.10997899552852795,0.6475463013131599
8.4,0.31474471533775394,0.1531013681619337,0.02258885774527604,0.002997251432961552,0.025270199507539393,0.2150651763885141,0.31892776925584176,0.6652887265641519,0.6750377355022789,-1.4960336685180664,-1.9832906537235955,4.130033650896665,0.19753885755255418,1.3779365210748873,-0.31774837175478154,2.0,0.5322975605140415,0.5412782758526764,0.41538851328660514,-0.6185494765233843,0.4312326582886365,-0.10997375531433809,0.6475652188467392
8.5,0.06080657192151527,0.36689590791750304,-0.03296912587188602,0.010158280097559098,0.02401283562976233,0.21144335508404777,0.31901931036990383,0.6654590556410491,0.674826586059415,-1.4960455375041002,-1.983289121751309,4.130024210539757,0.19752566904135227,1.37797212600708,-0.31772693244228994,2.0,0.5323029834395391,0.5412683332103956,0.41538723188082083,-0.6185500941973334,0.43123614836635304,-0.10997274197938586,0.6475624767790045
8.6,0.24932514880167997,-0.06501688706846487,-0.23841070575082818,-0.0013340976861011293,0.019676706992366757,0.2175348588348326,0.31887521167580474,0.6651167977544283,0.6752318808516268,-1.4960323070208421,-1.9832788906493128,4.130022774142659,0.19751469671215816,1.3779461284452317,-0.31767804821067297,2.0,0.5323114807393273,0.5412628408805363,0.4153914793622843,-0.6185341943155072,0.43124121878395216,-0.109976480577793,0.6475736524936146
8.700000000000001,-0.02160464393907524,0.00601351779507856,-0.2157732940628076,-0.006135511748075787,0.02890424570316512,0.21040429987862785,0.31894185288297666,0.6652711307341169,0.6750478467395112,-1.4960429291075967,-1.9832987571378762,4.130045413970947,0.1974954851490131,1.3779376208225143,-0.3177509114335686,2.0,0.5323197907770371,0.5412554155036179,0.4153918589476016,-0.6185266703714779,0.4312535413223517,-0.1099663823358227,0.6475743477718029
8.8,0.016661631041224215,-0.08379294570903004,-0.19140629932722464,-0.008902239417544545,0.03104932826884655,0.21296214312329817,0.3192178865401169,0.6659188794243626,0.674278251837199,-1.4960329388900542,-1.9832788906493128,4.130033016204834,0.19752630404792487,1.3779358863830566,-0.31776990312398634,2.0,0.5323080172034411,0.54126504981419,0.4153538833196521,-0.61855529000135,0.43126042401188114,-0.10998289499101754,0.6475396224956685
8.9,0.2675495385382334,0.10431511526911344,0.026372408669841065,-0.002547397761294897,0.022848549148552603,0.2160056296371307,0.31937357608663186,0.6662432193458434,0.6738846271313944,-1.4960222244262695,-1.9833010631766554,4.130065478249638,0.1975487901684558,1.377957638551339,-0.3177490494919581,2.0,0.5322978158932014,0.5412803202026041,0.41537848302921127,-0.6185539321353967,0.43123656052541104,-0.10997592973972278,0.6475579949193248
9.0,0.0790651463395632,0.4201886163009576,-0.06739813476189958,-0.0007368675258101062,0.028159678331367018,0.21419768387464064,0.31940620139635506,0.6662368405217788,0.6738754706396901,-1.4959893748254138,-1.9833018586320252,4.130055533834944,0.197516709538414,1.377958404013167,-0.317713456358558,2.0,0.5323007571193127,0.5412785904498151,0.4153678637102138,-0.6185533566693681,0.4312446169332207,-0.10995820479800406,0.6475561894668119
9.1,0.05616274213579706,0.5693100880703377,0.0870826846465558,-0.004591154454243735,0.02768975624394618,0.2141274273797267,0.31924081447199393,0.665869260166817,0.6743164357941989,-1.4959893539639655,-1.9832923966923075,4.130059074616507,0.19752709447827144,1.3779493924260513,-0.3177581534312564,2.0,0.5323072651395637,0.5412704764438324,0.4153826367960222,-0.6185401391449175,0.43125423566099363,-0.10994508308985754,0.6475646370791127
9.200000000000001,0.2859681957373863,0.6148857200382164,0.267460403789329,-0.0014594181020976347,0.02917258444705305,0.21418632102916063,0.31886695485159383,0.6651213969606077,0.6752313013294868,-1.4960122224460761,-1.9832897561718474,4.130034518404421,0.19756015717258965,1.377946781949583,-0.31775831364699136,2.0,0.5322991834543287,0.5412762445129875,0.4153851488109755,-0.6185421599720188,0.4312372164457173,-0.10997338808639678,0.6475692344468642
9.3,0.6614775405027883,0.989027656403134,0.04996408573528106,-0.025163778120484592,0.04518383872017257,0.20897251517271634,0.31904315821320417,0.665529020145656,0.674746106624279,-1.4960325004414998,-1.9832912884154261,4.130056858062744,0.19752709447827144,1.3779591442026835,-0.31774713067342963,2.0,0.532316570742783,0.5412666602884376,0.41538432003230014,-0.6185413642163632,0.43124501793144154,-0.10998449385113614,0.6475629130632643
9.4,0.9199415926151652,1.7753047166019285,-0.2388606565041175,-0.13729998885515482,0.06875566061264489,0.1904122166013721,0.31908276419406295,0.6656235108462016,0.6746343151822817,-1.496046262478696,-1.9833140231874746,4.130045763577009,0.19751469671215816,1.3779710189212184,-0.3177476288419007,2.0,0.5323123942128546,0.5412718386544967,0.41536485252369476,-0.618551356661523,0.4312615353987836,-0.10997483355100336,0.6475440087307601
9.5,1.2693635408158943,2.9317361810125644,-0.3194937442026763,-0.22885474085832574,0.08101708528928567,0.18128826164245404,0.319079012188763,0.665612869136485,0.6746465065907101,-1.496010238128089,-1.9833151302733363,4.130068302154541,0.19750178091731996,1.3779477806718137,-0.3177021670176869,2.0,0.5323068236186129,0.5412933524617686,0.4153519846704724,-0.6185635840295619,0.43124657475781036,-0.10997453690647396,0.6475423426343379
9.600000000000001,1.9462593472938134,4.718760447334312,-1.0983111703965374,-0.32965332555455523,0.1102886173843357,0.15140069858350072,0.319251967302825,0.665994499453919,0.6741880111118519,-1.496058464050293,-1.9833270512022914,4.130091012102886,0.19746859804008762,1.3779829387294436,-0.3177494145467222,2.0,0.5323013985147305,0.5412796248764588,0.4153673226912416,-0.6185704651386695,0.4312428031524798,-0.10997355033693842,0.6475384487531308
9.700000000000001,1.391701033034399,4.3166708470505375,-0.6398078291671263,-0.3669317885885058,0.11054579628043167,0.16241684363250275,0.31952716271050935,0.666595415586574,0.6734629947535642,-1.4960591748561747,-1.983315841079218,4.130056858062744,0.1974912244733065,1.3779593870541436,-0.3177016470296841,2.0,0.5323017731303863,0.5412833659164553,0.4153478415265125,-0.6185793160402787,0.4312357661026206,-0.10997649376364389,0.6475341802719623
9.8,1.324359152420904,4.464861672189338,-0.28804464470082003,-0.42244962500300076,0.10854875002792833,0.1692645799938463,0.3196330789497036,0.6668188284256291,0.6731918306097322,-1.4960467292747213,-1.9833037284225508,4.13006805299702,0.19752630547945377,1.3779488032273395,-0.3177245825194461,2.0,0.5322853931338315,0.541308700041226,0.4153149934579145,-0.6186008672565835,0.43122612187294607,-0.10996144721362386,0.6475225702402252
9.9,1.2561271909014318,4.362805215831394,-0.23049191334085642,-0.4244079301513548,0.0990344143671398,0.1592267646411415,0.3195070716794499,0.6665257758009842,0.6735418300414923,-1.4960578407663858,-1.9832932361776359,4.130057481346651,0.19751565038647456,1.3779610786894323,-0.3177353247345983,2.0,0.5323146701386914,0.5412906518339011,0.4153191646079063,-0.6185831835996031,0.4312574039832392,-0.10996561191267795,0.6475179230523954
10.0,0.9886787940706355,3.7218942887173454,-0.28479498951616,-0.40971730072441304,0.06337091282095872,0.15289330549304364,0.31957635484397257,0.6666595292617724,0.673376526322268,-1.496047019958496,-1.9833139264890103,4.130067724338065,0.19754910658400607,1.37794828414917,-0.3177378037408438,2.0,0.5322961715554471,0.5412806689479407,0.4153523510446642,-0.6185601073361935,0.431242260819536,-0.10996131167186261,0.6475507825884359
10.100000000000001,0.4400737513297899,3.343350630560764,-0.3144577987233317,-0.3799842852203156,0.034727549929887074,0.16188610509016776,0.31966179398508543,0.6668285915134531,0.6731685926316695,-1.4960579394516316,-1.9833151302733363,4.130079607006776,0.1975385385700683,1.3779249668899212,-0.31773597398866826,2.0,0.5322894388121242,0.5412940987481114,0.41533964760925235,-0.6185762319765261,0.4312401819979442,-0.10996169658517911,0.6475366985339225
10.200000000000001,0.5037396017463368,3.1088912755151394,-0.5185756757951695,-0.37452455048590133,0.021993890299406817,0.1646885909580892,0.3195961620576641,0.666662712900182,0.6733640263266926,-1.4960814948906704,-1.9833262401847587,4.130057669080276,0.1975385385700683,1.37794828414917,-0.31778209077746444,2.0,0.5322863742765331,0.5412885308964365,0.4153547223762788,-0.6185688601473077,0.43123181632136465,-0.1099552036852034,0.6475504142773619
10.3,0.27048087212790406,3.365891179954931,-0.48923825948165295,-0.36663681769043777,0.028457551487441463,0.1551644762939821,0.31948872236314346,0.6664369516449808,0.673638378296069,-1.4960227279502898,-1.983303733848569,4.13008174892903,0.19752654899391614,1.3779353828590364,-0.3177603613309337,2.0,0.5322971242539017,0.5412753380746479,0.415362690283189,-0.6185586190619993,0.4312428682114217,-0.10997151524767669,0.6475500669716814
10.4,0.11737210826496636,3.4525617663682806,-0.24027474415010175,-0.364126846193801,0.028311143533427757,0.14836315923995502,0.3193783500310802,0.6662050129149989,0.673920026965808,-1.4960336685180664,-1.9832796928955458,4.130092295440535,0.19752555169705396,1.3779589877059824,-0.31771447715820866,2.0,0.5322839608517842,0.5412909125915065,0.4153787099752049,-0.618561720026153,0.43122294191060045,-0.10995737073518128,0.6475627765006725
10.5,0.2965378098109889,3.5894888307920074,0.2363742632057773,-0.3722959275410975,0.03784870859310908,0.14409429151185793,0.3192678560152797,0.6659676339690596,0.674206799225762,-1.495988527106404,-1.9833057181971685,4.130056858062744,0.197490854854248,1.3779589254080749,-0.31772575907960854,2.0,0.5322888617468735,0.5412871791725051,0.4153649316030297,-0.6185531323087166,0.4312394825041503,-0.10996478547831945,0.6475587055976744
10.600000000000001,0.5976779044966024,3.5805571254099946,0.5485267352648394,-0.39644273169015415,0.056030999009781056,0.13936708546614057,0.3191573619994791,0.6657302550231202,0.674493571485716,-1.4960236984234947,-1.9833144216208243,4.13009026307672,0.19749300915788473,1.3779468668441457,-0.3177016285068272,2.0,0.5322964009751391,0.541280642597295,0.41533382202264074,-0.6185765180431666,0.43125144349975236,-0.10997053472797245,0.6475274243587027
10.700000000000001,0.7904230963951875,3.640144082705153,0.9367387620508519,-0.39916593229155267,0.05898492305617215,0.13049534585341155,0.31863705252506497,0.6645947715696291,0.6758521550114068,-1.4960336685180664,-1.9833381931963698,4.130112265935418,0.19752634670078995,1.3779366964753283,-0.3177145000927828,2.0,0.5322986727496731,0.5412799768935059,0.41535432696066127,-0.6185578529837525,0.4312516400765415,-0.10996183773735779,0.6475466003963319
10.8,0.7555738929096611,3.4038210507160453,1.274653113280532,-0.4168035612584509,0.07330263716396453,0.12252594357204011,0.3173967262679364,0.6618813820013796,0.6790938351431742,-1.4960438058285057,-1.9832919080030427,4.13004952471423,0.19750832551320105,1.377942600143954,-0.3177327883891897,2.0,0.5322925431862143,0.541301101054001,0.4153493102959585,-0.6185642065886346,0.4312473806642901,-0.10995704271913306,0.6475441820864615
10.9,1.1479436755531423,4.072881067281245,1.6272257374708625,-0.41844571662858676,0.07884214321822146,0.11586941673502335,0.3165956520015325,0.6601909964080116,0.6811105960450144,-1.4960336685180664,-1.9833283453717947,4.130079405751151,0.19752709447827144,1.377925736460763,-0.31775916876182675,2.0,0.5323139834374966,0.5412810907335687,0.41530467113564024,-0.6185820937698728,0.43127092658920035,-0.10997048303944673,0.6475091304423773
11.0,0.9844428096141892,4.331183229796366,1.80011552731432,-0.4296083612588474,0.0939542770673748,0.11040491706079478,0.31522089020131017,0.6572264500333365,0.6845736794798566,-1.4960225250794053,-1.983268234968971,4.130046015277219,0.19752646811757188,1.3779247429443955,-0.31778319500059743,2.0,0.5323062873535322,0.5412720082834108,0.4153615603351793,-0.6185606675056687,0.4312525390315429,-0.10997849630339927,0.6475404840970427
11.100000000000001,1.2137737221336846,4.045374176444222,1.3998331156432076,-0.43314436410112483,0.09576686765886776,0.09332606857480368,0.31259895411618277,0.6514761090693628,0.691220211806615,-1.4960350997503595,-1.9833057651163333,4.130064519612052,0.19754715379369248,1.3779218865193077,-0.3177398587620355,2.0,0.532295340861813,0.5412848133402818,0.4153422556389565,-0.6185753021040307,0.43124539639333387,-0.10996490593316738,0.6475335691526528
11.200000000000001,1.4566521691397418,3.855355667078422,1.4027811935788768,-0.4209025834440505,0.12650101462745886,0.07913668308422755,0.31025894106061724,0.6463816570384752,0.6970726837986639,-1.4960604412392697,-1.9832889492335593,4.130073430060235,0.19753436433869045,1.3779358863830566,-0.31776316379043806,2.0,0.5322960647752714,0.5412834014787087,0.41533455915630607,-0.6185771679265866,0.4312472285869079,-0.10995739895366673,0.6475318413571481
11.3,1.991796212940863,4.017474473772692,1.932153429856297,-0.4321156504952615,0.13476558132406555,0.09490880471269306,0.30848501423144886,0.6426041945832291,0.701330725498495,-1.4960407592637035,-1.9833151302733363,4.130039036103673,0.19752709447827144,1.377945036629292,-0.31774524140738525,2.0,0.532293460786899,0.5412798312972456,0.4153582693287043,-0.6185635111528043,0.4312411496676129,-0.1099648909690595,0.6475476633096852
11.4,2.2056761884460587,3.727603418148666,2.270111499409284,-0.43569552906861014,0.15045208609360416,0.08380819130087112,0.3065149815477362,0.6383553122131054,0.7060561862885513,-1.4960677078027,-1.9833256036105875,4.130079252328951,0.19751249637276833,1.3779113496811286,-0.31774837175478154,2.0,0.5323134715735949,0.5412672857425908,0.41535257344411664,-0.6185687962643478,0.4312441751018369,-0.11000889915514189,0.6475331248943844
11.5,2.3544186460836176,4.49317225970988,2.11418773980801,-0.433383590787741,0.18913104152164173,0.07182858314593919,0.3041342051324376,0.6331190407850117,0.7117606564089498,-1.496058464050293,-1.9833032093443812,4.130070067038645,0.19754923933223545,1.377926139295206,-0.3177466408107565,2.0,0.5322973369279619,0.5412719802477266,0.415357341117355,-0.6185521805948073,0.4312619558738472,-0.10996604948230256,0.6475444334240921
11.600000000000001,2.798445699411834,4.749327423366022,1.991393888591055,-0.45555863491908005,0.21574383700241478,0.06905724227202391,0.3017632987741801,0.627919930645926,0.7173721823515854,-1.4960815582023157,-1.983315849221305,4.1300680600437305,0.19751688231398282,1.3779186172611468,-0.3177598158465784,2.0,0.5323031639625826,0.5412723946575368,0.4153553108077793,-0.618554523933656,0.43124332717559866,-0.10997136321184323,0.6475536989015327
11.700000000000001,2.9534635697659084,4.273953852635073,2.39607493957427,-0.45320941298768763,0.23488774839568688,0.06231596993650866,0.2994138000452858,0.6228014213684585,0.7227821173104291,-1.496057480947241,-1.9833032093443812,4.130011518669587,0.1975247123439528,1.3779592745010967,-0.31775887055518215,2.0,0.5322894330692512,0.5412949181470283,0.41533771129825164,-0.6185806491394853,0.4312395185886793,-0.1099588144862041,0.6475334101298292
11.8,3.224616743191294,4.61118760387359,2.57990901637336,-0.4650818880382164,0.24085727519104277,0.06694992020682022,0.2977660780162997,0.6192273522333281,0.7265623481660817,-1.4960572859190868,-1.983317696763484,4.130051725082449,0.19750325262036128,1.3779307534027614,-0.31775735201603666,2.0,0.5322987409077649,0.5412787850152816,0.41535737054532396,-0.618557335859719,0.43123815267388876,-0.10996525727702383,0.6475554957874551
11.9,3.1167128771004875,4.8180371882956035,2.5435886793647353,-0.4854421056885683,0.25067239857223456,0.07349470929907195,0.29771896361108324,0.6191758318898636,0.7266255607559555,-1.4960384700867955,-1.9833151302733363,4.130056858062744,0.19750325262036128,1.37794828414917,-0.3177428140288121,2.0,0.532307284843833,0.5412705342698151,0.4153543686055669,-0.6185575520306704,0.4312490996723124,-0.10997586862135184,0.6475461969455336
12.0,3.1166014248636364,4.875052699396333,2.513541389992695,-0.49765997486012525,0.25742085749924704,0.07521812107701355,0.29745267351624655,0.6186281765868362,0.7272004438105183,-1.4960362579678306,-1.9833261994096059,4.130056040341766,0.19751469671215816,1.377926145876631,-0.31779346602083774,2.0,0.5323139900975664,0.5412627195855495,0.41535174396015484,-0.6185588527384263,0.43125613960513887,-0.10998537256894331,0.6475386517982272
12.100000000000001,3.1460159267674355,4.803843554385235,2.842846044161597,-0.5094832069019783,0.2689727043630293,0.07208191233381031,0.2972324018504023,0.6181539762962271,0.7276940017961389,-1.4960577786395393,-1.9832873281862984,4.130034592248171,0.19752551843493474,1.3779467081058332,-0.31774597616890976,2.5222964381120305,0.5323172348170824,0.5412571305163586,0.41535649132664804,-0.6185531897043164,0.43125431262588687,-0.10998640382549586,0.6475451029246728
12.200000000000001,3.249746977270764,5.607753099107263,3.690098767667498,-0.5124650691703226,0.2787815486075246,0.07253344680078219,0.29716997299815584,0.6180045550931115,0.727846190474629,-1.496757901713296,-1.9827108567472185,4.130056116415903,0.19761271313927262,1.3779477161312108,-0.3177594598560947,3.0,0.5322950984263595,0.5412534005584699,0.4153731741075256,-0.6185533750484485,0.43125014605267975,-0.10996972742791329,0.647550533005067
12.3,3.485256616533681,6.279398259921762,4.363640492243751,-0.5434025687389564,0.29952187470988456,0.07384996520572104,0.29685674951793234,0.617401306469304,0.7284857101934935,-1.4981896742230896,-1.9815591324648836,4.130201056329731,0.19796031454229132,1.3777305922526615,-0.31771578707838816,3.0,0.5321337854060585,0.5410276049328432,0.41546651574060695,-0.6185282644511296,0.43124856589244676,-0.10999011122171914,0.6475721086676101
12.4,3.8418733218926944,6.557891020969514,4.377324014994939,-0.6037727462108297,0.34085254643200247,0.04233646458753342,0.2948428351801579,0.6130085398516374,0.7329903410304018,-1.4998596360281513,-1.9803141346785285,4.130430915873698,0.19836333030792397,1.377516269683838,-0.31767957065816455,3.0,0.5318449429689649,0.5406998505861351,0.41550685722333286,-0.6185397922800233,0.43126918320599494,-0.10999196284860041,0.6475470524152914
12.5,3.96700298511165,7.065217325471481,4.470432743912926,-0.626711410510285,0.3677036780759519,0.03023783145804753,0.2925054441303127,0.6079523846173616,0.7381218415782916,-1.5014187460872643,-1.979129275768454,4.130669116973877,0.19872868809323707,1.3773042687137538,-0.31763177351059235,3.0,0.5315485478560948,0.5404315348125536,0.4155134882853141,-0.6185509687503123,0.4312697838699568,-0.11000057602007537,0.6475345132532028
12.600000000000001,4.151981107774677,7.096922918447607,4.229227293074381,-0.6525236499704031,0.3845275303867238,0.03586951475203431,0.2914338340387528,0.6055642760526161,0.7405103077477717,-1.5028325284375306,-1.9780098090068747,4.130844174069839,0.19910363384109506,1.3771576881408691,-0.3176239751153926,3.0,0.5310296556822718,0.5399799271846537,0.4156308887770343,-0.618541091759702,0.43126125605884347,-0.10997244775722169,0.647554405097788
12.700000000000001,3.5876521805154633,6.501848440320012,4.324275110879946,-0.5955049808426289,0.36915059703058123,0.03930013105995527,0.29078403276314246,0.6040768233687462,0.7419800718718818,-1.5044495783983998,-1.9769346009141022,4.131030084925255,0.19944943593819475,1.3769779205322266,-0.31759486328975906,3.0,0.5307401193744398,0.5397202393990699,0.4156418346700562,-0.6185620736585675,0.43125973229695835,-0.10996542437660534,0.6475365702198153
12.8,3.5363864032048946,6.46789244190958,4.535325372806485,-0.562050462880311,0.36286613758439906,0.03886769875500891,0.29010036377699544,0.6025911690211728,0.7434541022652026,-1.5060434341430664,-1.975659569261358,4.131209726340286,0.19980912745933146,1.3768020868579205,-0.31763663805171943,3.0,0.5305150610953976,0.539506904944354,0.41566431131090864,-0.6185775914854489,0.43125354111969016,-0.10996362091872104,0.6475261760409635
12.9,3.515338203596049,6.408279269946852,4.284161971241398,-0.571206248460333,0.36482588937417093,0.03626477708516899,0.28969923866234487,0.601711857857535,0.7443229658400782,-1.507457812573887,-1.9744187397029456,4.131353933274174,0.2001409588580696,1.3766317758259299,-0.3176142626624139,3.0,0.5301841102551985,0.5391486868002755,0.4157386505918406,-0.6185762306105788,0.4312425700185064,-0.10995947560971102,0.6475354866345775
13.0,3.4767584743486526,6.0074807288674545,4.564223855392672,-0.5519398903316449,0.35641474688767305,0.020667491310037638,0.28922533136650164,0.6006746453365795,0.7453421572217211,-1.508856715458298,-1.973169831640408,4.131541332708891,0.20049773205570995,1.3764748573303223,-0.3175386213233391,3.0,0.5296813111175639,0.5386116388152877,0.4159513766350393,-0.6185239524770018,0.43122902279076886,-0.1099704512209119,0.6475925802334483
13.100000000000001,3.184234432043383,4.971720663877565,5.013732625470547,-0.4881028696522132,0.32983483219175586,-4.3296503112862854e-05,0.2880732233950485,0.598175636149468,0.7477932410861171,-1.5106122193723968,-1.9721457959059985,4.131682176068055,0.20079152166333003,1.3763412436996132,-0.31746890129207733,3.0,0.5294505873612446,0.5383720973445609,0.4161173958890128,-0.6184876734993332,0.4311853461633308,-0.10998173791737592,0.6476543926416811
13.200000000000001,3.037361727969761,5.038173316784346,4.766566557958641,-0.4633395156772218,0.3244516054020495,0.005774729385806945,0.28671023858922484,0.5952909340274967,0.750609398926028,-1.5122204420338798,-1.971093764236865,4.131829887560644,0.20114222055732592,1.3761652633874277,-0.3174802923163756,3.0,0.5291044282077675,0.5379990719832669,0.41597999742110203,-0.6185531524472323,0.43126077260938944,-0.10996184014991767,0.6475450079467737
13.3,3.1354286375764797,5.917429387922021,4.506692800306383,-0.5460313833189793,0.3435840419374264,0.004721681515949157,0.2854731790142333,0.5926715834780486,0.7531568069635574,-1.5135013035803175,-1.969800391768799,4.132034488582522,0.20147939115395908,1.3760090841486343,-0.31746036211122686,3.0,0.5287014723107115,0.5375642165952629,0.4159024897719864,-0.6186300361693482,0.4312952749637714,-0.10997467162873685,0.6474463960384576
13.4,3.228687985149031,5.4507660865051974,4.346984311436581,-0.516054712666817,0.33664403138294247,0.004173557542776078,0.28517686287720473,0.5919241477086616,0.7538564358582809,-1.5150137471054006,-1.968417254597379,4.132212343655423,0.20183484136547847,1.3758147645326253,-0.31743940215162536,3.0,0.5284388041518036,0.5372870580820156,0.41610026118567156,-0.6185621555917903,0.43126504091588946,-0.10997515571646833,0.6475313037055374
13.5,3.0697841476854473,4.892545252470141,4.144495493996717,-0.49042697959093046,0.3249254152108665,-0.0014512128079591652,0.2846072812798284,0.590624704448693,0.7550882411707633,-1.5167443742866304,-1.967300649989835,4.132335186004639,0.20217258575956618,1.3756138770031032,-0.3174598134310287,3.0,0.5279573898687038,0.5368143418481912,0.41639009570890273,-0.6184744557157585,0.4312109364550587,-0.10996407117821143,0.64765297726372
13.600000000000001,3.3725991780084548,4.887325008561765,4.357775952373504,-0.49876586133036793,0.33715944170040424,-0.025294800195501795,0.28382727029387744,0.5889098864216457,0.756719425729523,-1.5181087987073858,-1.9662957176988456,4.132550859995968,0.20251883837215726,1.3754455812994937,-0.3174117993909172,3.0,0.5277168632516522,0.5365798197084692,0.4163842595463645,-0.6185012692356663,0.4312153166287281,-0.10996496954930457,0.6476243016832183
13.700000000000001,3.4715508773109303,5.409260592657448,4.127940363673711,-0.5258157864638958,0.34276568294455,-0.035464157293639324,0.2826413583527704,0.586423906323679,0.7590886732631004,-1.5195715322087855,-1.9652253277403324,4.132734283074929,0.20286671697583003,1.3752747748623928,-0.31734889887547524,3.0,0.5273742663547412,0.53627337684194,0.41626025087638224,-0.6186026601940225,0.4312462636629073,-0.10997486028066338,0.6475051652179384
13.8,3.257892636220091,5.309383728559111,4.096287341571033,-0.5154949967537039,0.3330742022896723,-0.03315932875999011,0.2816350941888094,0.5842764813850697,0.7611146035461575,-1.5212422721258556,-1.9638595571627013,4.1328648263944014,0.20319258214352792,1.3750658985767656,-0.3173406759845179,3.0,0.5269435887022,0.5358034605189738,0.41637002178939786,-0.6185555759614577,0.43126386236287323,-0.10996675368822299,0.6475398007459616
13.9,3.2502069561331606,5.05300539835259,4.07995905227548,-0.49263733812291044,0.3335494814479658,-0.039086246093419805,0.2807218662676305,0.5823043878672077,0.7629627362100171,-1.5228173545648607,-1.962484975854391,4.13307023052873,0.2035101900099291,1.3749109319721704,-0.3173209246195228,3.0,0.5267155770450195,0.5355575386615561,0.4164727009386268,-0.6185370234174276,0.4312437633605766,-0.10997707674734707,0.6475691544650842
14.0,3.031695149259338,4.61738159993721,3.99909874635644,-0.44804570948892014,0.33230864979577723,-0.048584992750988,0.2797464793674809,0.5801776836966122,0.7649379951687406,-1.5241915549479326,-1.9614456402189724,4.1332828308074525,0.20382100471978687,1.374727725982666,-0.31730825256559736,3.0,0.5263229550639072,0.5351148469018839,0.41656446330823976,-0.6185493095027249,0.4312557165836867,-0.10997965146311202,0.6475490212266908
14.100000000000001,2.875899725171341,4.122536497268078,3.9656734934621642,-0.4150006746016369,0.32117055305288905,-0.04276449252644265,0.27876403333201305,0.5780387467703337,0.7669162992565814,-1.5256590772245098,-1.9603873025724936,4.133438985307085,0.20411925366001815,1.374565262757916,-0.3172567526446741,3.0,0.5258557320242689,0.5346797624160544,0.41670905956309756,-0.6185205022663791,0.43122467848239476,-0.10997894159491245,0.6475973265460292
14.200000000000001,2.8117675294011586,3.934297735817913,4.080145663465384,-0.4172960138273856,0.30134762410757593,-0.051373568504152464,0.27793753227454243,0.5763195158944909,0.7685076081148177,-1.5272762901516541,-1.9592005215086878,4.133597009932874,0.20446989990552372,1.3743636325135806,-0.31722435591982373,3.0,0.5256712258870756,0.5345098852178201,0.41665244515571254,-0.6185657168016555,0.43124110712152863,-0.10998548829111528,0.6475420865794108
14.3,2.8669546876456877,4.725111443033892,4.417872126158187,-0.41681121125551596,0.3260689286298919,-0.05206537536277844,0.2772652672226817,0.5749005321347745,0.7698133492694709,-1.5287912910850028,-1.9579913990027866,4.133833408355713,0.20481680876270958,1.3741837694105374,-0.3171944413356861,3.0,0.5253382582625503,0.5341654385359013,0.4166518779766382,-0.6185832089110243,0.4312694513566259,-0.10999053262861462,0.6475056422240416
14.4,2.8632661431980915,4.291400250212705,4.279176109687851,-0.42633474421201656,0.3080240731491563,-0.04682141940672355,0.2768991968139964,0.5741032254781357,0.7705400777883659,-1.5302637592541188,-1.9567584285496546,4.13397741317749,0.20512991159122826,1.3739867130187429,-0.31722738495479025,3.0,0.5250074921172865,0.5338336572723266,0.4167312797971098,-0.6185736397011017,0.4312675334938738,-0.10997542816839614,0.6475186267747208
14.5,2.8515337748183556,4.6151656779178385,3.968483437390227,-0.45577904450845563,0.2897569089781489,-0.04224284739491551,0.2765294410466445,0.5732899478567184,0.7712763204193084,-1.5317513856070164,-1.955627287514068,4.134178652500709,0.2054199572254914,1.3738445000239672,-0.3171581708946328,3.0,0.5243977576564848,0.5331647403578144,0.4169394530466111,-0.6185244674968556,0.43127190912224067,-0.1099930570067378,0.6475596890790077
14.600000000000001,2.8265386261001275,4.413153289459788,3.656678278204616,-0.4568328616243799,0.28654727839467137,-0.03982963140743377,0.2751350799852449,0.570296896967203,0.7739858937441318,-1.5331750830941335,-1.9545000277769802,4.134371942097328,0.20573776159071283,1.3736544153254555,-0.3171057703247243,3.0,0.5241528161156399,0.5329231079117916,0.41696981016168627,-0.6185458608792723,0.4312548471639305,-0.10999864476512554,0.6475496683163158
14.700000000000001,2.8369715691676096,4.0243275605778495,3.6616818795739654,-0.4438345194525329,0.278143560722705,-0.0440010364317797,0.2737993480365293,0.5673731144807052,0.7766032645726763,-1.5346491432052425,-1.9532767234250017,4.134542236314373,0.20605675756420894,1.373479723959008,-0.31708204183622296,3.0,0.523933763367029,0.5327237666573199,0.4170219550724183,-0.6185413093206673,0.4312478441607053,-0.10999387163521046,0.647559490528334
14.8,2.5206158182511427,4.224897769941406,3.4941404345978455,-0.4234898486651346,0.26969045134348285,-0.051755847706659,0.2724672305911408,0.5644330176349782,0.7792134009019688,-1.5362062454223633,-1.9520911635170801,4.134732723236084,0.2063775777344361,1.3732897093315357,-0.31706677865575195,3.0,0.5235472884730776,0.5323708958152354,0.41711301124864875,-0.6185495937263423,0.4312215245693599,-0.10997735427677503,0.6475719098257229
14.9,2.4187539112370415,4.6776316419362445,3.1944076024818737,-0.4522532666629777,0.26206884986871676,-0.04046368292552366,0.2708307165509937,0.5609497031881753,0.7822884183878385,-1.5377155472709008,-1.9510098422126645,4.134924411773682,0.20667101868311125,1.3731230321574885,-0.3170525295531393,3.0,0.523125974818628,0.5319083244699907,0.4171820934590264,-0.6185412934622004,0.43125041631717503,-0.10999845639561111,0.6475570139369614
15.0,2.4689772698309893,4.66066937428939,3.286580218832139,-0.4733632509094751,0.2636283894828888,-0.05503506223041042,0.2699590665696812,0.5590605059058398,0.7839471687033481,-1.5389922280622825,-1.949828040492884,4.135099371167674,0.2069511939352182,1.3729489599544134,-0.31700701355886224,3.0,0.5228434794003488,0.5316243074009587,0.41715647035360637,-0.6185783722267939,0.4312741901205741,-0.10997902308068833,0.6475090615823921
15.100000000000001,2.4311800950650984,4.489792025982148,3.4459759969738792,-0.4642896597417861,0.25246409356706584,-0.06116854740880512,0.26973063389481294,0.5585225268221655,0.7844092744575484,-1.5405259522790307,-1.9485127342035604,4.135277709067405,0.20723887591989984,1.3727658193949106,-0.3170223863222512,3.0,0.5225459568985193,0.5313206757394965,0.4173034573093769,-0.6185427100466883,0.43125851091921985,-0.10997819671537878,0.6475537111738834
15.200000000000001,2.4195454362746833,4.466864806945857,2.9028448702685554,-0.4607142784531985,0.25411079339675746,-0.047151675506178915,0.2692567541382568,0.5574438645212979,0.7853380562016915,-1.5411324896635499,-1.948103474105053,4.1353724200637085,0.20734539020435788,1.3727049827575684,-0.3169930616961878,3.0,0.5220237853968906,0.5308104986834646,0.4175131088155866,-0.618511125636164,0.43121698242125006,-0.10997919012544136,0.6476113643807907
15.3,1.989619939764012,4.218908975680242,2.9189801875148964,-0.458926538030219,0.2489046220486156,-0.05721191541647466,0.2690048219216057,0.5568516095749643,0.7858451750733922,-1.541121482849121,-1.9481258369450938,4.1354030619043,0.20737473546948237,1.3727049827575684,-0.31700536508608335,3.0,0.5218989094726613,0.5307180823162225,0.4174860088334406,-0.6185377040474976,0.431222829015742,-0.10995985857650818,0.6475853688195438
15.4,2.0682831995821975,4.104195081421162,2.803020331158045,-0.45300535938987846,0.22740795402136485,-0.05518412980507802,0.26911184174746544,0.5570511247378752,0.7856671426424374,-1.541117393423658,-1.9481106562878918,4.135403156280518,0.20734646340065377,1.37271350239395,-0.31696598893843186,3.0,0.5219155021206883,0.5307209107863937,0.417467142042732,-0.6185330790682197,0.4312328152392294,-0.10995509700135528,0.6475839449852497
15.5,2.4583617328220964,3.8497337271539624,2.9546296786588897,-0.45927758952223474,0.22319529609848682,-0.04835985487732605,0.26903945777817495,0.5569369808794432,0.7857728394194867,-1.5411385699456275,-1.9480992336656187,4.135374625092214,0.20736873663174582,1.3726811408996582,-0.316970825823918,3.0,0.5219009862237203,0.530733144778722,0.41749708935019453,-0.6185296031515578,0.43121193099756205,-0.1099513464371741,0.6476018082179685
15.600000000000001,2.158464370729805,3.551526828804141,2.9580285072546673,-0.45556892486669937,0.22645654899636913,-0.04730382226736188,0.26845017381457104,0.5556912654245864,0.7868540224844246,-1.5411683214319956,-1.9480905012404421,4.1353911183115155,0.2073862652612189,1.3726828540069809,-0.31695758442720967,3.0,0.5219212572630112,0.5307138141277805,0.41746725140082647,-0.6185365588375988,0.43123920248598846,-0.10997113501558942,0.6475736445254494
15.700000000000001,2.085018758335816,4.019971138419041,2.687078207698128,-0.44363507457884177,0.2244680112317539,-0.04507769090789321,0.2681517073328553,0.5550729340767021,0.7873931792409146,-1.5411815643310547,-1.948124974025653,4.135355472564697,0.20735185791598876,1.3726905760239207,-0.3169732779526972,3.0,0.5219198363733962,0.5307227356863268,0.41744143077505264,-0.618552478856381,0.431239942919704,-0.10997121013355088,0.6475579321365768
15.8,2.1733889096172416,3.7716653552238064,2.621740743852768,-0.45133832591751477,0.22381655152884206,-0.04072287711226844,0.2685077153601891,0.5558782080458716,0.7867038945136617,-1.5411134981234753,-1.948103274600902,4.135380497889975,0.2073724595706988,1.3727141509505816,-0.3169896478480124,3.0,0.5219323551580971,0.5307024699478884,0.41744135171986896,-0.6185431821027086,0.4312478094705156,-0.10998065705036196,0.6475599692506541
15.9,2.055681497317994,4.042835978952947,2.5419699923848125,-0.4442723417057595,0.22666898470841548,-0.041586084832678685,0.26829405639608284,0.5553798627900908,0.7871286467649914,-1.5411448809340949,-1.9481048240500731,4.135340387400021,0.20732749552659843,1.372715136898055,-0.3169930616961878,3.0,0.5219189072224696,0.5307147294600049,0.4174646745047472,-0.6185319745943615,0.4312445192381872,-0.10997474955939728,0.6475738687522627
16.0,2.1908368822443554,4.001275066152981,2.4652777607012455,-0.442111116030407,0.21927759893832469,-0.04455827584955265,0.26841251432155966,0.5555923821008688,0.7869382307215889,-1.5411488844752097,-1.948135184757269,4.135380726056782,0.2073370842112836,1.3726824439465892,-0.3169802059702156,3.0,0.5219225544387857,0.5307115898568495,0.4174522442822758,-0.6185371213449504,0.4312418768289178,-0.1099600803591051,0.6475732035181769
16.1,1.9661278215493323,4.00520658375741,2.5610036966749337,-0.442056276657638,0.2234234093408907,-0.041825818479481934,0.26855345627312016,0.5558837303842612,0.7866843409290193,-1.5411393955209516,-1.9480971645037586,4.135373689218776,0.20733849584545894,1.3727035488820818,-0.3169903042433292,3.5737239908930105,0.521921572956974,0.5307066132699773,0.41747445066296296,-0.6185270116027637,0.4312409199613283,-0.10996341920111226,0.6475829300609015
16.2,1.859767883769974,3.941835118346182,2.5698773929843255,-0.4415074978668147,0.2244276274058411,-0.0401950719854507,0.26851140600170137,0.5558107502168884,0.7867502099293293,-1.5411577224731445,-1.9481044402146686,4.1353747072962905,0.20737012834316562,1.3726765337733415,-0.31696199817816567,4.0,0.5219123301625402,0.5307239922668053,0.4174561672559593,-0.6185503797941561,0.43123342213918564,-0.1099678152103564,0.6475648561375864
16.3,1.9190244389605604,3.79749938193424,2.537964717033864,-0.44422030749645564,0.22353226500569248,-0.03208415438638376,0.2682955662719898,0.5553516910990269,0.7871478655323639,-1.541157792954605,-1.9481259785094203,4.135379314422607,0.20733857220037435,1.3726810645447427,-0.31699291485981196,4.0,0.5219181635063398,0.5307155792628933,0.41746697448608705,-0.6185377652378252,0.4312367856337347,-0.10996480123095366,0.6475751772428575
16.400000000000002,2.0477745801314877,3.7521765942404417,2.539871504572395,-0.44210313154953756,0.22179852549144072,-0.03311367887749451,0.26812074383968115,0.5549693762721094,0.7874769772048725,-1.5411687064674415,-1.9481264577776491,4.135331175471428,0.2073608807279531,1.3726930834304132,-0.3169701783747355,4.0,0.5219242984388375,0.5307214290908446,0.41742778454567414,-0.618565999758567,0.431245774067077,-0.10996696006513085,0.6475418550070766
16.5,1.7730871746648993,3.9872999233687128,2.4275351274325354,-0.44024140094101677,0.2234662262897527,-0.033093682307226424,0.26809775666880215,0.5549137898503181,0.7875240666330177,-1.5411591372027746,-1.9480923378170003,4.135344489528214,0.20733776018605127,1.3726818199698807,-0.31700404473267096,4.0,0.5219118680987358,0.5307271845704667,0.4174158030998873,-0.6185772365950374,0.4312354669970339,-0.10996087442658913,0.6475390184889532
16.6,2.1116154242138028,3.7891010861433543,2.455589486669417,-0.442280308228947,0.2181768002178015,-0.027874861692028463,0.26833033269780365,0.5554431840150647,0.7870715125271706,-1.5412036699015543,-1.9481242650678967,4.135377578135197,0.20732728606546863,1.372692584991455,-0.3169942268364238,4.0,0.5219162119981995,0.5307145658761132,0.417436334406909,-0.6185544661272422,0.4312471286142627,-0.10996134469671145,0.6475529238359496
16.7,1.540371143354339,3.460466790305589,2.3004303117595217,-0.401909860904554,0.20664149499507928,-0.02213830806128604,0.2682960674919859,0.5553876652138846,0.7871219857335664,-1.5412216181264204,-1.9481231549585087,4.135373554378748,0.2073785496408247,1.3726839644505697,-0.31698014935791696,4.0,0.521932030518426,0.5307023914579353,0.41746566787894146,-0.6185282278586034,0.4312452783036038,-0.10998026451131745,0.6475760053468346
16.8,0.7340387024845318,1.3341913706388435,2.014725991332055,-0.22821942360328695,0.13497090502022627,0.02431895418537138,0.2679218869000611,0.5544908565753914,0.7878818136155636,-1.5411568554550854,-1.9481232690779855,4.135363304081248,0.20740828738307115,1.3727067890451916,-0.3169701591078417,4.0,0.5219260306272002,0.53071345366711,0.41744585121382244,-0.6185284742011636,0.43125850421825074,-0.10995022330282012,0.6475720635863449
16.900000000000002,0.6873360956095621,0.801609632193764,1.7742262880625046,-0.15054171794917262,0.13116977814943745,0.03183314521894195,0.2679297629655535,0.5545252402149301,0.7878549349406097,-1.5411347340609287,-1.9480556501650859,4.135355472564697,0.20738289707783947,1.3726934384371494,-0.3169816176043909,4.0,0.5219151854724613,0.530711461333618,0.4174423578889646,-0.6185429233712224,0.4312419390981612,-0.10995966980007604,0.6475676898423037
17.0,1.5573199249418106,0.3942086164318682,1.6309295878060974,-0.11827815918541472,0.178373023395156,0.03384075956823159,0.26794025210988415,0.5545768931247683,0.7878150098251637,-1.5411761309280207,-1.9480850865473924,4.13532336232698,0.20730497292295247,1.3726784241981413,-0.31700404677751226,4.0,0.5219031165660264,0.5307135480550108,0.4174743788888011,-0.6185340006411457,0.4312228463751179,-0.10996960169334145,0.6475872400830709
17.1,0.18017779183699362,-0.13756502291229436,1.1038299633849,-0.07775724444912019,0.08713758407992697,0.027656528826266454,0.26754041090701597,0.5537274549491978,0.7885472111827788,-1.5411486708321047,-1.9481013283911193,4.135364459544906,0.2073500530207657,1.3727025579763956,-0.3169816176043909,4.0,0.5219225275540363,0.5307041462171348,0.4174710349255027,-0.6185335335816872,0.4312374030608089,-0.10997592440784075,0.6475769190505187
17.2,0.025340858048218548,-0.17602905168388816,0.5668927565999514,-0.06800230295907657,0.07163187836864177,0.023263239835575582,0.2671690950382094,0.5529310318194278,0.7892325055851843,-1.5411252612659527,-1.9481354136378282,4.135353583356282,0.20735089361157222,1.3727037398572948,-0.3169598095678751,4.0,0.5219215336269473,0.5307132013462535,0.41746592567298624,-0.6185510940578434,0.4312296703481736,-0.10996904374066643,0.6475664636699571
17.3,0.06520425193598905,-0.16516079180075396,0.2280777704889887,-0.05226750653699481,0.05991776611665711,0.021668282625376054,0.26715938005359113,0.5529037132154717,0.7892549318450195,-1.541143802723294,-1.9480985659908556,4.135378076593581,0.20731827225701197,1.3727129037975194,-0.31701738039125615,4.0,0.5219206838394322,0.5307121461486762,0.4174873717370217,-0.6185283904525772,0.4312333988511865,-0.10996439813003214,0.6475864552809126
17.400000000000002,-0.23662233153284273,-0.31003335428191475,0.34242753125120495,-0.04320952914166657,0.05638986544974626,0.019506485188027042,0.2671496650689728,0.5528763946115156,0.7892773581048547,-1.5411733088381603,-1.948118012599384,4.1353351088885475,0.2073302403525645,1.3726928745743132,-0.3169854412412083,4.0,0.5219190396700918,0.5307206814906134,0.41745020481357936,-0.6185427063604827,0.4312368129650256,-0.10996898930503929,0.6475697282480437
17.5,0.051099143230101396,-0.26385000696426775,0.4327500242861787,-0.04572083464484379,0.0527564527208346,0.021342343579354876,0.26819041762304646,0.5551391790279165,0.7873316627116844,-1.541132521884621,-1.948120752622446,4.135352755103471,0.20733588290197183,1.3727151726364915,-0.3169930616961878,4.0,0.5219255767561187,0.5307201853630151,0.417453706284268,-0.6185474233338186,0.43122993904274726,-0.10997018308985924,0.6475695974885367
17.6,0.020722199342607793,-0.13224094845774706,0.3106534685637683,-0.042695413118799035,0.053629655291698844,0.033110077608300814,0.26862825760670794,0.5560977439473391,0.7865075075052316,-1.5411587194617526,-1.9481368609085752,4.135366916656494,0.2073736553984903,1.3726719002641372,-0.31698994610678755,4.0,0.521921208193296,0.5307049520713728,0.417471329982456,-0.6185309650860784,0.431237812821402,-0.10997961093968574,0.6475784733916449
17.7,-0.0354255966154823,0.027771583562878566,0.25568060706684737,-0.040767938756683185,0.05441509859732449,0.029166015360344074,0.26879169180724033,0.5564568265304964,0.7861975874517952,-1.5411592386665662,-1.9481259785094203,4.1353637579201985,0.20734165458175416,1.3727001814783997,-0.3169629023656872,4.0,0.5219393762572154,0.5307020513806163,0.4174394867696094,-0.6185443009058629,0.4312640019987847,-0.10997043758198191,0.64754985233177
17.8,0.170838876038088,-0.3263706550702621,0.26441824766921174,-0.04669397800619316,0.04819240114445708,0.029191975443325607,0.26904632144922197,0.5570004662121014,0.7857253749220334,-1.5411677176195704,-1.9480962529949342,4.135391712188721,0.20735089361157222,1.372701964121379,-0.31695880822741734,4.0,0.5219242884001333,0.5307286961455161,0.41742717287988607,-0.6185646226830865,0.43123009384873523,-0.10997190398243484,0.6475527731842559
