xiamingqian9007/apple-picking-rnn/final_data/grasper_20191127_120317_noimg.csv
,/manipulator_wrench.fx,/manipulator_wrench.fy,/manipulator_wrench.fz,/manipulator_wrench.tx,/manipulator_wrench.ty,/manipulator_wrench.tz,/ground_truth.x,/ground_truth.y,/ground_truth.z,/joint_states.elbow_joint,/joint_states.shoulder_lift_joint,/joint_states.shoulder_pan_joint,/joint_states.wrist_1_joint,/joint_states.wrist_2_joint,/joint_states.wrist_3_joint,/mode./mode,/manipulator_pose.x,/manipulator_pose.y,/manipulator_pose.z,/manipulator_pose.rx,/manipulator_pose.ry,/manipulator_pose.rz,/manipulator_pose.rw
0.30000000000000004,-0.12989332205267773,-0.052184288448337,-0.08509434202274571,0.0018911987464894976,0.016046137898664242,0.04492157870178973,0.09748644190584191,0.23574918104183568,0.9669117875028488,-1.6492727487862622,-1.7439912538240196,4.157863577239191,-0.1138331797561682,1.3644794602194077,-0.3481613005773415,1.0,0.47761859104610693,0.48761763907240396,0.4298122722451291,-0.6930967167515738,0.4412949259847182,-0.11775567526936394,0.557682105208861
0.4,0.020542418108496403,-0.4688015398784617,0.11358595211322654,0.0009704663849795453,0.022258701917298056,0.13742262806205496,0.0974949803721265,0.23581762922648747,0.966894284485146,-1.6467996463644308,-1.747994875020061,4.157229765285216,-0.11310262030755203,1.3649954795837402,-0.3483531290768743,1.0,0.47801117024851036,0.4879999583225678,0.4298193003664579,-0.69300926397185,0.441256798002458,-0.11774020304508365,0.5578242042549922
0.5,0.15280791001309404,-0.7040425942958461,0.20266944651776064,-0.005089759762243303,0.018759619379389428,0.21755061739097054,0.09728396899841539,0.23533687458880656,0.9670326531699059,-1.6437412415123758,-1.7513709212081277,4.156641369593205,-0.11223967493090825,1.3655355039185557,-0.3486283508580859,1.0,0.4790503720555553,0.48910391785965995,0.42891667650624515,-0.693165108675331,0.4413135505553422,-0.11774110534451179,0.5575854323093516
0.6000000000000001,-0.049071331338836455,-0.49403350131460333,0.26557592641247707,-0.011516030745861862,0.022174354529867796,0.24540573688466447,0.09724426800016006,0.23527897103318163,0.9670508010154915,-1.6411852675529066,-1.7549970015939074,4.155983723575128,-0.11154481449211774,1.3661827068894843,-0.3488206087129535,1.0,0.47988685363493366,0.4899342532648663,0.4285339613803395,-0.6931131625823356,0.4413037397249986,-0.117766424091265,0.5576524208829365
0.7000000000000001,0.17313756687763213,-0.6212268478880996,0.40504375270410975,-0.004243874338808684,0.014415793425074343,0.2477982322839758,0.09739988910245968,0.23570318749713723,0.9669318772635421,-1.6381952139235336,-1.7581852278647219,4.155418977847325,-0.11085193825263213,1.3667724586174217,-0.34905983124115314,1.0,0.4811566571843636,0.49119162745862327,0.42775226377807224,-0.6931494722287252,0.4413228536206263,-0.11775531949527718,0.5575945056685476
0.8,0.23844586580260196,-0.23234538555160478,0.44411733884901333,-0.004737710683958422,0.01286077421081579,0.24617946844825256,0.09776881521863409,0.23648134271472898,0.9667044000777236,-1.6357254297719837,-1.76145260461489,4.154891143223963,-0.11030035318183012,1.367275108912268,-0.34926551904418657,1.0,0.4817843407549626,0.49186336521213264,0.4275331714260173,-0.6931108377056332,0.44127907608087524,-0.11771597151139895,0.5576854792078885
0.9,0.26934711030185865,-0.14175910262737715,0.5984840842677834,-0.0015244536816528369,0.013088103802056234,0.23565880353888613,0.09781824566884076,0.2365469735836367,0.9666834555972562,-1.6330197028324522,-1.7646711265828139,4.154331216369278,-0.10972285463279009,1.3677880635667121,-0.3494753126113644,1.0,0.48255514358635015,0.49264918778959194,0.4270580857029881,-0.6931415499022309,0.44128172144714406,-0.11772350875662135,0.557643622398578
1.0,0.252935671497204,-0.10932737972831917,0.5002848563914921,8.395287194891312e-05,0.011685846235842108,0.2251231559683797,0.09760496291315095,0.23609419933071069,0.9668158043149816,-1.6305349876895376,-1.7676460641648952,4.1538382174162765,-0.10912640512500005,1.3682331226614861,-0.3496471278577585,1.0,0.48373486144002964,0.493848234962964,0.4264268257479206,-0.6931308687402592,0.44129929368721565,-0.11773269748743426,0.5576410531272518
1.1,0.421836074396571,-0.565850268286856,0.26896818503441594,-0.00675994469947211,0.0061596160167503005,0.23452460547429202,0.09756856150192439,0.23611246766936242,0.9668150175997617,-1.628119259845638,-1.770631267865909,4.153381824493408,-0.1086201041493974,1.3686170055894613,-0.34982616106142217,1.0,0.4844498621937331,0.4945612486885313,0.4260570322730729,-0.6931200252374542,0.4412961253341148,-0.1177606149746704,0.5576511435841548
1.2000000000000002,0.4082843734283679,-0.258070942832958,0.4400003345846433,-0.001633367028188515,0.007251370742487271,0.23129101168752514,0.09735322852914914,0.2355947809427823,0.9669629885794397,-1.6256678357905379,-1.7736745922310573,4.152950559200127,-0.1080979024873474,1.3690544844714836,-0.35000350937168223,1.0,0.4853742965361451,0.4955551385563754,0.4255044901107019,-0.6931458294044784,0.4412840590803574,-0.11777754394784391,0.5576250429476383
1.3,0.02056413205343577,-0.2282062396756251,0.2104366113442258,0.002139448689536985,0.013087693966225344,0.22234087303579103,0.09764153554599167,0.23622997095683587,0.9667784255660363,-1.6233810575353462,-1.7762440668897097,4.152506351470947,-0.10760492830963535,1.369565486907959,-0.35019680651741725,1.0,0.4859369928167243,0.49619562094388076,0.4251368273031952,-0.6931801000355555,0.44127859009978576,-0.1177471216959612,0.5575931941537297
1.4000000000000001,0.08141170406191209,-0.2536052752858784,0.3080362327226116,-0.0031021681754278057,0.011353839014876473,0.22236196094491067,0.09797130062998058,0.23696079395033215,0.966566312098253,-1.6211015938211584,-1.779243068718476,4.151979923248291,-0.10718610735628945,1.3700690743190036,-0.3503320696995889,1.0,0.4866014774016246,0.49688752294130223,0.4248179052057563,-0.6931637479188546,0.44126426395677165,-0.11772124994961244,0.5576303213026312
1.5,0.29408081894363725,-0.22686533814925797,0.4724392912008417,-0.0033113549301179625,0.010869531581660655,0.22432475910238656,0.0981933893854366,0.23744331978531014,0.9664257428566042,-1.6188934612607235,-1.781441708033803,4.151534935185555,-0.10673197489071,1.37044027622328,-0.35049767076727517,1.0,0.48765076385416045,0.4979185885486633,0.4241716856479654,-0.6932171808321349,0.4412907921396391,-0.11770824301122347,0.5575456452158227
1.6,0.19374364363570878,-0.08573300751887436,0.420605372082936,-0.006758534631368426,0.010955671784578272,0.22459471551384247,0.09826564973388742,0.2375803475128433,0.9663847252766642,-1.6167920952198558,-1.7842893839329501,4.151140116422917,-0.10638091605031387,1.3708010685746408,-0.3506196470785693,1.0,0.48815898395981416,0.498429172326007,0.42405372600952357,-0.6931508937321358,0.441250488232644,-0.11770534336170232,0.5576605574154396
1.7000000000000002,0.019466625329642162,-0.08562617669168779,0.25004177528484817,0.00624237872772199,0.013785150936287498,0.22383901426415834,0.09811807021360516,0.23731217292055184,0.9664655733393083,-1.6147878854882278,-1.7863946429779283,4.150708458092064,-0.10598331419416232,1.3711703935643804,-0.3508073196777303,1.0,0.4891335773275617,0.49943775985378147,0.42334555146784575,-0.6932393554146083,0.4412876828269736,-0.11772955569190244,0.5575160345731107
1.8,0.03653808597910686,-0.47490361496394484,0.28038401238442656,-0.0017646920529050454,0.013786433034708011,0.22189739676771766,0.09808647183671793,0.23733402701237338,0.9664633450134014,-1.6125282136617103,-1.7888052576760791,4.150397972564167,-0.10561564927707616,1.3715075428292267,-0.3509402563111717,1.0,0.48950179672695737,0.4997855831668266,0.42328933885894926,-0.6931566989093344,0.4412775668155694,-0.11772425881044096,0.5576279213507672
1.9000000000000001,0.3088691886481152,-0.22123125806322588,0.3284308383518668,-0.002750162510956396,0.012490007542603068,0.2224780159256781,0.09826219076968581,0.23785259500360176,0.9663179658203852,-1.6107749684363308,-1.7911563530805823,4.149954319000244,-0.10522634127797996,1.3718243543939113,-0.35107774327400776,1.0,0.49009438577131476,0.5003816989526749,0.42305944562410946,-0.6931149950606582,0.4412686178071925,-0.11773330350268227,0.557684928796663
2.0,0.3068957289939972,0.03417925585700066,0.2311826242806005,0.0009574448775251758,0.008141005888381974,0.21812397426984248,0.09841590478838462,0.23837955703428604,0.9661725609394313,-1.6089019388441979,-1.7933189712180477,4.149559619225548,-0.10486368236654081,1.3721651643996178,-0.351203743611471,1.0,0.4910622501869821,0.5013059609327192,0.42244141823581266,-0.6931485548355331,0.4413081498338864,-0.11776417120739298,0.5576054140693399
2.1,0.18380295566715885,-0.18513483361706115,0.30320220310817575,-0.001102107939239282,0.012474413232351253,0.2208492921075265,0.09838339031554959,0.2383796077118212,0.9661756993749244,-1.6068476961533391,-1.79558511965576,4.1492359363621985,-0.10456262534202647,1.3725039970943615,-0.3513231614624365,1.0,0.4914321149775951,0.5016785814087765,0.4222595513798373,-0.6931408343532355,0.44130380052775015,-0.11777646383653968,0.5576158569822283
2.2,0.089520937769469,-0.20849679569472995,0.3170010009894499,0.0008665948150614658,0.015421613262265835,0.21843907669770948,0.09810465657554925,0.23750405462558521,0.966419753541512,-1.605253253111682,-1.7976197860153782,4.1488832685529635,-0.10426703183570826,1.3728454606565594,-0.3514793554889124,1.0,0.49225655999050516,0.5025349047224212,0.42187067933186073,-0.6931102176805274,0.4413149416852617,-0.11773853752580095,0.5576531046927576
2.3000000000000003,-0.17382657554672734,-0.22029664124695683,0.4025346755636556,0.0022282788323640165,0.017703870318347657,0.2183161740407937,0.09818078353740488,0.23776385101973013,0.9663481121470539,-1.603538368891917,-1.799576596357348,4.14859606802237,-0.10395477359880571,1.37312650680542,-0.3515449707629397,1.0,0.49257044504198927,0.5028776168208874,0.42164981045910255,-0.6931450736009456,0.4413053383343317,-0.11774068556246046,0.5576169260914189
2.4000000000000004,-0.08119917410406385,-0.2620853590050998,0.4246738689676722,0.0013281906412321023,0.016209407375114056,0.21773695731575066,0.09830919952958218,0.23819094213852288,0.9662299527395343,-1.6016293141805196,-1.801547132773725,4.148268629142279,-0.10371100753381879,1.3734713576252102,-0.35168199775580267,1.0,0.4931026381635962,0.5033903507836073,0.4213333748723978,-0.6931670411695071,0.4413055917150582,-0.11776333971804592,0.5575846335542123
2.5,0.0017814997051707488,-0.02073965195273636,0.46350121426787855,0.004913239112703941,0.01744749166324814,0.2187351248836917,0.09758701382954874,0.2359334584159069,0.9668563017680551,-1.6000890731811523,-1.8035866411093076,4.147963952762511,-0.10344011173718876,1.3737487887126634,-0.35175885825037717,1.0,0.49390276974339903,0.5042574585254628,0.42104228946670647,-0.6931161293868752,0.44126463953382805,-0.11772300825896004,0.5576888401315723
2.6,0.2771915619853797,-0.15700409779868874,0.2653758997384932,-0.0018984301949298886,0.010596737773460733,0.22026073918990985,0.0981019579671495,0.23736759801023627,0.9664520412970773,-1.5986438323353482,-1.805339355664539,4.1476985668071995,-0.10317082902578951,1.3740097292291586,-0.3518654291846429,1.0,0.4942038378197095,0.5045702822613561,0.420774991571189,-0.6931510688536274,0.4412922419340497,-0.11772481243973601,0.5576231895213137
2.7,0.3353382018577959,-0.3272014640048343,0.16201948407166356,-0.006503457746663795,0.010457299760553634,0.21753907063583766,0.0984185940169158,0.2383028542647871,0.9661909786077713,-1.5968925363274031,-1.8070176023926847,4.147413850257901,-0.10296039392313469,1.3742750942749788,-0.3519853630491775,1.0,0.49465785921687405,0.5050140569447402,0.4204533414070375,-0.6931878742118693,0.44130935793359116,-0.11773433136439168,0.5575618789551982
2.8000000000000003,0.46661530053650363,-0.28653721788175934,0.3902944453617064,-0.007840868075139906,0.004535544373858429,0.22131977050446386,0.09808396452944844,0.23740309815331903,0.9664467416149686,-1.595385481521197,-1.8089954949409557,4.147134290444338,-0.10274104377378217,1.3745369347902379,-0.35215679734727245,1.0,0.49535799021752097,0.5057452538738536,0.42015840253291625,-0.6931526123932312,0.4412939695651454,-0.11772973470718584,0.5576188643900523
2.9000000000000004,0.4099196138615369,-0.29577820719362113,0.36539871973347093,-0.005537567096045634,0.007771760305568926,0.22288702992829945,0.09800132988801533,0.23716127615237959,0.9665143243793161,-1.594029701411717,-1.8105327279629575,4.1468706224989855,-0.1024665485540411,1.3747860375344718,-0.3521984259234827,1.0,0.4956890062988261,0.5060746422435655,0.4199289535922161,-0.6931750073337417,0.4413023838891664,-0.11773790661648711,0.5575826400877034
3.0,0.11323457780970464,-0.2610353654589127,0.26307138825199666,-0.004074807570072217,0.014018984167442137,0.2173636478528791,0.0976942753313848,0.2363149411075577,0.9667527381792776,-1.5925016403198242,-1.8119226220054159,4.146664782459601,-0.10228458866742249,1.3749763553277665,-0.35228828348868435,1.0,0.49625780039258244,0.5066853598822639,0.4196048269918573,-0.6931937506638128,0.4412856407434403,-0.11773277203037195,0.5575736737905869
3.1,0.2995662663960624,-0.18033103032248138,0.3073833867391077,-0.0070233255098402425,0.011098281555989603,0.21999856224777084,0.09798218665655599,0.23714076612468327,0.9665209405327776,-1.5911386681406847,-1.813637594361349,4.146391558925622,-0.10209370545965717,1.375227313239771,-0.35237468629578467,1.0,0.49650902231659866,0.5068997499486552,0.41956891691153914,-0.6931470866450287,0.44127997116230516,-0.11775255411995737,0.5576319927378008
3.2,0.29685170100748687,-0.18722767917298425,0.2579197044314302,-0.0041421605696158525,0.008453083394515164,0.22297465324906532,0.09813051513311549,0.23757980658487884,0.9663983320256213,-1.589846294271928,-1.8153315652493183,4.146141915399753,-0.10192111198564356,1.3754288697634756,-0.35246755523896023,1.0,0.4969401421090764,0.5073334734111989,0.41932166863246334,-0.6931555737535148,0.44129054333305856,-0.11775140611758134,0.5576133187941104
3.3000000000000003,0.21659129447718575,-0.128349953702969,0.2926809866028743,0.0032328741176658347,0.01141789199451595,0.22258085289575777,0.0979456182841627,0.23707027342581674,0.9665418727628294,-1.5884862786610676,-1.8165319938419724,4.145927906036377,-0.10168915013791278,1.3755990638872535,-0.3526262728816556,1.0,0.4975496481817387,0.5079972036874171,0.4188979928397416,-0.6931929865914734,0.44130181879730757,-0.1177379033854972,0.557560735860201
3.4000000000000004,0.15260994060534908,-0.12083273255539564,0.3040512922478372,0.006421485224318229,0.011253762537809889,0.22432385170373564,0.09854399162382865,0.23870196198713584,0.9660794797677078,-1.5871882409637552,-1.8178369456905532,4.145676136016846,-0.101520375614502,1.3758491129067254,-0.3526495646194879,1.0,0.497826350183083,0.5082467603206535,0.4189188121502792,-0.6931120101987581,0.44128190592210326,-0.11775638955680874,0.55767324980004
3.5,0.2751843455405476,-0.31573267819657874,0.138260970975744,-0.004268155769889164,0.012179475577575155,0.22157681146576577,0.09849129167166656,0.23849396483990196,0.9661365106924961,-1.586094893895327,-1.8193732512578016,4.145484472266052,-0.10139161628255548,1.3760585532514926,-0.35274915447756233,1.0,0.4983464678833041,0.50877862950714,0.4187101703979417,-0.693084634645495,0.44127187568549986,-0.11775082385740311,0.5577163835035013
3.6,0.1768916721186922,-0.0038732918394998594,0.10096977774747358,0.0020408455761036833,0.015940035248249617,0.21823797213748475,0.09821863767184774,0.23770993387917447,0.9663574253114712,-1.58491612525174,-1.820802806115048,4.145265097164169,-0.10119696059435467,1.376252515250413,-0.35279434772204543,1.0,0.4985245204347498,0.5089868547182167,0.41852094909361565,-0.6931265561782267,0.44128224286336887,-0.1177297465028401,0.5576605293925359
3.7,-0.07335193301986681,0.1624417228068189,0.23978883219523406,0.001537106626919446,0.017287322446964983,0.21448540306444716,0.09783454411216241,0.23672904277691806,0.9666371512664514,-1.5837469100952148,-1.8220104524354301,4.145104135387955,-0.10102688846779123,1.376452922821045,-0.35287881415719463,1.0,0.49890549372534193,0.509376080887764,0.41821604435671156,-0.6931752710529894,0.4412935264396508,-0.11773638823252207,0.5575896430252566
3.8000000000000003,0.12406527522252914,-0.06693869427355975,0.23246423840210229,0.004746088893881081,0.016719081528391265,0.21605465271171784,0.09745457840587012,0.2356710348893177,0.9669340693932106,-1.5824936184780325,-1.8231024837837266,4.144873796639217,-0.10089453384146181,1.3766357828741145,-0.35293669954932283,1.0,0.49940757380690787,0.5098724494192639,0.41798201631693876,-0.6931553644432681,0.4412908983948216,-0.1177419416663148,0.5576152965172829
3.9000000000000004,0.2065515907350351,-0.19920776703929396,0.28628652678853617,-0.004189941533420194,0.01357340177538431,0.21590738334524706,0.09737110273953987,0.23532120091160977,0.9670278170187543,-1.5813811855575888,-1.8245196381270676,4.144712583515897,-0.10077001551738186,1.376815977488329,-0.35303311826508826,1.0,0.49961609822509206,0.510091339749723,0.41802150969396534,-0.6931024618563983,0.4412422421473167,-0.1177379754766685,0.5577203871511821
4.0,0.11469731159432192,-0.13601810688750826,0.38019931835387366,0.0018127318408555477,0.015583097187050662,0.21613936572351053,0.09760336098899497,0.23592608551528685,0.9668567430663341,-1.5804711297862528,-1.8257379474096158,4.144489964304225,-0.10062201440844731,1.377000186826221,-0.353089501924436,1.0,0.49992200015421645,0.5104263578663738,0.4177978260988203,-0.6931299329145676,0.4412589058953499,-0.11772994088491591,0.5576747574394234
4.1000000000000005,0.27918735793479327,-0.30085559894608427,0.28205272156429423,-0.001897505790055713,0.01431916415301104,0.2169989032149391,0.09783848049421973,0.23660542403914758,0.966667214389605,-1.5794772264423118,-1.8268632106714253,4.144311863038051,-0.10046638345936945,1.3771966131730269,-0.3531440422980643,1.0,0.5004062474094669,0.5109338727466917,0.41740798736602897,-0.6931913244273697,0.44126517108758434,-0.11772012425549577,0.5575955603023974
4.2,0.15018807482343238,-0.15019551200718306,0.0963542502093214,-0.005434605926757991,0.015364215914919804,0.21673887819271437,0.0978213209999527,0.23667760039971705,0.9666512818194706,-1.5783183685001776,-1.8280532719586697,4.144095428192419,-0.10035064056415416,1.3773475509220952,-0.35322214180086925,1.0,0.5006410323704895,0.5111152012538395,0.41727688537630797,-0.693178785847462,0.44129347258163915,-0.11773400011845456,0.5575858204115167
4.3,0.2002793214287329,-0.4488864697118908,0.27492269536831854,0.0010147256255559835,0.012625978452762998,0.21734454326065414,0.09774621270924495,0.2364557227788333,0.9667131397601213,-1.5771172520092924,-1.8292552319786062,4.143916272946785,-0.10022478495838537,1.3775350333111536,-0.3532904071130466,1.0,0.50090665902739,0.5114016092734635,0.4171615159595193,-0.6931685481757328,0.44129024969824576,-0.11772946080570727,0.5576020564879617
4.4,0.13948188898004013,-0.05531353281541368,0.13595467667275263,0.005650395648345881,0.016446756090689997,0.21815503926539256,0.0976977346559018,0.23626081670740176,0.9667657117054962,-1.5759977734567558,-1.8304188833723585,4.143738612253397,-0.10007779733341304,1.377697467803955,-0.3533226228604165,1.0,0.5013836126464946,0.511865148566998,0.4170371769900511,-0.6931080186254432,0.4412788750349673,-0.11774160971377462,0.5576837296416266
4.5,0.08293072262933622,-0.12105226596644941,0.31006348701298747,0.0028218010099206963,0.012933973759827298,0.21496355065070408,0.09783241356015135,0.23659310078164145,0.9666708198993823,-1.5750518896115067,-1.8316746577348493,4.14355110642254,-0.09996475384893035,1.377872166476826,-0.3534185402001956,1.0,0.5016481762607453,0.5121467011628564,0.41693251055805414,-0.6930942975115618,0.4412687881173545,-0.11773713795215496,0.5577097074081027
4.6000000000000005,0.004832582546192982,0.054782661669803154,0.21185767839644892,0.00569056768760136,0.020091803476317192,0.2155943821317913,0.09784395743285494,0.23675847819262782,0.9666291846639745,-1.5740938186645508,-1.8328267117808563,4.143370946284265,-0.09984767273857381,1.37800931930542,-0.35344929729298974,1.0,0.5020656413497807,0.5125643281502807,0.4165969500810115,-0.6931519134350174,0.441278570429408,-0.11775388500391298,0.5576268203266748
4.7,-0.04372569672054896,-0.006047121142080725,0.1371333481387992,-0.000281407063291831,0.01935873828924177,0.2104377115967077,0.09744675757808088,0.23576125782716562,0.9669122299312596,-1.5729059444977784,-1.8341303536407436,4.143166138400719,-0.09969035731302213,1.3782044089817647,-0.35357290884251985,1.0,0.5022827449441928,0.5127727151281817,0.41643763759493935,-0.6931650784003156,0.44129477950542917,-0.1177618960967291,0.5575959356875211
4.800000000000001,0.028138987116195183,-0.12884646643302533,0.0013197386902093766,0.0030309651822664815,0.017192188054260052,0.21387905464849186,0.09708848611119125,0.234805536336111,0.9671813101323655,-1.571682118325173,-1.8353172993778517,4.142979381103353,-0.0995888045346802,1.378369521654413,-0.3536290061999304,1.0,0.5025611900703171,0.5130840030799596,0.41624786524630486,-0.6931869554845761,0.4412979934246082,-0.11775442791488464,0.5575677720706935
4.9,0.11451096275947335,0.12016400815147889,0.11327791439563352,0.0018171732310752749,0.015630218423696607,0.21189666091988932,0.09757143351530498,0.23608930231793304,0.9668199885959391,-1.5706089491013564,-1.8364536488867205,4.142799710667519,-0.09946916577095799,1.378527644032385,-0.35367635969332295,1.0,0.5030344883518479,0.5135736850498093,0.41608538459945643,-0.6931493577418089,0.4412842162901395,-0.11775882865030853,0.5576244852857724
5.0,0.05025044746499964,0.023267153692627482,0.16245166069482198,0.007832139504221366,0.016367719136136733,0.21187596657581223,0.0976804167197766,0.23633800563597565,0.9667485950084426,-1.5696025052827898,-1.8375703024103187,4.142661083181491,-0.09933218137954414,1.3786825544547037,-0.35373691729739365,1.0,0.5033043409960298,0.5138425504473274,0.4159947504292829,-0.6931252357086476,0.44127922875076525,-0.11775329397728085,0.5576595840245746
5.1000000000000005,0.21286520964557673,-0.3135669489624295,0.2867457609718037,0.0003106649451502545,0.015836960147358536,0.21342535031958065,0.09771272477092417,0.23640562807466978,0.9667284775541731,-1.568667908547208,-1.8389142844828295,4.14249849319458,-0.0992258372101038,1.378852595866777,-0.35378486114794927,1.0,0.5036664663855176,0.5142179889228146,0.4158101777602022,-0.6931097448153396,0.44128221498008446,-0.11774446471134521,0.5576783386631798
5.2,0.3051242671750259,-0.29012629151452274,0.19564444502122844,0.0009854481137647007,0.009563557032077695,0.21706705452803668,0.09822521306676456,0.23795207432169596,0.9662967969863976,-1.5675161808426026,-1.8402465591558776,4.142311057990913,-0.09909019413796652,1.3789823246269801,-0.35388394438260073,1.0,0.503912858427872,0.5144382127855557,0.4155686929504942,-0.6931624626057806,0.4413052378069643,-0.11776097950778998,0.5575911039675888
5.300000000000001,0.15806916544023017,0.04010423962752613,0.2997310487418273,-0.0011315456627535659,0.016079675181695917,0.2131824731116096,0.09770497788357323,0.2365775776790181,0.9666863651987557,-1.5662828983450625,-1.8412401400763783,4.14211574212558,-0.0989843917731172,1.3791697917794492,-0.35392370902802295,1.0,0.5042610925632135,0.5148060470171997,0.4153094342658444,-0.6931923982072412,0.44132162980744516,-0.11776239670257793,0.5575406138163017
5.4,0.33709892421968546,-0.1416184180671343,0.3143596833836017,-0.005557141116288557,0.012171760682928304,0.21974386578037353,0.097581928808442,0.2361839593846446,0.9667959148050979,-1.565169334411621,-1.8423494012040618,4.1419175494387135,-0.09885310464868916,1.3793611526489258,-0.3539777951270728,1.0,0.5047519593719991,0.5152956538426947,0.41522129194426155,-0.6931148456779739,0.4412821737803757,-0.11775760606459962,0.5576692568345504
5.5,0.16795700860673374,-0.41306021383448766,0.24304465704659495,-0.004347625344248237,0.01507107335699457,0.21574003836675212,0.09801378557102465,0.2372869166258602,0.9664819742567934,-1.5640856801172585,-1.843490443386445,4.141712945828786,-0.09875657803297096,1.3795353796574235,-0.3540557066546839,1.0,0.5049272959213874,0.5154676757269374,0.4151443756790025,-0.6931097860965516,0.44129103460151575,-0.11775883949973218,0.5576682731850474
5.6000000000000005,0.25160833752524514,-0.22110371980949942,0.2911939040388668,-0.0011972760465478426,0.011749792240816872,0.21399881001630783,0.09865579306012066,0.23904317060241698,0.9659837750136909,-1.5631205212542743,-1.844984452462689,4.141564533815915,-0.09862019416524312,1.3796857226422101,-0.3541293041913015,1.0,0.5051984226646533,0.5157501126416857,0.4150117503223082,-0.6931053560623814,0.44128892039349976,-0.11775640821317995,0.5576759654676808
5.7,0.1973905775192532,-0.2605901294615186,0.19100809140580502,0.0002325657564925457,0.014169182475859937,0.2138626799694643,0.09794370036014804,0.23726263551976698,0.9664945878058173,-1.5619820572881937,-1.8462101929053505,4.1413598528886295,-0.09850382960763075,1.3798817866327653,-0.354163948689596,1.0,0.5056825238197148,0.5162490211329673,0.41455327386580076,-0.6931932213361592,0.4413226591821497,-0.11777456436227313,0.5575362054389574
5.800000000000001,0.11063155225824962,-0.3946456406761906,0.07178797277029379,0.0014178182189615502,0.01607476696544575,0.2123491424477895,0.09808478332725604,0.23757017014366294,0.9664052205153045,-1.5608091354370117,-1.847200067239258,4.141185997774678,-0.09842667837935293,1.3800323331780582,-0.35425381138859224,1.0,0.505925854845368,0.5165274282061151,0.4144008183984038,-0.6931979073174812,0.4413217409060229,-0.11775341556633773,0.5575355732299091
5.9,0.061063591166896136,-0.23005471829404137,0.14976960146957677,0.00027702102577310014,0.0184992875009805,0.21459329737980343,0.09822923488018222,0.23783359044885127,0.96632597858086,-1.5596561865782885,-1.8482532784154138,4.140994668633934,-0.09832380083714087,1.3802289223384892,-0.3543193976031702,1.0,0.5063351122310494,0.5169449382047479,0.41438522123778204,-0.6931327320761742,0.44127519583235375,-0.11774095700605514,0.557656062740319
6.0,0.21398310800826023,-0.25912372132942274,0.3451203517649859,-0.0028392075579936546,0.015174240469880789,0.21694342693476895,0.09805546206583964,0.2372855979127482,0.966478373512287,-1.5586476101804538,-1.849559219921327,4.140844821929932,-0.09822209299121099,1.380397335243506,-0.35437399197347536,1.0,0.5065100191215838,0.5170884931281554,0.4143343451662123,-0.6931064885317195,0.44128019714412237,-0.117738565568837,0.5576852278314948
6.1000000000000005,0.11362250277725681,-0.15866960564636018,0.4120919944515813,-0.0028588023509628765,0.016887891083558232,0.2183431962061736,0.09818378996874852,0.23762262863273512,0.9663823688924025,-1.5575128162453922,-1.8508314300211546,4.140634379228737,-0.09812094904083647,1.3805513926686361,-0.3544417402798475,1.0,0.5068063525796832,0.5174203994878313,0.4141328943257825,-0.6931246945472219,0.4412775858747294,-0.11773280414741005,0.5576658828016813
6.2,0.22680397365202576,-0.12936622204113704,0.47924817220585114,0.0008177856336583011,0.012950125641328369,0.21744849860278398,0.09843124874083373,0.23831967113516642,0.96618567741636,-1.5563536981651942,-1.8521329188976978,4.140522920159652,-0.0980127805477167,1.3807196426436896,-0.354536798658819,1.0,0.5073338474613078,0.5179693318272506,0.4137859529493893,-0.6931387340019276,0.4413018282355011,-0.1177362058849612,0.557628530157867
6.300000000000001,0.3423449544129333,-0.10990263056262671,0.49877132688978765,0.0015983703583500848,0.013771496460427931,0.21427926908945577,0.09798391481394375,0.2370809059754,0.9665355458695379,-1.555321462210194,-1.8531819638485538,4.140361011135608,-0.09790976465258794,1.3808837604007578,-0.35457322392928703,1.0,0.5075307988225082,0.5181803154450082,0.41365634782243316,-0.6931584794937717,0.44128739349473556,-0.11773582566026566,0.557615489387266
6.4,0.33109908070140964,-0.3545154557930441,0.36202233909884707,-0.002980438366050447,0.013741723263910766,0.20956719015880967,0.0978475357411864,0.23669429942936887,0.9666445186752991,-1.55417032124571,-1.8542871431605956,4.140176510976279,-0.09782093595568518,1.381065982474979,-0.35470208975098066,1.0,0.5079617280959866,0.5186452059911244,0.4134435604951125,-0.6931524227886742,0.4412828006688808,-0.11772285904278897,0.5576293904331188
6.5,0.3214965058459318,-0.4228317482257349,0.40830328815507216,-0.009454774917275257,0.014952370019501449,0.20932336126484888,0.09792631346041243,0.23689732096328428,0.966586810260259,-1.553171692899471,-1.8556437030858406,4.140024126955265,-0.09772398358813061,1.381180763244629,-0.35471755453664516,1.0,0.508142643061216,0.5188214612385574,0.4133968287429773,-0.6931332513906854,0.44127387878704294,-0.11773258830678598,0.5576582263065791
6.6000000000000005,0.21986023059135312,-0.08693554359405486,0.49400907896662893,-0.0033562478978630683,0.01794872050603721,0.21171303002445366,0.09828217512719871,0.23787188901575765,0.9663105130152037,-1.5519375426142215,-1.856880575074334,4.139806926930199,-0.09766167001433977,1.3813719749450684,-0.3547379427782655,1.0,0.5084404600188903,0.519149952017549,0.4131452938994977,-0.6931750598179655,0.44127850101269167,-0.11773632340873207,0.557601810560678
6.7,0.1794770886760213,-0.08765751513604295,0.4621715193917537,0.00039599744201980095,0.01977512211599315,0.2132651479191677,0.09878759478419469,0.23925826043646137,0.9659173848213946,-1.5506793710377735,-1.8580020890228168,4.139626252435768,-0.0975352067209784,1.3815214865745877,-0.3548539575817796,1.0,0.5087976669595752,0.5195138014736091,0.4129517697316744,-0.6931742142257132,0.4412811408331066,-0.11773497950475126,0.5576010563822605
6.800000000000001,0.2301972578428618,-0.2381226030204803,0.38325187072089617,9.319077082753585e-05,0.016001838253599125,0.21168366976113276,0.09836452761213509,0.23799634036915196,0.9662721664089805,-1.5496927048938784,-1.8591843601799278,4.139455741090859,-0.09746582925830083,1.3817191123962402,-0.35491830507387334,1.0,0.5092374529347411,0.5199778084412439,0.4128122114941377,-0.6931455240220239,0.44125578889570083,-0.11772532687126741,0.5576588192679461
6.9,0.40627351924222543,-0.2747003231885368,0.4478763025309782,-0.0015614562056643511,0.012507956551457408,0.21276497644403564,0.09767073997599332,0.2361228986278504,0.9668020754459885,-1.5486799175238066,-1.8603949347624775,4.139237474184562,-0.09737388856677538,1.381879250083926,-0.3549833133746656,1.0,0.5095048697602697,0.5202208307521147,0.41266140217120606,-0.6931465198252211,0.4412726115915505,-0.11772347268349978,0.5576446613146173
7.0,0.09625341550257317,-0.28441421636970016,0.4006959519417506,-0.003573058385480516,0.016633217782737526,0.2158453312283,0.09829808674020707,0.23776143494857424,0.9663368904487698,-1.5476372230933289,-1.8615886727416626,4.139091133519321,-0.09722459271454084,1.3820739939478355,-0.3550395996979472,1.0,0.5099015409553498,0.5206188205433407,0.4123853864842053,-0.6931790061814406,0.44127140843821433,-0.11770613360168111,0.5576088912461926
7.1000000000000005,0.2502738184960389,-0.4200994005149501,0.4462407640826097,-0.0010479403048720731,0.009450754943978675,0.21173147250799415,0.09825328995322731,0.23781612397885685,0.9663279295236995,-1.547027813211456,-1.862067489148064,4.138987064361572,-0.09717816248364648,1.3821417795149853,-0.3550663139894935,1.0,0.5101444934673435,0.520838624678117,0.41220411507919685,-0.6932048697116387,0.4412928713607939,-0.11772933367578066,0.5575548531637695
7.2,0.31052308423361963,0.02274340896621393,0.3341892803867846,-0.004294479448483228,0.009935293375675818,0.21505835744513788,0.09762524650732073,0.23613378552398936,0.9668032014537422,-1.5470316929187524,-1.862099482156833,4.138971196290187,-0.09721405923876958,1.3821650875843248,-0.35505808514262516,1.0,0.5103725464115584,0.5210439529778045,0.4121747224390662,-0.693150043682585,0.44128920195475174,-0.11774368049894295,0.5576228859036652
7.300000000000001,0.20855935161124606,0.043492719787512124,0.12111739156978463,0.004207694997524438,0.01858862251520972,0.2124557904699419,0.09749010485017338,0.23578342045643375,0.9669028315502608,-1.5469669080505806,-1.8620881670651341,4.138954635400736,-0.09720580240903277,1.3821542890806162,-0.3550815590230423,1.0,0.5103673431189509,0.5210419973390252,0.41219222020933227,-0.6931517602426429,0.4412735157486552,-0.117744088872762,0.5576330792796192
7.4,0.11145886907903664,0.017605978720606513,0.29363179049366483,0.003510810017883188,0.019771913300871503,0.2098012986572398,0.09782192268601951,0.23669492465331238,0.9666465905095067,-1.5469875845952614,-1.8621726576110722,4.138946618475252,-0.09721497866688394,1.3821492195129395,-0.35511723144097146,1.0,0.5103745225366444,0.521052225042913,0.4122047037663033,-0.6931446592467998,0.4412682299112263,-0.1177473273790623,0.5576454048261665
7.5,0.1501446663138759,-0.061605780628936374,0.39237835233087326,0.002374546336745901,0.018361424419100526,0.2115565491498101,0.09795917277456537,0.2370763365103285,0.9665395975502832,-1.5469385568126965,-1.8621625863878395,4.138959577489648,-0.09719849329580023,1.3821411400494634,-0.3551184097192585,1.0,0.510419570113597,0.5210536743990557,0.41216679766383724,-0.6931443158250775,0.44129855507592514,-0.11776362281418094,0.5576183926924984
7.6000000000000005,0.25240717388163036,-0.5631422808628133,0.336384676464066,-0.012711883814978116,0.0159678821467054,0.21357988680215742,0.09790620506078894,0.23693950728517335,0.9665785159379476,-1.5469697610491273,-1.862181065483195,4.13895438640793,-0.09722255548466646,1.3821596305494364,-0.35508238722066676,1.0,0.5104068476717001,0.5210628609572457,0.41216086940236324,-0.6931433539236959,0.44129548645757727,-0.11774854170019679,0.5576252016104167
7.7,0.06859012173812884,-0.1314991251787559,0.22517735493215235,0.0021221436572654417,0.019697320802788295,0.20627297155445481,0.09799544850689493,0.23715133544662464,0.9665174779759761,-1.5469931601256308,-1.862187857326092,4.138956258091107,-0.09720695553796317,1.3821616172790527,-0.355063840954648,1.0,0.5104036483744098,0.5210559622668434,0.41218429123707234,-0.6931350952161195,0.4412908077694597,-0.11774312469915252,0.5576403135929094
7.800000000000001,0.1396241547114224,-0.37226943108401245,0.27108877424580335,-0.004397698384800196,0.018296162686515332,0.21044114298476568,0.09805780125361972,0.23726995583993388,0.9664820565193786,-1.5469577598617728,-1.8621762125024544,4.138956810301742,-0.09720982141888568,1.3821616172790527,-0.3551067875105109,1.0,0.5103905137801449,0.5210679044180702,0.4121917276936487,-0.6931516062638247,0.4412745431026436,-0.11773223639031194,0.557634960218572
7.9,0.2721286241614952,-0.1349048419228044,0.43528717371216147,-0.0005942398071158801,0.013865409473292527,0.2121320986720219,0.097943227660053,0.23692648159876672,0.966577965106443,-1.5469821227779605,-1.8622032604613246,4.138933833805251,-0.09721135276496544,1.3821554743089521,-0.3550980726825159,1.0,0.5103962589216311,0.521070746588838,0.412183567393731,-0.6931422503365724,0.44127834869465754,-0.11773087388732764,0.5576438658367859
8.0,0.06694649453485503,-0.2439105367339861,0.3800627940486185,-0.0065837851138062726,0.02190521337557705,0.2059841610798702,0.09814151105476283,0.2375033844359852,0.9664161465366952,-1.5469509351580661,-1.8621849491797944,4.138963222503662,-0.09721405923876958,1.3821492195129395,-0.35505725523810994,1.0,0.5103959912104968,0.5210761665127213,0.4121690844614001,-0.6931549848227857,0.4412768586317214,-0.11773929939184326,0.5576274369416927
8.1,0.08194428040488885,-0.07422228491574878,0.48701909291449336,0.001970624067148991,0.018524541921947336,0.2070085168627067,0.09825012497252429,0.23783060098198647,0.9663247475100935,-1.5469546544437849,-1.8621794186034144,4.138966266942391,-0.09718055804881309,1.3821796044471002,-0.3550887193551313,1.9564975729750502,0.5103956156591418,0.5210717828365334,0.4121787644038066,-0.6931477037953261,0.44127721176393986,-0.11774370189276445,0.557635278444341
8.200000000000001,0.05952938610157402,-0.2454123300802401,0.49713315740799385,0.005307079241913049,0.011613258591653897,0.20512623734110838,0.0982529544051096,0.23786223821519833,0.9663166730021694,-1.5469285638385477,-1.8621674976744593,4.1389306969157476,-0.09721405923876958,1.3821435261748771,-0.355070574204169,2.0,0.5103933578636448,0.5210650612026954,0.41218822381731846,-0.6931430146936436,0.4412747115449871,-0.11774961872541334,0.5576418361478231
8.3,0.04198614553865676,-0.034918476105650215,0.3690205503299451,-0.007790364138482355,0.017999056694294902,0.20180001145696616,0.09777201100492183,0.23650200232785631,0.9666985946495535,-1.546935692473888,-1.8621821193464947,4.138934954956532,-0.09723138165388533,1.3821686356816296,-0.35511521069391416,2.0,0.5103926831370396,0.5210760426698879,0.4121613995654776,-0.6931575379486916,0.4412772252339369,-0.1177408050964174,0.5576236552460749
8.4,0.1792179805388451,-0.22510761678409807,0.3174256608357799,-0.007178068921893109,0.0222369277612613,0.20721866301978714,0.09775876996683189,0.23649445765231047,0.966701600223925,-1.5469680480975332,-1.8621674976744593,4.138923606566029,-0.09720849901326246,1.3821403919978519,-0.35507284448547716,2.0,0.5104010531748792,0.5210781485237895,0.41214626321244485,-0.6931564942499129,0.4412884960148341,-0.1177361778413562,0.5576170103139294
8.5,0.0222223728590403,-0.32835839034101716,0.24896193121515156,-0.0017272071806553766,0.022945380151698676,0.20958101599149367,0.09832867337127395,0.23817314247777643,0.9662322540057514,-1.5469531597258626,-1.8621981384763258,4.138958100518663,-0.09721662023126901,1.3821667392640515,-0.3550766893774052,2.0,0.5104106736385214,0.5210596479038313,0.4121521868406991,-0.6931628938063669,0.4412822326800076,-0.11776471693078971,0.5576079852523111
8.6,0.2565717930106813,-0.25685463423798227,0.27377089942863153,-0.0034615141628247786,0.016561659190537897,0.21477084226664273,0.09842624670763356,0.23835818841819478,0.966176815681288,-1.5469560623168945,-1.8621794186034144,4.138927936553955,-0.09720497039012371,1.3821643360761495,-0.35509994860116106,2.0,0.510397407611646,0.5210704085330818,0.412170309437199,-0.6931525658660291,0.4412844739074107,-0.11773918487025181,0.5576244415981861
8.700000000000001,0.0021877455907620413,-0.10305660405791449,0.3602952109611467,-0.0008958517074442295,0.018813759793960372,0.20627877179333767,0.09807422315480421,0.23739770800814525,0.9664481719562773,-1.5469370756684966,-1.862158369478114,4.138953729179463,-0.09721685197137951,1.3821521239548538,-0.35507132638269145,2.0,0.5104054891632144,0.5210641637238779,0.41216751851191563,-0.6931473718257068,0.4412888748794138,-0.11774801536279328,0.5576255506313353
8.8,0.08462784986663857,-0.22143795644367167,0.3741581165785784,-0.005209871572353142,0.015802052447489206,0.21082927718758057,0.09780722433853006,0.2367196969045147,0.9666419708012164,-1.546945673987116,-1.8621820642379243,4.138947423374662,-0.09719249200359159,1.3821403152302723,-0.35509930524805067,2.0,0.5104113415413825,0.5210566376740318,0.4121769145705713,-0.6931412993223618,0.4412876838075658,-0.11776220139387072,0.5576310457787758
8.9,0.182165350249484,-0.26478574970131846,0.3609214563853303,-0.01216137864149805,0.01801596869261065,0.21540262649829067,0.09804804521874973,0.23731118317566371,0.966472809747024,-1.5469627931748826,-1.8622161586283175,4.138950824737549,-0.09721405923876958,1.382142307376728,-0.35505906667982007,2.0,0.5103976409579232,0.5210757762847479,0.4121619301009762,-0.6931482779205267,0.4412886594621555,-0.1177395294384369,0.5576263866187803
9.0,0.3487732452248233,-0.05441826308095782,0.3793770951150757,-0.008763027663319718,0.017287220005064493,0.2158318036687891,0.09784600377624786,0.2367145652417863,0.9666397332362044,-1.546938896638193,-1.862205326507055,4.13895289078328,-0.09721405923876958,1.3821814859720964,-0.3550618330584925,2.0,0.510399191571875,0.5210799192155422,0.41214623664136457,-0.6931632155053041,0.44128457102390695,-0.11773641168258724,0.5576117120458483
9.1,0.21879953222296386,-0.2554033987136901,0.3270432912246233,-0.012082327525270421,0.01776265236744673,0.21006240554507083,0.09780584324259643,0.23661197617729138,0.9666688987820965,-1.5469570938070492,-1.8621913395323695,4.138971323005606,-0.09722804616011398,1.3821594686469678,-0.3550762141772995,2.0,0.5103967791994912,0.5210778826090098,0.41214283299728355,-0.6931634350297864,0.44128088180785313,-0.11773331124851502,0.5576150133479647
9.200000000000001,0.09747132923605464,-0.20619992781408808,0.6263004872505036,0.001368137938490237,0.005474374496931804,0.212486103760928,0.09771964927252272,0.23635516465505474,0.9667404515409831,-1.5469394166687722,-1.8621981132618048,4.138963222503662,-0.09724117473044157,1.3821836747744627,-0.35511669871157936,2.0,0.5103912391898675,0.5210785327359108,0.4121429488035312,-0.6931685396219036,0.44128135182367356,-0.11773790687562671,0.5576073255398056
9.3,-0.4366166257380846,-0.9655836991723589,0.7797359889932759,0.02035599566613532,-0.019516144112293073,0.21124401618499053,0.09767072425939471,0.23623785176693635,0.9667740705641367,-1.5469480354548715,-1.8621794186034144,4.138952982929803,-0.0972114993453049,1.3821564974921234,-0.355109993611471,2.0,0.510389425012621,0.5210822548734264,0.4121706272430236,-0.6931448576758356,0.44128783907905195,-0.11772292758968994,0.5576347923849436
9.4,-0.439807817060921,-0.23196727854048033,1.2330471434905839,-0.01575713628247587,-0.02880414485340116,0.21441109927841323,0.09762349839352667,0.2361625350219354,0.96679724237833,-1.5469149996858975,-1.862181275162027,4.138939380645752,-0.09723418797945434,1.3821712790745815,-0.35507980050044385,2.0,0.5104160952736811,0.5210704055613165,0.4121596963036996,-0.6931419064028819,0.4412915797544177,-0.11774211483801202,0.5576314496327313
9.5,-0.09972341662049017,1.200781803992239,1.8553695351480686,-0.09638866444772093,-0.021028101337034172,0.22100770975711342,0.0975457187910525,0.2359507116876322,0.9668567922574708,-1.5469575700900364,-1.8621754134834538,4.138939380645752,-0.09722755076474739,1.3821631250521946,-0.3551219145404261,2.0,0.5103904926929239,0.5210948058989864,0.41216454884937737,-0.6931607722023624,0.4412699718594226,-0.11773396445216046,0.5576268191446554
9.600000000000001,-0.27741646115275875,1.3883911969809475,2.022648595211908,-0.13482274846660716,-0.02443226534619031,0.22893202015068048,0.09747874764087894,0.23575151488924484,0.9669121519884225,-1.5469531086913213,-1.8622302163220832,4.138950824737549,-0.09724191052856374,1.3821572364966381,-0.35507950515598646,2.0,0.5104129338460333,0.5210725922217908,0.41215245062804934,-0.693162948359351,0.4412869503797911,-0.11775221445160075,0.5576068242391046
9.700000000000001,0.02137162343970242,0.9143089278494774,2.3433341043722193,-0.1378077243663529,-0.016105129357580617,0.22238651284361288,0.09744361439140779,0.23562481355051604,0.9669465781563957,-1.5469251113020188,-1.8622460795190638,4.138952199775927,-0.09723525679210582,1.382174436409228,-0.3550817084595418,2.0,0.5104111810022335,0.5210839751306194,0.41213291208089387,-0.6931697850471338,0.4412837694173553,-0.11773885748929638,0.5576036633520587
9.8,-0.0055072692255158096,1.0864938135592461,2.5711212876960206,-0.1254386912448221,-0.011400019760538095,0.22480304266870993,0.09757259973836452,0.2359874350397063,0.9668449505866302,-1.5469473647896141,-1.8622260482639095,4.138984002576605,-0.09724982202563481,1.3821630869358368,-0.35509341876936656,2.0,0.5103942861247361,0.521094093631636,0.41212997410751734,-0.6931755790858081,0.4412815440863353,-0.11774136869974146,0.5575976914447779
9.9,-0.12168345625913035,1.2326924049945045,2.6869453462167527,-0.13131653565071222,-0.02450293435192317,0.22384579974438315,0.09773560955716362,0.23645150116187988,0.9667151168496814,-1.546939003916746,-1.862216930782056,4.138930379858822,-0.09722725272234277,1.3821253776550293,-0.3550669741791497,2.0,0.5104118289814057,0.521076684662481,0.41210872284255223,-0.6931701039908894,0.441305564748897,-0.11774084519907775,0.5575855977576211
10.0,0.019068654845750647,1.377062871869218,2.8606422827557334,-0.15456584998789985,-0.03907023672827776,0.22657221128329952,0.09779055712773771,0.23659437457410448,0.9666747021884979,-1.5469493521265236,-1.8622238468045,4.138963222503662,-0.09720539382454922,1.3821492195129395,-0.3550774863393405,2.0,0.5104039659976632,0.5210751814760832,0.4121689884596631,-0.6931520100237706,0.44127630506094107,-0.11774452170248981,0.5576304701151307
10.100000000000001,-0.18586235424394715,1.8076566664571192,3.102705698608158,-0.17025797543472904,-0.03779821491508638,0.2245121763495598,0.09761732611211851,0.23605903427473626,0.9668231001665293,-1.5469776881540196,-1.8621820484918907,4.1389483000446115,-0.09721405923876958,1.3821479571664708,-0.355099387626754,2.0,0.5103947947295487,0.5210886353855358,0.4121617753733638,-0.6931526476174301,0.44128055092435026,-0.11773019853544635,0.5576293417940388
10.200000000000001,-0.07119236978657961,1.652777613765722,3.077990818762208,-0.18823251562959745,-0.04113894065648349,0.22316570582351972,0.09743826731258355,0.23560563731386178,0.9669517225004558,-1.546945195071864,-1.8621794186034144,4.13894016512851,-0.09723956812253967,1.38215006936926,-0.3550840405773243,2.0,0.5104006863917233,0.521083088029939,0.4121316993036555,-0.6931572594458049,0.4412983195376587,-0.11773038982128141,0.5576095068803513
10.3,-0.2167778486441724,1.9838241139686201,3.279438449959913,-0.17747901975313857,-0.04338029850991907,0.22782776138846164,0.09744923004555263,0.235667767586194,0.9669352161681061,-1.5469691987573748,-1.862189647183686,4.138961530154979,-0.09723705492233806,1.3821607372577374,-0.35508824728640137,2.0,0.5104086527179053,0.5210687863390832,0.4121229539091887,-0.6931735025104834,0.4412859566969121,-0.11774417955922004,0.5575961872353201
10.4,-0.3803127158664694,1.4393156597838888,3.191773849126238,-0.16902043276966017,-0.04997268162078595,0.223362983459376,0.09789555440914079,0.2368604050080315,0.9665987498409272,-1.5469572841870398,-1.8621926123137706,4.138971751014315,-0.09720341109121575,1.3821492195129395,-0.35510357879320875,2.0,0.5103992052978198,0.5210780272244152,0.412123065534622,-0.6931718858564999,0.4412882056814835,-0.1177366011655135,0.5575980173301844
10.5,-0.30605338580752023,1.460797000312657,3.364386825988617,-0.17077784600321297,-0.05271225558914636,0.2234700495894103,0.09792944874798591,0.23693108024897538,0.9665782070183268,-1.546989231357211,-1.8622011149450501,4.138950824737549,-0.09721260028770302,1.3821398923305332,-0.35508498835119484,2.0,0.5104014343958297,0.5210760495632778,0.4121611788335293,-0.6931449565969282,0.4412869199108208,-0.11773030057317252,0.5576338402453835
10.600000000000001,-0.3179345116955946,1.5211204771382576,3.4073729633001797,-0.17388954248706184,-0.050443192241865914,0.21985251408800974,0.09785654448425202,0.23671122379756596,0.9666394724705527,-1.5469563378127356,-1.86217913162858,4.138963222503662,-0.0972024252846489,1.3821389233204802,-0.3550501991043718,2.0,0.5103813723809273,0.5210969875833978,0.4121391884956218,-0.6931758181698613,0.44126740074495524,-0.11773511332588651,0.5576099077621156
10.700000000000001,-0.3284724808658408,2.0137288265268487,3.452339419286952,-0.18779873534540842,-0.04738033897258853,0.22740615554930999,0.09788124463575518,0.23680144716368756,0.9666148585280965,-1.5469427108764648,-1.8622132425828068,4.138982327803473,-0.09721524337829457,1.382183090857913,-0.35508809056103363,2.0,0.5104095413616547,0.5210665338618238,0.41215762209498574,-0.6931520579056458,0.44129691030444324,-0.11774746639300622,0.5576134823826882
10.8,-0.4162170542153161,2.2230669911288117,3.270937893255225,-0.2040817372466164,-0.04469590876030444,0.22682609757803984,0.0979347820785709,0.23698328382421366,0.966564871459679,-1.5469525094458898,-1.8622032604613246,4.1389424749308334,-0.09722598016772466,1.3821382705095357,-0.35509162625526264,2.0,0.5103988557067916,0.5210848070857347,0.4121364679803576,-0.6931660244680375,0.4412824364952904,-0.11773793273093913,0.5576095882965076
10.9,-0.39681984456984537,2.177845349186852,3.28505275584124,-0.21379179978127147,-0.045012398542492615,0.2309755571344842,0.09795625742304281,0.23706618767574025,0.9665423791378277,-1.546942435453197,-1.8622032604613246,4.138962797892791,-0.09720228175943313,1.3821380623203798,-0.3550504916659966,2.0,0.5103965539271272,0.5210771960733712,0.4121602547033075,-0.6931465397184576,0.4412856884538496,-0.11775172611466896,0.5576283230245362
11.0,-0.5425849722251045,2.3008302330436594,3.3260802068298707,-0.2164451945424468,-0.04066671179600801,0.23173700636612107,0.09788276759039619,0.23685606105780962,0.9666013238900415,-1.5469781493137718,-1.8622032604613246,4.13896294841347,-0.0972021383098145,1.3821730613708496,-0.3550859490065951,2.0,0.5103820878535575,0.5210804524780271,0.4121591214472034,-0.693152984007226,0.44128536584453965,-0.11772862558418644,0.557625445412409
11.100000000000001,-0.21306446584608835,2.1867899472785965,3.0478368405979976,-0.2176930149432684,-0.04927684720033508,0.2379653823114103,0.09784919453801552,0.23675624040507826,0.9666291911814617,-1.5469889727881034,-1.8621925272716184,4.138973149772137,-0.0972247924284756,1.3821480792832603,-0.3550968374336969,2.0,0.5104032500140535,0.5210708718245431,0.41215375702606966,-0.6931503747710385,0.44129550594779127,-0.11774279226585138,0.5576176730112604
11.200000000000001,-0.43847029962207806,2.029285679824527,3.256655592802639,-0.2250088817684538,-0.04359357176331245,0.23633194555757647,0.097945531890133,0.23701541395133083,0.9665559159088889,-1.5469789505004883,-1.8621904497088297,4.138963685211903,-0.09720258322158437,1.3821390923599814,-0.35508524780110357,2.0,0.5103962297767091,0.5210772510213132,0.4121364487697879,-0.6931672782050503,0.44128726837028204,-0.11774217739570439,0.5576033095868562
11.3,-0.2827700993858743,2.089439764037969,3.3980697544512766,-0.22170810836980334,-0.04571768899637598,0.23765262385398578,0.09793217687415118,0.2369649778856163,0.9665696400643272,-1.5469689734838068,-1.862188283125879,4.13897097453191,-0.09721558744201485,1.3821314904680104,-0.3551038196703601,2.0,0.5104070099786404,0.521067392883241,0.4121474377852859,-0.6931589859068085,0.4412849394430342,-0.11774113736450055,0.5576156804193335
11.4,-0.4199285162763955,2.0572467033861317,3.4209880795588776,-0.2251686692178597,-0.0430807730459906,0.23443177799876552,0.09783197804605906,0.23668440422544518,0.966648454387265,-1.5469341828495196,-1.8621784593715554,4.138916536388975,-0.09721210240577714,1.3821453825855032,-0.35508567491640264,2.0,0.5103863030782151,0.5210758309994445,0.4121755097049446,-0.6931493858268369,0.4412775432488026,-0.11773926775278913,0.557633861580533
11.5,-0.511789621410912,2.3405936827211113,3.2000308553909877,-0.21749170439927054,-0.052768888997791266,0.23362188133507614,0.09756907615971826,0.23599839319843177,0.9668427113667143,-1.5469547417928589,-1.8621785498376013,4.138963222503662,-0.09721273871473382,1.3821721926050365,-0.3550750995904188,2.0,0.5103963180044425,0.521070664246697,0.4121598525852565,-0.6931586561174565,0.44128239893674814,-0.11774456981644701,0.5576173760893847
11.600000000000001,-0.23648940894986675,2.379414596610438,3.449429675902697,-0.23007663446341678,-0.0518413921568288,0.2381759420208757,0.09750794262063588,0.23585425453510997,0.9668841528768556,-1.5469677212958919,-1.8621798662850821,4.138962989709195,-0.09723699677971072,1.382125825336697,-0.35509829652334984,2.0,0.5104094800517367,0.5210777493998011,0.41215563414337314,-0.6931511598003752,0.44128388147634895,-0.11774743688280143,0.5576249158028116
11.700000000000001,-0.317388129565884,2.306996545092024,3.621743217974793,-0.23827254995491484,-0.04305009279721291,0.23797050183915205,0.09752997469103816,0.23593346678882568,0.9668626063523702,-1.546966718603962,-1.8621794186034144,4.138951612542278,-0.09721519549559088,1.382161223376688,-0.3550499121295374,2.0,0.5104103672506148,0.5210666327613761,0.41213605102034007,-0.693156746853772,0.44130161274241564,-0.1177424998796954,0.5576049807920648
11.8,-0.36239005948018244,2.448202145004837,3.531775254807702,-0.23386088425803178,-0.03975733510811351,0.23381068083265874,0.09766778371376314,0.23627515353766723,0.9667651309751477,-1.5469391853507908,-1.862158181536992,4.138978120869604,-0.09722077058474912,1.3821678517878742,-0.3550953636993686,2.0,0.5103897959919683,0.5210805349507291,0.4121619832360208,-0.693150623440995,0.4412863149045346,-0.11772636515272833,0.5576281058638121
11.9,-0.33527118243883597,2.3228040624471293,3.1813532502490722,-0.2359832893363777,-0.03734204036683626,0.23516869019055875,0.09785562033782642,0.23673025637788275,0.9666348464912887,-1.5469771746838399,-1.8621913395323695,4.138949936829225,-0.09720117640912997,1.3821483316046153,-0.3550760806336145,2.0,0.5103932788281945,0.5210779886189741,0.41213856972078156,-0.6931624819768303,0.44128711170535917,-0.11772746967118854,0.5576125012114435
12.0,-0.1992757343553402,2.4836296040561496,3.37370159596128,-0.23186552366458466,-0.044880822277527974,0.23651559963123875,0.09789364079335355,0.2368557278155272,0.9666003302604208,-1.5469409462730968,-1.862159253002521,4.138929701157323,-0.09719345356328818,1.3821712232423413,-0.3550875498074812,2.0,0.5104016058596814,0.521071153044639,0.41213951019815154,-0.6931574733082626,0.44129355175015317,-0.1177372814741232,0.5576115591805133
12.100000000000001,-0.11450103312093317,2.4256118671519533,3.668604447740593,-0.24367171309696564,-0.039515854243228905,0.2375310929891822,0.09787005067876935,0.23682499165356138,0.9666102500046072,-1.546955147156549,-1.8621311667387526,4.138998124585642,-0.09724806210189363,1.3821726389891518,-0.35506361058147107,2.954686441890424,0.5104112889424003,0.521053945441853,0.41217409511538855,-0.6931388035582798,0.4412911467828756,-0.11774558298307548,0.5576349168235668
12.200000000000001,-0.22103568931489806,2.5875283770364277,3.4803131752239223,-0.24713590819271575,-0.043198436009204845,0.23842957222553512,0.09787318647983706,0.23675949814799058,0.9666259760764817,-1.5474634170532227,-1.8614196684889903,4.138952583564775,-0.09724982202563481,1.3820432131424119,-0.3550618330584925,3.0,0.5103774944120507,0.5210848716660693,0.4121909089026267,-0.6931494757638921,0.44126693233025993,-0.11773730424904025,0.5576425610265526
12.3,-0.3930155622792775,2.3177401692488186,3.588322286356062,-0.23329191293782656,-0.052582700053878426,0.2184616044380715,0.09789338670725882,0.23686529800805353,0.966597985996871,-1.5486261766478489,-1.860285739919453,4.139075662285172,-0.09728049793249655,1.381911776121791,-0.3549652364713873,3.0,0.510274053967761,0.520896224978146,0.4123521889065871,-0.6930959729739385,0.44128182960892304,-0.11776039379279855,0.5576923961809732
12.4,-0.4813522637211239,1.9062550348469356,3.6238240471798147,-0.21621992356662245,-0.049747231308527054,0.18528975389519978,0.09792204540214196,0.2370560042886138,0.9665483267654702,-1.5497314114264469,-1.8590968354032902,4.139283427688881,-0.09741862237963872,1.3817433012758522,-0.3549334462263282,3.0,0.5099442127122699,0.520482444305064,0.41253465891029445,-0.6930892933953565,0.4412986473828321,-0.11777883733841853,0.5576834950704735
12.5,-0.4647723212662498,1.5888748947361186,3.635404224308192,-0.1959952567261745,-0.05241758030343546,0.162252620952541,0.09790623192808809,0.23710391214384016,0.9665381114428441,-1.5509424528386708,-1.8579372529001408,4.139583872668129,-0.09750225934702485,1.3815503120422363,-0.35485774675478154,3.0,0.5096826359755422,0.5202161254568247,0.41264205306673246,-0.6930978504385046,0.44130912967157854,-0.11776904618998005,0.5576666329856401
12.600000000000001,-0.36146948912311816,1.585463184976194,3.6678404986486637,-0.1856696784287312,-0.05721434190745241,0.13898396047037057,0.09764886339559502,0.2363761959896905,0.9667421396778602,-1.5521263300565933,-1.8567268632660594,4.139695644378662,-0.09757930929265599,1.3813719537510696,-0.3547675961285852,3.0,0.5092104112749107,0.5198109752910791,0.4128299900568095,-0.6931366257947862,0.44127919590087805,-0.11776552398989905,0.5576428701295101
12.700000000000001,-0.2961076667683425,1.6270459975312521,3.6414152424423785,-0.19406642945911115,-0.043956111780795656,0.11265805884189667,0.09742617008719012,0.23574585525752442,0.9669188343418825,-1.55338349923405,-1.85543439301292,4.1399013758628005,-0.09768361275549693,1.3812044087415507,-0.3547253171089038,3.0,0.5090335225346714,0.5196345574418162,0.41286996506322843,-0.6931515144990442,0.44130118911974714,-0.11776148049602417,0.5576078121229677
12.8,-0.23122350766803018,1.7807419067755272,3.8483214505261665,-0.2017332254894889,-0.038432776927590465,0.09263924889620469,0.0974058773778759,0.2356838985593322,0.9669359819145763,-1.5543031692504883,-1.8541895181353836,4.140096134235747,-0.09779712215137304,1.3810210591072571,-0.35467654752453054,3.0,0.5085009855811199,0.5191120792079882,0.4131119989995979,-0.6931649340905746,0.44131235525738693,-0.11775041665593439,0.557584629111798
12.9,-0.3436049685235159,1.6686607516288685,3.7632133479928163,-0.16967944906761545,-0.042907320727594574,0.07233768096865012,0.09738639810972338,0.23565801037894776,0.9669442546041732,-1.5553854940727765,-1.8530875433645313,4.140279388587135,-0.09790885874168792,1.3808508608379928,-0.35460411715003387,3.0,0.5083144447473517,0.5188864275214149,0.4133245444084423,-0.6931249167353997,0.4412947731670751,-0.11776753329882192,0.5576446727770978
13.0,-0.338651336755312,1.5855867686517848,3.952994668703166,-0.15334410640392748,-0.052352371452945114,0.05694265587948899,0.09738393607464604,0.2356178521890503,0.9669542877123782,-1.556468518045765,-1.8520238822217296,4.140501544825368,-0.09802924238012269,1.3806725962477098,-0.3545521085258401,3.0,0.5080375063008817,0.5186122996370801,0.41345306016984223,-0.6931292191967314,0.44130178448590107,-0.11777672749756617,0.5576318346052823
13.100000000000001,-0.21630848218667853,1.9901049329874319,4.0609772804850275,-0.20017465453486133,-0.059187887470966996,0.0414746160829793,0.09736799332695696,0.23550950628469822,0.9669822654288189,-1.55760881558052,-1.850812784699995,4.140640946775588,-0.09813558957721429,1.380542418764193,-0.35447429900461686,3.0,0.5075443513005277,0.51821448767906,0.4136450207564878,-0.6931625776658424,0.4412860913892827,-0.11774117534672196,0.557610295903857
13.200000000000001,-0.27769973752471877,2.0912957818573203,4.024850217015655,-0.22802540162263712,-0.05218526961181878,0.030825358830897195,0.09717314083844421,0.23503870252278053,0.9671163671000778,-1.5587243972205966,-1.8495405859059846,4.140834331512451,-0.09823678973595444,1.3803410894518626,-0.35439226848121447,3.0,0.507372507599407,0.5179783759876986,0.4137568054891908,-0.6931491874319143,0.44130285654034396,-0.11775148592685532,0.5576114958766787
13.3,-0.3789577634306611,1.8054823022770388,3.9412951891150496,-0.22239731786835962,-0.045969029599332044,0.02626124034683051,0.09731004523854475,0.23539068907799124,0.967016778197194,-1.5596853394582482,-1.8483378987782153,4.141024365459699,-0.09835340702673534,1.3802042753585262,-0.35432739463173846,3.0,0.5068811229225684,0.5174476462552501,0.4140669123754009,-0.6931264021312649,0.4413043828791464,-0.11776357442737663,0.5576360577099653
13.4,-0.5227900550312281,1.4605085742810298,4.002046651449949,-0.18816191762938703,-0.047488025546478976,0.03202010647646165,0.09760980951751852,0.23613471214236417,0.9668053889829071,-1.5608350595731708,-1.8473205457773085,4.1412177085876465,-0.09844892350784752,1.3800063133239746,-0.3542582494352001,3.0,0.5066998141022808,0.5172911065904188,0.4142066733505006,-0.6931139838933217,0.4412737931553735,-0.11775433157836053,0.5576776507986765
13.5,-0.5317637906779904,1.4406443227678056,4.176717586424407,-0.17256186263739737,-0.050748995343448455,0.029717927795735757,0.09743929776510214,0.23560365054078317,0.9669519995043486,-1.5619484841967302,-1.8462030678040011,4.141419011835581,-0.09859436713574535,1.3798742294311523,-0.3542006937861932,3.0,0.5063812220568222,0.5170449873911911,0.4142802078233136,-0.6931686949882998,0.4412611641606542,-0.11773253824952995,0.5576242415185375
13.600000000000001,-0.484947823016108,1.6395523706382686,4.15886502917898,-0.1965674257894371,-0.043485095403831414,0.0358195806237361,0.09724505223627705,0.23501081568217017,0.9671159015125305,-1.5631037087411117,-1.8447838214153567,4.141602344846875,-0.0986674588969727,1.3797132626979476,-0.35414167364860555,3.0,0.5060676147394005,0.5167410016039481,0.4143540546596671,-0.6932062410012447,0.4412826992829413,-0.11772315832831319,0.5575625029928862
13.700000000000001,-0.19748754432402493,1.922147199930298,4.123927394101756,-0.21930910854612257,-0.03839321841329151,0.042769403578573284,0.09676111743720339,0.23365801551563714,0.9674917538328935,-1.5640924535201768,-1.8434139828188643,4.1417596685765155,-0.09879331642798685,1.379545661150399,-0.3540733771082889,3.0,0.5056038235165374,0.5162316935266863,0.4146956419269885,-0.6931515872482534,0.44128223652928084,-0.1177165647348239,0.5576322042403711
13.8,-0.22301714771239792,2.06314860539053,4.113035643037442,-0.23005344994971919,-0.029568301128035334,0.04586857449850709,0.09580527264125767,0.2310042817461366,0.9682222972245195,-1.5651632762324734,-1.842408782364367,4.141967914141409,-0.0988953870585938,1.3793772619859457,-0.3540012440922898,3.0,0.5053048174534087,0.5159233352825571,0.41497744113640544,-0.6931084788790756,0.4412485573435867,-0.11772207205363047,0.5577112701923259
13.9,-0.42035570084931395,2.0664302554818827,4.065598216444744,-0.22224800147502266,-0.023035738896109128,0.044524960311307385,0.09489108784729844,0.22853720267875008,0.9688968197770673,-1.5663853638781298,-1.8413455146773143,4.142153263092041,-0.09901017443349905,1.3792347729684364,-0.35394117102362455,3.0,0.5049334530602451,0.5155336994718352,0.4150817282965987,-0.6931494814880221,0.44127716031150643,-0.11773527928474398,0.5576348878182233
14.0,-0.30348629110774833,1.9877314426281973,3.8876743038889123,-0.22297461124618073,-0.02377875929402408,0.04405629968315817,0.0940087092757842,0.22621262914887574,0.9695285720179418,-1.5674575908325887,-1.8401240736570907,4.142287939628191,-0.09912931823531702,1.3790488671040737,-0.35386354127992803,3.0,0.5047341620114248,0.5153499043280227,0.41510269434604274,-0.6931881018490245,0.4412840342265619,-0.11772826308989559,0.5575829199872546
14.100000000000001,-0.3970793389113458,2.2196178809675375,4.056781833333461,-0.2322285601744455,-0.017857356994680343,0.04982294574697005,0.09361375978553294,0.22518662808272116,0.9698079430697869,-1.5685107353507928,-1.838708676935098,4.142488956451416,-0.09922665195078707,1.378889759941591,-0.3538273016559046,3.0,0.5042947785390894,0.5148675264299132,0.41536944841686807,-0.6931741063338103,0.4412766227566049,-0.11774865580298217,0.5576018782011404
14.200000000000001,-0.07980565594290234,2.069729356664723,4.209985842165245,-0.24026760524557103,-0.01783972462712863,0.050995602248513815,0.09360468526611626,0.2251886465394602,0.969808350296398,-1.5694799423217773,-1.8374469005874736,4.142646440663653,-0.09938489916429928,1.3787298977770848,-0.35374337831606084,3.0,0.5040549256511202,0.5145942764200724,0.41556809017832663,-0.6931384140095985,0.44127912980835565,-0.11774505757905168,0.5576450215285214
14.3,0.02300943540298439,1.8661912413638644,4.3348686991458125,-0.2243065651588486,-0.019476327465478734,0.050250711295341005,0.09325541331331709,0.22423744223603,0.9700613755908033,-1.5705284128788637,-1.8364663573306668,4.142816020438489,-0.0995033038508815,1.3785255427060759,-0.35367638182188665,3.0,0.5037940560497517,0.5143232836898476,0.4157880594465626,-0.6931095451912301,0.44127199426244024,-0.11774364409426744,0.5576868473613643
14.4,-0.12926518328629336,1.7607622041336666,4.326884888065425,-0.1989437522045796,-0.01782149580866677,0.049040984261822115,0.09262819739503021,0.22251139098980222,0.970519758832751,-1.571732521057129,-1.8352886114426785,4.142995164530417,-0.09962155758950826,1.3783450420184458,-0.3535879294024866,3.0,0.5034836787891309,0.5140203263408564,0.4159563226904202,-0.6931117866766354,0.44126505380354364,-0.11774302402723466,0.5576896841027276
14.5,-0.20120190238932775,1.7248037904467153,4.345201653881196,-0.1936624042262407,-0.015689552836233932,0.05208626225850918,0.09215007402521702,0.22130721588504812,0.9708401566437442,-1.572975823971705,-1.8340646535505374,4.143199732211157,-0.09971567755351761,1.3781544811068165,-0.35354379921830303,3.0,0.5029838928812123,0.513532825706504,0.41609704356274135,-0.693157789386817,0.44128515914230987,-0.1177469425863284,0.5576157681098148
14.600000000000001,0.10047892933444896,1.90127302650294,4.264496701880974,-0.19703867680856474,-0.014382271324895777,0.049496426273537605,0.09154561430803114,0.2196661900539051,0.9712684091448868,-1.5740792111754636,-1.832752065312072,4.143383689165376,-0.09984839833267024,1.3780031554403642,-0.353484374587988,3.0,0.5027441293460432,0.5132611182837528,0.41615834807270696,-0.6931867294925006,0.44130159679665387,-0.11775450482484015,0.5575651848113109
14.700000000000001,-0.21400290987794943,2.1539326331034814,4.417402463842905,-0.19685238440390154,-0.0019917887002526224,0.050974906446140375,0.09082849937626394,0.21763562064844805,0.9717928366068783,-1.5749100377129146,-1.8316065273680628,4.143559160245509,-0.10000718577466262,1.3778153177039052,-0.3533838430987757,3.0,0.5022621705496412,0.5128025419518367,0.41651988741951995,-0.6931430596988825,0.4412798209167087,-0.11772352894289749,0.5576432454322565
14.8,0.07217214300724463,1.2750105960134346,4.363993634295824,-0.19929519899472087,-0.0047632455576738075,0.04581851382297621,0.0904150515349992,0.216524429688068,0.9720814093375318,-1.5758886337280273,-1.830459555728292,4.143794212593421,-0.10016758859667974,1.377630513251797,-0.35333518663292157,3.0,0.5020795622350906,0.512621889455902,0.4166436621745957,-0.6931373397913382,0.44127558311155995,-0.11774332296102315,0.5576495295744774
14.9,-0.04508874144911845,1.541584293754772,4.28578016597429,-0.1824156664981602,-0.002425080059153316,0.04767625028634806,0.08987028948604901,0.21510656885661747,0.9724436423651996,-1.5771473547825121,-1.8292746137775138,4.14398717880249,-0.10027583063159184,1.3774845701532712,-0.3532920620862755,3.0,0.5016580823786058,0.5121900856947769,0.4169276243192226,-0.6931162716270737,0.44126550423991573,-0.11775750507293496,0.5576806960731879
15.0,-0.08363523093455064,1.8340865634125287,4.259132251238691,-0.19759988815954732,0.003912844160799829,0.052019022247453764,0.08893189891420872,0.21258393086202948,0.9730844964502503,-1.5784191315408111,-1.8280709088844664,4.144123970699175,-0.10036956983051801,1.3772773742675781,-0.35320177309468914,3.0,0.5014560478364639,0.5119939641018731,0.4169429004789631,-0.6931474001652612,0.44128926169547644,-0.11774249202776195,0.5576263755665551
15.100000000000001,0.20481056719977203,2.5111631808656334,4.284156705024691,-0.2385247334488746,0.01703732066865124,0.056422709991620947,0.08802502747664621,0.2101499510893571,0.9736958386024239,-1.5794614151063093,-1.8269192181029261,4.14434042858438,-0.1004988495742567,1.3771095275878906,-0.35316525653790887,3.0,0.5011796741617763,0.5116805730710323,0.4170132425061483,-0.693172408966574,0.441300779337066,-0.11775854227874089,0.5575827824855797
15.200000000000001,0.2301216884599651,3.1571724711925904,4.2218732251377915,-0.26470732820633686,0.03016760396036009,0.05786221257395022,0.0871493387546307,0.20780368324717527,0.9742779838166348,-1.580081013116897,-1.8260505402262315,4.144404237702471,-0.10056815890351807,1.3769612041377417,-0.3530620568016185,3.0,0.5006956281270256,0.5111815467513008,0.4172445397045065,-0.6931819284132412,0.44130319339272134,-0.11775891851163732,0.5575689578282279
15.3,0.4344217258254382,2.865793135679644,4.05899364710116,-0.2627329022959857,0.026504631604001096,0.061715647998112244,0.08651937123168633,0.20611511722816647,0.9746949975910243,-1.5800409317016602,-1.8260864405902237,4.144434414533394,-0.10056097889690462,1.3769981671720581,-0.3530801353524916,3.0,0.5005309758581434,0.5110043051597128,0.41739884175958664,-0.6931408970570871,0.44131033517127877,-0.11775021277362904,0.557616151388816
15.4,0.2683892201032465,2.4296816902553644,4.023066546842962,-0.2526583216431038,0.022889802541746215,0.06320797021164923,0.08614167648527964,0.20510178910353932,0.9749424770843876,-1.5800705348167143,-1.8260634206815138,4.144457057125814,-0.10056781280951382,1.3770006475528653,-0.3530947186179497,3.0,0.5005001415282394,0.5109662647189754,0.4174799834378926,-0.6931186550459778,0.4412865551421388,-0.11776955597891828,0.5576585316863424
15.5,0.3237957667065649,2.234192206629172,4.078498986925194,-0.2548336275364581,0.024502573862745104,0.0631476342748199,0.08640137382742537,0.20577067820816355,0.9747783967279576,-1.5801725387573242,-1.825937135209071,4.144453525543213,-0.1006055628498046,1.377021273917033,-0.35306722728583706,3.0,0.5004996138897896,0.5109823099028281,0.4174412265145825,-0.693129418535634,0.44130014666631395,-0.11775176152056824,0.5576381554122234
15.600000000000001,0.2952121874086502,2.605812692900446,4.149765609896315,-0.24455223182086258,0.02283454791996111,0.06000700920969618,0.0865482012756958,0.20615993812959638,0.9746832758907522,-1.5801725387573242,-1.825958601467006,4.144448877877784,-0.10058188714058527,1.377002239227295,-0.35306782076904025,3.0,0.50049275982155,0.5109538197183319,0.4174498953873544,-0.6931239561406,0.44130712003106276,-0.11775259889102879,0.5576392495944861
15.700000000000001,0.2164294477826977,2.6987080139620216,4.042828522695077,-0.24257934208991766,0.024815181426973622,0.06143842913450632,0.0864556263685773,0.2059152749434171,0.9747430642904403,-1.5801801179549508,-1.8259686722885342,4.1444517502846585,-0.10060872108898948,1.3770093997087354,-0.3530457153567051,3.0,0.5004769741460541,0.510941556244499,0.41745276749212923,-0.6931318552259573,0.4412973473589498,-0.11774546922896627,0.5576386706112006
15.8,0.019721890884976834,2.6627298653260323,3.852349890614136,-0.24440587522774707,0.02825404491799024,0.06009528817809477,0.08624725336855453,0.20533888331245428,0.9748830896937867,-1.5801826183981345,-1.8259600949424672,4.144468783553155,-0.10056288660083013,1.3770110954979884,-0.35305543714467397,3.0,0.5004733989668984,0.5109538566388779,0.4174324778295788,-0.6931476272047681,0.4413000133488317,-0.11774723352108708,0.5576165834306325
15.9,0.011991482399733161,2.4350955201354156,4.036498654937626,-0.25146797842222735,0.027508947457769224,0.0602980459155455,0.08636285358343251,0.20563334691726423,0.9748104161112279,-1.58017311960762,-1.825951867926261,4.144488506658262,-0.10056409670561335,1.3770146369934082,-0.353062839499847,3.0,0.500477583238938,0.5109513202768491,0.4174213418210218,-0.6931555755704364,0.4412966422094299,-0.11775796110056874,0.557607105610874
16.0,0.10294108292509835,2.407359295483352,4.115058097740534,-0.25071424297877526,0.025869765141707093,0.06272895616951057,0.08686813719390393,0.2069752978134238,0.9744819026652032,-1.5801436410632985,-1.8259744881167663,4.144449423381413,-0.10058245537353279,1.377002239227295,-0.35309341237099734,3.0,0.5004718303148988,0.5109579610551103,0.4174268045463158,-0.6931502433860297,0.44130048730320937,-0.11774327678251818,0.557613791770212
16.1,0.35406800222111434,2.075983390245325,3.9428886730072032,-0.2569745236876119,0.020482893622001282,0.06721301346640388,0.0865690311044853,0.2061245348518122,0.9746883257842064,-1.5801656475080663,-1.8259510845195959,4.144477767669346,-0.1005936511064459,1.376990795135498,-0.3531025551573693,3.0,0.500466943439658,0.5109507585722709,0.41744101533906786,-0.6931486467478194,0.44129275532371925,-0.11775036635576677,0.5576203985091912
16.2,0.21389779352678193,2.367193221771411,3.976651615544479,-0.2500826786275466,0.023452021752874728,0.06281615475294988,0.08622277712736812,0.20514524982342697,0.9749261032692553,-1.5801660403744502,-1.8259752406930194,4.144453829550082,-0.10058124300499696,1.3770023993906304,-0.3531087080584925,3.893792710454585,0.5004604492401273,0.5109655127988378,0.4174181211695007,-0.6931656157151049,0.44128101335519526,-0.11773810964191744,0.5576111853078807
16.3,0.35853267560413116,2.5390433575782225,3.9725465604789414,-0.2504220824474269,0.020049955207293732,0.06951453176732389,0.08672894848779454,0.20651740313226297,0.9745907388666832,-1.5801782781406872,-1.8259634348614202,4.14447740496563,-0.1005986855074133,1.3770084193280983,-0.3530727798148784,4.0,0.5004627449168177,0.5109547004375707,0.41743301320838233,-0.6931482143169772,0.4412933361113466,-0.11773548615096438,0.5576236183965851
16.400000000000002,0.22506493519380846,2.507835375762789,3.93394691321139,-0.24838074823175435,0.023340482238654935,0.06959469347016,0.08709961904494126,0.20758504331235547,0.9743315771583104,-1.5801907608593542,-1.8259697925534377,4.144482494667759,-0.10059864938769536,1.3770201712142764,-0.3530899934672184,4.0,0.5004618477206573,0.5109577240541548,0.41744117522026414,-0.6931574455941382,0.4412790300059101,-0.11773763178216728,0.5576230118608625
16.5,0.32438768875692475,2.354451877993077,3.868674609386181,-0.2515936740696799,0.01752181024658876,0.07057068434861834,0.08719594349123812,0.20799154568660713,0.9742362964884478,-1.5801725387573242,-1.8259457102360521,4.1444589531707905,-0.10057794110489959,1.3770168057028664,-0.35305815264490664,4.0,0.5004721343693278,0.5109611551723376,0.4173946672661325,-0.6931680432017925,0.44129085487387687,-0.1177690039287174,0.5575938548819552
16.6,0.20518478020756803,2.307413107190439,3.82221697634694,-0.25295081779888035,0.019452593166122516,0.06568684138916747,0.08700670318708605,0.20739296008660119,0.9743806700784049,-1.580190606334892,-1.825963636437887,4.1444418915079835,-0.10058615467128847,1.3769783973693848,-0.3530430422396489,4.0,0.500465058256962,0.5109611489032678,0.41741902028930106,-0.6931579927459326,0.44129307283857,-0.11774862360807292,0.5576088975218444
16.7,0.2582596173398222,2.3130849518305667,3.9249869132314794,-0.25154364169237664,0.017052808589133144,0.06707969537440493,0.08701181301524537,0.20733780340399763,0.9743918908845536,-1.580195426940918,-1.8259455421944417,4.144440071828518,-0.10058672845874028,1.377032554514893,-0.3530716403449808,4.0,0.500466083101933,0.5109511313409808,0.4174562887556403,-0.6931397625955498,0.44127798364811005,-0.11775300035817668,0.5576425750990421
16.8,0.09064874095158221,2.422019583175722,4.002051024161764,-0.24829355060150446,0.02123925452734954,0.06251702886206334,0.08734339040953815,0.20822485212049624,0.974173189423877,-1.5801642317591564,-1.8259604267630365,4.1444783210754395,-0.10059573639135069,1.3770099528684507,-0.3530950160009247,4.0,0.500470682510673,0.5109387247903446,0.41747525287021614,-0.6931282396225845,0.4412854388906542,-0.11774453736818369,0.5576527851456785
16.900000000000002,0.22978068787790473,2.332629369562657,4.034731014164398,-0.25077763071814607,0.017809347252466374,0.06243914549561188,0.08708517252491413,0.20750482941416118,0.974349719360422,-1.5802038047228024,-1.8259591396165,4.144461903325097,-0.1005921290345107,1.377009020394607,-0.353091386553767,4.0,0.5004571060633138,0.5109598619704304,0.4174607816731254,-0.693147185409381,0.44127287927689773,-0.11774209958481081,0.5576396895479105
17.0,0.43662102792868274,2.1290438170287933,4.091355974585725,-0.2576531342641876,0.01766832443574386,0.06504561355825397,0.08692977684358007,0.2070678072428489,0.9744568144477427,-1.5801716409168247,-1.8259513686439008,4.14446496963501,-0.10059875676042024,1.3770142138426125,-0.35307246843446904,4.0,0.5004592385312585,0.5109591512456427,0.4174507324453261,-0.6931475947983939,0.44127864731001737,-0.11774628889946984,0.557633731676847
17.1,0.16111809397427118,2.298508076484074,4.024982329884035,-0.2538935253814258,0.02411823656980848,0.06420350405167978,0.08705130678596554,0.20738989678232292,0.9743774828720609,-1.5801883699243522,-1.8259502284119866,4.14445470076991,-0.10059207682597945,1.3770153843507267,-0.35309143876229826,4.0,0.5004555403042674,0.5109558740743076,0.4174497046431434,-0.6931516479930515,0.44128410152586517,-0.11773686269978223,0.55762636754967
17.2,0.02003797433407241,2.439302325309756,3.9239671040444875,-0.24989416340258644,0.025412815094149006,0.06604628485706278,0.0866723681555803,0.2063218020454653,0.9746374473547497,-1.5801737518676464,-1.8259463199306802,4.144446803442865,-0.1005558844129686,1.377019358984858,-0.35309186838844386,4.0,0.5004467969357098,0.5109570984075789,0.41745332713942707,-0.6931512157049688,0.4412843002808035,-0.11772822603948892,0.557628571081146
17.3,0.2973779625179188,2.23750687508812,3.821135515506235,-0.2539249484579542,0.01680683957719647,0.06979006263581577,0.08646826517097385,0.20576089298646644,0.974774523476899,-1.580207791882892,-1.825963636437887,4.144453514897546,-0.10063483312196811,1.3770384451400401,-0.35310868588002,4.0,0.5004486564537534,0.5109595124531009,0.4174442587686572,-0.6931527307169929,0.44128368370282806,-0.11773219017809086,0.5576263388624215
17.400000000000002,0.2518075964844524,2.373430870074697,3.886776412430619,-0.24937339321815813,0.016535548289552136,0.06932282769905568,0.08669695108770659,0.20644001199501058,0.9746105299329926,-1.5802029259984485,-1.825944028039533,4.144458047428059,-0.10058672845874028,1.3770240575868367,-0.3530920768328232,4.0,0.5004659006074116,0.5109470724627829,0.41745661240288795,-0.6931333772643978,0.4412974202880127,-0.11773068390698539,0.5576398427623231
17.5,0.223287154629773,2.3338564211646675,3.886964553770745,-0.25050014420306793,0.017471850078156215,0.07072263808169463,0.08683204069742496,0.20684177869431553,0.9745135545684824,-1.5801815874469813,-1.8259512386717738,4.1444783210754395,-0.10057952038898166,1.3769977148824664,-0.3530820826672298,4.0,0.5004612640481609,0.5109524108068536,0.4174522266246114,-0.6931497819806829,0.4412840732449236,-0.11775047535550222,0.5576258351206964
17.6,-0.04382221824090203,2.382958102113413,3.9732293113893715,-0.25137929742822457,0.02277984069476181,0.0728005195739062,0.08679697267375493,0.20673932023709032,0.9745384179299206,-1.580183223520827,-1.8259467188956742,4.14446496963501,-0.1005692425487941,1.3770257669553905,-0.3530848662005823,4.0,0.5004592034365078,0.5109563792044867,0.41742948573166033,-0.6931532325000587,0.441297934812567,-0.11773697369827628,0.5576134270525188
17.7,0.1732384871942775,2.2162206831046407,3.991150400518726,-0.25401760262420087,0.018660999817852186,0.06893484947328342,0.08682978778711214,0.20682441457046996,0.9745174169024897,-1.5801808909637722,-1.825932178385293,4.144460379326437,-0.10060107317302894,1.3770214907766327,-0.35308964777201185,4.0,0.5004561813973591,0.5109516427893148,0.4174345272573413,-0.6931434219419863,0.4412942438971153,-0.11773698862523102,0.5576285398285221
17.8,0.030315563119079708,1.1670621840767725,3.291629288580835,-0.17077009984950248,0.020698349614709965,0.05691969273164377,0.0866529956450839,0.206369243553825,0.9746289726670782,-1.5801725387573242,-1.825935490333219,4.144457410432503,-0.10058672845874028,1.3770185218826987,-0.3531048806488928,4.0,0.5004612558980166,0.5109519530675132,0.4174504167328833,-0.6931494919030928,0.4412862294707405,-0.11774292511276746,0.5576260836258206
