xiamingqian9007/apple-picking-rnn/final_data/grasper_20191127_125717_noimg.csv
,/manipulator_wrench.fx,/manipulator_wrench.fy,/manipulator_wrench.fz,/manipulator_wrench.tx,/manipulator_wrench.ty,/manipulator_wrench.tz,/ground_truth.x,/ground_truth.y,/ground_truth.z,/joint_states.elbow_joint,/joint_states.shoulder_lift_joint,/joint_states.shoulder_pan_joint,/joint_states.wrist_1_joint,/joint_states.wrist_2_joint,/joint_states.wrist_3_joint,/mode./mode,/manipulator_pose.x,/manipulator_pose.y,/manipulator_pose.z,/manipulator_pose.rx,/manipulator_pose.ry,/manipulator_pose.rz,/manipulator_pose.rw
0.2,-0.08583829470250452,0.25254364415766806,-0.591500260909209,-0.010845713619949536,-0.009766962030103618,-0.011479862925396852,-0.08639463798443141,-0.415273823770091,0.9055846625941718,-1.9840246390963516,-1.9083082216879337,4.176638126373291,0.6434117084607334,1.3276328120362002,-0.542839680162124,1.0,0.454832447580988,0.45954184401355136,0.2962585786147917,-0.6525986740515044,0.3551807667519801,-0.18613323074418775,0.6428965810831667
0.30000000000000004,0.507967782798656,-0.6020115520469866,-0.12270861035493197,-0.0065086731040625515,-0.007264409846892403,-0.004951837615157781,-0.08654910036587606,-0.41581494526405643,0.9053212004894409,-1.981587518286524,-1.9100039509410167,4.176135845986492,0.6427723756948139,1.3281202434509136,-0.5428336302386683,1.0,0.454839167054529,0.4595414233780258,0.29623500254727514,-0.6526111200328666,0.35519830666865465,-0.18614036206618007,0.6428721914650216
0.4,0.07054305577005535,0.059444467116112086,-0.27159444164502106,-0.0077042807781192236,-0.006656901673840239,0.015004015838378768,-0.08675958115992954,-0.41656044462687114,0.9049585047305599,-1.9775857801623522,-1.9131336791937046,4.175365924835205,0.641852541560791,1.3291052773304006,-0.5429622764045181,1.0,0.4555839030471767,0.46024623534024206,0.29633037462695383,-0.6524875781640807,0.35520034289037483,-0.18614680786910007,0.6429945899245788
0.5,0.2953056499656601,-0.15093184935827447,0.013305381156956633,-0.016876869404427425,-0.006854504434815514,0.03994490565394559,-0.08676629768883112,-0.4169026449981759,0.9048003952450099,-1.9733131317669745,-1.9163890743897707,4.1745892650643945,0.6408411872286702,1.3297767012958506,-0.5430163668301621,1.0,0.45606085127768886,0.46077145769891475,0.2963994667499255,-0.6524238567406044,0.35512763922021345,-0.18610060816377716,0.643112769783547
0.6000000000000001,0.36017958823234025,-0.5287074240799984,-0.04017438581861324,-0.010648769420188046,-0.014494984826155218,0.034762920122098626,-0.08672175246926847,-0.41690575322439516,0.9048032066036026,-1.9693179125481464,-1.919514738781913,4.173738736801959,0.6399818523208832,1.33041809087104,-0.5431414098551662,1.0,0.45711119802774686,0.4619071769124856,0.29598160419380887,-0.6525867695099035,0.3551519788219601,-0.18609463721215794,0.6429357403351829
0.7000000000000001,-0.07933159313703991,-0.10057755178984962,-0.08969181654299396,-0.0028816700737074492,-0.005041494860343483,0.029968485963282273,-0.08677133768529392,-0.41682357537383535,0.9048358012542147,-1.965421576755976,-1.9224914053126765,4.172980742517904,0.6390024787782965,1.3312245981925221,-0.5432096910043742,1.0,0.4584035588977666,0.46312474118214014,0.2957562713661538,-0.6525515337891378,0.35520482236962325,-0.1861652893266614,0.6429218575882523
0.8,0.2066765655910363,-0.09908900977265708,-0.049127678552135054,-0.003244551054931667,-0.0039937289664268545,0.031934340103175834,-0.08705723702990925,-0.4181233286808309,0.9042078805599953,-1.961632362466322,-1.925310720821024,4.172204878865227,0.6379838454454781,1.3320956230163574,-0.5433228770642653,1.0,0.4596984260855319,0.4644332577454488,0.2955087825778188,-0.6525976112382631,0.35519673711866573,-0.18615453410978947,0.6428826682814939
0.9,0.11597353901329943,-0.3075990238179399,-0.133200756455005,0.00463708069303055,-0.004143329058849576,0.026902639404104596,-0.0871732583530464,-0.41869579293209086,0.9039325751221653,-1.9579653534252712,-1.9281340531001598,4.171499532738314,0.6371410894511174,1.332732252906782,-0.5433724562274378,1.0,0.4603765760142239,0.46508041443894776,0.2954240058587432,-0.652592948926118,0.3551930865945237,-0.18613950404014096,0.6428937698275344
1.0,-0.07960095861802363,-0.11552299840592295,-0.24249402643456958,0.001547987277877149,-0.006501947862400599,0.02609514862698821,-0.08691792125511927,-0.4176910840504732,0.9044221312259062,-1.954322564517373,-1.9307518419357288,4.170922326634758,0.636291321644096,1.333364354834908,-0.5434373550196546,1.0,0.46150171663911665,0.46624307186204217,0.29520772581753046,-0.6526111294162575,0.35518289646283735,-0.18613077515827225,0.6428834718370715
1.1,0.2747039969184568,-0.11599832209010287,0.2832822968502366,-0.012780855565383855,-0.004509636677536009,0.02277186331935893,-0.08701419990173914,-0.4181485052862104,0.9042014570830866,-1.9510194434025598,-1.9334491675608392,4.1703395810752495,0.6353964813662242,1.3339524358022063,-0.5435040632831019,1.0,0.4619585799090366,0.4667355861052574,0.2950863400078115,-0.652637697348844,0.35518473915259213,-0.1861194883446056,0.6428587505281749
1.2000000000000002,0.16499243733401847,-0.137352788067155,-0.07193575302280059,-0.0030415176024943813,-0.00949811184733222,0.02498281743138658,-0.08715290264403577,-0.4186229514232608,0.9039685770808009,-1.9474763943634106,-1.935849649540453,4.169701178478702,0.6344633221308611,1.3345275679364006,-0.543589894889014,1.0,0.463052145717536,0.467843564948858,0.29491516110184357,-0.6526338684175439,0.3552150404026617,-0.18615183532044696,0.6428365290436727
1.3,-0.0372385663656717,-0.18931921115073191,0.01821291367379825,-0.000986687295059545,-0.007722899185641632,0.022755449613679344,-0.08714143216076183,-0.41877055518374545,0.9039013131257881,-1.9443120983319122,-1.9382267729509266,4.16905385877146,0.6336870960996435,1.335269342005122,-0.5436693736587243,1.0,0.46405595307181813,0.46892123398880664,0.2948342854944954,-0.6526102611554014,0.355183261213714,-0.18611541709599955,0.6428885980536997
1.4000000000000001,0.14187777606570576,-0.29054440756045463,0.005423792105391262,-0.009395860692845946,-0.013284164058719334,0.018220667158552275,-0.0869894946838432,-0.4182901696644498,0.9041381371568418,-1.9412086833878879,-1.940692089167991,4.168504084055003,0.6329518991657714,1.335905790817719,-0.5437310377704065,1.0,0.4645515693977672,0.4694089492272716,0.2947410207563571,-0.6526403293026165,0.355170413098707,-0.18609887108036022,0.6428699622860613
1.5,0.20513525262032617,-0.14887015673527854,-0.031475049506373545,0.0007232378901308167,-0.007732530682122055,0.026047559921203636,-0.08684073370683609,-0.41770091161629963,0.9044250287550151,-1.9380979537963867,-1.942695339777102,4.167950366100677,0.632085554961767,1.3363668106922701,-0.5437891564037471,1.0,0.4653863278709454,0.4702572282869728,0.2945302595385211,-0.6526644525948689,0.35516510729503226,-0.18608654406374783,0.6428519712947603
1.6,0.07845653991411797,-0.09072553863070733,-0.012884470396829176,-0.006635834874013717,-0.007657598188767348,0.023234549940458475,-0.08689061296350192,-0.4175607423481429,0.9044849483743524,-1.9351472690846225,-1.9450269844269283,4.16732461815873,0.6312253947906142,1.336865210598901,-0.5438642146890448,1.0,0.4664276642304595,0.47123379785830155,0.2945776600784778,-0.6525643247012461,0.35515971148477726,-0.1861394391670488,0.6429412808739482
1.7000000000000002,0.16769810804757163,-0.20034937905633496,0.0330726139404305,-0.0005515231904917369,-0.00978840717742976,0.02125655266784188,-0.08689913422637263,-0.4172760507476292,0.9046154992709388,-1.9322295327588528,-1.9470543999162557,4.166759744543535,0.6305717513324418,1.3373361211953705,-0.5438965705319982,1.0,0.46693888018886515,0.4717116019772075,0.29442943332091787,-0.6525967079159243,0.35520118874994155,-0.18614722070031117,0.6428832433292034
1.8,-0.1948215369264781,-0.18267262422896627,-0.03706855731028551,0.002709079411712257,-0.008966804406396505,0.017302817836366648,-0.08691680416614053,-0.41718285064017213,0.9046568066387962,-1.9294260903851073,-1.949086114550829,4.16627412474521,0.6298960077819517,1.3378396034240723,-0.5439563163249255,1.0,0.4678217488149396,0.47252488903556744,0.2943077202369513,-0.652568444858243,0.3552345910696487,-0.18619518133320404,0.6428795878943186
1.9000000000000001,0.285877389576432,-0.07192886104134356,0.0025253190406105547,0.003525426674224783,-0.014249702987914378,0.025964589620266567,-0.08693855725854262,-0.4171751152401346,0.9046582836624951,-1.9267657827552773,-1.9511847316079278,4.1658579491720005,0.6291238504597167,1.338352470298903,-0.5439828077899378,1.0,0.46833505362671485,0.47301982403306797,0.29427292598771804,-0.6525383108013371,0.35523184574231,-0.18619631692152394,0.6429113626868861
2.0,0.26433889313246506,-0.18387855834865893,-0.03904528155530771,-0.0034249146706312843,-0.011603504340129365,0.025220854927646388,-0.08658893048557909,-0.415875603406983,0.9052875569639831,-1.9240644422336097,-1.953028413292073,4.1654234902479415,0.6283889474004962,1.3388768212415936,-0.5440728330144087,1.0,0.4690410242326804,0.473855871058836,0.29408354304232415,-0.6525984129668878,0.3551972108594511,-0.18613957858317084,0.6428859230653955
2.1,0.14025242164889629,-0.12298261017898082,0.15312590106637108,0.004840464302910084,-0.009787583477642964,0.025442761378656892,-0.08606689960900123,-0.41397641566570986,0.9062082694753435,-1.9215775596867077,-1.954888712789499,4.1650074674952275,0.6276615144012083,1.339320165368019,-0.5441321988817451,1.0,0.4698535118112544,0.4747113736212483,0.2939944599049316,-0.6525998867480827,0.3551708198740611,-0.18610600571769945,0.6429087269295545
2.2,0.12398025689464781,-0.37850362064875653,0.06738553691741862,-0.005705893356129851,-0.007216906358166649,0.022505478817364432,-0.08602146082232139,-0.4139139399876283,0.9062421191144695,-1.9190822245874652,-1.9566665659829336,4.164583989601356,0.6270372449674164,1.3397129433249324,-0.5441919690526708,1.0,0.47023318390575025,0.4751481203521675,0.2939567042697996,-0.6525996029574067,0.35514783395338995,-0.18608704160466646,0.6429272021036855
2.3000000000000003,-0.0003818771468987441,-0.30585814799472866,-0.13635486989281406,0.0031206355805588415,-0.005343186240046279,0.02028738994138358,-0.08620586588571495,-0.4147372468918186,0.9058482655219177,-1.916595408250792,-1.958530252706914,4.164168107174803,0.6264495223689869,1.3400970631847693,-0.5441859404193323,1.0,0.4707794762519836,0.47566747505775914,0.2938226230276608,-0.6526368701445986,0.35517240064499417,-0.18610091344382151,0.6428717846999578
2.4000000000000004,0.3638486957318167,-0.281325160104113,0.018424022567378517,-0.006971669552184761,-0.014740361748001606,0.020089075005049015,-0.08624430244192492,-0.4148337392493162,0.9058006457237595,-1.9144477683585914,-1.9602470678885837,4.16371998357989,0.6258349759894308,1.3405145312914328,-0.5442501486873708,1.0,0.4716754808752857,0.4766000400301584,0.29370799650164847,-0.652596775762742,0.35515865801341967,-0.18611687318202774,0.6429154574429872
2.5,-0.13978855165387213,0.033144895883080026,-0.03232243990916578,0.009407414192305478,-0.006078211670116006,0.024356316548790165,-0.08620961240050684,-0.41456611556608897,0.9059264804594344,-1.911962915797553,-1.9617305497859496,4.163339525947085,0.6251765924641113,1.3408297696851852,-0.5442787645492243,1.0,0.4720471818253375,0.4769231108716279,0.29354631043448765,-0.6526487709123718,0.3552030213107964,-0.1861135959794432,0.6428391127411688
2.6,0.2784469353529948,-0.3332520055407875,0.08679846609312034,-0.0025315515336847075,-0.010501472437686388,0.021305024707647505,-0.0863352070064767,-0.41492451700509225,0.9057502565148855,-1.910008430480957,-1.9633700002421595,4.162968547885039,0.6245300012775878,1.3411855697631836,-0.5443446541411143,1.0,0.4727686935116595,0.47767142567061294,0.29360967204794625,-0.6525695636750244,0.35516808639400455,-0.18614027097898053,0.6429310962242226
2.7,0.13006853982974997,-0.31196307893453584,-0.1145313197277711,-0.007484866606600808,-0.007404009045440117,0.02060302873167639,-0.08650796928820492,-0.41549440130808163,0.9054726770278104,-1.9077369143891396,-1.9651769615953496,4.162644149437248,0.6239618621268527,1.341608224782793,-0.5443843566036647,1.0,0.47312950216839245,0.4780031890420297,0.2935027987141093,-0.6525891785491114,0.355206945226143,-0.18614518929705812,0.6428882940334737
2.8000000000000003,0.043232468817339595,-0.23047961231892317,-0.09869657103451791,0.0012633968298476784,-0.008016110356166978,0.021154954492536824,-0.0864680958648131,-0.41539380265539855,0.9055226308178888,-1.9056409587402505,-1.9663555227821712,4.162200653097292,0.6234370427392699,1.341998839812074,-0.5444210330812556,1.0,0.47366683475743976,0.47861175199885314,0.2932269823859717,-0.6527123682831478,0.35519965804232567,-0.18611976384626366,0.6427746111372402
2.9000000000000004,0.27653779439276455,-0.3025973278673366,0.00807284892464185,-0.003304108160399597,-0.01451839870715297,0.027759291844705377,-0.08642822244142129,-0.4152932040027155,0.9055725846079672,-1.9037619985999559,-1.9676914193079353,4.1618107878292525,0.6228923401391288,1.3423794566482137,-0.5444689531047171,1.0,0.474371265971325,0.47922104572959984,0.2933734927558146,-0.6525578760491559,0.35518146491634595,-0.186139977800172,0.642935653118292
3.0,0.04001643592119683,-0.16514374586378341,0.1023634854976515,-0.0030836668559719904,-0.007195291262221389,0.023671983233488913,-0.08661013170105916,-0.4160860523790413,0.9051905128403012,-1.9017663781011187,-1.9692659140035718,4.161510944366455,0.6223220457663796,1.3427031611645674,-0.5444855390367587,1.0,0.4747194744487397,0.47954841705716894,0.2932924506924445,-0.6525748668255655,0.35518748739857786,-0.1861329126267979,0.642917125934708
3.1,0.12633987584503942,-0.23316533637173215,0.06619648599112171,-0.0108770740785399,-0.010033606558111825,0.02360310310286504,-0.08685706263619024,-0.4171367897153969,0.9046837228921328,-1.8999348348985348,-1.9707426359360318,4.161241284589697,0.6218168640691889,1.3429668852479493,-0.544509236012594,1.0,0.475323842301219,0.48015003299034953,0.2931393457626607,-0.6526035293936419,0.3552135602923981,-0.18613150954757265,0.6428740321096372
3.2,0.26307637825056546,-0.34699475711883065,-0.15367434715781764,-0.006300685511130876,-0.01438594071162353,0.02669119197071288,-0.08667656543683845,-0.41643757808518117,0.9050230070856532,-1.8980167041938154,-1.9718003735905838,4.160917161563147,0.6212833376087276,1.3432454013953163,-0.5445586411041204,1.0,0.4756199237916598,0.48047181664143596,0.2930320998859987,-0.6526425555531965,0.3552032197537105,-0.18614153005462944,0.6428372252339715
3.3000000000000003,-0.006906855744172779,-0.3662404108092661,-0.32693300498406513,-0.0009997639759170003,-0.009648348927528584,0.024385317701064547,-0.08661483100408313,-0.4161277308532318,0.9051715745429217,-1.8963071029183012,-1.9729420236488486,4.160622222329654,0.6207469801165831,1.34355285248642,-0.5445812384234827,1.0,0.47603800644487104,0.4808949259779445,0.29306158026508866,-0.6525920834459655,0.3551894868276406,-0.1861433515055482,0.6428955232081285
3.4000000000000004,-0.05586342839212101,-0.3563360011208174,0.007329505905875139,-0.0040978381248119805,-0.00873440201278699,0.019396250179620586,-0.08661123016163252,-0.4160050478897585,0.905228278413156,-1.8946630972077763,-1.974374396078043,4.160345197590704,0.6202915644395294,1.343806445165219,-0.5446192653200829,1.0,0.47661640378140335,0.48148877054064626,0.29308326357907216,-0.6525489769395276,0.3551936679120623,-0.18613747080220075,0.6429386696518661
3.5,0.1493559139613239,-0.13315042951369171,-0.18215836806922575,0.0031426772461223746,-0.014353772038629708,0.015846613119771428,-0.08648794672829888,-0.4154626440148095,0.9054890712943756,-1.8928399716401352,-1.97556492945156,4.160097764290985,0.6198802574706725,1.3440873950376269,-0.5446376098854273,1.0,0.4768709100166483,0.4817445476181836,0.292976704066084,-0.6525876683104245,0.35520388559643895,-0.18613617637424035,0.6428941271089144
3.6,0.3864411704032681,-0.2759451685460856,-0.23090096757684891,-0.0026036116238826903,-0.018250770316579616,0.018598853387142407,-0.08638263809936082,-0.4150233638767238,0.9057005852535983,-1.8912858963012695,-1.976696155671288,4.159821107223288,0.6194300928430644,1.344340803229983,-0.5447035466568195,1.0,0.4772899686656895,0.4821829722655506,0.29287562014304097,-0.6525880542563012,0.35521016709991204,-0.18614268487077373,0.6428883802806886
3.7,0.18784234707814906,-0.5131092253287498,-0.10798982802123801,-0.010269041869184694,-0.011763276871597176,0.023634784109187637,-0.08631231662887032,-0.4147510849256241,0.9058320100798003,-1.8899287363596342,-1.977779952897901,4.159579672486343,0.6189858563338547,1.3445683770805203,-0.5447212845672728,1.0,0.47784383262951957,0.48273763383652873,0.29280373929651055,-0.6525856545482109,0.35518945860598805,-0.18615466548703094,0.6428987886833197
3.8000000000000003,0.10333233047336507,-0.41520087678038853,-0.2492094056096926,-0.007209682395671113,-0.009687803913653932,0.019737801533666992,-0.08648381812081649,-0.41551076084195515,0.9054672929528189,-1.888232065902616,-1.9787722911507202,4.159357281776892,0.6185177724038448,1.3448426562998983,-0.544726045651467,1.0,0.47807823006598543,0.4829815492279788,0.29268581767559076,-0.6526254931294339,0.3552204411158875,-0.1861540450375903,0.6428414076948841
3.9000000000000004,-0.07934333049197304,-0.465402287007151,-0.18927341217743152,-0.004401772941823077,-0.006929971846042988,0.016291152474419382,-0.08648338870401148,-0.4155732123633698,0.9054388238560728,-1.886641706006153,-1.9799298596614703,4.159137639018158,0.6180886031200408,1.3450886769156951,-0.544730914384713,1.0,0.4785487984253439,0.4834894791511781,0.2927538500267774,-0.6525603150565266,0.35517936333047956,-0.18613008897345829,0.6429372014872172
4.0,0.12451016815275981,-0.38983515274938163,-0.20587241865131767,-0.0002750525758137219,-0.013290974165330113,0.020251663813629264,-0.08634598859474639,-0.4150320219726476,0.9057000986419014,-1.8853893429058417,-1.9809960588345115,4.158897876739502,0.6176759162887395,1.3453166617894479,-0.5447848478900355,1.0,0.47877654490601296,0.483741070610667,0.29274981494044405,-0.6525449894555657,0.3551699458037263,-0.18612864393057307,0.6429583767576091
4.1000000000000005,0.18881204187113448,-0.49733888048646174,-0.15746297656668826,-0.007085389034938791,-0.015491034256582256,0.01850461197712132,-0.08633051838432214,-0.4151259277573783,0.9056585285803584,-1.8840810371529233,-1.9820678638430012,4.158645153045654,0.6172633402482062,1.3455685173458625,-0.5447965004045209,1.0,0.47911723815308915,0.4840962036521569,0.29261050920064785,-0.6525951421000578,0.35518911463835523,-0.18611323633626012,0.6429013428281745
4.2,-0.14502592020545507,-0.42347855257511563,-0.5372947198582263,-0.004375755427911374,-0.009825113528496889,0.019184440382717324,-0.0863995964999244,-0.4155283524996677,0.9054674333341477,-1.8823769527695084,-1.9830085239806117,4.158423729193538,0.6168815828920924,1.3458266258239746,-0.5448143565331459,1.0,0.47958171542877287,0.48456607423411857,0.2924304426173173,-0.6526752248005662,0.35517993025848893,-0.18611833121615914,0.6428236421122185
4.3,-0.05845565581127907,-0.32160559114522885,-0.38813334956059165,-0.0023922246566659444,-0.01153306183716014,0.017856957645040156,-0.0864428117245781,-0.4156734030918393,0.9053966971323557,-1.8808856818193946,-1.983990052882926,4.158189971590303,0.616455519647002,1.3460421562194824,-0.5448741003411139,1.0,0.4797755684120788,0.48472437206168095,0.2924823647081215,-0.6526243945487602,0.3551704632410552,-0.1861368901803642,0.642875104351523
4.4,-0.08023672340235743,-0.28369902578278394,-0.3194774601719666,-0.0016196554359009412,-0.009340701840417964,0.01808926100420897,-0.08621513545449702,-0.4145446309748788,0.9059353745260015,-1.8796835527590163,-1.9850665407341337,4.157956879061392,0.6160558719830392,1.346274632071648,-0.5448607462431357,1.0,0.4802287880450181,0.48519533483839117,0.2925337686061238,-0.652541283019552,0.35516628168140113,-0.18612731560910484,0.6429645469976968
4.5,0.08956043572721982,-0.19195587636691697,-0.3934003551901549,-0.004047940941268384,-0.010868508416782816,0.013470343988919836,-0.0861842665445322,-0.4145557891830592,0.9059334545155614,-1.8782057662061113,-1.9860857890400607,4.157732788501261,0.615602337134784,1.346520863735882,-0.5448873238065832,1.0,0.4806589109940474,0.4856263869565309,0.29230706912748206,-0.6526469339266812,0.35519148326778505,-0.18611370133690652,0.6428473224839701
4.6000000000000005,0.07390422082833359,-0.12046942724642185,-0.267493552581458,0.0038520311838297887,-0.009538874886799595,0.01941053691080758,-0.08616815374575829,-0.41460642706129397,0.9059117247587053,-1.8765669000433083,-1.9870612616639494,4.157499022841081,0.6151769335813067,1.3467373847961426,-0.5449214151549241,1.0,0.4808374401179824,0.48587585152282375,0.2922640869875296,-0.652683874286008,0.3551547511642587,-0.18609357995585374,0.6428359374456862
4.7,0.2039835437991979,-0.6016786470120135,-0.3643350266969211,-0.008275014104329416,-0.010879304543716033,0.020759348204436374,-0.08599957667356871,-0.4137287322753032,0.906329194521552,-1.87511784477531,-1.9881288710967608,4.157230854034424,0.6147575632145578,1.3469653129577637,-0.5449590291613776,1.0,0.4812164842434762,0.48620262758586413,0.2923493366551875,-0.6525946381724472,0.3551644083578793,-0.18611241813451973,0.6429157402649991
4.800000000000001,-0.13523329729628306,-0.29104261429331674,-0.3437336407977584,-0.003403029948510294,-0.006557974025486298,0.023396302415879637,-0.08603458851543946,-0.41379599036442705,0.9062951659815869,-1.8737707138061523,-1.9892252892831948,4.1569905281066895,0.6143085958390863,1.3471888299494166,-0.5449863124418861,1.0,0.4817259895318031,0.48670760801756724,0.29223881893674136,-0.6526023026482969,0.3551743300120543,-0.18612028599193273,0.6429002014472468
4.9,-0.3678001953043531,-0.4131885198755413,-0.4632314364559545,-0.002834878852393281,-0.002372788765709658,0.018479708088880636,-0.08615015699077345,-0.4142577958624839,0.9060731146831966,-1.8722688560091092,-1.9902529063741625,4.156734899608795,0.6138831812092285,1.3474219621853905,-0.5450163184627933,1.0,0.48192588653581575,0.48690114634047127,0.29216146462890963,-0.6526310617135684,0.35518373173919066,-0.1861233181165854,0.642864934840683
5.0,-0.1364057163707345,-0.30625289663683286,-0.44241000811335573,-0.006515852050890883,-0.005931295478183206,0.017664738260628365,-0.08628700097537284,-0.414718713874045,0.9058492526185092,-1.8707933976423659,-1.991247710959655,4.1565159824593465,0.6134962090438983,1.347629804349168,-0.5450361410724085,1.0,0.48242509730678473,0.48738657031798605,0.29207892352491366,-0.6526214683865634,0.3551983340414686,-0.18614312314384063,0.6428608715743931
5.1000000000000005,-0.09283689659944115,-0.13511740099664593,-0.5438517820284253,-0.00328342985517863,-0.0067059756411747265,0.018497133659167057,-0.08636662991955676,-0.4148844187952826,0.9057658073749146,-1.869402646908815,-1.992250462609116,4.156257152626606,0.6130650478175407,1.347853183746338,-0.545054022610075,1.0,0.48267780836510804,0.4876038827920641,0.2921097972628181,-0.6525791336005261,0.3552087649780844,-0.18615329907503467,0.6428951367955829
5.2,-0.055351210117202294,-0.25478093388088574,-0.415198877593001,-0.0031072472734957617,-0.010253782643815329,0.02232019411599601,-0.08636163812449117,-0.4147352006174455,0.9058346094355078,-1.8678563961321946,-1.993232989831449,4.156037114513698,0.6126296380338636,1.348057746887207,-0.5451081434832972,1.0,0.4830078386909969,0.48791616824445105,0.29201581672516636,-0.6525906205208364,0.3552317956692252,-0.1861472166474083,0.6428725123134992
5.300000000000001,0.1703674564474829,-0.19817837156252513,-0.4560270434284354,-0.006727771628285322,-0.012028286421039045,0.020581505667096794,-0.08635664632942557,-0.41458598243960837,0.9059034114961008,-1.8664202792744349,-1.9943675786560153,4.155828952789307,0.6122396522692378,1.3483012819307132,-0.5451160617294751,1.0,0.4835094413958875,0.48843277546319797,0.2920350797983603,-0.6525362926750685,0.355211549965824,-0.1861664698309939,0.6429332679395428
5.4,-0.0664808308027921,-0.33632514326710505,-0.43881594074919084,-0.0034826769370359255,-0.011438184810631597,0.01901943179859663,-0.08640433229696984,-0.4149176457020204,0.9057469235141534,-1.8650327625199628,-1.9955536027979595,4.155588626861572,0.6117970483243361,1.3485088645211134,-0.5451317989035057,1.0,0.4837071052191109,0.4886806756740222,0.2919753771223615,-0.6525615806182405,0.35518912833113486,-0.1861411611742599,0.6429273168353405
5.5,-0.09376942314329564,-0.12518083378124573,-0.43367821577901877,0.0004921822403207697,-0.010029014915431192,0.01706746055415359,-0.08645350261730325,-0.41526285923064943,0.9055840873145438,-1.8635950629592788,-1.9964741280187148,4.155368307803539,0.6113478752391245,1.3487682173438107,-0.5451527835576822,1.0,0.4840632806169984,0.4890210056770257,0.2917795666065371,-0.652635976571672,0.3552213727078029,-0.18615764665091783,0.6428292067488194
5.6000000000000005,0.12648676510083112,-0.37543678371960565,-0.2079830332596035,0.002914237641678108,-0.012684707810770557,0.015275206818495635,-0.08647546060392707,-0.4154600455737537,0.9054915357700158,-1.8618748891571604,-1.9973331944197728,4.155164870077653,0.6109125023271986,1.3490323854249986,-0.5451957188266889,1.0,0.4845610120742451,0.48954370369788247,0.29174554383732926,-0.652629824496309,0.3552123757848746,-0.18614229342806807,0.6428448699838253
5.7,0.12166863266048536,-0.19078436852799333,-0.20306654511621708,0.00015033680117826684,-0.01128328354407763,0.017882061754412693,-0.08649229668147261,-0.41561268929576056,0.9054198852269466,-1.8604949490930494,-1.9982711529282138,4.154920410280136,0.6104645678992761,1.3492394101868102,-0.5452483692415483,1.0,0.4847252078351428,0.48971498682804837,0.29179989691043035,-0.6526001750664656,0.35519421116670746,-0.18613972498054648,0.6428857492906851
5.800000000000001,0.05341935829130798,0.1610119383408064,-0.3019160886648474,0.004575281818157728,-0.011124619804424942,0.018006132620195656,-0.0865041601674295,-0.41571812280266995,0.9053703504973545,-1.8592023333814542,-1.9994474850096644,4.154717697616217,0.610048228459349,1.3494962265126293,-0.5452397505389612,1.0,0.4851885902466895,0.4901784315632554,0.2918044773408814,-0.6525566684842767,0.3551729131166827,-0.18613645903377501,0.6429426217192935
5.9,-0.07659034562958042,-0.002983527177605666,-0.3913788289077362,0.0013431611097408473,-0.0077555168590156195,0.01016410430098906,-0.08656676051036798,-0.4160102777995948,0.9052300962336686,-1.857691764831543,-2.0006076218521702,4.154459595557942,0.6096271209216819,1.3496859150827039,-0.5452484952079958,1.0,0.48537613382133893,0.49035234117984655,0.29173405868967534,-0.652589285783583,0.35518713204175245,-0.18613576688224992,0.6429018600063189
6.0,0.16895402521673641,-0.36940850464999697,-0.1253739943068695,0.0016563651550309674,-0.013707766949661634,0.01968066938829583,-0.0866322907916535,-0.41631321553881706,0.9050846031227703,-1.8560320717947825,-2.001641814680162,4.154273523603167,0.6092264712657296,1.3498802253178188,-0.5452693825623639,1.0,0.48577960635341516,0.49076898376227074,0.2915315719934903,-0.6526538547286442,0.3552104270211858,-0.18613239746913793,0.6428244154165735
6.1000000000000005,-0.003928151822282882,-0.5509039934659108,-0.2405676841015808,0.006105622539186352,-0.010552908895395027,0.02160364978173391,-0.08657596818664036,-0.41602273613800184,0.9052235147382145,-1.8547166449433126,-2.0025353138983344,4.154000142546146,0.6087257105061035,1.3501350537858456,-0.5453021160209791,1.0,0.48629291031434674,0.49131842373064466,0.291557926343483,-0.6525808752157122,0.3551881715138648,-0.18614798032399438,0.6429062867484112
6.2,-0.04044249461594819,-0.24223840112497286,-0.33383744851543773,-0.00023798748715966856,-0.00974102354113276,0.01784352723411242,-0.08652558029789473,-0.4157687356901142,0.9053450510440355,-1.8533620834350586,-2.0033915768279584,4.153789135591827,0.608283205623291,1.350329478626369,-0.5453486807187007,1.0,0.48647469679336375,0.49152170035209375,0.2915683279272148,-0.6525679642278804,0.3551794619584821,-0.1861360951870854,0.642927644400882
6.300000000000001,0.1523691493215681,-0.3058918499098724,-0.20576964476302118,0.0012534074448131392,-0.009685256028814038,0.021346660587672615,-0.08649338957084411,-0.41561329301500755,0.9054194933653888,-1.8517313223933576,-2.0044105633872884,4.1535868644714355,0.6078763959294976,1.3505620060048902,-0.5453712899967792,1.0,0.4868322562794875,0.491840379447795,0.2914886031971489,-0.6525970842201634,0.3551971352690196,-0.18613861449487867,0.6428875927858225
6.4,-0.19242921668993623,0.09699689333264724,-0.1308783914510468,-0.00012219804257652744,-0.012423467202787856,0.017187820934012596,-0.08641154732883059,-0.4152337699796372,0.9056012853551765,-1.8501567674950767,-2.00566848766255,4.153433882059709,0.607423952848834,1.3507639789546648,-0.5453936583855254,1.0,0.48729574865364206,0.4923262892804849,0.2914958150724255,-0.652554828290147,0.3551787239047523,-0.18614273043812007,0.6429394637643961
6.5,0.04739788784926416,-0.2460933197991678,-0.2283660399166457,-0.0022914374981176182,-0.014868271676137829,0.011747532272761143,-0.08626289255888003,-0.41455271787025066,0.9059275301925087,-1.8488876073736893,-2.006733407813041,4.153189480229428,0.6070246683308105,1.3509857729861612,-0.545393522993474,1.0,0.4875545042391416,0.49258866112288907,0.29141402673692995,-0.652572756846417,0.3551876769598373,-0.18614716128963654,0.642915037545049
6.6000000000000005,0.22952389485188715,-0.24011722688386639,-0.1971186850992532,-0.001033608705189875,-0.016380598975187125,0.020255282043494294,-0.08644110432518566,-0.41542547802673274,0.9055103027386604,-1.847531537407724,-2.007630018456686,4.152916852709774,0.6065261926350747,1.3512230781677084,-0.5454318296893681,1.0,0.4879847191340381,0.4930576703135031,0.2912055165515613,-0.6526549430250008,0.3552052321888164,-0.18612944720668173,0.6428270352538519
6.7,0.05587880921717453,-0.22621275289408638,-0.36208844294356335,0.00238422437046747,-0.015278854034015556,0.02080777410336235,-0.08646897789135623,-0.41559086215382696,0.9054319462229276,-1.8458344641327606,-2.0086250814856577,4.152707651704512,0.6061149735076982,1.3514209062109788,-0.5454601699123638,1.0,0.48820004425436175,0.493271065794986,0.291181017735441,-0.6526493710508358,0.3552065627601001,-0.18613494225091282,0.6428303660471812
6.800000000000001,-0.2090697204329178,-0.1419680121635999,-0.4671258626645348,0.0009539926451265605,-0.008729713443566725,0.01561788973122773,-0.0863952519508735,-0.4152489220556013,0.905595886765736,-1.8442815037498526,-2.0095584262372865,4.152529546810156,0.6056254688812739,1.3516383866603459,-0.545484181746684,1.0,0.488446098248347,0.49353538764271826,0.2912453754760231,-0.652598390267763,0.355189619622571,-0.18613000165963295,0.6428929130224437
6.9,-0.03602487749075067,-0.09363381049210637,-0.4940754398047206,-0.004209876386312268,-0.006729651226813143,0.01463141595827573,-0.08655290212573724,-0.4159547962209762,0.9052569284412161,-1.8429305919524162,-2.010698457757467,4.152232231427265,0.6051844066458595,1.3518959100784793,-0.5454910437213343,1.0,0.4890977376141779,0.49417656375707725,0.29125854033967763,-0.652554636128579,0.3551690948549807,-0.18614019980303112,0.6429457107285803
7.0,-0.05776968257059498,-0.40810879146696183,-0.19174698205800528,-0.0013266065115913619,-0.011016691232641878,0.017180873952891897,-0.08655974549552843,-0.4158902193155617,0.9052859876073511,-1.8414848750337245,-2.0117812046761485,4.152007757006823,0.6048008360197815,1.352125317212884,-0.5455808115375221,1.0,0.4892523757836874,0.4943500690899755,0.29119503727404505,-0.6525732715298298,0.35518232357722596,-0.1861194267022782,0.6429255021440298
7.1000000000000005,0.09588309234696824,0.37027373049535073,-0.3380562916027392,-0.016969627435704696,-0.012400089893453894,0.024122911271613496,-0.08656213544096748,-0.4159430315100254,0.9052614801589884,-1.8408641061555981,-2.012334009210104,4.151921234596354,0.6046363550373535,1.3522543907165527,-0.5456102083764522,1.0,0.48975603137854223,0.4947961702207634,0.2910058024785092,-0.6526059974799621,0.3552056142260344,-0.18613190997474396,0.6428758011969681
7.2,-0.12022631636874764,-0.0024498186737057503,-0.3617770049876588,0.010331617521114165,-0.008542919634463918,0.017117319304629723,-0.08649926792211854,-0.4158067399642274,0.9053299560307351,-1.840832181580269,-2.0123240012253785,4.151918876900847,0.604627668271134,1.352257262930696,-0.545552141917464,1.0,0.4898844698043733,0.4949536571752057,0.29093655524098005,-0.6526486615065807,0.3551747815768324,-0.1861316679309228,0.6428495946633012
7.300000000000001,-0.09738247939022629,-0.2003362522688138,-0.37633521811868015,-0.0006187196178224481,-0.0074997070017613614,0.01295927844097958,-0.086432192561767,-0.4155236009455597,0.9054662552098327,-1.8408359632493214,-2.012323855201267,4.15189790725708,0.6046300712773974,1.3522658348083496,-0.5455706199751392,1.0,0.48988727428222334,0.49494662070816137,0.2909706007529407,-0.6526216797391364,0.35518828666107133,-0.1861294279883101,0.6428701736664919
7.4,0.20942038053915968,-0.32384709114259214,-0.3022545449323548,0.0005733466932577977,-0.017710629266071785,0.016158247503530978,-0.0866046681295421,-0.4164690227396406,0.905015450382704,-1.840806007385254,-2.012320338423579,4.151900090291128,0.6046155625664452,1.3522453111621915,-0.545559727920471,1.0,0.4898701360325445,0.4949657546636186,0.29095500360133036,-0.6526436733612176,0.35517604656262713,-0.18610572739627282,0.6428614701473587
7.5,0.144836902089951,-0.1632501027908147,-0.26845039470624493,0.0032053121352195943,-0.016242855543227467,0.02045651642833711,-0.0869433499999313,-0.4177835364309232,0.9043768304613097,-1.8407938137037383,-2.0123230582694376,4.1518731117248535,0.6046599404566756,1.3522548838676836,-0.5455504017905443,1.0,0.48989782017132194,0.49494483719132415,0.29097890323465275,-0.6526135142003296,0.3551873866198382,-0.18613145361530278,0.6428783737569032
7.6000000000000005,0.10939078151717242,-0.4707227146901637,-0.41626784800402744,-0.005791726871936852,-0.012466278928909384,0.018517756101152874,-0.08668762076776311,-0.4166160940908693,0.9049396849263737,-1.8408173105656236,-2.0123107909720885,4.151921455549517,0.6046597624183628,1.352278232574463,-0.5455508010201559,1.0,0.489904983039965,0.49494590682097944,0.2909702344518651,-0.6526100183203927,0.3551877397435296,-0.1861384246970181,0.6428797091019843
7.7,-0.18168670960052524,-0.2914542564115572,-0.37287222491091854,-0.002713100740820122,-0.007243239748954419,0.01684874057930865,-0.08667785706085643,-0.4166299593014922,0.9049344465169645,-1.8407734150317696,-2.0123138363505,4.151894842782378,0.6046386057050435,1.352278232574463,-0.5455506483661097,1.0,0.48988957042067266,0.4949556389983951,0.29097668260961396,-0.6526175767695553,0.35517027634286324,-0.18613031982541817,0.6428840310162132
7.800000000000001,0.03902275894019769,-0.5507684811723186,-0.40996931136503423,-0.00817635577200349,-0.01228402133334222,0.018738396173439073,-0.0866713963318708,-0.4166303718059694,0.9049347491788224,-1.8407838542114485,-2.012310644189352,4.151886830670177,0.6046245434406624,1.3522316819987328,-0.5455402740202507,1.0,0.4899018008871715,0.49495078325208813,0.2909704295005751,-0.652619141112187,0.35518149435463503,-0.18613290443355793,0.6428754969736582
7.9,0.010020410535795644,-0.47103211914656773,-0.4923922379411639,-0.004863379043474959,-0.010571095176458375,0.015722106561158376,-0.0865346363623453,-0.4159754292410334,0.9052489739873831,-1.8408047881060143,-2.0123021074741643,4.151896687977841,0.6046286703898788,1.3522343083029646,-0.5455642654114625,1.0,0.4899123024822582,0.4949473387123062,0.290984922817847,-0.6525940347073232,0.35519049272385517,-0.18613323137221993,0.6428959168651935
8.0,0.13696205007233075,-0.412422136871618,-0.49662737168935983,-0.004183033524520943,-0.012469509983371145,0.016731674064943042,-0.08646109148479042,-0.4155967139730749,0.9054301848789998,-1.8407470660314509,-2.0122984484148705,4.151898093710894,0.6046720042242987,1.3522892882208135,-0.5455502599206635,1.410100127504078,0.4899038003761412,0.49494211926339854,0.2909969356530878,-0.652599147559408,0.3551733483025335,-0.1861389245329182,0.6428985503436996
8.1,0.14208642565237692,-0.15471876492524367,-0.3711583999225301,0.002628433269863572,-0.014166635442936665,0.019737263444374053,-0.08652212290451147,-0.4158060488949512,0.905328227307668,-1.8407712249497563,-2.0123318839248943,4.151875817932116,0.6046686394353779,1.3522658348083496,-0.5455426306207063,2.0,0.4898991456296171,0.4949512096028359,0.2909755564826167,-0.6526113473282754,0.3551790767917757,-0.18614205165344302,0.6428820959973625
8.200000000000001,-0.02959417494627559,-0.2876291706739071,-0.2671364002541093,0.0005614225674618319,-0.01203795284432442,0.013310396320150545,-0.08661570655769187,-0.4162009060436101,0.9051376060344145,-1.8407700229036634,-2.0122984966590862,4.151897789499034,0.6046476813711044,1.352278232574463,-0.5455506483661097,2.0,0.48991359546536195,0.4949446789969855,0.29095938393484755,-0.6526122412243442,0.3551949472064905,-0.18613662020453015,0.642873992864816
8.3,0.05962503570418539,-0.695890619159535,-0.29132211829931814,7.984804571203625e-05,-0.01473701712074977,0.015950660268477235,-0.08678189287711122,-0.41700954150729064,0.9047492342391834,-1.8407831192016602,-2.012333855379181,4.151872912566512,0.6046369857054344,1.3522660505632194,-0.5455742910656785,2.0,0.4898969826086451,0.49495546116473876,0.29098583001340844,-0.6526058343614843,0.3551837543898856,-0.18612226880942379,0.6428908357008124
8.4,-0.16018038538677498,-0.39366184366004886,-0.37937830515756066,-0.004473765882026025,-0.006975390609762778,0.018148880189335234,-0.08690522788484464,-0.4175635127763396,0.9044822788421227,-1.8407354208492275,-2.0123101710113467,4.151862613989067,0.6046345351219491,1.3522429029081415,-0.5455171604734999,2.0,0.4899064735503331,0.49495858557847777,0.29097863248388645,-0.6526083442631988,0.35519169764719566,-0.18612171962919916,0.6428840582895329
8.5,-0.14550877829331,-0.27620721460006853,-0.42704206200296696,0.004764717397460943,-0.008914067667192294,0.011824936809350487,-0.08692613277940547,-0.417508744633435,0.9045055524932826,-1.840733528137207,-2.01232373033247,4.15189790725708,0.6046039588187707,1.352254950019351,-0.5455297428478902,2.0,0.4899196933193793,0.4949443056223337,0.2909889099170498,-0.6525928492780366,0.35520054071917995,-0.18613552878438214,0.6428909035506214
8.6,-0.10695463257755394,-0.025259086624852767,-0.5243804045185169,0.004928174581096201,-0.005465424137028534,0.013664931724381836,-0.0868369365703775,-0.4170375662507863,0.9047314178878375,-1.8407494230243369,-2.0123438969959206,4.1518740487841646,0.6046569171876764,1.352242863076942,-0.5455506483661097,2.0,0.48992728831374016,0.4949485869441457,0.2909818520807427,-0.6525928360205292,0.3552121960880136,-0.18615555787553115,0.6428786778211449
8.700000000000001,-0.002929312134246201,-0.04344634506845861,-0.3986817541897057,0.0011080627148128842,-0.008265661813831086,0.010457940090807478,-0.08678230346400527,-0.41693658299608444,0.9047832424901269,-1.8407227061303435,-2.012310644189352,4.151861667633057,0.6046465549592839,1.3522652127234163,-0.5455731942137422,2.0,0.4899011446412082,0.49496055197583205,0.29096130045114205,-0.6526188857019891,0.3551856479543095,-0.18613483573571699,0.6428729022427442
8.8,-0.09396920437343154,-0.3217062011329443,-0.3318487533752822,0.001148758419577441,-0.005136204423148454,0.013641086136689401,-0.08673575882636354,-0.41685479472774367,0.9048253518926923,-1.840792372158397,-2.0123127510499867,4.151894704828916,0.6046570787415243,1.3522419929504395,-0.545563046132223,2.0,0.4899063612266296,0.49495302453733153,0.29096142027726823,-0.6526150476731576,0.35518772796802006,-0.18613492818731076,0.6428756224653281
8.9,0.03530340859455508,-0.054149466318780946,-0.34879486366361756,0.00496059975787955,-0.008905741339786154,0.01501471004308057,-0.08666037057137212,-0.4164427412512524,0.9050222967488551,-1.840772743770379,-2.0123325281465063,4.151896967464717,0.6046354152449908,1.3522658348083496,-0.5455277854585773,2.0,0.48990881270450964,0.4949578968012793,0.2909682221876709,-0.6526061346524588,0.35519376713046774,-0.18613290128682003,0.6428819206232159
9.0,0.17681611145118623,-0.3436504471136607,-0.37332000339704074,-0.00768376574744636,-0.010198730964251142,0.01763920251826999,-0.08670301905216783,-0.41653386365817163,0.9049762859082733,-1.8407479334961285,-2.012310644189352,4.15188523359371,0.6046446373736752,1.3522543907165527,-0.5455409670139495,2.0,0.48991400669827645,0.4949457229545463,0.2909793987880783,-0.6525954219336979,0.3551982799934565,-0.18614289234754544,0.6428874091078149
9.1,-0.013888544790214001,-0.09256022504077027,-0.5663512858780909,-0.00022503918983153643,-0.005328390465992064,0.01480562808177062,-0.08675413471340898,-0.4167088197295598,0.9048908650368882,-1.8407684797949455,-2.0123239067498537,4.151855590067448,0.6046337791047834,1.352261863578971,-0.5455414643655102,2.0,0.48991876215924085,0.4949389872106794,0.29099649515633197,-0.6525862566488857,0.3552034906986439,-0.18613929716352795,0.6428948746723377
9.200000000000001,0.26505562875124733,-0.23380121911303553,-0.22489308377786407,-0.006722184517939684,-0.016135935568255225,0.01691119667403737,-0.08671498610447963,-0.4166458077799688,0.9049236320641901,-1.8407800318620728,-2.0122893534619557,4.151879167660198,0.6046234860195931,1.3522628662125924,-0.5455342873695075,2.0,0.4899045452242376,0.49495273631310394,0.29097108140549766,-0.652600408830351,0.3551989894262771,-0.186135894212465,0.6428839811278051
9.3,0.17159844155122855,-0.31954199058784766,-0.43850899444411073,-0.012142492914342069,-0.010921185609480093,0.016780562981578567,-0.08649561261485238,-0.41572234848087725,0.9053682131851821,-1.840754802476628,-2.0123165863635957,4.151856244944494,0.6046403164868491,1.3522658348083496,-0.5455367893609288,2.0,0.4898945733336947,0.49495513855944145,0.2909924317696177,-0.6525987128148192,0.35517340994084456,-0.186123588162096,0.6429033977458047
9.4,0.1595134786888226,-0.34223503654342896,-0.3488969202788689,-0.011643687894636106,-0.014490606822231057,0.015885909160474502,-0.0862110346696442,-0.41448758365747096,0.905961786574476,-1.840764385228035,-2.0123291035140665,4.151853623035909,0.6046417375705488,1.3522438343433747,-0.5455440391475448,2.0,0.48990698682736744,0.49496044022486574,0.2909817761116762,-0.6526046682168789,0.35518142689193627,-0.18612895310109548,0.6428913701629815
9.5,0.04617004083988509,-0.3357827463925454,-0.16197724067492764,-0.012825800452611816,-0.0084060572093405,0.014536026474716666,-0.08614789514708916,-0.41411977382032644,0.9061364974512529,-1.840743998943672,-2.0123175328778156,4.151880275960856,0.604635106204483,1.3522524637569044,-0.5455472040218777,2.0,0.4899006409756499,0.49495798452615397,0.29095777844317183,-0.652627917965467,0.3551889946750317,-0.18612900602146623,0.6428635717407396
9.600000000000001,0.25361980715010507,0.316315273107555,-0.42494567219496054,-0.05754856303559837,0.0075325093118695586,0.0036229576724444083,-0.08617778445643935,-0.4141796773029189,0.9061062450860092,-1.8407697677612305,-2.012326927352732,4.151854411286308,0.6046111984918585,1.3522521223546515,-0.5455701279895944,2.0,0.489927706276872,0.4949402300693773,0.2909970563096548,-0.6525916251774005,0.3551949855342379,-0.18615309300708346,0.6428901297761134
9.700000000000001,0.8166975710650035,1.7542051422896043,-0.008820376580172542,-0.1347340713289328,0.03136769964556445,0.013231525713319604,-0.08623698075927033,-0.41458555895302246,0.9059149655909737,-1.84074902473448,-2.012325591797462,4.151870868737688,0.6046010690876464,1.3522543907165527,-0.5455808346318234,2.0,0.48990676658651233,0.49495599238723775,0.29095906326700066,-0.652620546238414,0.35519000597950157,-0.18613477270504478,0.6428688269544551
9.8,0.1929945757613186,1.7346437598573916,0.01856357700836521,-0.14342024698835784,0.02102837133897734,0.009962926183624808,-0.08612781911702314,-0.41420392163125114,0.9060998694830689,-1.84078049939161,-2.012363006137405,4.151840258455907,0.6046532731115593,1.3522566362680244,-0.545541066553271,2.0,0.4898998203442482,0.4949630413574887,0.2909572365711035,-0.6526287076843922,0.355179831436598,-0.18612836730246973,0.6428680176616246
9.9,0.553957208488973,1.526895346694909,0.18078235124675202,-0.15155430344056806,0.02593274813607549,0.0255640588743045,-0.08599481554281901,-0.41362634903895884,0.9063763346863026,-1.8407697677612305,-2.012343909434527,4.151878306611569,0.6046528041718603,1.3522517932731948,-0.5455293040498899,2.0,0.4898937267318972,0.4949649550675741,0.29095636220737464,-0.6526273973692054,0.3551760282182538,-0.18612565477551057,0.6428722344421097
10.0,0.5678113247324186,2.2150359972637723,0.32866007244931295,-0.18375402918045738,0.021703135097007154,0.02300292909469562,-0.08587682783909681,-0.41293749535079566,0.9067015152177816,-1.8407493179031336,-2.012334486047262,4.151881180126707,0.6046085872579284,1.3522684763276378,-0.5455557282108948,2.0,0.4899160430280437,0.49495196062979674,0.2909487925732051,-0.6526354239548231,0.3551975962810443,-0.18613686056683448,0.6428489248134429
10.100000000000001,0.4896781928320271,2.153541489040521,0.9281125267092657,-0.19352614557533204,0.02912958959114379,0.034879106311243434,-0.0857927234892933,-0.4124629716185992,0.9069254772514526,-1.8407749789333698,-2.012338579795169,4.151877321995153,0.6046088962686947,1.352253890265633,-0.545562545681303,2.0,0.489920755996886,0.49494562184099383,0.2909527820695242,-0.6526174425932796,0.35521592399008534,-0.18614132016471086,0.6428557613448106
10.200000000000001,0.6706036700975055,2.3826464695700356,1.0976646844265907,-0.23221061441987367,0.010494466330752959,0.041096761030208526,-0.08577247648766788,-0.41234194122853474,0.906982326827159,-1.8407784376818723,-2.0123350698115408,4.151869110223019,0.6046395224691175,1.3522345503604773,-0.5455199112309642,2.0,0.4899172161616558,0.4949529219568709,0.2909695574124023,-0.6526034568029604,0.35520332244764274,-0.18612913059320846,0.6428804512781506
10.3,0.8220941024030592,3.1657503754510268,1.3114721812539554,-0.2892282611689161,0.006437077221150106,0.029809504859705224,-0.08598205182884779,-0.4132945716165784,0.9065286694402822,-1.840773354936844,-2.0123528126469554,4.151879773622421,0.6046427607080919,1.3522574654385071,-0.5455212912499828,2.0,0.4899049471035664,0.4949629439736326,0.2910095293392526,-0.6525889067406776,0.3551953641961358,-0.18612260691233512,0.64290150664681
10.4,0.43335493109013845,3.558587684915702,1.3719578468036109,-0.3250867977710041,0.011460134968851576,0.038646897373052116,-0.08594849671884745,-0.4132047677234269,0.9065729772755529,-1.8407764010685361,-2.012346406976217,4.1518731117248535,0.6046105087941968,1.3522691514620024,-0.5455506483661097,2.0,0.48991785809924904,0.4949526959789978,0.2909725725181247,-0.6526077992690563,0.3551966844681281,-0.18613681300709545,0.6428774863997107
10.5,0.5474882524793002,4.16663396360483,1.7637965384453593,-0.38314768533375265,0.010973157254254242,0.03971563021308771,-0.0856534095030285,-0.41188283822886645,0.907201184476562,-1.8407734636616955,-2.0123821697630824,4.1518731117248535,0.6046217430308723,1.3522543907165527,-0.545563046132223,2.0,0.48990217637283084,0.4949632971882888,0.29096586540901265,-0.6526140367315537,0.3551902946215699,-0.18611923363947896,0.6428797745590086
10.600000000000001,0.5187407329099266,4.109787604473971,1.7786694969695187,-0.3643973495732064,0.01301796943152761,0.038952201857322094,-0.08531189585471054,-0.41033400251968544,0.907935952485465,-1.8407538638808054,-2.012358327905172,4.1518572078444285,0.6046529215794628,1.3522671740944456,-0.5455387274371546,2.0,0.4899105214107767,0.4949516984780103,0.2909600100949234,-0.6526072125093944,0.355195790656747,-0.18614144565545498,0.6428772345399578
10.700000000000001,0.82915458825215,3.781492850422131,1.8753816748185645,-0.3637785850274749,0.010759244348922836,0.036671664920091045,-0.0851202678468285,-0.4096006435200314,0.9082847382422476,-1.8407831192016602,-2.012334486047262,4.151913144782015,0.6046357076398734,1.3522365346531229,-0.5455544417992481,2.0,0.4899061755633453,0.49495734445152595,0.29097141317763286,-0.6526082205072717,0.35520009577667133,-0.1861314936025437,0.6428767141341035
10.8,0.7309902128783878,3.8528504714783507,1.668530874102529,-0.361577754345638,0.005478073146701418,0.037421871084261905,-0.08500862147646729,-0.4091823737494468,0.9084837686965473,-1.8407709088959918,-2.0123184252411495,4.151877748387269,0.6046682891891333,1.3522418054899945,-0.5455506483661097,2.0,0.48988807132139045,0.49497182892573743,0.2909646756569999,-0.6526214180598091,0.355170239015425,-0.18612217361759664,0.6428825106465341
10.9,0.6219108392834959,3.992604124263375,1.7179322930549679,-0.3578979488719899,0.010720501395354838,0.04120220742346612,-0.08538373588089661,-0.4106817075941928,0.9077714023687226,-1.8407907337199347,-2.0123424410812825,4.151869304465716,0.6046401846108759,1.352257856530178,-0.5455268065081995,2.0,0.4899026844494787,0.4949572814642201,0.29096456843951857,-0.6526071662092083,0.35519586597609165,-0.18612650203689,0.6428815665776961
11.0,0.48644667600773456,3.8109773453217493,1.8013831034672674,-0.360678665351192,0.009092994683855556,0.03674882542809764,-0.08543551287657988,-0.4109070593655515,0.9076651131831837,-1.840774847174927,-2.012338453104358,4.151901715631893,0.604632546662541,1.352258208575045,-0.5455668639907152,2.0,0.48991701824233086,0.4949441092655109,0.29096299194885583,-0.6526125347174975,0.355196016375557,-0.18615094166621932,0.6428689574068095
11.100000000000001,0.4883030662953498,3.7026263783319986,1.5992579694109623,-0.3616398332048938,0.011822122569345641,0.03067045619892538,-0.08532403224308685,-0.4104738875721295,0.9078716733612797,-1.8408096064220776,-2.012334823016703,4.151846348155629,0.6046363550373535,1.3522419929504395,-0.5455581463594923,2.0,0.48991444959433245,0.49495202388930737,0.29094810835413254,-0.6526220304507852,0.3551851603907468,-0.18614078402514855,0.642868256901052
11.200000000000001,0.6244809201677308,3.605601585856253,1.6926848070341134,-0.3590937543173352,0.009326466967574953,0.03347607497029824,-0.08543050433220124,-0.41078604427427634,0.9077204393616621,-1.8407831192016602,-2.012318055028693,4.151902236943109,0.6046679041681785,1.352246683443638,-0.5455313165978134,2.0,0.489918889775974,0.4949440545384168,0.29094549395652947,-0.6526074126999812,0.3552107703317634,-0.18614237501142475,0.6428684855819717
11.3,0.804319058503794,3.585146865244362,1.8877230348790635,-0.3621485614735327,0.005410893288865781,0.03668545333547234,-0.08503240237692868,-0.4090232820374815,0.908549708675316,-1.8407697677612305,-2.012316075777791,4.151886609553126,0.604653447981127,1.3522543907165527,-0.5455485328619558,2.0,0.48991524502306155,0.4949452966795657,0.2909777988153112,-0.6526043040514553,0.355201076353712,-0.18614086662017126,0.6428774342474404
11.4,0.6189677508686935,3.379941876542107,1.7402271683908437,-0.36527704857858045,0.008892362679181526,0.03426563763075695,-0.08435292130775708,-0.4060928579820709,0.909930225474157,-1.8407802496349526,-2.0123201723887574,4.151886463165283,0.6046696137758587,1.3522518978250688,-0.5455459399258121,2.0,0.48990601470428,0.494955183301455,0.2909627755321017,-0.6526166475139277,0.35518684918746485,-0.18612960718344915,0.6428760245037126
11.5,0.590915841798925,3.4850279732668423,1.6666013997722806,-0.3643171215360921,0.010652239521930153,0.028663453013911794,-0.08420340455263625,-0.405236572862781,0.9103253196708827,-1.840760935819327,-2.012346406976217,4.1519081332045555,0.6046665670056952,1.3522533647085597,-0.5455414484266269,2.0,0.48991260922217167,0.4949487033766008,0.29096201702606006,-0.6526099409436504,0.35519945371375156,-0.1861299210377217,0.6428757777031807
11.600000000000001,0.6273889573812756,3.8485353200327115,1.6797040532583996,-0.3627250119548205,0.009684004896577319,0.03392528703235298,-0.0840882882515818,-0.4045773136861931,0.9106295037275085,-1.8407891172082964,-2.0123274024800732,4.151902551124376,0.6046528299853875,1.3522402235821755,-0.5455506483661097,2.0,0.48992739368886384,0.49495243071698825,0.29098408339623216,-0.6525812739177573,0.3552183150212876,-0.18614055284232392,0.6428913782225336
11.700000000000001,0.8037189545471342,3.7983315558465613,1.7606035195205005,-0.3659684606001466,0.004995444204011196,0.03394297637931638,-0.08433993175673021,-0.40604999195650177,0.9099503579246409,-1.8407753905655362,-2.0123413866152298,4.151861667633057,0.604634550038652,1.3522882732964372,-0.5455318268691867,2.0,0.4899073226839359,0.4949567594108464,0.2909576869647878,-0.6526175329619582,0.3551837369864784,-0.18613336102140549,0.642875758265812
11.8,0.6656381241297424,3.720290523639787,1.9194128548036877,-0.36716795272405894,0.00795714880707541,0.03187895910428735,-0.08389492471264125,-0.4039702229560321,0.9109155425100911,-1.8407758668051635,-2.012334486047262,4.151896918669168,0.6046249109455566,1.352248727318615,-0.5455376976580798,2.0,0.4899088086712889,0.494950620669876,0.2909627078507045,-0.6526068470573608,0.3551996938580727,-0.18613061478437518,0.642878584879736
11.9,0.5644513208345757,3.8572420971158436,1.8707461849873561,-0.3634779371232489,0.008263487272575325,0.027931830466233397,-0.08375876053720115,-0.4033317278669146,0.9112122294092595,-1.8407568820392917,-2.012303664423302,4.151878946494152,0.6046760341262172,1.3522419929504395,-0.5455524185167147,2.0,0.4899114074542142,0.49494448214293996,0.2909516308044274,-0.6526171808089202,0.3552000075645318,-0.18613315720298154,0.6428671851392197
12.0,0.4437797279567842,3.9148783249304766,1.9577382615000756,-0.35819468753180694,0.010868015277548434,0.032235149634059136,-0.08386768873182672,-0.4038370028780834,0.9109784080825752,-1.840776857634752,-2.012322565118307,4.151909351348877,0.6046295680258092,1.3522366258930896,-0.5455554994913728,2.405568008671489,0.48991636282229944,0.4949445197672321,0.2909573745162932,-0.6526107720578078,0.35519356378920125,-0.18615018901177335,0.6428723198020891
12.100000000000001,0.5060975672085196,3.7881503993783836,1.9601889294090542,-0.36198252503680783,0.01006581908830962,0.03221696783369285,-0.08383325508034103,-0.40374051534836247,0.9110244051577705,-1.8407824880161268,-2.012322255032939,4.151915711476325,0.6046541592565985,1.3522724926177512,-0.545563046132223,3.0,0.4899016830236502,0.4949597572132161,0.29097920428847374,-0.6526139194194069,0.35518498809258553,-0.18613001733524062,0.6428797034130822
12.200000000000001,0.7651218569819466,3.748206502398113,2.0974352058295964,-0.3637215743275746,0.0024972306995802145,0.03242676695593929,-0.08394742661341456,-0.4041787838701172,0.9108192723607474,-1.8412790298461914,-2.0118138700025647,4.1519341468811035,0.6047824032369553,1.3521601351058847,-0.5455381145708047,3.0,0.48990174306352285,0.4949598528738844,0.29098706463857965,-0.6525982700153451,0.355180510490199,-0.18613113823724176,0.6428977386174329
12.3,0.5006705280494944,3.326455178796454,2.766147316056576,-0.350106241328754,-0.006837739059514811,0.025603746146696665,-0.08429774356712544,-0.40556922678319535,0.9101685670058846,-1.8427318867088698,-2.0107843544043105,4.1520793025990175,0.6051957918524116,1.3520129716334728,-0.5455326642529792,3.0,0.4897739836331221,0.49474240615376686,0.29111213825282006,-0.6525516005338574,0.35519208464739493,-0.18616124041055693,0.6429299994659927
12.4,0.28870926562881993,3.2155273118814613,3.1947464435599557,-0.32427328216742085,-0.01742543769030124,0.02488416965635258,-0.08425455728835608,-0.4053443221850068,0.9102719278741466,-1.8442296385276074,-2.0099063842457356,4.152341425467754,0.6056459635403354,1.3518093463788932,-0.5455249588131117,3.0,0.48960290823990105,0.4945505151849367,0.2912078461680258,-0.6525212077774281,0.35518281948515634,-0.1861687562197476,0.6429637877445773
12.5,-0.16796424148670874,2.8717287471318245,3.5078482711790593,-0.3139846367015858,-0.024250439940350883,0.0032760615421295325,-0.08382899559545497,-0.40351444184443885,0.9111250134792035,-1.845726130162356,-2.0088869573588353,4.152640496370946,0.6061437909529772,1.3515644113140146,-0.545469842807685,3.0,0.48921748205960175,0.4941843090080507,0.2911174675970811,-0.6525932733669524,0.3552026241878905,-0.18614427463745367,0.6428867896806864
12.600000000000001,0.15202685149227232,2.736680955686981,4.313304114555655,-0.2978273826524988,-0.046430634484505066,0.0006676281043818428,-0.0838367375409234,-0.4036712185507634,0.9110548465267192,-1.8472284083222827,-2.0079497646251743,4.152803709778518,0.6065898875421732,1.3512815579082176,-0.5454255895222593,3.0,0.4887151793676608,0.4937655401270492,0.29114323524077346,-0.6526110630814891,0.3551744998722727,-0.1861311962562478,0.6428880561686833
12.700000000000001,0.06095935694793457,2.842607757992126,4.373869531383561,-0.2965436556060097,-0.05516442141084421,-0.0018616533802090864,-0.08414743594659387,-0.4050889480656884,0.9103928246774523,-1.8487674282428184,-2.0068728937740414,4.153059099134335,0.6070572377246231,1.3510706522537772,-0.5454178959160652,3.0,0.48853030913652923,0.49352323373123735,0.29109328054945477,-0.6526461673469919,0.35522127650155,-0.18613654952814782,0.6428250227687524
12.8,-0.0746323789593337,2.4138176030175607,4.67045874348672,-0.2983350416368911,-0.06375794702564737,-2.5802536926890652e-05,-0.08477447240362247,-0.4078231914781951,0.9091128623470245,-1.8500364364646569,-2.0057475086679264,4.153300177760384,0.6074626329611253,1.3508241844130278,-0.5454174391328973,3.0,0.48818058426592265,0.4931474820414372,0.2911419027258186,-0.6526334370178464,0.35523174324415757,-0.18614604824366046,0.6428294129870371
12.9,-0.24602375761986103,2.342901287934646,4.8875758767350925,-0.29472356006326667,-0.07324414868640097,-0.012540865897149808,-0.08497298894786832,-0.40866428915794195,0.9087200260260719,-1.8515753392922982,-2.0046207792688944,4.15351586647701,0.6079095860543522,1.3506062656380344,-0.5453866240992744,3.0,0.4876270316203628,0.4926588101656659,0.291412394376752,-0.6525461221486608,0.3551694441137005,-0.1861411525063157,0.6429538830898609
13.0,-0.38849446042360997,2.867064160617667,4.510247514255996,-0.2879002647574734,-0.06893422550712035,-0.025762066635659255,-0.08471047017476317,-0.40746859223921433,0.9092816294151732,-1.8532428927765079,-2.003700620069007,4.153728518410334,0.608342843570979,1.3503820516542056,-0.5453689827243343,3.0,0.4874401761393612,0.49242619424110334,0.29146615137389936,-0.6525319234174488,0.35517582957720034,-0.18615985729379161,0.6429593506106176
13.100000000000001,-0.32633593818074746,2.3919302164048473,4.765249065199498,-0.3088686406813312,-0.07414926244067457,-0.04188807027648015,-0.08453632295832436,-0.4067032265938317,0.9096404523916648,-1.8545832383005243,-2.002833618605181,4.154011393095318,0.608737996842902,1.3501174018257542,-0.5453056348781432,3.0,0.48696655363798297,0.49194318709397195,0.29139970010797683,-0.6526219576333413,0.35519570467048023,-0.18616024029647846,0.6428568711083545
13.200000000000001,-0.24953339357429696,2.26190152582312,4.6634016519277495,-0.2950819650014356,-0.07652864482976288,-0.04818010546030624,-0.08419072703359089,-0.40518325673353056,0.9103491423931346,-1.8559259571995208,-2.0018374887071837,4.154252337423077,0.6092037205789164,1.3498743868398142,-0.5453068887176626,3.0,0.48672721077970127,0.4917225109916437,0.2913936126624481,-0.6526301098729737,0.35521591306867895,-0.18614366246578845,0.6428422292552022
13.3,-0.484190459088036,1.9353466343884953,4.232158748875199,-0.2527123526859719,-0.0734168124411667,-0.04615810299076423,-0.08347068043304078,-0.40199866829264064,0.9118249436833812,-1.857512272645542,-2.0006040165328236,4.154457707489404,0.6096209716148616,1.3496453768612124,-0.5452703184707154,3.0,0.4863580972526866,0.4913859239021564,0.2914508161700428,-0.6526242090298822,0.35519560740223133,-0.18615358754796357,0.6428565657386591
13.4,-0.2626703468942626,2.5400100907498904,4.582542622404913,-0.26301152012334816,-0.07872187781554382,-0.05615842491203967,-0.08274551196457873,-0.3987871379070287,0.9133010296826486,-1.8591258949241467,-1.999489660581954,4.154672475633816,0.6100415671603763,1.3494755976609127,-0.5452631155597132,3.0,0.4860257177057929,0.4910512910948414,0.2915909522128415,-0.6525933819061958,0.355175559581674,-0.18615261343849035,0.6428992178235239
13.5,-0.31857976770753194,2.4662390717542477,4.659907876360919,-0.2767980164862118,-0.08449699763132223,-0.0668568219750582,-0.08226982772961124,-0.3966771096968151,0.9142628203971482,-1.8603967058364002,-1.99843171160395,4.154910151909303,0.6104926542012535,1.3492302894592285,-0.545218188312433,3.0,0.4856717818542232,0.49067904320267447,0.2916092154864176,-0.652619392938249,0.3552001570606003,-0.1861497205017778,0.6428600609325069
13.600000000000001,-0.39373541182150446,2.4600182885125923,4.814283094377066,-0.28053888992338716,-0.08624125148251334,-0.08251241783868349,-0.08201695514454503,-0.395535375314802,0.9147813526147491,-1.861771967959911,-1.9975607437648553,4.15518378724021,0.6109045911363827,1.3489984334620455,-0.5451875149800559,3.0,0.48516176038528275,0.4901983054363955,0.2917730820822164,-0.6525672686718023,0.3551677626667666,-0.1861373950678112,0.6429344370757232
13.700000000000001,-0.1437398421353588,2.388649800481287,4.487212996150037,-0.2790629561677564,-0.09468940182450969,-0.07679828276413325,-0.08201948907359771,-0.3955235674229043,0.9147860554164849,-1.8634131323875098,-1.9966679600909654,4.155411243438721,0.6113832706627044,1.3487957715498593,-0.5451277445258078,3.0,0.4850051311884286,0.4900316010189394,0.2917486287585954,-0.652579099420406,0.3551822210253989,-0.18615010379989752,0.6429107618654428
13.8,-0.6480628754064394,2.572051507433276,5.028873087592764,-0.28537764575676383,-0.09093679139257767,-0.08621333119403436,-0.0817264379602278,-0.39434428002077276,0.9153212828236444,-1.8649494334939354,-1.995574514283903,4.15563133509127,0.6117659307094536,1.3485982673005859,-0.5451308612711092,3.0,0.4845022359791599,0.4895238434335726,0.2916562436719437,-0.6526883446383783,0.35520571210928226,-0.18613171454063265,0.6427921994706498
13.9,-0.4034731151905263,2.4729900615695923,5.140702342706554,-0.3011463586438177,-0.09704091029525468,-0.08866576372130251,-0.08155091622285505,-0.3937204192182561,0.9156055100509891,-1.8663055715806012,-1.994363912319019,4.155823038992823,0.6121205993219248,1.3483672142028809,-0.5451120397695093,3.0,0.48425505572889793,0.48930130733866095,0.29165705075765597,-0.6527215774898676,0.355196973808845,-0.1861141176478533,0.6427683776356289
14.0,-0.41642406042930397,2.5526024974572334,5.089764574242552,-0.31131359367006756,-0.09850836025589176,-0.0931383349429809,-0.08173703066753227,-0.394458855641135,0.9152710298822121,-1.8677463319817391,-1.993213270140021,4.156061910672737,0.6125139662410961,1.3481661301810701,-0.5450897411533835,3.0,0.4838048436169746,0.4888404166477175,0.2919274217868901,-0.652610905425065,0.3551789196720463,-0.18611359318665316,0.6428908706553764
14.100000000000001,-0.7098516914725528,2.696159639515382,5.248306901075102,-0.296829387618849,-0.09690217851608855,-0.11291351371746462,-0.08175775426957486,-0.39452297237511474,0.9152416442913494,-1.8692583746781128,-1.9923458663213962,4.1562981605529785,0.6129879048947204,1.3479224661117257,-0.5450611895731958,3.0,0.483508581439653,0.48852743814191624,0.2920821067860795,-0.6525604322478591,0.35515700437318526,-0.18613096052869962,0.6429491815391137
14.200000000000001,-0.5977901565746071,2.822859544216349,5.312098233722938,-0.30315613581335144,-0.10979593018029146,-0.11397854716444643,-0.08172610387633876,-0.39437355360954607,0.9153088724049017,-1.8706602386681774,-1.9914553382860878,4.156571038205019,0.6134304814184949,1.347660393779644,-0.5450599829303187,3.0,0.483227510320767,0.4882396688243469,0.29202371935521776,-0.652611816032114,0.3551783113156669,-0.18612165686378776,0.6428879479291051
14.3,-0.36292948812036585,2.558987502026343,5.432683697765967,-0.3198226452783854,-0.11407447003241455,-0.12071717529528203,-0.08173586475452042,-0.3943902676573475,0.9153008037201998,-1.8721336097326389,-1.9903087603681346,4.156765728180778,0.6138787583678201,1.3474469207869444,-0.5450188459271242,3.0,0.4827684032981046,0.48777022663327124,0.2920190212586106,-0.6526368579908076,0.3551816211729623,-0.1861406710371225,0.6428551922156984
14.4,-0.33424482329081906,2.6533365319606594,5.532237990642873,-0.3230159948937614,-0.11774807094473105,-0.121709457217647,-0.08172754571163475,-0.39433562114419085,0.9153250500975507,-1.8736191236491722,-1.9892466543125364,4.156996536302106,0.614267225809222,1.3471941763175894,-0.5449911902273376,3.0,0.4825520872250296,0.48753953023228225,0.29206152595818874,-0.6526280811851097,0.35518449220722903,-0.1861352323923421,0.6428640909293217
14.5,-0.44043732703431643,2.8942671099948116,5.783232636607345,-0.3207809208994419,-0.11771499434420427,-0.1288913706231276,-0.08161931048541697,-0.39388380503236037,0.9155292193610675,-1.8750041112216718,-1.9881744585859151,4.157215475453593,0.6146710359863485,1.3469628119352193,-0.5449789805093084,3.0,0.4821351003015634,0.48714409797704944,0.2921672032933616,-0.6526021409606981,0.3551703477310306,-0.18613040367734748,0.6428996364387208
14.600000000000001,-0.591869909352407,2.6187756493475547,5.610618641768716,-0.32575601935196974,-0.12224594206026224,-0.14156767044474525,-0.08138769559919065,-0.3928191902319352,0.9160061104162925,-1.8764396269172312,-1.987178675579369,4.157439021222287,0.6150758064785105,1.3467035012970061,-0.5449444766796094,3.0,0.4816917019812283,0.4866864653928783,0.2922761772339482,-0.6526003706261976,0.35516550722918605,-0.18614018196518844,0.6429012765511911
14.700000000000001,-0.5986096369312124,2.712628665872354,5.685319911704684,-0.33143412086117885,-0.1248185999903185,-0.14445904991543523,-0.08111157949421287,-0.3915335480069745,0.9165813681886107,-1.8779745851734453,-1.9862172816015446,4.157631472227888,0.6155035939601401,1.3464812069630883,-0.5449268665743677,3.0,0.4814608178397506,0.4864572271405022,0.2923460285216742,-0.6525743564053236,0.3551664727472356,-0.18612571404950745,0.6429313373666166
14.8,-0.5674150573415166,2.893900062072973,5.916854503084149,-0.32725437835986376,-0.13072126175164347,-0.14683160674372034,-0.08099102376722898,-0.39078729722901195,0.9169108696191514,-1.8794655272376262,-1.9852145959470309,4.157882267389796,0.6159457520896623,1.346244615637781,-0.5448733421792021,3.0,0.48112267860743085,0.4860990112240532,0.2923344189884455,-0.6525942618456503,0.35518805521683816,-0.18614471120120182,0.6428937092002319
14.9,-0.6125329494707732,3.041823628174968,6.12311999800732,-0.3234023971061908,-0.1353255603126579,-0.15631769843658003,-0.08091921791313894,-0.3902683757629504,0.9171382703106407,-1.8807500328044748,-1.98411047483505,4.158108507487876,0.6163263979030201,1.345994015484673,-0.5448402402730632,3.0,0.48067966141520535,0.4855809522528482,0.2923186425306591,-0.6526322187106405,0.3552283591997171,-0.18616126787175444,0.6428281125351347
15.0,-0.889885293413704,2.8742678242032285,6.275664849499621,-0.31615907658792597,-0.138084895923745,-0.15990083225335078,-0.08080827137686228,-0.3898274060114073,0.9173355595761621,-1.8821767019998688,-1.9830422304221558,4.158345043629363,0.616712728130471,1.345768044576325,-0.5448464343817878,3.0,0.4804762275086921,0.4853929499844577,0.2924221894119308,-0.6525881819734085,0.3552125424139948,-0.18614225444380356,0.6428870628430827
15.100000000000001,-0.9024863414894506,3.155710131220585,5.7334724093078755,-0.3157843172163667,-0.14087477970198342,-0.1646494086382456,-0.08036526055913734,-0.38787605836732636,0.9182002723583228,-1.883435840483202,-1.9822609172108727,4.15855073928833,0.6170074321735557,1.3455376625061035,-0.5448091365898322,3.0,0.4799784780475692,0.4849216033951952,0.29254525611266846,-0.6525769110659541,0.35519288925811876,-0.1861538959076684,0.6429059912634856
15.200000000000001,-0.8526466501747769,2.837990217206464,5.829855106827715,-0.32363136847529506,-0.13074243058378426,-0.15631160567019156,-0.08035789289182527,-0.38786791107461943,0.9182044956705999,-1.8834632167505156,-1.9822472420965382,4.158585427874455,0.6170658194606531,1.3455392135440012,-0.5448428368703341,3.0,0.4797903101722054,0.484727034500761,0.29251186630086334,-0.6526197705547034,0.35520904760961364,-0.18615910626081686,0.6428520473122656
15.3,-0.5217596623654241,2.609985295031994,5.9294046325917735,-0.32259459037967037,-0.12277701178383198,-0.15031394470224066,-0.08061480386573658,-0.3890442006729311,0.9176844955322198,-1.8834234403979226,-1.9822589892385525,4.158666715440049,0.6170633129395602,1.3455147210518736,-0.5447889245229172,3.0,0.4797087023328388,0.4846613874618814,0.29253244410639484,-0.6526014774472578,0.35522039903964364,-0.18613924458993092,0.6428700968028164
15.4,-0.839474365401775,2.9890827508652817,5.760530525947579,-0.32690163762997293,-0.14424176019176033,-0.15826994540482975,-0.08060744514248444,-0.389091158661922,0.9176655927063511,-1.8834466934204102,-1.9821886859133677,4.158622729332182,0.6170193515657676,1.3455383061958344,-0.5447730938136529,3.0,0.47968015154652177,0.48466982729876407,0.2925473303898687,-0.6526070628550846,0.35518409633172277,-0.1861420178347775,0.6428836818749366
15.5,-1.1715392237815865,2.64457124628736,5.825734489505132,-0.3319511234950598,-0.2047569475790045,-0.1681809389608072,-0.08045438408290807,-0.3885154714678709,0.9179229646480489,-1.8834943771362305,-1.9821593118095164,4.158634662628174,0.61701074031328,1.3455696264123058,-0.5447933803346158,3.0,0.479671392423903,0.4846776283052022,0.2925404501908266,-0.6526138768251198,0.3551940952829837,-0.186110941377462,0.6428802376422728
15.600000000000001,-2.160257153600733,2.5420636151058775,5.88355657918636,-0.3349439372523387,-0.2898858754410432,-0.19404976643955046,-0.08054384539483192,-0.38906641098753597,0.9176813419243273,-1.8834714889526367,-1.9821658663054385,4.158636466524165,0.61703035817969,1.3455746829711865,-0.5448095223153261,3.0,0.47966182969910837,0.484667097476073,0.292588231953966,-0.6525927708043211,0.3551835783737938,-0.18612327793275854,0.6429039014962434
15.700000000000001,-2.680192864803878,2.2602463981301195,5.950232141113897,-0.3462433007895484,-0.37737340101831157,-0.20912496496413724,-0.08072940090533683,-0.39004866166283675,0.9172484741523648,-1.8834554400141452,-1.9821874359587532,4.158653300048136,0.6170604188192966,1.3456287588991462,-0.544838832747182,3.0,0.4796507725606427,0.4846784774688412,0.2925622614067805,-0.6526257576971723,0.35516523998284594,-0.18611404093911552,0.6428832214822786
15.8,-3.3694024034290804,2.550699587111716,6.093071265261527,-0.347088571598517,-0.438535737657627,-0.22542284128482265,-0.08063185166540228,-0.3896145180745985,0.9174415139567297,-1.8834714889526367,-1.9821849990773381,4.158661884578288,0.6170674997517089,1.3455823418661326,-0.5448312172961666,3.0,0.4796520243123487,0.4846731352092975,0.2925844874021175,-0.6526164749842323,0.35515244728231404,-0.18611786344673242,0.642898605282794
15.9,-3.98359038680542,2.486477340592462,6.106466738619269,-0.356012273856363,-0.48222504511696557,-0.2350432772732662,-0.0806156620708693,-0.38950210590824635,0.9174907173735015,-1.8834775710511855,-1.9821649990477503,4.158670902252197,0.6170312601276855,1.3455610275268555,-0.5447848478900355,3.0,0.4796516961387829,0.4846709998436064,0.29258627248803615,-0.6526049245929769,0.3551690590013288,-0.18611464091321267,0.6429020861397571
16.0,-3.595812275438224,2.2224460079001935,6.156602301928055,-0.36449850277751494,-0.5397242204587763,-0.23995366540339244,-0.08064876393118774,-0.3895846135916293,0.917452778021029,-1.8834348870866702,-1.9821994551761777,4.1586594581604,0.6170658696629645,1.3455608575034008,-0.5448086897479456,3.0,0.4796469849798543,0.48467020013705664,0.2925901188665838,-0.6525975909280981,0.3551727013971596,-0.1861245192884475,0.6429046584189068
16.1,-3.9397495854017124,2.7091252447034657,5.920285430049299,-0.3566726949201123,-0.5618553278350263,-0.24272821777330458,-0.08069740451685448,-0.3898286507624204,0.9173448189608929,-1.883475383255923,-1.9821748916937438,4.15867618036379,0.6170333695419656,1.3456010749479874,-0.5447987971019522,3.3742864955242213,0.4796503721710463,0.48467448288887627,0.2925848678046583,-0.6526104864832899,0.3551623137249746,-0.18612287428202395,0.6428977830966325
16.2,-4.183762280158617,2.647004066613078,5.898124447493269,-0.36681250099169355,-0.5782348135929277,-0.2510670003678604,-0.08065288016802162,-0.3896667302158274,0.9174174563249845,-1.8834385404049085,-1.9821769199767054,4.158660248018712,0.6170477388284049,1.3455618502959292,-0.5447864934281831,4.0,0.479655002857023,0.48467176681876767,0.2925568672784941,-0.6526301050841464,0.3551709554481909,-0.18611893112548897,0.6428742348395842
16.3,-4.1657172995887075,2.1604609696064143,6.26292618603916,-0.38346761389207445,-0.5944032236851616,-0.24926949440527033,-0.08060232167726958,-0.3894315495643904,0.9175215858279165,-1.8834815319432203,-1.9821663462604555,4.158636710391486,0.6170319606782921,1.3455245641893836,-0.5448338788185608,4.0,0.47964712732181686,0.484669116475138,0.29258995666260396,-0.6526065523700401,0.3551562020993623,-0.18612674030904933,0.6429040336286397
16.400000000000002,-0.6238038122977819,2.999363036183408,5.748548637020594,-0.36416733555096475,-0.2428505743161507,-0.16655665543591913,-0.08100290242304338,-0.3910522996406451,0.9167964415659651,-1.883483235845306,-1.9821535601510665,4.158598120203278,0.6170318909628365,1.3454543700014108,-0.5448312699355539,4.0,0.4796545567021454,0.4846731440788149,0.2925766564306281,-0.6525953885768091,0.3551817193504491,-0.18611668484942614,0.6429041800052333
16.5,-0.36425103385880775,2.8095803151702157,5.223759522560677,-0.3519954912841992,-0.18374205514682043,-0.15285273328485063,-0.08055069263032219,-0.3886913523981343,0.9178384991756842,-1.8835056894773072,-1.9821408175930153,4.15856341153511,0.617054827504929,1.3455138206481934,-0.5448200020890225,4.0,0.4796913124775869,0.4846349893872753,0.2925703190940571,-0.6525981888980754,0.3552068794945516,-0.18616757078510518,0.6428727029472227
16.6,-0.3192465167214685,2.8368844626993717,5.255966014831745,-0.3459802573606084,-0.17129299683542024,-0.15492497088256288,-0.08039404321094717,-0.387911622623624,0.9181836943183163,-1.8835054863392056,-1.9821404477910003,4.15858709054196,0.6170077717635316,1.3455494671542176,-0.5448084571862639,4.0,0.4796978495890017,0.4846194159093005,0.2925943084956078,-0.652577258011481,0.3552131202228548,-0.18616781941578847,0.642890429670353
16.7,-0.11274610778516847,2.8460729883016684,5.25771661897113,-0.34320306608216694,-0.17205861724171967,-0.14627762720754306,-0.080416389802619,-0.3881095177184793,0.9180979872973098,-1.8835420020128721,-1.982140680352682,4.1585983641649715,0.6170311963852418,1.3455616882364472,-0.5447851543440914,4.0,0.4796912659785567,0.4846194167365784,0.29256377140941103,-0.6525981236802587,0.3552005736818371,-0.1861586152177362,0.642878846599664
16.8,-0.34934603283240423,2.861186848020518,5.307114523287099,-0.3452917913922229,-0.167595056777944,-0.15069775011416867,-0.08008547205702324,-0.38665597951615693,0.9187394852472794,-1.883485357066522,-1.982140680352682,4.158587744393013,0.6170196916322866,1.3455936008109728,-0.5448325316058558,4.0,0.47968619583581895,0.4846330904695377,0.2925732145080991,-0.6525877074873293,0.3552014794618569,-0.1861437498134611,0.6428932239726313
16.900000000000002,-0.05097409273541709,2.7768194344052364,5.129359354779429,-0.34622068785697174,-0.17069722756810432,-0.14484499494574957,-0.07999977347420636,-0.38627129748491695,0.9189093876931493,-1.8834922624717452,-1.9821649990477503,4.158608529883738,0.6170356656786966,1.3455729484558105,-0.5448180191752572,4.0,0.4796873931136949,0.4846380422213318,0.2925692654857178,-0.6526027491502573,0.35519554423287203,-0.18614640912105246,0.6428804644177469
17.0,-0.41631977337545945,2.9904430828757103,5.17706960941148,-0.34006801104291307,-0.16021746518174243,-0.15234902046858181,-0.08016941273867147,-0.3870522568115094,0.9185653466512622,-1.8834934207755076,-1.9821644810190253,4.158633148390362,0.6170302639185992,1.3455619825443752,-0.5447863222794833,4.0,0.47968552907276535,0.48463368299170145,0.29254203956436536,-0.6526244634818762,0.35520328607976864,-0.18615741383889012,0.6428509566734297
17.1,-0.3495978548270553,2.9699262244595372,5.14907425055463,-0.34149896347892117,-0.16522807610884202,-0.14729961379725523,-0.0803926162674194,-0.3881081742392875,0.9181002695669999,-1.8834700705486054,-1.9821649990477503,4.158624434311261,0.6170351100814848,1.345558971499672,-0.544800568115503,4.0,0.47967508148861066,0.4846489655893355,0.2925527850780153,-0.6526142173772442,0.35520022099320875,-0.18612440077321224,0.6428726108026965
17.2,-0.3596630090494324,2.8809830403339345,5.175395907369541,-0.3396953692457914,-0.16161443843737577,-0.14309716845569856,-0.08054527255138555,-0.3888046333918095,0.917792628208527,-1.8834897021456853,-1.9821871486303475,4.158618074019426,0.6170573460998314,1.3455917811787945,-0.5448069974726327,4.0,0.4796823308382408,0.48464070813735466,0.29257590580148835,-0.6525980697844797,0.3552023406680294,-0.18613896695253906,0.6428836142563954
17.3,-0.41486185391569314,2.901323158063883,5.29048587620667,-0.3371306287409171,-0.15917890436178372,-0.14547971407688318,-0.08063115800934367,-0.389175772030293,0.9176278237918974,-1.883519172668457,-1.9821662456322346,4.158632767819758,0.6170294151826486,1.3455949453686837,-0.5448325316058558,4.0,0.4796731497426823,0.48463563614733896,0.29258630148013715,-0.6525913092897452,0.3551923270856347,-0.18614663528062103,0.6428937890450418
17.400000000000002,-0.4470830102094452,2.916442065145252,5.38414554244343,-0.3373560427861457,-0.1570604226702793,-0.1471217365234109,-0.08049956306605696,-0.38878912431691914,0.9178032147534358,-1.8835073752499973,-1.9821776671026525,4.15865862137934,0.6170644514778448,1.3455615043640137,-0.5448094069888548,4.0,0.47966421240235413,0.48466630880133527,0.2925318177110223,-0.6526358199662843,0.35517275788194785,-0.18612696563944411,0.6428651112148807
17.5,-0.38562920708978077,3.0478534694810095,5.195719958698558,-0.33444355209959076,-0.16104177605085757,-0.14842076566100848,-0.08046277409171804,-0.3886664003588922,0.917858467856264,-1.883483817841017,-1.982174118120858,4.158597538207567,0.6170637393662295,1.3455500651275325,-0.5448297666165327,4.0,0.47966995540184004,0.4846544540163386,0.29254728276266495,-0.6526241223682316,0.3551882464406823,-0.18611714683539404,0.6428712718323482
17.6,-0.3984344349960116,2.8394852697400506,5.187559269210647,-0.3331632670026431,-0.15551150174709263,-0.14989897429126126,-0.08044473207509156,-0.38842532023761683,0.9179620468615445,-1.8835058212280273,-1.9821661071780157,4.158610820770264,0.617041352982847,1.3455625681690684,-0.544833639736121,4.0,0.47966365266934086,0.4846497843144006,0.2925969923238664,-0.6525841946444699,0.35518580222251306,-0.18612337861408562,0.6429113490467065
17.7,-0.2940428651414844,2.9527655374709862,5.205718527559429,-0.33887055784267184,-0.16105232246498355,-0.1477699334501269,-0.0804538635919171,-0.3884193483535385,0.9179637348917835,-1.8834943771362305,-1.9821743059020376,4.1586010883351845,0.6170312601276855,1.3455814507381052,-0.5447967688189905,4.0,0.479686621400155,0.48463487388713417,0.2925781987876456,-0.6525910248859259,0.35520255213197655,-0.18614856920923384,0.6428878684332304
17.8,-0.3983050724180006,2.97722863380381,5.217878758247787,-0.33535242440153373,-0.1556205782464278,-0.15056956389374782,-0.08054138915290857,-0.38892370155108136,0.9177425662027902,-1.8834943771362305,-1.982183618718201,4.15860111165512,0.6170086591856073,1.3455530361647017,-0.5448311872803712,4.0,0.47966694521197434,0.4846595513974737,0.292556146785381,-0.6526154925603523,0.35519178239204774,-0.18612482688805115,0.6428758553618747
