xiamingqian9007/apple-picking-rnn/final_data/grasper_20191127_135152_noimg.csv
,/manipulator_wrench.fx,/manipulator_wrench.fy,/manipulator_wrench.fz,/manipulator_wrench.tx,/manipulator_wrench.ty,/manipulator_wrench.tz,/ground_truth.x,/ground_truth.y,/ground_truth.z,/joint_states.elbow_joint,/joint_states.shoulder_lift_joint,/joint_states.shoulder_pan_joint,/joint_states.wrist_1_joint,/joint_states.wrist_2_joint,/joint_states.wrist_3_joint,/mode./mode,/manipulator_pose.x,/manipulator_pose.y,/manipulator_pose.z,/manipulator_pose.rx,/manipulator_pose.ry,/manipulator_pose.rz,/manipulator_pose.rw
0.30000000000000004,0.20487174965536512,0.08070766706409949,-0.19045633600133163,0.0037593433661101128,0.012863431001896044,-0.003381195729094132,0.02653052402599833,-0.1031927152402455,0.9943074519926758,-1.8151522333891332,-1.6858704245971978,4.188572406768799,-2.6725006739499753,-1.321458566005151,2.1758084297180176,1.0,0.44422819564869703,0.4538234306507004,0.29978557592605154,-0.6366979819658798,0.20443849776218784,-0.3327740177071015,0.6648924977260535
0.4,-0.1869762029049753,-0.24063501499283008,0.029132440683597827,-0.003317308476836433,-0.005528102291914063,-0.04196940935311381,0.02653103030032462,-0.10292622126870972,0.9943350970685403,-1.8112502897194056,-1.6890368474449375,4.187688335858491,-2.673328942871467,-1.3224218527423304,2.175841456646708,1.0,0.44467717014538966,0.45444651505890055,0.30012485129517846,-0.636576808253534,0.20437373602313383,-0.3327347586315897,0.6650480611324776
0.5,-0.23867534208395497,0.07131875251221273,0.009191253280438773,-0.003542268291322044,-0.007855741147498044,-0.08261058644820883,0.02658045186468556,-0.10280779615018523,0.994346028127473,-1.8071310397275944,-1.6925106163223984,4.186716635202624,-2.674094472138168,-1.3231654385058487,2.1759549809485366,1.0,0.4452581167825763,0.4550177013377825,0.3002456811370955,-0.6365485006528055,0.20434491656856096,-0.3327349758722644,0.6650839023916734
0.6000000000000001,-0.11955557769968697,0.18820843792886574,-0.04987002337325672,0.00024417255214555537,-0.020463772150599295,-0.11850539551817167,0.02669766553097293,-0.10395849275384395,0.9942223862372724,-1.8030291713550812,-1.6958237002803458,4.185830631814262,-2.6750346622862757,-1.323895538613344,2.176060199737549,1.0,0.44627906128390493,0.45595688317586686,0.3003056581038321,-0.6365685333702462,0.2043867942311291,-0.3327850506477904,0.6650268045215344
0.7000000000000001,-0.14897996951908282,-0.24473241244159472,0.13636456437961042,0.017216340061682246,-0.005771052598259537,-0.14480165929264843,0.02685239439024841,-0.10579774446460721,0.9940248046362951,-1.7989698199398796,-1.699002449368555,4.185017642225353,-2.6759096584715785,-1.32483417192568,2.1761742024563837,1.0,0.44792707326055264,0.4574979850489418,0.30027997397076434,-0.6366993933566306,0.204478165827962,-0.33280910103235317,0.664861387410164
0.8,-0.06483495668983086,-0.08604224781180986,0.09596849001955882,0.0025310889554873393,-0.009659683468167542,-0.1658514408448647,0.026961974360581065,-0.10677569413801315,0.9939174679424208,-1.795261811166112,-1.7021629722145992,4.184326149558425,-2.6768365213612544,-1.3257514113141315,2.1762860480919457,1.0,0.44854835636725077,0.4581327042949315,0.30047210550067804,-0.6366394512266139,0.2044498598344031,-0.332828280101908,0.6649178896074122
0.9,-0.020753676230875734,0.13465956574970545,0.060782975550574186,-0.0038797469483755715,-0.013242496100399275,-0.1938679062864007,0.02705304396586492,-0.1062441140377659,0.9939719799563306,-1.7913892453705131,-1.7050734835997325,4.183630048196334,-2.67755188564443,-1.3263156464039063,2.1763287176299277,1.0,0.44930878071003794,0.4590031829201587,0.30053359114408906,-0.6366968190154607,0.204402656785024,-0.33275863183710996,0.6649123306818064
1.0,-0.058598986531997105,-0.02780375506794596,0.05696610994012931,0.006383417852060898,-0.015142192276199652,-0.21202721750819145,0.026885344938651284,-0.10506788723514711,0.9941015091532176,-1.7876477737908107,-1.7079360157821506,4.18288752894412,-2.67841962247287,-1.3269140288102723,2.17640259404172,1.0,0.4505277695782615,0.4603298740348331,0.30064590295166854,-0.6367298396085901,0.2044112492728099,-0.3327279646769681,0.6648934155522
1.1,-0.3242079874011977,-0.03350822579385804,0.145865102772708,0.004219549870288135,-0.012176594107282855,-0.23757510372139584,0.026922168230446537,-0.10545063431224805,0.9940599035102424,-1.7842551213277398,-1.7108801587859248,4.182175159454346,-2.6793194559821107,-1.3276787370565086,2.1765284538269043,1.0,0.45128857534812283,0.46107735930194454,0.30083813089079897,-0.6366660602830589,0.20444231864553422,-0.33277059211247884,0.6649236039242374
1.2000000000000002,-0.24874154410412302,0.08751528695164724,0.04441738488183242,0.010707405848655557,-0.009033801912275463,-0.24857460960761554,0.02697696124247054,-0.10596236755836985,0.9940041131112456,-1.780679420493997,-1.713450357931943,4.181528568267822,-2.680105718879861,-1.328428144187275,2.1765999794006348,1.0,0.4524524130426144,0.46222736296987,0.30086720677931844,-0.6367741608500186,0.20444010655805794,-0.33273851358864837,0.6648368164287394
1.3,-0.0939464293676391,0.15870180474643933,0.030474989201071535,0.002195875852596767,-0.01609122636952575,-0.2694972522802889,0.026929664119732792,-0.10557423471280068,0.9940466018415687,-1.7773320393460241,-1.7162678347332487,4.1808545909469705,-2.6808301776746872,-1.3291064976527565,2.176678485753704,1.0,0.45293592995540516,0.4627061615656882,0.3010033663252024,-0.6367427731805524,0.20442639280343616,-0.33275335184421084,0.6648636684044014
1.4000000000000001,-0.06910408674648197,0.08990208814844888,0.16159796399755874,0.006944149107475175,-0.010735247039411738,-0.28145203490665327,0.026873005006111297,-0.10510358127729727,0.9940981030814247,-1.773973574854402,-1.718499417975299,4.180208083058784,-2.6815909049155002,-1.3296052312790838,2.1767147202961694,1.0,0.45366917569230114,0.4634637260439677,0.3010450003784817,-0.6367672706504015,0.20442169480849165,-0.33273866709042466,0.6648490002571634
1.5,-0.10919017932856748,0.23978846914096236,0.24475712991433762,0.0046476723540318544,-0.006575841118597005,-0.2847208020339599,0.026818565542822467,-0.10528572558818686,0.9940803010267155,-1.7709003513435515,-1.7210808529515207,4.179607289495071,-2.6823820376690204,-1.3301635061011108,2.176797086026428,1.0,0.4547866650363425,0.46453006513491585,0.30133613406940035,-0.6366766369552728,0.20444135489423476,-0.3327974962182578,0.6649003074711216
1.6,-0.18513304732466496,0.07969519558173815,-0.18618785443347258,-0.008416426361986628,-0.00657228051668345,-0.269993733687694,0.02679331734167224,-0.10547523022923933,0.994060907169482,-1.7676681024326328,-1.7233503663682692,4.179045964378566,-2.683121880733428,-1.330702488048651,2.176850463016951,1.0,0.4553815902209707,0.46515135718021156,0.30137119545050095,-0.6367210035902776,0.20445456752377134,-0.3327814554575321,0.6648617873733033
1.7000000000000002,-0.0007863269174139126,-0.021677018474882875,0.11772738467855084,-0.005396838143349404,-0.009437549201721882,-0.26389237207288885,0.026811661846422228,-0.10557579084900924,0.9940497362642065,-1.7649423976193335,-1.7253672889348404,4.178488899377121,-2.6838395810341473,-1.3313135156457778,2.176921206816396,1.0,0.456000694942542,0.46579749894336864,0.3015189071531127,-0.6366903107856344,0.20446022246078938,-0.3327762997933858,0.6648920212175802
1.8,-0.20842826977063555,0.3101034278784647,0.16448889864964544,0.00463303555160737,-0.0073769133082146774,-0.2670327077871577,0.026855511425629086,-0.105639570411518,0.9940417789122714,-1.7617975138577149,-1.7279504206196956,4.177975546482443,-2.6844412392481196,-1.3318789537590021,2.1769978554367952,1.0,0.4569928856240935,0.46681210876700524,0.3016888992865185,-0.6366780732007425,0.2044493900516166,-0.33277655889051394,0.6649069407562986
1.9000000000000001,-0.2869628896368192,0.49731868491471737,0.03832120114429549,0.006231257368261361,-0.010695089586844057,-0.2611573233487923,0.02693907122308135,-0.10564608357342846,0.9940388249138736,-1.7592212662299196,-1.7298729892766433,4.177501201629639,-2.685170446471089,-1.3324502402116802,2.1770211159194415,1.0,0.4575700926248836,0.4674503098357358,0.30175944187773196,-0.6366825085152752,0.20441643641115106,-0.33275027340863517,0.6649259804084517
2.0,-0.29947781648266975,0.27929314903256963,0.03889773161220092,0.0029703268740933746,-0.01330947780013122,-0.25800997289710254,0.026966577310682024,-0.10559200899970027,0.9940438217891424,-1.7563086688566443,-1.7320700781683307,4.176973417978056,-2.6858712332586627,-1.3328810670440787,2.1771273612976074,1.0,0.4583841260102089,0.4682911303491301,0.30189856045584407,-0.6366972889281821,0.20439284350537765,-0.3327357486588081,0.6649263488235007
2.1,-0.33928727941551473,0.1082353297857018,-0.06257282209740801,-0.00025074628723916826,-0.007915035343839003,-0.2553822558690211,0.026904004878204185,-0.10544056970960115,0.9940615957479462,-1.753884408184301,-1.7340852222838343,4.176548647628982,-2.6865296320185332,-1.3332861614155438,2.177133740708883,1.0,0.45881538339427097,0.46871315475373854,0.30198253472939734,-0.6366786079295278,0.20441720810730551,-0.3327557594098822,0.6649267326661534
2.2,-0.21571414086551569,0.01442648934887739,-0.025755205389461924,-0.005799386573698802,-0.008910835676881125,-0.25874722718926746,0.027095072285358898,-0.10679582550304229,0.9939110148223906,-1.7511049997636328,-1.7359742462908856,4.176110744476318,-2.6871226638458703,-1.333712120968244,2.177206925893368,1.0,0.45932572114011705,0.4692314490098506,0.30200275800941545,-0.6367200796762841,0.2044303295473722,-0.33275430476273754,0.6648837140132449
2.3000000000000003,-0.4690025431616235,0.09706169923475755,-0.08263312318212084,-0.0072173353636526315,-0.0018176827998219475,-0.2604396902090709,0.02716328366387886,-0.10735267016503648,0.9938495669971461,-1.7487102143600959,-1.7379148388287438,4.175604701687713,-2.6876929000516876,-1.334148888110723,2.1772351264953613,1.0,0.45992670855756923,0.46985309676658865,0.30208891461461446,-0.6367210631219529,0.20443818144773654,-0.33276261100469934,0.6648762008528563
2.4000000000000004,-0.25129239716483043,0.2373893708764486,-0.09418643316481802,0.005732063245806224,-0.003944750658990907,-0.25404459519569383,0.02696076507766423,-0.10618416524981343,0.9939807700582582,-1.7462194428940567,-1.7397204852114603,4.17517614364624,-2.688300558976106,-1.3346598784076136,2.177300166794208,1.0,0.46067997763445584,0.4706207700110108,0.30226380075069575,-0.6366683398086332,0.20443893184645473,-0.3327788307327842,0.6649183393823039
2.5,-0.07967233046787436,0.45284699760406716,0.028625269675049192,0.0010876644668757823,-0.006748763438835901,-0.24907587160905817,0.02680902446509604,-0.1049640630732067,0.9941141590636057,-1.743962616648009,-1.7416319943013305,4.17480858785228,-2.6889037748253823,-1.3350748824360377,2.1773656155041206,1.0,0.4614838462488272,0.47142429248743345,0.3023243443526981,-0.6367129466919256,0.20443054017005363,-0.33273999811250937,0.6648976398038667
2.6,-0.35245907015968203,0.26723995930550054,-0.0071157949875635396,0.010110790923519332,-0.004320015724742941,-0.2530488243388406,0.02664051831868092,-0.10359916126866149,0.9942617361503876,-1.741635159732169,-1.7431925842647902,4.174370993426759,-2.6894684501131203,-1.335500282334496,2.177378009965704,1.0,0.46179049418608514,0.4717517443866318,0.30230016993718284,-0.636761281917188,0.20442987229183704,-0.3327376449280506,0.6648527331775489
2.7,-0.3337492343427608,0.2895875453300101,-0.08645111610455918,-0.003952127427961842,-0.003482641393771901,-0.25435941109247995,0.026426778227158627,-0.10198613359883213,0.9944344602589062,-1.7395372379475658,-1.7448326552743598,4.173993777935703,-2.690064378789246,-1.335895172760926,2.1774052625344362,1.0,0.46253625516068925,0.4725329290217074,0.30253929720273026,-0.636693536223873,0.20440646248291125,-0.332731180676475,0.6649280415440462
2.8000000000000003,-0.23174821384229677,-0.17953153502762006,0.04321198923139216,-0.005168286598868425,-0.008412778600890587,-0.2489923628204209,0.026317876743798096,-0.10131665827018706,0.9945059877121089,-1.737254870700515,-1.7466839136879009,4.173636950065792,-2.690570749254977,-1.3362282351559953,2.1774845516641532,1.0,0.462819432200246,0.4728161274726861,0.30256407302579347,-0.6367024606094721,0.20440594280650035,-0.3327366030476272,0.6649169423255474
2.9000000000000004,-0.3445021172574666,0.13395757887722587,0.054287530450029986,0.0016668646315545653,-0.0002252458210051803,-0.25866801717773247,0.02628122647806346,-0.10125671826566668,0.9945130617278697,-1.7353195940442692,-1.7480992708625143,4.173258304595947,-2.691080122087528,-1.336543385182516,2.1774984962820483,1.0,0.46334331133166645,0.4733595556728152,0.30257742111760755,-0.6367271807966444,0.20442546273483012,-0.33273003611371726,0.6648905552706945
3.0,-0.23059657253939425,0.11382092849362299,0.10331998540634552,-0.0033403575911165615,-0.004190891445467382,-0.25014061489371653,0.02640676164984166,-0.10240380784920475,0.9943916468106192,-1.7333841063415163,-1.7493910407724393,4.172888672931903,-2.6915575531661067,-1.3368604753817865,2.177542979336069,1.0,0.464065574713339,0.4740421832570918,0.30267552953950255,-0.6367295086149997,0.20444822105393742,-0.3327567734774442,0.6648679473938132
3.1,-0.3869958241068523,0.1026352898590617,0.19962939127472862,-0.007371984297782099,-0.0022533703883769623,-0.25332814840515777,0.026650378010195416,-0.1042658233097427,0.9941919132777509,-1.7311491572214457,-1.7509525948537579,4.172545995632332,-2.692106972419884,-1.3371738496564003,2.1775713833106494,1.0,0.46432120261729437,0.474298039839749,0.30278558659228405,-0.6366785178034224,0.20445385066749733,-0.3327689761841097,0.6649089384301052
3.2,-0.3032309176437842,0.099622429036847,0.059826181332763934,-0.006451278099109673,-0.004463219424852276,-0.24825074096205257,0.02669348145779698,-0.10463745327581973,0.9941521304786219,-1.729514754209641,-1.7525997184994042,4.172214984893799,-2.692576384340424,-1.3375079425077947,2.177578285927439,1.0,0.46477483750137405,0.47474249427114323,0.30288449055576,-0.636663720734682,0.2044653737253576,-0.332781372348738,0.6649133596682438
3.3000000000000003,-0.24505266073571894,0.018801775989552905,-0.0005518799239086006,-0.0008399817707184006,-0.006244002546006671,-0.24753889213670605,0.026693857653615108,-0.1046914973298368,0.9941464315456123,-1.7276511428704873,-1.7537733517088832,4.171915531158447,-2.6930736342693025,-1.3378510919553381,2.1776661460161044,1.0,0.46541090371127863,0.47539108226407606,0.302770498304269,-0.6367946552363145,0.20446745506348848,-0.33277043625580055,0.6647927975214896
3.4000000000000004,-0.11017962067124237,-0.0495625761475001,0.28795758000692423,0.0015359481449205405,-0.0073200094528312835,-0.2502956265235342,0.02668436076139706,-0.1045610064295638,0.9941604053051033,-1.7257020712116935,-1.7549004214229678,4.171618730762304,-2.6935683632253427,-1.338146040597209,2.1776696324239384,1.0,0.46568230321347864,0.4756543186685503,0.3028533046356138,-0.6367812464769145,0.20446034576993627,-0.33276699539678833,0.6648095501100592
3.5,-0.19958945587394133,0.06097893078162049,0.3062521688931851,-0.0011813544660964521,-0.00573989105889007,-0.2506534582250505,0.026672626169111778,-0.10438869134235867,0.9941788378099402,-1.7241511114374812,-1.7562183371690623,4.171334537099907,-2.6939708195128382,-1.3384281083845486,2.1777243767886683,1.0,0.4660432635593708,0.4760429116553813,0.30310219117689186,-0.6366740689504652,0.20443984269302412,-0.3327826495303643,0.6649106622827313
3.6,-0.2641184968193915,0.18866564045073023,0.1949303203443034,-0.00020748056012010905,-0.00545943726953285,-0.24526750043683196,0.026676618578584062,-0.1042354955396476,0.9941947941680582,-1.7225281942909587,-1.7577153644957484,4.171090563659651,-2.694378515283102,-1.3387892517713207,2.177738666534424,1.0,0.4665800842668201,0.47660385989668175,0.30313612891752606,-0.6366983971376028,0.2044449473830754,-0.33276890303591367,0.6648926768616225
3.7,-0.21605130216378865,0.14117944534297994,0.12966202672652252,-0.0052644519866636595,-0.008049810442339458,-0.25108961830372545,0.02668437849037914,-0.1040868798819541,0.9942101573496345,-1.7207502157046168,-1.758941828451901,4.170831125890185,-2.69480329980227,-1.3390267531024378,2.177751064300537,1.0,0.46688705025366134,0.47694920505012683,0.30307513894560206,-0.6367603862183281,0.20443369207111511,-0.33275429925979566,0.6648440812802507
3.8000000000000003,-0.0544883579578718,0.01274728114564487,0.007650130751328477,-0.006507672205006705,-0.010275329074581563,-0.24800485752210052,0.026679792080760177,-0.10392081373029717,0.9942276552232907,-1.7192382867938636,-1.7599243018632356,4.17056131362915,-2.6952420620459696,-1.3392906770322524,2.177756773126453,1.0,0.46736935125704454,0.4774824286633932,0.30322189460076515,-0.6367227975764858,0.20441747034412272,-0.3327435211507679,0.6648904616526483
3.9000000000000004,-0.3491936566823654,0.1101321082365188,-0.05352873953853454,-0.00029295876348629356,-0.004863143314802414,-0.24845529113264883,0.02664606992236015,-0.10371356663160562,0.9942501906988434,-1.7177785370518306,-1.760965880608157,4.170333385467529,-2.6956687538381376,-1.3395351443081445,2.177834087444857,1.0,0.46766297248787675,0.4777360850331941,0.3033222764148221,-0.6366828010374406,0.20442388538395945,-0.3327677438550162,0.6649146671545808
4.0,-0.31263536709998463,0.1474860758792785,0.005689663352484893,0.0002214283207163919,0.0006766744941706575,-0.25065300612196906,0.026617165619491668,-0.10354351069682965,0.9942687085498575,-1.7162768264551138,-1.762225144795257,4.170069217681885,-2.696049366290531,-1.3397935152945941,2.177900467915597,1.0,0.46794742232066494,0.47806695911649794,0.30338782684350774,-0.6366891772748129,0.2044064121799628,-0.3327504068182029,0.6649226097548179
4.1000000000000005,-0.32753873744324824,0.1594426592658513,0.05797442055997654,0.0001416922347072182,-0.004362557245548908,-0.24904156597044252,0.026600320356508503,-0.10346654383998535,0.9942771703304398,-1.7147274799894763,-1.7633655341121983,4.169789965108902,-2.696420934960587,-1.340010944996969,2.1778858803825987,1.0,0.468422211148104,0.478540542910997,0.30339277512736346,-0.6367268336139394,0.20442318972732712,-0.33274497545877674,0.6648841103264611
4.2,-0.38733479184784764,-0.033942342869378805,0.03324685879984221,-0.0034831957130003564,-0.004482478606756029,-0.24797667427973635,0.02657011862771544,-0.10331515902699977,0.9942937099142379,-1.7132705239888453,-1.7644550930368186,4.169571269550616,-2.6968122921385707,-1.3402456790169102,2.1778888265239957,1.0,0.4686883595271469,0.47879838497874067,0.3034179882161619,-0.636728276141737,0.20442047235500524,-0.3327603798864514,0.6648758548943952
4.3,-0.4297081655443675,0.18003135015776944,-0.19698013556458227,-2.1515280534085274e-05,-0.0016504437133691425,-0.24792672810967437,0.02646712139559938,-0.10269796940254584,0.994359960272318,-1.7116771303374192,-1.7655052010285166,4.169302463531494,-2.6972251640583997,-1.3404486398534592,2.177937017638108,1.0,0.4691434307144137,0.4792764597011098,0.30349508625026683,-0.636725012727016,0.20444149599552475,-0.3327467925861135,0.6648793160465644
4.4,-0.2125499244354215,0.08935034117500373,-0.05072928589267628,-0.004587478245843105,-0.005329227210257373,-0.24813688555615046,0.026261946703626304,-0.10135052127097524,0.9945032035491447,-1.7102792977611336,-1.7665590220136544,4.1690754890441895,-2.6976119975827046,-1.340711443547283,2.1779427528381348,1.0,0.46933040009143934,0.4794845279786506,0.30357729025018565,-0.6366996366150779,0.2044205931280476,-0.33275986312068345,0.6649035022733067
4.5,-0.18766609237707693,0.19990618352546521,-0.044422872454129646,-0.003695961790612304,-0.004525280176084023,-0.24754457574922112,0.02618178911888739,-0.10084546352859186,0.9945567263039278,-1.7088393435334672,-1.767721792260641,4.1688154542688,-2.6979738674559535,-1.3409515861859351,2.1779913902282715,1.0,0.46965716094965543,0.4798006690164441,0.30362384037807,-0.6366952487479293,0.20443223278251033,-0.33276150677956495,0.6649033027645175
4.6000000000000005,-0.25993886777873393,-0.017272070509738446,0.050831195553212444,-0.006214400598277529,-0.0028450492732122,-0.2471270678621847,0.026451221156402718,-0.10269601090667388,0.99435936048751,-1.7072258817828017,-1.768801269364558,4.168551707674861,-2.6983723854030193,-1.3412250437916282,2.1780365201454,1.0,0.4701309474265975,0.48026978267465315,0.3036184144704709,-0.636737893713473,0.20444886055015463,-0.3327503099014031,0.6648629553446288
4.7,-0.24925551970073367,0.032481528921405434,0.05384759884729836,-0.008885075224739532,-0.0030018342191896205,-0.24901352085578396,0.026626632716339253,-0.10390741443453844,0.9942304497675,-1.7056567157590692,-1.769914044250344,4.168338521580944,-2.6988091301414414,-1.3414646233027134,2.1780459724476433,1.0,0.47041821053681027,0.4805539010028114,0.3037118003235778,-0.6366986694655226,0.20443690436308493,-0.3327673034462501,0.6648956897080802
4.800000000000001,-0.17771757580150568,-0.13407250420340183,0.0459478225237315,-0.01182462476860277,-0.004491804388737044,-0.24779985888406061,0.02653549957845812,-0.10326726451581045,0.9942995864968323,-1.7043202054595228,-1.7710596851839049,4.168051745910501,-2.6992067430509743,-1.3417055247316634,2.1781038538024555,1.0,0.4707045944182008,0.48085660348674264,0.30380611394959084,-0.6366691578239607,0.20442681928536163,-0.3327737274176147,0.6649238342646366
4.9,-0.22437030238694727,0.10509066356122398,0.010946480107374812,-0.0068545658545656,-0.005964056275168467,-0.24491438537870774,0.026491332729799637,-0.10287841311650685,0.9943410808978737,-1.7029215155305089,-1.7722995817483516,4.167791843414307,-2.699630823670656,-1.3419811832246111,2.17807991660166,1.0,0.4712198418753227,0.48137913247316905,0.3037314994005407,-0.6367745065016049,0.20443042239336714,-0.3327519206037737,0.6648327531072813
5.0,-0.4116706798314997,0.21898750308665588,0.016591273603216362,0.0014941718779904983,-0.0029247500678824274,-0.24369645877930207,0.02652997411112854,-0.10324381196396468,0.9943021399363887,-1.7011427064805367,-1.7732533698789743,4.167547888885964,-2.7000147208301333,-1.3422041196785968,2.1781251100550847,1.0,0.4715000361144951,0.4816418512736154,0.30371968596485094,-0.6368006789918392,0.20444457161290627,-0.332745139699438,0.6648067270868651
5.1000000000000005,-0.3607041032164525,0.12236091814228565,0.0884011879028386,0.000661797936069766,-0.0037688758926928837,-0.2438667521181773,0.026543463092608764,-0.10343170760031367,0.9942822903236537,-1.6996408627042252,-1.7743320727389273,4.1673177308062135,-2.700474821827787,-1.342477567093412,2.1781568749224554,1.0,0.4720144767433787,0.4821490909142819,0.30402536036794503,-0.6366631918162837,0.20443295450046653,-0.3327851122502191,0.6649219626129977
5.2,-0.38524758296408357,0.07530640247760995,0.042628976011437426,-0.00941425475157575,3.290024560164643e-05,-0.24883123480363933,0.026470579044002157,-0.10301005940443003,0.9943280001664729,-1.6983823776245117,-1.7753782715229005,4.167028056520145,-2.7008749447264613,-1.3426866804629933,2.1782050357676894,1.0,0.47220651828870597,0.48234923712249916,0.30407886746625645,-0.6366551916703438,0.2044371617570067,-0.33278216696927065,0.6649298031816393
5.300000000000001,-0.36943970423093886,-0.01636772046810088,0.057053377866058366,-0.002360402533693593,-0.001488111209348924,-0.24641102359109113,0.02652933175242364,-0.10336887238610598,0.9942890973894924,-1.6967401640110107,-1.7766329115137904,4.166813681995699,-2.7012344799437464,-1.3429539771577235,2.1782234415171837,1.0,0.47265900950781253,0.48278142806657526,0.30399487915588125,-0.6367543588998651,0.20444695343680316,-0.3327656756136972,0.6648400821143314
5.4,-0.6149436443378193,-0.03164640409103996,-0.05076878717309294,-0.006350169965917812,0.002995566258708205,-0.25224678295660913,0.026576925778076323,-0.10360199157545244,0.9942635255327998,-1.6951169967651367,-1.7778585890952905,4.166615005577228,-2.7016812800916163,-1.3431855380013518,2.178223321882092,1.0,0.47285482006531854,0.48300581833638445,0.3039942055483559,-0.6367640290305894,0.20444582726190175,-0.33275844439851193,0.6648347860404191
5.5,-0.33919279197595414,0.24871541009721482,-0.14070739302998567,-0.005235847329932874,-0.0045016538931729605,-0.2478419947691017,0.026407963616400677,-0.10236418163680383,0.9943963644136734,-1.6937472999609688,-1.7787699548310985,4.1663673186136085,-2.7021069899770174,-1.3433793998750705,2.178259857825003,1.0,0.47318660135270457,0.4833817401187803,0.30405722606087926,-0.6367567912828291,0.2044316639663356,-0.33275638660989965,0.6648471032451548
5.6000000000000005,-0.40934026786651323,0.03768584044673373,-0.08930566963940043,-0.0047402701106725245,-0.004552700711925,-0.24693319316135845,0.02638608848473934,-0.10223096438814344,0.9944103977937255,-1.6923436405454804,-1.779826744705012,4.166160452115786,-2.7025173802815114,-1.343612907122931,2.178260022276765,1.0,0.4735206407639718,0.4837262874492448,0.3041509703932516,-0.6367328131729935,0.20442835306070317,-0.33276598800704327,0.6648662800288421
5.7,-0.451601411123572,-0.3003162361724838,-0.03698780481512156,-0.00643579282621052,-0.002267639482615516,-0.24956953479221128,0.026584009985735103,-0.10372941679789675,0.9942502186694311,-1.6906584113796275,-1.7807788252342156,4.16589754665202,-2.7029224045056304,-1.3438340264019402,2.1783344520341634,1.0,0.47384664855603004,0.4840386796807974,0.3042508828516938,-0.6367070885796562,0.2044318526182874,-0.33278377249133767,0.6648809380286871
5.800000000000001,-0.5037293101386815,0.4180173554729312,-0.018956300367973477,-0.004032311343017902,9.079940318591495e-05,-0.2513146218789846,0.026544598313987824,-0.10367308610135018,0.9942571466633328,-1.6890745945052257,-1.7821378693225087,4.165665900087701,-2.703358445466118,-1.3440426031695765,2.178325043419279,1.0,0.4742206063425056,0.48440289210612214,0.3043482026339651,-0.6366881187812387,0.20443775881154314,-0.3327981678940632,0.6648900823604424
5.9,-0.24965904129661387,0.07621871768256124,0.07481704614116898,0.00024732333327505613,-0.003331289440061845,-0.24859998185956164,0.02674283218863717,-0.10487378977265718,0.9941249473439647,-1.687635035398988,-1.783379411704398,4.16546211702293,-2.70376944083015,-1.3442773948181757,2.1783838258694446,1.0,0.4746676613205258,0.48488051560933193,0.3044076308405066,-0.6366810591015429,0.2044608324859572,-0.33277588384886536,0.6649009009537389
6.0,-0.5444733025869248,-0.008242168240032835,0.12566624276696467,-0.009417547739299302,0.001672258421215198,-0.2500541001733586,0.027008237144000653,-0.10641124713225011,0.9939553270049102,-1.6861710296694232,-1.784332800340002,4.165243579388176,-2.704209619339347,-1.344508594837828,2.1784128639347937,1.0,0.4749428232813641,0.48521360919065604,0.30432057024008735,-0.6367654065896033,0.20445108881129456,-0.33274666683258214,0.6648377433377707
6.1000000000000005,-0.4188576301353707,0.08175643218532731,0.0578835535785448,-0.004968166998201042,0.00025866403643248813,-0.24097120174408948,0.026969389215769968,-0.10614844243627111,0.993983492931003,-1.684617019680216,-1.785277222613539,4.164999485015869,-2.704639507187588,-1.3447720208023821,2.1784110069274902,1.0,0.4754032421836153,0.48567170047751673,0.3044261470136945,-0.6367600768060114,0.20444700250699566,-0.33274908542843706,0.6648428941475163
6.2,-0.4020712623933157,0.08950424104541932,-0.04488466490370437,-0.002652765908920987,-0.0014693671739500628,-0.23916380925956443,0.026517232628649242,-0.10317563425487539,0.9943077627306032,-1.6830766255844483,-1.7862951346438258,4.164778102402975,-2.7050569813059475,-1.3450000784797904,2.1784329277333097,1.0,0.4756730864620451,0.4859526990965034,0.30459384060674216,-0.6366849470542415,0.20443994584313205,-0.33275700373227546,0.6649130493570667
6.300000000000001,-0.3983979669118921,-0.041469686511103526,0.10924878974857487,-0.005556567880917615,0.0026024202618848097,-0.2463197170712863,0.02624574275957181,-0.10137344640558407,0.9945015446107747,-1.681564630199966,-1.7875626957940773,4.164514945172888,-2.7054304607181714,-1.3452334914086417,2.178466246747595,1.0,0.47604336752843485,0.48635601810524265,0.30470314450277963,-0.63665428772197,0.20441581747849208,-0.332763687158895,0.6649464790479367
6.4,-0.267338176198576,-0.06941417474055821,0.22505189015930172,-0.005000527584158064,-0.0008777440833890706,-0.24592378699819362,0.026070869359022378,-0.10019727979418286,0.9946255445073172,-1.6800070656566743,-1.7887889861240396,4.164312924268735,-2.7058670466928554,-1.345501867522259,2.1785073280334473,1.0,0.47629850548161057,0.48660487960592,0.30469746671243386,-0.6366751179125434,0.2044218141225999,-0.33276653858746286,0.6649232639473466
6.5,-0.29952706457718076,0.07085198363028877,0.1462994916972386,-0.0069700841484842445,-0.004565103156820248,-0.24453254244455994,0.02607856421072996,-0.10023688609313482,0.9946215429750965,-1.6785797880572293,-1.7899163661367417,4.164061326817247,-2.70626672152379,-1.345762971953198,2.178535800300568,1.0,0.47660451779184415,0.48691959094631965,0.30466562577379497,-0.6367075033614031,0.20444422091444553,-0.3327511607368805,0.6648930596165317
6.6000000000000005,-0.286743556941697,0.04339587910999107,-0.10392391777016186,-0.003109139772610986,-0.0021818372846253045,-0.24287365865608057,0.02618731752536165,-0.10094946888206326,0.9945466877896091,-1.6770981764193358,-1.790868647186226,4.1638360023498535,-2.7067075911926217,-1.345993695198409,2.178548838519191,1.0,0.47701638043879585,0.4873408654505032,0.3046790199897199,-0.636730077649866,0.20445075983384742,-0.3327384867248902,0.6648757737136977
6.7,-0.3442267978116026,0.0942597656987761,0.10316059629967844,-0.00709536227502915,-0.004856410406523164,-0.2418937456611664,0.02624305452243926,-0.10120752823828881,0.9945191491155168,-1.6753206973339445,-1.79186903681471,4.1636130839017165,-2.707164324335152,-1.346269976029167,2.1785749059226647,1.0,0.4774113825862492,0.487710369641872,0.3048191273400548,-0.6367024634817986,0.2044326344686758,-0.3327556459704859,0.6648992036656161
6.800000000000001,-0.3627330892787469,0.05195889360084349,0.034960707175917816,-0.009796584301557852,3.107054377608342e-07,-0.24300206586901352,0.02626516211573436,-0.10116752457863427,0.9945226281000015,-1.6739520125624248,-1.7931528687517455,4.163366218209045,-2.707578241829138,-1.3464390871867276,2.178629974723083,1.0,0.4778311474402209,0.48818405598279385,0.3050354821118378,-0.6366195762473069,0.20440701132201744,-0.33276474389437327,0.6649818900406326
6.9,-0.26115577639333754,0.0010378087803968386,0.09502002347538692,-0.012451929890799405,-0.003779461863942008,-0.2429807921067973,0.026265343611982944,-0.10087230505686537,0.9945525987851324,-1.6726225462436095,-1.7943202948948545,4.16309544759604,-2.7078987560667933,-1.3466988283345498,2.1786344013609056,1.0,0.4780323606762463,0.4884224141684317,0.30496006638784195,-0.6366805906569782,0.2043957183219985,-0.3327432836731513,0.6649376835333701
7.0,-0.3153174616618169,-0.025850232552868307,0.08772011967510877,-0.01225804703005334,-0.00470265108993077,-0.24535775718854183,0.02631110839338502,-0.10132366577686326,0.9945051572960711,-1.6710933038832434,-1.7954384735086566,4.162853717803955,-2.708250072834455,-1.346932396362749,2.1786377537727,1.0,0.47835497667731297,0.48871312959038005,0.3048612729448532,-0.6367465767322725,0.20441669527263204,-0.3327344992579717,0.6648724424407247
7.1000000000000005,-0.13572910591171922,-0.4072953879465895,0.15677688137048723,-0.004123388218661168,-0.0020728153162458797,-0.2407517508212075,0.026385232100067425,-0.10223949967427139,0.9944095550380723,-1.6697896617609695,-1.7961711434271543,4.16260290145874,-2.7085072133062735,-1.3471110633082266,2.178671987115005,1.0,0.47886164980878443,0.48919592170693993,0.3049512630646863,-0.6367048735216472,0.2044360330611781,-0.33276346991021966,0.6648919352145151
7.2,-0.3454467265093738,-0.026258044883500156,0.019258875343696406,-0.004187026564472724,0.002966573261996221,-0.23882373432533627,0.026425603136514233,-0.10259539005363655,0.9943720999872291,-1.669825059425835,-1.7961720106539538,4.162598915837292,-2.708528743414871,-1.3471332320259948,2.178682412732599,1.0,0.4790943294653369,0.489394885836933,0.3050544451178637,-0.6366541908570713,0.204433424159626,-0.3327861505491613,0.6649299168733269
7.300000000000001,-0.4273042655711108,0.20573478055744432,0.08149851794450966,0.0033601393379467494,-0.004213745353654396,-0.2409309941704356,0.026425801003590894,-0.10249616866696523,0.9943822375979077,-1.6698801897341815,-1.7961965999998988,4.162615041968751,-2.708556534089011,-1.3471248785602015,2.1786783743711906,1.0,0.47912842629126134,0.48943696005302595,0.3050307430759102,-0.6366799709935352,0.20443390855430515,-0.332751264333453,0.6649225425967822
7.4,-0.3193730358520038,0.04822425207267453,0.0707340891908954,-0.002061471849242647,-0.005289902368960571,-0.24509278145326216,0.026259290775307535,-0.10154722033780877,0.9944836217007953,-1.6698615249322386,-1.7962085209288539,4.162610665146185,-2.7085567913451136,-1.3471339684837427,2.1787061830517636,1.0,0.4791406324239953,0.4894172618629933,0.30504562546784325,-0.6366701630942748,0.2044431777138455,-0.3327738144688433,0.6649177986154609
7.5,-0.37660861667608425,0.041308358377384766,0.13025697075253945,-0.005365054258642488,-0.0029213999277832563,-0.2405482319008944,0.026125620383627604,-0.10079537256770214,0.9945639628177712,-1.669877052307129,-1.79624896204362,4.1626152992248535,-2.7085841511504936,-1.347132597998414,2.1786839524603647,1.0,0.4791437229181214,0.4894195927216029,0.3050364471064963,-0.6366759295271183,0.20444125745242392,-0.33278042621994114,0.6649095584641012
7.6000000000000005,-0.42066552266177615,0.09999964323454927,0.04731645220991653,-0.0033522467412152447,-0.002105902991580144,-0.24127680549823913,0.026319979599199423,-0.10201231714437206,0.9944341103674843,-1.6698525244093698,-1.7962242176879877,4.1626152992248535,-2.7085567913451136,-1.3471407263525426,2.1787026413680164,1.0,0.47914312870979464,0.48943270565389946,0.30499607851633087,-0.6366974033041453,0.20444254520123964,-0.33276911269522136,0.6648942622503464
7.7,-0.5380874039964422,0.3009904549773879,-0.029767840794170518,-0.003552216294037546,0.0028478099874774954,-0.23597821396055374,0.026486687024821598,-0.10305758304002909,0.9943226205802528,-1.669885549682168,-1.7962650047086488,4.162610096863017,-2.708543409664547,-1.3471491972552698,2.178680884152266,1.0,0.47914143194110315,0.4894301341475022,0.30498291888992957,-0.636704130318664,0.2044495263416899,-0.3327571682163707,0.6648916517857885
7.800000000000001,-0.3886857234928258,-0.23873437384014728,-0.034435851931410695,-0.015821960882573267,-0.0014057693939022084,-0.23707211701150674,0.026322959453624693,-0.10205131286812219,0.9944305620312657,-1.6698361134000035,-1.796244283715719,4.162597116989917,-2.7085687122740687,-1.347148145947233,2.178710460662842,1.0,0.4791416141291872,0.4894201467468285,0.3049867162958238,-0.6367103422636081,0.20444822282816155,-0.3327685077520117,0.6648804287129115
7.9,-0.3767106193180684,0.009677435306695015,-0.0721030998918659,-0.00922152663401706,-0.001417405815241352,-0.2357490786045115,0.026346436656807925,-0.10219218768761772,0.9944152813472444,-1.669876216322455,-1.7962767614087098,4.162578343042538,-2.708599966715014,-1.3471491972552698,2.1786720116507516,1.0,0.4791430475615476,0.48943066164049526,0.3049991106187463,-0.6367008002736363,0.20444381108631055,-0.332759533318613,0.6648954143510056
8.0,-0.3593483918275219,0.08792430141409366,-0.05288879689792097,-0.007198643028809579,-0.004494663249830383,-0.23786282706869427,0.026512056992524482,-0.10320408079758031,0.9943064390522589,-1.6698634315912866,-1.796240607789277,4.162611476261354,-2.7085443935790003,-1.3471406224526565,2.1786774806527904,1.0,0.47913604415358146,0.4894304592797267,0.30500584230075056,-0.6366911623909075,0.20443063169490353,-0.33277104960902487,0.6649029320887715
8.1,-0.37712518378430704,0.20111516005604177,-0.19906891554911005,-0.004754045832268618,-0.002895348328907579,-0.23988527301719786,0.026583206737897363,-0.10370447342980614,0.9942528400419661,-1.6698685892709193,-1.7962335378839323,4.162589375599345,-2.708547965874392,-1.3471367994891565,2.1786742210388184,1.8676689907530992,0.47914346312484063,0.4894238453752246,0.3049972383062001,-0.6366931432716381,0.2044384683716181,-0.33277914609560855,0.664894573511189
8.200000000000001,-0.23652091128746447,0.017098707928055713,-0.09673562942828982,-0.005788672344527021,-0.0057908987659386416,-0.2421103842611648,0.026580313614400674,-0.10380301691102241,0.9942426365230425,-1.669848779714307,-1.7962492927280669,4.162606668274385,-2.7085517823327656,-1.3471491972552698,2.1786952497553997,2.0,0.47914755125961206,0.48942237620748485,0.30499173609585617,-0.6366962456814547,0.2044453046554189,-0.3327767278595249,0.6648907109703079
8.3,-0.2887167134268287,-0.11530741354134821,0.10036580144168364,-0.008676895980575586,-0.012353939947026694,-0.23641873571159616,0.026587263858041565,-0.10390771332248065,0.994231511757164,-1.6698851281546212,-1.7962686024107875,4.162589725707795,-2.7085312178280545,-1.3471504520772606,2.1786815189014783,2.0,0.47913934563084276,0.4894283557390775,0.30500303625878855,-0.636690999906625,0.20444232160425116,-0.33276056088310013,0.6649047427231444
8.4,-0.475451313444736,0.3090656699376447,0.05590347980682975,-0.00823128756755557,-0.0062021103246836014,-0.2368730410340408,0.026702995501248383,-0.10468005373434823,0.9941465882673712,-1.6698599343813907,-1.796232362786764,4.162623199805964,-2.708537011265069,-1.34714166729506,2.1786928244699246,2.0,0.4791448018786732,0.4894225046849117,0.3049829049538744,-0.6367086336150474,0.2044433206053862,-0.33276591604997624,0.6648848694738985
8.5,-0.20996047184174593,0.188940343059924,-0.04505676119629423,-0.0039034502257997462,-0.005133481664589279,-0.23543626790398786,0.026922446785510912,-0.10608897168935989,0.9939913000168265,-1.6698335169388627,-1.7962601890511798,4.16260290145874,-2.7085664626228603,-1.3471236206420625,2.1786997976520257,2.0,0.4791513301183867,0.48941257226537516,0.30496000135034596,-0.6367236444539537,0.2044446316365967,-0.33277353532363446,0.6648662778156683
8.6,-0.6725461140266514,0.2525774029407374,-0.00442648370619643,-0.0019167969426163852,-0.00011996831440557864,-0.24091961394413078,0.027086947602367822,-0.10712075785463634,0.9938769220901169,-1.6698919559158358,-1.796227649184705,4.16260290145874,-2.7085687122740687,-1.347145449445284,2.17871988786696,2.0,0.4791417758783342,0.48942113820453803,0.3049885154822825,-0.6367083249789506,0.2044413896085645,-0.3327738184698792,0.6648818036752052
8.700000000000001,-0.28944212636653743,0.14301094537925868,0.0843494817832306,-0.008873105205774662,-0.0074461460311831635,-0.23478549336112467,0.026979613734815062,-0.10631407704957657,0.9939650454956777,-1.6698809636248289,-1.796261214497731,4.16260290145874,-2.7085687122740687,-1.3471275885963192,2.1786889968649312,2.0,0.479150931037554,0.48942403228523923,0.30496381903571945,-0.6367119626305124,0.20445136690787324,-0.33276893932213514,0.6648776941927925
8.8,-0.20101788073192162,-0.013827481827016319,0.10033226696701619,-0.016471632350487427,-0.0051671111274658055,-0.2317942583094683,0.026637058979875672,-0.10392303890817094,0.9942284241339273,-1.6698490698096615,-1.796276865575483,4.16262674331665,-2.708533420286222,-1.3471657235846612,2.1786408438915874,2.0,0.47913632142839774,0.4894317997679616,0.30496732613098054,-0.6367154412480711,0.20443591070450706,-0.332761508554766,0.6648828345769269
8.9,-0.38769834773002887,0.13660436044733076,-0.028994380118846558,-0.015005206312184318,-0.002046492334379922,-0.23074639936603034,0.02696044831949777,-0.10620015860181968,0.9939775583843523,-1.6698834300552827,-1.7962309967403989,4.162601480770521,-2.708557946293827,-1.347129001052783,2.1786678432906648,2.0,0.47914672849231477,0.4894368613291205,0.3049779926582602,-0.6366961889805252,0.20444396252644934,-0.3327665693441262,0.6648962621726039
9.0,-0.4187775918881712,0.10026858593356969,-0.08222152216558738,-0.013765707578874109,-0.002341871086621574,-0.2317656464526494,0.027272900927140457,-0.10830806948029056,0.9937421362684816,-1.6698522567749023,-1.7962530599626996,4.162599279939608,-2.7085465408589844,-1.3471298350292857,2.1787203736010103,2.0,0.4791488769118512,0.48941856118849353,0.3049815819193387,-0.6367058647300616,0.20444663660902487,-0.3327800895466251,0.6648794075612072
9.1,-0.22816460472242361,-0.012046539772002082,0.12020442695894792,-0.02171132221573313,-0.008543193222561004,-0.2291384903697879,0.027542293808198677,-0.11000185766447945,0.9935484558023261,-1.6698999404907227,-1.796244283715719,4.1626176756053805,-2.70855817650013,-1.3471203447045668,2.1786765598681512,2.0,0.4791423693824263,0.4894315667283489,0.30495068502301026,-0.6367361582536407,0.2044233615497188,-0.3327736307830383,0.66486078593987
9.200000000000001,-0.5792370252314919,0.6672163678254509,0.009828746240195634,-0.03293933704005192,-0.015537806080130603,-0.22946594315797542,0.027647969386617677,-0.11073784265438963,0.993464965463125,-1.6698674516973746,-1.7962686024107875,4.162600684518746,-2.7085393045202037,-1.3471282275161616,2.1787002798367228,2.0,0.4791504430522381,0.4894268773008214,0.30495693775988747,-0.6367218955592524,0.204448452456835,-0.33276583895863443,0.6648706298413203
9.3,-0.7321752618414389,1.2221242038289386,0.02896877837048023,-0.07682016648659579,-0.034330338646717126,-0.23135304566049178,0.02753366358674747,-0.11013674605132932,0.9935348928568977,-1.6699038306435385,-1.7962651290600589,4.162590503692627,-2.708558153287854,-1.3471404117739143,2.1786766703499354,2.0,0.4791581334506718,0.4894179482981781,0.30496995383568704,-0.6367148082754356,0.20446149518826232,-0.33276705860604927,0.6648727958149843
9.4,-0.6565918958692352,0.9220319857711647,0.05596692025865224,-0.09216093289387972,-0.0423893421090628,-0.23045539701486234,0.027419278457043218,-0.1094592359605179,0.9936129953882675,-1.6698683002491161,-1.796269001256163,4.1626152992248535,-2.708564605682625,-1.3471449264001685,2.1786792033127957,2.0,0.47915604107109,0.48941096433805453,0.30496363358439665,-0.6367147407779796,0.20446199110832397,-0.33277303720980145,0.6648697156392479
9.5,-0.49708011501292937,1.243986293001764,0.5163783044257874,-0.11491850492364097,-0.03531074430921695,-0.2329451399987947,0.02733560483640396,-0.10879879308007706,0.9936877479242648,-1.6698999404907227,-1.7962790250263807,4.162612846495859,-2.7085687122740687,-1.3471386356714687,2.1786766737678125,2.0,0.47915122019940704,0.4894147428767476,0.3049640680531499,-0.6367149649321167,0.20445158010065762,-0.332775423501132,0.6648715081423479
9.600000000000001,-0.35369031615317964,1.8000788079453123,1.1005753911623346,-0.1467752987780849,-0.021605862028615867,-0.23718781081096485,0.02728948751083133,-0.10839234320356766,0.9937335577047492,-1.6698933656590313,-1.7962821710941799,4.162599340091574,-2.7085617265153967,-1.3471318643188734,2.178688606420867,2.0,0.47913543097408157,0.48942871903869706,0.3049610641228817,-0.636723132783071,0.2044438803850861,-0.3327645933239428,0.664871474333161
9.700000000000001,-0.3499739013352157,1.7896685011875182,1.5306191663774031,-0.15708082434778345,-0.012655660575883083,-0.2333217016385164,0.027299310328849715,-0.10840373207596833,0.9937320456161718,-1.6698809301116277,-1.7962845627194288,4.162639259134631,-2.708548594533874,-1.3471331188947617,2.178662658895155,2.0,0.47914273986621886,0.4894303569263058,0.3049565409296437,-0.6367248820230824,0.20443438324772417,-0.33277704388337687,0.6648664878177089
9.8,-0.3475110814394801,1.6555659300001184,1.9431365863849674,-0.1586023647874139,-0.009282437803100447,-0.2298158023524971,0.027087223073378384,-0.10698700598984703,0.9938899592249103,-1.6698847632743499,-1.7962722361675652,4.162610678801607,-2.7085530020414783,-1.347112702716591,2.1786860425999754,2.0,0.47914125365279103,0.48943770353339217,0.3049438618428563,-0.6367324921904092,0.20443830614016634,-0.33276527555332724,0.6648638836314156
9.9,-0.20929770495336514,1.8152609583668613,2.402285959176644,-0.16414654840911563,-0.006820165392459088,-0.23198600273277084,0.026839911299974473,-0.10534359050574053,0.9940731790004474,-1.6698460644851496,-1.7962610073563807,4.162592210259457,-2.708547966561035,-1.3471337033442803,2.1786952705540283,2.0,0.47914008398936214,0.48944189897936363,0.3049364177872231,-0.636735291000569,0.20444389221071957,-0.33275800376049447,0.6648631250607022
10.0,0.003932134890015836,1.9645344242914766,2.708751896915605,-0.17195567689896715,-0.001465926659112344,-0.22903744969909678,0.026956806117604273,-0.10618508118247172,0.9939803934615027,-1.6698884963989258,-1.79625224213927,4.1626152992248535,-2.70852857146203,-1.3471328983011415,2.178690676040467,2.0,0.479153422773681,0.4894353668252985,0.30496625914136083,-0.6367066907450605,0.20444793527793756,-0.33277520703067054,0.6648806609510889
10.100000000000001,-0.09876385025519557,1.947689809653454,3.0020007674244873,-0.1791158023402127,0.008753584382243211,-0.23132502008126174,0.027087527683602775,-0.10704691937671518,0.9938849125615344,-1.669886179998436,-1.7962566814818324,4.16257674320034,-2.7085567913451136,-1.3471345767322151,2.1787035804166983,2.0,0.47914982658458577,0.48942766261874143,0.30494231770325075,-0.6367272966544022,0.20444644398951722,-0.332758481025026,0.6648697575774788
10.200000000000001,-0.012687865722533054,2.1308746958492404,3.257258261751296,-0.18431303003484562,0.013969189799745811,-0.23336871899315095,0.02714563453191999,-0.10729494565473498,0.9938561628352175,-1.6698734539311106,-1.796289231432967,4.16257905960083,-2.7085567913451136,-1.347116170466977,2.1786789696391033,2.0,0.47914626334502713,0.48943463978778723,0.30496140544510975,-0.6367220593799882,0.20443326824918917,-0.3327662165531849,0.6648749529443417
10.3,0.01832319554185051,2.1944599940942844,3.324372299385127,-0.19227719339332833,0.014732416587878692,-0.22750367807407126,0.027315740709591713,-0.10838892673673925,0.99373222272383,-1.6698599975885842,-1.7962566814818324,4.162601817189547,-2.7085649907290295,-1.347120400721325,2.178691275757363,2.0,0.47915260172944313,0.48943246355587944,0.30495917377544357,-0.6367204670578783,0.20444232955087158,-0.3327849521210854,0.6648643142470326
10.4,0.0889363588038529,2.043889320560157,3.244913804261786,-0.20352736543667052,0.014116448809955249,-0.22684132119221248,0.02748584688726344,-0.10948290781874352,0.9936082826124426,-1.6698637008666992,-1.7962638799099353,4.1626281994720475,-2.708548136761614,-1.347146577359457,2.178699016571045,2.0,0.4791366614886476,0.4894370667785614,0.30496380122591055,-0.6367129885065507,0.2044256002276769,-0.3327670163182086,0.6648855969934135
10.5,0.06693798610233741,1.857327346653426,3.184259939998313,-0.20870563326588276,0.01631624064100904,-0.22510013969538675,0.02731899597364431,-0.10853142236614066,0.9937168988471744,-1.669870475925618,-1.7962805233397425,4.162593891222087,-2.70854778110846,-1.347119472110976,2.1786900063343912,2.0,0.4791590392807403,0.4894327826893936,0.3049791549689536,-0.6367042338512965,0.20445185572754918,-0.33276888748684197,0.6648849711086608
10.600000000000001,0.029751628219947684,2.1945339597854185,3.0782689441996784,-0.19608266340446817,0.0156221559636351,-0.2264137006660891,0.027202765711361685,-0.10787505835613065,0.9937916479843211,-1.6698918397913667,-1.7962479057241967,4.162606523467218,-2.7085443935790003,-1.3471386098458737,2.1787023599634856,2.0,0.4791573965934048,0.4894362093317942,0.30496709868141153,-0.6367122255113566,0.20445017284571454,-0.33276619027953913,0.66487918550258
10.700000000000001,-0.007357532641320101,1.9440852862746876,3.0124950270638586,-0.19537970516829126,0.016378579318059135,-0.2218055599489363,0.027448162028840928,-0.10938257679912881,0.9936195696507304,-1.6698833480623387,-1.7962653233716157,4.162600471971709,-2.7085600703842854,-1.3471335204499848,2.178677631239557,2.0,0.47914707178308535,0.489438026117329,0.3049748909734024,-0.6367103531329998,0.20443514454678408,-0.33276631250303057,0.6648855383827517
10.8,0.08920785964842637,1.9832952544122329,2.993362834022997,-0.19262010724826625,0.014253078280935236,-0.22385345271348348,0.02758623629912166,-0.11026654057179432,0.9935190337632913,-1.669893250877091,-1.7962699314514923,4.1626182360401645,-2.708563759692647,-1.3471404230298738,2.1786778445795356,2.0,0.4791472462131394,0.4894365607447837,0.3049545535944222,-0.6367231310023991,0.20444769146825031,-0.33275437244048056,0.6648754195498183
10.9,0.01728136621666001,1.8687705050482348,3.030801685512689,-0.19278007212027407,0.01659289198882294,-0.2293758297029915,0.027436938713625767,-0.1094808375102051,0.9936100641574694,-1.6698672915804849,-1.796277317345291,4.162618376979527,-2.7085567913451136,-1.347128084554653,2.1786866188049316,2.0,0.4791559489865198,0.4894217121356257,0.3049879820883941,-0.6366970168876981,0.2044582717566784,-0.33276755332563956,0.6648905768998732
11.0,-0.07864144062768882,1.8022047460217394,3.125508859949523,-0.19266040953972013,0.015889861215049313,-0.22843058833484675,0.02736572296033722,-0.10892493793208374,0.9936731106489548,-1.6698472843303547,-1.7962600521314414,4.16260290145874,-2.7085546403538117,-1.3471525679048788,2.1786777265144117,2.0,0.47915278010317747,0.48942239045885,0.3049645936435316,-0.636715548361926,0.20445245584105104,-0.3327633038551827,0.6648767460079487
11.100000000000001,-0.11103670964854274,1.7698489135071858,3.1640277160543793,-0.19240667749331877,0.014925860273868276,-0.22642659706950816,0.0273196985754867,-0.10844317934241932,0.9937271287559475,-1.6698621005289396,-1.7962533138817671,4.162585535754802,-2.7085423164040825,-1.3471401670892218,2.178677588638884,2.0,0.4791440702088886,0.48943247787734045,0.30494547709860903,-0.6367332744082772,0.20444158021906234,-0.33275708435714696,0.6648662274089254
11.200000000000001,0.13036560280243611,1.6578837410335943,2.9658956034822532,-0.1922251139054188,0.010122129204550443,-0.22594135452844014,0.02706934443498686,-0.10686192447602337,0.9939034447125111,-1.669860005742348,-1.7962805233397425,4.16259706973921,-2.7085631048514434,-1.3471433655357397,2.1786681600727418,2.0,0.4791470152710091,0.48942826074620566,0.3049772761056343,-0.636714526117035,0.20443946244665706,-0.3327672158537338,0.664879762422527
11.3,0.06780969573856258,1.678301913448707,3.28312757587482,-0.1867736380737516,0.006214691558922457,-0.22467387995754917,0.026750535246441408,-0.10491231371251175,0.9941207331898984,-1.6698940271790519,-1.7962503985881821,4.162587547036791,-2.7085443935790003,-1.3471461622326353,2.1786804591052746,2.0,0.4791542752300758,0.48941905034093636,0.3049852755063488,-0.6367027062780024,0.2044559612619203,-0.33276631467559614,0.6648864591341547
11.4,0.059946226379522335,1.5818448007527837,3.4375006686237692,-0.1899315663201156,0.007474463478735892,-0.22846656508310112,0.026625570180998377,-0.10415455604446855,0.9942046257253143,-1.6698678879780302,-1.7962678969586119,4.16261537830018,-2.7085482816109505,-1.3471325050844116,2.1786781090707685,2.0,0.47916334892342605,0.48942651030581397,0.3049540918711728,-0.6367149562705905,0.2044620376634195,-0.33277068038852675,0.6648706745598117
11.5,-0.020990053875559214,1.5713636125911041,3.253377692580533,-0.18812984174255998,0.009707855832863429,-0.22356705113021583,0.02660393220712415,-0.10402126191839853,0.9942191278127861,-1.6698800846715642,-1.7962552781110892,4.1625961086785015,-2.7085687122740687,-1.3471314100796614,2.1786940768579766,2.0,0.47916067327349426,0.48942360894819265,0.3049551676621409,-0.6367129457846235,0.2044535013896911,-0.3327731763656048,0.664873975676074
11.600000000000001,-0.19076970131924692,1.854233928203719,3.189103452223557,-0.18042082306151935,0.014453518468025967,-0.22764620324286383,0.02670032319495665,-0.10457800447557358,0.9941580481088841,-1.6698606641950033,-1.7962741969403762,4.1626171271896135,-2.7085774700033407,-1.3471344946872383,2.1787041342634756,2.0,0.4791538735979027,0.4894228006651419,0.304955284471967,-0.6367193539749051,0.2044478386609237,-0.3327693104233723,0.6648715150922093
11.700000000000001,0.17111873293771343,1.6422232474371548,3.2459237208686478,-0.18428364627630123,0.0027539947364733884,-0.22431652499887533,0.02680572428187044,-0.10520947354038733,0.9940885269856757,-1.6698804425774587,-1.7962672760766127,4.162593185727204,-2.7085687122740687,-1.3471575866526315,2.1786735128030656,2.0,0.4791515633457826,0.48942364541879885,0.3049429509699221,-0.6367314740237017,0.20444719570765194,-0.3327696517222911,0.6648599349092306
11.8,0.2067714506001339,1.4922809618274904,3.152500297653774,-0.18762404888309347,5.54680497700927e-05,-0.22432762840391934,0.026942351178617447,-0.10609991819425672,0.9939897508951686,-1.6698637008666992,-1.7962728529390413,4.162586730001531,-2.7085522173877155,-1.347128713760552,2.178690607413296,2.0,0.47914457839651287,0.48943494702899015,0.30496180776926424,-0.6367159457512489,0.20444504754135998,-0.33275271890673763,0.6648839410168345
11.9,-0.03151093930975099,1.8462214440578204,3.205346003980037,-0.1771051151637088,0.002369663088581141,-0.22652168777332854,0.027078978075364458,-0.1069903628481261,0.9938909748046614,-1.6698730670606632,-1.7962744005864637,4.162590503692627,-2.7085236130977295,-1.3471337381125172,2.1786835276238024,2.0,0.47914982046609006,0.4894268617401354,0.30495582092076623,-0.6367248017542213,0.2044528177173318,-0.33275672808822654,0.6648710642451732
12.0,-0.057440259933514745,1.683273154598876,3.25046871600866,-0.1808273948530274,-0.0019393199516276553,-0.2237349597979943,0.02723314723718361,-0.10802997855977536,0.9937739800793698,-1.669846664993648,-1.7962744271829272,4.162596805301925,-2.7085536597373596,-1.3471337514107489,2.1786651987267316,2.0,0.4791436163976833,0.4894370692928296,0.3049644087951434,-0.6367211065963428,0.20443279233475795,-0.33276538537385003,0.6648764277141548
12.100000000000001,-0.06168911315884372,1.4455972848871466,3.1861830189763385,-0.18325834557965615,0.003262930130751512,-0.22753811769015306,0.027394324548532266,-0.10912918823344135,0.9936497069942843,-1.6698969169332785,-1.7962805233397425,4.162576938144486,-2.7085508186385696,-1.347140075009721,2.1786632293000463,2.8227999108072086,0.4791599200674314,0.4894278681421591,0.3049665013481088,-0.6367132480870127,0.20444891226587153,-0.33276545678173164,0.6648789609820976
12.200000000000001,-0.02307274293409465,1.6617676301964281,3.2842421850678476,-0.18077723999020898,0.00013467100851412804,-0.22815617673609737,0.02741332005981084,-0.1092164424618051,0.9936398810247186,-1.6700928402308433,-1.7961207728851665,4.162618389563332,-2.7085792008844924,-1.3471103459369826,2.178707370324363,3.0,0.47914817061772147,0.48942681667603366,0.3049719603790706,-0.6367059192477811,0.2044533285602844,-0.33275661777414217,0.6648890450014736
12.3,0.06484002052257845,1.7140789087917903,3.335428690572888,-0.18511622694741145,0.0015043201508469287,-0.22376988599713757,0.0273208815160276,-0.10864472852369444,0.9937048105508908,-1.6714154217341175,-1.7952210106477875,4.162632680592472,-2.7082640216991223,-1.3469757222232865,2.1787100969928583,3.0,0.4791166769914264,0.48938265822451676,0.3049549899661731,-0.6367192914204884,0.20444690754166767,-0.3327630103890469,0.6648750144549416
12.4,-0.0005428418475387775,1.7685115606226078,3.3412652280886945,-0.21273264365147795,0.009515871911781578,-0.218720412826433,0.02701580988309831,-0.10710735812571182,0.9938798879970223,-1.6728597710973208,-1.7941476307311,4.162901601036313,-2.7077771503106773,-1.346693265735307,2.178681750675081,3.0,0.4788584235906983,0.4890109304132934,0.30486325994933594,-0.6367653517505143,0.20446985588411593,-0.33278870655868553,0.6648109818826471
12.5,0.21833251161137934,2.1112529541994958,3.339797253363012,-0.2437385255151519,0.01545596512389372,-0.19516350165360463,0.027388155085502044,-0.10958330068579769,0.9935947820078098,-1.6742162704467773,-1.7930028791861548,4.1632596133404505,-2.707339358844271,-1.3464079570610292,2.178653454433587,3.0,0.4786098950947878,0.4887221655057912,0.3048229816624052,-0.6367483963319419,0.2045062640056125,-0.33279532834266173,0.6648127083506054
12.600000000000001,0.2825820361819287,2.135961417251058,3.428681549466809,-0.257801765091059,0.013314287435935856,-0.17945904634097354,0.027843309438365726,-0.11248745097530508,0.9932614958106235,-1.6756677627563477,-1.7918557108410649,4.163454532623291,-2.7068943037843876,-1.3461639277923263,2.17855202993444,3.0,0.47814280866566566,0.4884077326139675,0.30489888265812753,-0.6366653918229138,0.2044566757674024,-0.3327745064442728,0.6649178704546072
12.700000000000001,0.3100214734848405,1.9721955945296892,3.4879039817503106,-0.24180485473952956,0.013971357767286726,-0.1800555999779495,0.027280647169672972,-0.10907825635604672,0.9936563023422498,-1.6774266249089083,-1.7908498922034966,4.163691909778514,-2.7064593953012612,-1.3459238602757466,2.178537313167422,3.0,0.47791579432273035,0.48812373672234255,0.3048952970934016,-0.6366392588717568,0.2044593849618071,-0.3328226417056353,0.6649179672202746
12.8,0.4906131708086879,1.9496272874812557,3.5697922314447417,-0.23885988568490055,0.0113619610482653,-0.17814918209251962,0.027353866249846474,-0.10933567207854611,0.9936270824742452,-1.6789482655305772,-1.7898399100634494,4.163992092378969,-2.7061033683248796,-1.3457072416888636,2.178545787564879,3.0,0.47742498583124576,0.4876290753921679,0.30464976773372976,-0.6367557388623991,0.2044724642741278,-0.33277406903241763,0.6648267137826767
12.9,0.21411277161956432,2.4727342918752027,3.617764004535918,-0.2641129324385444,0.009017090983003961,-0.17422123340317222,0.02768585986094427,-0.11110724639669585,0.9934226963365047,-1.6804043250508829,-1.7886217984896944,4.164207806198285,-2.7056957587287576,-1.3454709640434053,2.17851256357505,3.0,0.47716477842893673,0.4874140310935137,0.3045272530662432,-0.6368147012224102,0.20446947742921717,-0.3327463397291866,0.6647850348072405
13.0,0.30465343754105634,2.4065298786011042,3.590882422339154,-0.2751066419138465,0.01506112601303864,-0.15974050510605184,0.027637597331782754,-0.11080811122720391,0.9934574409493845,-1.6818817668097021,-1.787349210211466,4.164402484893799,-2.705338894189938,-1.3452550776333216,2.1785031589285886,3.0,0.4768717529705343,0.48711279455812473,0.30457908683947976,-0.6367589284121812,0.20446548590402125,-0.33275635369634976,0.6648346721073689
13.100000000000001,0.1148072156604881,2.478806582568914,3.5747282637699827,-0.28016629879852417,0.024740159871884063,-0.13771577103212973,0.02749871567379227,-0.10993490954776064,0.9935579044365076,-1.6834585330592633,-1.7863054499984092,4.16468717321595,-2.7048847123814466,-1.3450088195339303,2.178436584399247,3.0,0.4762958494380901,0.4864778062395599,0.30464918518728457,-0.6366746270848325,0.20444156926381096,-0.33280180713852203,0.6649000083837222
13.200000000000001,0.21275593076279106,2.3216675740218418,3.7785016587103972,-0.2801287651104335,0.02146752780787183,-0.13810611377477713,0.027323395592979593,-0.10882904416526736,0.9936848719629546,-1.68491679499427,-1.7853309623638098,4.164953708648682,-2.7044728989293088,-1.344789908372252,2.178431820606132,3.0,0.4761195898280475,0.48632084628014327,0.3045620904718116,-0.636709644363763,0.20444432709058652,-0.3327953971452059,0.664868836338125
13.3,0.25182833224915874,2.4824301982830246,3.7922994727799795,-0.2767456703513987,0.022855288967676343,-0.12965337974724483,0.027245963002492792,-0.10833117066358523,0.9937413673257607,-1.686443537336113,-1.784353872338766,4.165172372951862,-2.703990906909941,-1.3445561567889612,2.178399354357002,3.0,0.4758120896768076,0.4860026072193296,0.30446251460616547,-0.6367268803469903,0.20446359419328974,-0.33277353692889516,0.6648573468143258
13.4,0.19267362633357307,2.506080814466588,3.688224526962917,-0.30303072189215635,0.025174566658958678,-0.12580913427955628,0.02741048321777985,-0.10922467108991869,0.9936387052720664,-1.6879556226396577,-1.7831081337298855,4.165451413001973,-2.7036073985066134,-1.3443217928587792,2.1783894893692857,3.0,0.47532411647432404,0.4855321631743053,0.30430674815452297,-0.6367811657217561,0.20444612562939196,-0.3327657442934974,0.6648146268862976
13.5,0.3270344788205125,2.6605471424829443,3.7728624648396267,-0.318735043574176,0.027167725908544917,-0.1067928567679296,0.027463647826667947,-0.10950396139995787,0.9936067609316117,-1.6894051914121868,-1.7818409845666265,4.165688287744307,-2.7032378892381415,-1.3440764586078089,2.1783656739182518,3.0,0.47506886340001026,0.48529331298419826,0.3042965975675474,-0.6367693724855487,0.20445341078215817,-0.33274496610406007,0.6648340820207029
13.600000000000001,0.32629917501217953,2.4586986434712417,3.786539125135948,-0.3214659955619097,0.02432868741954689,-0.09321448731434638,0.027341987771739643,-0.10875939125151514,0.9936918068577061,-1.6909546923443741,-1.7806307206743235,4.165924549102783,-2.702857277433086,-1.3438306480989652,2.1783051400375966,3.0,0.474743476340374,0.48495212563466533,0.30437227962577146,-0.6366988302094412,0.20445612866950597,-0.3327637545907445,0.6648914006738833
13.700000000000001,0.3586980234509071,2.387665813681029,3.939479023836722,-0.2990500707977697,0.023607206082782387,-0.0932003544615745,0.027118157665539225,-0.1071276232697612,0.9938747661247188,-1.6925302649304854,-1.7797818235338574,4.166194070555151,-2.7024325875327233,-1.343565518927218,2.178293755044103,3.0,0.4742067005050489,0.4844499475077253,0.3043456915852526,-0.6366882326786851,0.2044338077407186,-0.332758326251932,0.6649111285962478
13.8,0.2968023639588333,2.384305634523291,3.4618948597455446,-0.2923207183850269,0.024553361958761503,-0.0858075062566545,0.027194572688654335,-0.10761084300438237,0.993819476356333,-1.693888869597282,-1.7787744375165053,4.166437498698588,-2.702020669486494,-1.3433049728517104,2.178308939265052,3.0,0.4739933430885109,0.4842079138039789,0.30420364484017287,-0.6367498478882152,0.20445794229522612,-0.33274901967134096,0.6648493595954639
13.9,0.4150197860498,2.3481204011120473,3.902081856270839,-0.3247110700483212,0.029155039286684347,-0.08274927000122351,0.027474947904482388,-0.10953079979182694,0.993602341100947,-1.6952175677900236,-1.777604734076309,4.1667160987854,-2.7016774691010923,-1.34302232357631,2.178245913969714,3.0,0.4737648083564845,0.48398094755223753,0.30415531825751585,-0.6367517072492856,0.20445905560378835,-0.3327502397963581,0.6648466257808587
14.0,0.4508105459286547,2.631930439427731,3.893107537042298,-0.3222501550328359,0.031398769910381485,-0.079742195032611,0.027346498818097774,-0.10881912732731752,0.9936834777207959,-1.6968847983698265,-1.7763579742537696,4.166976491775995,-2.701275527841567,-1.3427889206361787,2.178227706267561,3.0,0.4734691151836925,0.4836980117961929,0.3041523159714014,-0.6367228148197153,0.20445151529375447,-0.3327593507608766,0.6648720549574529
14.100000000000001,0.24162977232866792,2.5540568518591558,3.8325453422097455,-0.31140986489971045,0.03288723193588072,-0.06727289571889913,0.02699486761737252,-0.10664487941142205,0.9939304133719649,-1.6985236308478207,-1.7751786036446104,4.167198264116497,-2.7008680173575033,-1.342567107621659,2.1781937497199615,3.0,0.4730245012661898,0.48324783614894073,0.3041657640197061,-0.6366787140264613,0.20445382332560677,-0.332781830427116,0.6649023255867977
14.200000000000001,0.16565122435956062,2.3131432148063413,3.8998742693276993,-0.3190808141788095,0.03834270990510981,-0.062206587239334046,0.027393947957515718,-0.10902066158263703,0.9936619379549576,-1.699830925777527,-1.7742234669127406,4.167443925113643,-2.7004367921946417,-1.3423265174288894,2.178164837320719,3.0,0.4726161285306178,0.4828312848731002,0.3041117110769987,-0.6367047285501217,0.20443790114294924,-0.3327695441312242,0.6648884596057291
14.3,0.23380963819367528,2.6597460641319555,3.714857302555055,-0.31047732380010973,0.032677831646647504,-0.05658207160262733,0.02744346250133371,-0.10947243220952314,0.9936108618132495,-1.701280728349782,-1.7731896839537562,4.1676866117149896,-2.70000757793569,-1.342077981481196,2.1781132674939703,3.0,0.47216192140437746,0.4823600434732737,0.3040327597928594,-0.6366736492082656,0.2044563374166146,-0.3327679964880499,0.6649133259360527
14.4,0.3305998403865496,2.2029412812340166,3.853749476089738,-0.30799008406040645,0.034298254495399715,-0.052386407292390885,0.027464772337753376,-0.10962718362424934,0.9935932568155962,-1.703011760777464,-1.7720748354448908,4.167913913726807,-2.699627535487615,-1.34186858825373,2.1781337033926667,3.0,0.4718081142799615,0.4820158677117426,0.3039200132572977,-0.636719206771907,0.20444209106689842,-0.33276051376444016,0.6648778260757188
14.5,0.1973208646387628,2.4941983767598077,3.9982073354152123,-0.31570646442780026,0.03507849344920236,-0.04012487059365856,0.027463883688354156,-0.10954816637490272,0.9936019952472911,-1.7044201346473034,-1.7708731062789496,4.1681725649870645,-2.699261907380516,-1.3416285459901351,2.1781105995178223,3.0,0.4715607208376826,0.48175611811475083,0.3038115795066774,-0.6367656850954736,0.20444377494224217,-0.33274264807055653,0.6648417370527004
14.600000000000001,0.26052397244794867,2.5077353041636443,3.991678048063101,-0.3207699983991963,0.03534050601090663,-0.034811403232761,0.027467857126131593,-0.1095065142861257,0.9936064640146802,-1.7057586694271984,-1.7696696720519007,4.168422775252474,-2.6989010335545416,-1.3414045453473555,2.1780550917444295,3.0,0.4711025174548015,0.48128448544509855,0.30388506659625314,-0.6366827868719049,0.2044535643931105,-0.3327545109818403,0.6649121779071374
14.700000000000001,0.5774798985039064,2.2441201667059882,4.0773908570971065,-0.3082150539237763,0.028470939210385637,-0.023831290775218006,0.027566683272264123,-0.11019380566326711,0.9935276374382238,-1.7072893688047786,-1.7686900850614677,4.168619041958125,-2.6984794783111328,-1.34118690716284,2.1780511447752375,3.0,0.47087595860007303,0.48103524658590496,0.3039179254463826,-0.6366453674095097,0.20444484339548918,-0.33277150275460005,0.6649421847946255
14.8,0.42393583941945495,2.440833963223683,4.015733633514934,-0.29093516937633346,0.027764777876018505,-0.023122433069899296,0.027664244985964825,-0.1107043002834697,0.9934682742139315,-1.7090330875895356,-1.7676295918182365,4.1688618659973145,-2.6980568904299496,-1.3409383987424066,2.177972199179541,3.0,0.4704147900510924,0.48056996439202276,0.30373529483456374,-0.6367144860442536,0.2044435405306249,-0.3327653587160659,0.6648794763227941
14.9,0.33610227349542043,2.3749103345238334,4.159020860346698,-0.30256817397651964,0.03208128175892342,-0.019062011813624245,0.027583782070279166,-0.1100465704590951,0.9935429321707505,-1.710387015160799,-1.7665110017064156,4.169113636016846,-2.69762975679847,-1.3407134634896578,2.1779821566145023,3.0,0.4701895686479974,0.4803497293106122,0.3036286801294787,-0.6367676165641616,0.2044137992382816,-0.33275018042198407,0.6648453343487533
15.0,0.4589024039878754,2.283524856036464,4.038067030560282,-0.31602383706581094,0.028887293507471976,-0.006659122575575924,0.027345825269173115,-0.10848863181256765,0.9937214979576998,-1.7118093458707442,-1.7653828298489973,4.169359836291793,-2.6972668350074183,-1.3404267469989222,2.177964956705807,3.0,0.4698620804361057,0.48001149281798183,0.30363126476313773,-0.6367184029177264,0.20443750521971382,-0.332749008003117,0.6648857642620882
15.100000000000001,0.31228675560057373,2.2483187829931284,4.059156803248433,-0.3096977850088144,0.034145903186839494,0.0004854969689786059,0.02723586137829289,-0.10794394600973983,0.99378375697009,-1.7133800413144205,-1.7642880553281117,4.169628620147705,-2.6968826667918595,-1.3401493184679,2.177893539565644,3.0,0.4693806017979349,0.47950218998553307,0.303585435730869,-0.6367061239627234,0.20445183253837648,-0.3327596066687448,0.6648878131307019
15.200000000000001,0.3798807656405667,2.256076555669793,4.197677786544435,-0.3107339017997492,0.031702240759913285,0.0019380772182886307,0.02726307171529152,-0.10823970765116762,0.993750755685419,-1.714861443887912,-1.7631856981420653,4.169862284063929,-2.696522481627408,-1.3399090729479015,2.177892478828826,3.0,0.46915083406262,0.47926603447228355,0.30351820068665203,-0.636726819124911,0.20445601961946608,-0.33275441174293524,0.6648693069423874
15.3,0.3085022061506093,1.74531600783886,3.9348314869280507,-0.29497921948777284,0.022754576023140908,0.0018014589600615044,0.027540813631612055,-0.11019868672086026,0.9935268954799721,-1.7152013778686523,-1.7628528708150457,4.16995865413544,-2.6963754780670848,-1.3398173491107386,2.1778901751970987,3.0,0.4688449379950616,0.4789524189712126,0.30350094597237776,-0.6367118387815365,0.2044544246299831,-0.3327755114912219,0.6648735831392409
15.4,0.2493387776600675,2.215634222264562,3.7123004242498623,-0.29971503011248085,0.025044536482291335,0.0014515578891345197,0.0275321094193499,-0.11029933200826221,0.9935160417516342,-1.7151953819647405,-1.7628866634764613,4.1699510485593,-2.696408367819248,-1.3397992725450514,2.1778675062498207,3.0,0.4686586101921436,0.47876039330227854,0.30348943966882447,-0.6366899810937281,0.20447033305574433,-0.3327896227944399,0.6648825594308183
15.5,0.23057144427423953,2.0975693124119936,3.7660834249973485,-0.29154295587089685,0.023892408607087308,-0.001231878418161646,0.027307434542966944,-0.10881145278783183,0.9936872507401676,-1.7152089806172386,-1.7628653225226913,4.169987201690674,-2.696426054040426,-1.3398097463621523,2.1778490326724835,3.0,0.46863403771595236,0.47876647181939314,0.303476275605043,-0.636699829347164,0.2044566457413204,-0.33277727516777744,0.6648835179589055
15.600000000000001,0.3805394211202474,2.0355966101174388,3.7810385038500987,-0.2904165506923832,0.02338727876118626,-0.002868786210246343,0.02729796392203738,-0.10861448171988002,0.9937090691175522,-1.7152969370682651,-1.7628385029234828,4.16995096206665,-2.696404448828875,-1.3397883966696584,2.177882987740066,3.0,0.46862545744089346,0.47874995867592435,0.3034809328640142,-0.6367037088263715,0.20445133030983748,-0.3327810360034106,0.6648795550908281
15.700000000000001,0.2978655503625462,2.0367071847217133,3.894140707111679,-0.28922934266525097,0.023106907365901447,-0.004740483136801546,0.027552049245981883,-0.11014103605781884,0.9935333430186729,-1.7152830528905094,-1.7628027401366175,4.169987201690674,-2.696402212182516,-1.3398173491107386,2.1778708676867713,3.0,0.46861334119728043,0.4787595598037392,0.3034895989543073,-0.6366994782988172,0.204440586701146,-0.33277282876751046,0.6648910175941425
15.8,0.3287640580145489,1.9845295498267237,3.765003909553799,-0.29023809778571136,0.023607613712439905,-0.006729621303657689,0.02762642420439342,-0.11056154975746121,0.9934850405650238,-1.7153116592387396,-1.7628146610655726,4.169970521246328,-2.696385628514029,-1.3398244312467449,2.177848947904511,3.0,0.46860962619543034,0.4787563669629133,0.30347787965967854,-0.6367080873936772,0.20443702141389997,-0.3327767994374504,0.664881882351343
15.9,0.34430796573604816,1.8808808030794002,3.746704677550957,-0.2900175399960704,0.02397159898606854,-0.004259418262111266,0.027488564807393482,-0.10967284868645691,0.9935875387184563,-1.7152925456782062,-1.7628241989452809,4.16996583820398,-2.696418904892686,-1.3398149660614918,2.177867985862811,3.0,0.4686115354821428,0.4787482422553094,0.30345171791077524,-0.6367313609855053,0.20444060097639685,-0.33277314122524304,0.6648603244960856
16.0,0.33864126397462585,1.8842512083822751,3.7732390794114057,-0.28819143259347163,0.0239979982521641,-0.007823088226410898,0.027342505905717875,-0.10866991725752069,0.9937017599374932,-1.7152764899451933,-1.7628146610655726,4.169975757598877,-2.6963994696528344,-1.3398054281817835,2.1778643145576537,3.0,0.46860312701713774,0.47874353915634804,0.30345409778893295,-0.6367281030705912,0.2044408072769643,-0.3327676866929522,0.6648661111630603
16.1,0.17444529506208492,2.103142221898131,3.788533366584045,-0.28335791673402466,0.025085247830323953,-0.009748717031608801,0.02735306060439904,-0.10880102549264548,0.9936871289537824,-1.7152830937528665,-1.7628119087374625,4.169966222253998,-2.6963688349797272,-1.3398273192349734,2.177864334154511,3.0,0.46859746028375027,0.4787490560665852,0.30346820463496876,-0.6367204945589255,0.20444082396814223,-0.3327663839244502,0.6648740444879088
16.2,0.22692237265342846,1.8464535176692125,3.622749560001212,-0.2862742107041287,0.024016294348980765,-0.011676495047793964,0.027371591061214524,-0.10899000203621569,0.9936659254911094,-1.7153201801461448,-1.7628054464837122,4.169978355692088,-2.6963929976006558,-1.3398119364165493,2.1778375857335917,3.0,0.46860248859430415,0.47874118538407723,0.30347478436600933,-0.6367146239866746,0.20444739795296574,-0.3327735212507328,0.6648740727582609
16.3,0.39691510755869513,2.092234581717111,3.6426295716125403,-0.2805522330592098,0.01886469443780219,-0.015498986183693653,0.027630668859595187,-0.11061981309935034,0.9934777358593203,-1.7153066464148496,-1.7628051407631142,4.1699468158794035,-2.6963998115560193,-1.3398078288082802,2.1778727702416445,3.8778207072875297,0.46860080109116004,0.4787339584371073,0.3034804364963798,-0.6367147106154596,0.2044447052307441,-0.3327672528834933,0.6648779551145902
16.400000000000002,0.4263666445375588,1.9143724550222654,3.7525063291675615,-0.2825986653224646,0.01763232431006306,-0.01743322936165328,0.027988251891966357,-0.11292610856087244,0.9932077799071554,-1.7152782859047215,-1.7627981268157609,4.169960557774032,-2.6963829836454627,-1.3398146548234968,2.1778810446269103,4.0,0.4686013016250907,0.4787341691769524,0.3034986375807931,-0.6367025833624644,0.2044444096338235,-0.33276459219722565,0.6648909909818721
16.5,0.3155262581652168,1.8858532582150493,3.8466948086159816,-0.2832787933184071,0.019227813980200847,-0.01630835665124555,0.028001143587960776,-0.11298310319586635,0.9931986404119123,-1.7152771845741857,-1.7628248489437535,4.169961557459959,-2.6964106670099226,-1.3397952403036026,2.177858829498291,4.0,0.4686006794759743,0.4787362748406694,0.30348727936429326,-0.6367100831253063,0.20443825642492394,-0.3327646823154671,0.6648856560040897
16.6,0.3569650583836551,1.8235108755888496,3.739814842986582,-0.28357148507239915,0.0192924813974086,-0.017382852784293478,0.02746536043026809,-0.1093804472531972,0.9936204067615352,-1.7152705733814548,-1.762798086227584,4.169975757598877,-2.696411710771497,-1.3397935072528284,2.177887709823347,4.0,0.46859509195669996,0.47873614798128483,0.3034773028892634,-0.6367159894281467,0.20444085894133388,-0.3327586405325382,0.6648822235199277
16.7,0.2784620520861486,2.0608597012522036,3.796496165919821,-0.2807927019091939,0.020432089377997332,-0.019127733029195938,0.02741495750239382,-0.10900910414782855,0.9936626222440264,-1.715316886201065,-1.7627856116894591,4.16999649749103,-2.696421578433258,-1.3397834368024424,2.1778532346550725,4.0,0.4685951538321143,0.47875314964132015,0.3034750349354704,-0.6367174309564756,0.2044361195802443,-0.33275639861594253,0.664883422343576
16.8,0.2578842827050188,1.8616298700087124,3.741398358511888,-0.2833485213461906,0.02314785941002438,-0.02025204343948736,0.02739015030481416,-0.10892034826448285,0.9936730529990709,-1.7152844496278694,-1.7627872406565914,4.169987201690674,-2.696415318387213,-1.3398137705596675,2.1778622649073194,4.0,0.4685969638690879,0.47875026870876247,0.3034697407111372,-0.6367179432249468,0.20444548485181158,-0.33275799181933896,0.6648792547368747
16.900000000000002,0.19082742428737254,1.8150706301813662,3.640300805671698,-0.2815348232650835,0.023434258408268332,-0.020153122998940183,0.027490033499359016,-0.10967480221182871,0.9935862322613461,-1.7152490615844727,-1.7628058650245884,4.169969609608705,-2.696413554488543,-1.339823020263752,2.1778794214727117,4.0,0.4685971873839473,0.4787486138823031,0.30347640950592364,-0.6367125830332859,0.20443782750528605,-0.3327705970827771,0.6648804336188365
17.0,0.20918012845135658,1.773816579728699,3.751946469597473,-0.28317763691910425,0.020427472824516957,-0.022176481348864845,0.027819242307271015,-0.11194406782912117,0.9933244355614337,-1.7153107768635012,-1.7627966021751191,4.169972490004687,-2.696410592332189,-1.339801887402501,2.177898751532768,4.0,0.46860280230452506,0.4787405748538068,0.30347635854234245,-0.6367087232302329,0.20446119552531933,-0.3327602369101451,0.6648821294172285
17.1,0.28436713378930695,0.6962020464830458,2.5494503749953514,-0.17798118845840766,0.021392918432629127,-0.020015854315620953,0.027935287694130333,-0.11258930799608048,0.9932488128624253,-1.7152547530677853,-1.7628027401366175,4.169987181315617,-2.696401829207468,-1.3397992191111983,2.177870273590088,4.0,0.4685982107500588,0.47874498174880126,0.3034762546558737,-0.6367114112454915,0.20443256514237473,-0.3327675927111717,0.6648846774744439
17.2,-0.08973270740552436,-0.4736013005588349,1.3631428467159654,-0.04389804119927679,-0.003061014931526048,-0.025908302956918004,0.02799140031252634,-0.11283218789187552,0.993219701588592,-1.7152700532538254,-1.7627818740187453,4.170027980252102,-2.696376468393169,-1.3398273806598642,2.177882671356201,4.0,0.4686059081866812,0.4787325866847272,0.30348188530938125,-0.6367158561006545,0.2044389246332467,-0.33276812514372506,0.6648781990508805
17.3,-0.13928969989576429,-0.2860398692904087,0.32824772521909484,-0.053546847279224714,-0.00703210259917455,-0.02655699671756293,0.028010610280389616,-0.11290629524693917,0.9932107373595896,-1.7153215408325195,-1.7627564365762318,4.169980588288331,-2.696414133111471,-1.3398192061033314,2.1778553789642716,4.0,0.46858044318012976,0.4787564354184731,0.30349309084665566,-0.6367073830068739,0.20442795529125327,-0.3327462448332146,0.6649006362377536
17.400000000000002,-0.2895695422383387,-0.30681262623832284,0.03608661000783392,-0.05119633643844914,-0.006306895139386032,-0.026416994653133127,0.027971704639233003,-0.11262956666150054,0.9932429531365121,-1.7152810313541849,-1.7627852414869836,4.169975757598877,-2.696403743157711,-1.3398054281817835,2.177860360473486,4.0,0.4685921103739005,0.4787342497045731,0.3034953504826573,-0.6367104510281657,0.20443624020105036,-0.3327630729504639,0.6648867290934088
17.5,-0.07772654791516337,-0.42329550026759105,0.04555716115334518,-0.056453788539532736,-0.010532887390775581,-0.029686909868832857,0.02780611011988071,-0.11158803473867013,0.9933649390946766,-1.7153178698758274,-1.7627497181867844,4.169988197674962,-2.6964213338342136,-1.339830601670498,2.177884338633522,4.0,0.4685888809767134,0.4787391365607078,0.30352004130704174,-0.6366840380036686,0.20444113185093457,-0.3327623575640177,0.664910875792605
17.6,-0.11953517537110321,-0.28833767886303735,-0.07076911231424964,-0.0427186723735251,-0.009876048760615718,-0.02752531491704992,0.027748356291340988,-0.11122598982757292,0.9934074065885486,-1.7152910204119345,-1.7627807795956278,4.169987201690674,-2.6964122517945506,-1.339803546864863,2.177903553749233,4.0,0.46859478248560316,0.4787447594437455,0.30352169826461994,-0.6366933961591157,0.2044324009405205,-0.33276448369601236,0.6649035352016051
17.7,-0.3062944490505668,-0.13546762140268334,-0.1355469238055481,-0.04073176095669252,-0.0011162474141315423,-0.033646003333018135,0.02793544696259226,-0.1124066711012647,0.9932693331523963,-1.7152625211356514,-1.7627983110929075,4.169994911575555,-2.696383820315494,-1.3397989572437168,2.1778950691223145,4.0,0.4685923333308834,0.4787458590573151,0.30350196240795185,-0.6367117892918484,0.20442860516378816,-0.3327646111438256,0.6648870252440329
17.8,-0.03791531433189643,-0.3932738406191324,-0.0068137064348782195,-0.0485461370929945,-0.009138257500334097,-0.03572309541859141,0.02791509200387671,-0.11237604596908997,0.9932735045197633,-1.7152816269068683,-1.7627908192076625,4.169991297179215,-2.69639411865109,-1.339829708776062,2.177866484293349,4.0,0.46859932559161926,0.47872481647580417,0.30352287601370787,-0.6366874682245778,0.20443732647455856,-0.33278780150464793,0.6648960268488715
17.900000000000002,-0.12232324624569607,-0.25297317457559143,-0.10928006234337775,-0.03858382315891843,-0.0057974879104712145,-0.03804164015103479,0.027842060006930527,-0.11203783164421424,0.9933137963633931,-1.7152858823865982,-1.7627792773618616,4.169987782868776,-2.6963846334860113,-1.3398116913431892,2.1778879258248423,4.0,0.4685996021812743,0.4787396691473905,0.30348543112079296,-0.6367119753344002,0.2044346193818741,-0.3327900747607745,0.6648722531469279
