xiamingqian9007/apple-picking-rnn/final_data/grasper_20191127_125105_noimg.csv
,/manipulator_wrench.fx,/manipulator_wrench.fy,/manipulator_wrench.fz,/manipulator_wrench.tx,/manipulator_wrench.ty,/manipulator_wrench.tz,/ground_truth.x,/ground_truth.y,/ground_truth.z,/joint_states.elbow_joint,/joint_states.shoulder_lift_joint,/joint_states.shoulder_pan_joint,/joint_states.wrist_1_joint,/joint_states.wrist_2_joint,/joint_states.wrist_3_joint,/mode./mode,/manipulator_pose.x,/manipulator_pose.y,/manipulator_pose.z,/manipulator_pose.rx,/manipulator_pose.ry,/manipulator_pose.rz,/manipulator_pose.rw
0.30000000000000004,-0.0564229375348157,0.3225540930178007,-0.03709667721239815,0.0028326375173359846,-0.007390918935739713,0.023312959584664755,-0.3925667537280587,-0.3989676257976573,0.828683396959348,-1.8806329442399798,-1.756639921627149,4.159916423709292,0.10379892080082383,1.354685826079659,0.07983541488647461,1.0,0.46314436778002455,0.4629066991746869,0.33436692708859356,-0.588365534406752,0.5834917194240875,-0.0024701293927926844,0.5597832703346556
0.4,-0.1533730474117046,-0.2996261305699654,0.021184613315327998,0.01129595294102527,0.013895712498453665,0.09655682735244751,-0.3926447885337877,-0.39900137360990456,0.8286301790405312,-1.8784093038916905,-1.7595748076622106,4.1592509084539335,0.10437422592297226,1.3551440443426293,0.07965839742551623,1.0,0.46326688833516655,0.4630018416505244,0.33442833422752594,-0.5883041002616481,0.5834734693484196,-0.0024770922214985168,0.5598668236250277
0.5,0.16976365459256948,-0.31788864279092616,0.32515903394610335,0.016386389840197094,0.02137642603386481,0.19933343917720536,-0.39261721837895697,-0.39886709179294977,0.8287078794116535,-1.8752725825046128,-1.7633920274985913,4.158715724945068,0.10522016166263087,1.355824228401443,0.07937892597931086,1.0,0.46412683339279676,0.4637670736874657,0.33397845081622957,-0.5882715443153658,0.5835138974884002,-0.002529639242717063,0.5598586629784461
0.6000000000000001,0.043548467304427046,0.04922854454877079,0.35228959938598453,0.010636598387692214,0.026488008125701568,0.2599115588992631,-0.3923689886112646,-0.3986768674657437,0.8289168369782874,-1.872461397637303,-1.7670473077656572,4.158140742620458,0.10614459327905296,1.3566315203655899,0.07907565160742899,1.0,0.4648183929739918,0.4645472455307484,0.33355152727425297,-0.5883032406580264,0.5834941599904064,-0.002495501342518787,0.5598460813128945
0.7000000000000001,0.2612386766457016,-0.13829357416618446,0.36374761805784994,0.013055242845262126,0.019442802312708177,0.26300231960715936,-0.3918782967439376,-0.398428128868717,0.8292685957822055,-1.8695244908602304,-1.7707143742697788,4.157472486240676,0.10686404605007013,1.357158252141931,0.07884874661574401,1.0,0.46556142495807895,0.46541437853659845,0.33307588539940697,-0.5883463489103138,0.5834398198439381,-0.0024164631122516674,0.5598577596590082
0.8,0.15015209659775952,-0.43303415515206484,0.2260469791066093,0.012979211033641306,0.015568422755780398,0.24893333812361199,-0.3923258593629736,-0.39887159945882406,0.8288434833717296,-1.866642610319368,-1.7743524967989304,4.156697611319713,0.10756570890417515,1.3576870498203095,0.07858896255493164,1.0,0.4667842038531056,0.4666753463040655,0.33228511853458303,-0.5883881606617207,0.5834352303304375,-0.0024148793473437657,0.5598186070149188
0.9,0.19705260547992834,-0.06654256005435386,0.20076110443880452,0.016340876562772406,0.016017041000862403,0.24669527927706636,-0.3927289655825561,-0.3992125158987374,0.8284885263598623,-1.8640266419128397,-1.7777808871847889,4.156050504659608,0.10822540513831176,1.3582341060886833,0.07830198208071404,1.0,0.46769038574060817,0.46745406391649774,0.33177677667863925,-0.5883639226448973,0.5834886651083715,-0.002486496974586048,0.5597880755721357
1.0,0.2051745595023674,-0.27228370250381095,0.07773772798291231,0.013196567725871564,0.00917161079343342,0.24574729978725843,-0.3930362398994715,-0.3993987890151618,0.8282530449746461,-1.8612109344729073,-1.7808985710231444,4.155471062852914,0.10894553243603511,1.3587301851282394,0.07810985840566889,1.0,0.4687672182170052,0.46848662456246437,0.3310337308477696,-0.5884036828775309,0.5835421695166679,-0.0025403534639912863,0.5596902616413978
1.1,0.5062966947758122,-0.12495382465131477,0.3754523034993373,0.013366931433306669,0.012882331397930297,0.24293877769783734,-0.3928185143372304,-0.39910622331872836,0.8284972600502651,-1.8588606043695246,-1.7842010344558443,4.15490568086939,0.10950611525437197,1.3593335151672363,0.07787132263183594,1.0,0.4694516675151776,0.46913612100372365,0.33077053319898847,-0.5883364120212473,0.5835154551854628,-0.002532334943439963,0.5597888594188005
1.2000000000000002,0.24199074429426193,-0.031160476789324654,0.3446205263556726,0.01935895507929072,0.012268300698307009,0.2385239528984613,-0.39270705667485123,-0.3990080537544074,0.8285974381885888,-1.8561161115083955,-1.78697915719813,4.154364109039307,0.11009019932926062,1.3599413010706622,0.07766853704325,1.0,0.47013754239688527,0.4698250708637312,0.33035041391147485,-0.5883507643162584,0.5835182677503564,-0.0025122587504571997,0.559770933405861
1.3,0.26093720051143865,-0.17489213721715616,0.21949326092145519,0.01996117392839313,0.003994819926581811,0.23163557759795372,-0.39277340062609006,-0.39919833067829125,0.8284743463532017,-1.853799375675474,-1.7901177199899068,4.1538113537285835,0.11063147497005682,1.3603885599694416,0.07750930218439359,1.0,0.47116227766038016,0.4708771736334896,0.3298100029628202,-0.5883539786071721,0.5834909253658216,-0.0024652222536935076,0.5597962652180601
1.4000000000000001,0.06727560379029848,-0.03605241384177495,0.2398215802676128,0.020320255745145496,0.009258739828936973,0.23191884156777437,-0.39330903931787725,-0.39976981092789643,0.8279436052830167,-1.851375320365837,-1.7928055618097616,4.153375102378226,0.11116456159626835,1.3607780052734926,0.07727061177159214,1.0,0.4718716115332091,0.4715733058719406,0.3293955273633188,-0.5883594019762568,0.5834940139419881,-0.0024691259033581417,0.5597873285608397
1.5,0.04961412747425832,0.12879634690173886,0.315095353048171,0.02591752190616463,0.009770665248040409,0.23053324903393627,-0.39388255967233027,-0.4003720620652708,0.8273799586005066,-1.849040599409301,-1.7957075433538248,4.152953704721989,0.11164255982987673,1.3612523078918457,0.07709511173492853,1.0,0.47246624234150053,0.4721975320075382,0.3290204121272415,-0.5883739804081356,0.583496109537615,-0.0024712807831740987,0.5597698117123191
1.6,0.36702177193559904,-0.16051205665141327,0.09370453248710515,0.008399119193272393,0.011834551332163452,0.23354498732662066,-0.3937938614824423,-0.40031546026270026,0.8274494268152388,-1.8469701378582442,-1.7982830186605452,4.152502116465422,0.11212447772302146,1.361623764038086,0.07690177405293454,1.0,0.47314383429206575,0.4729336493258606,0.3286767358044727,-0.5883629877973922,0.5834687358566453,-0.0024476508023804945,0.5598100015840408
1.7000000000000002,0.2640231728597058,-0.11553842250144664,0.2559608604378001,0.015112726989044294,0.007703600703140964,0.23379923639508407,-0.3927548864438805,-0.39931341121939534,0.8284274084422593,-1.8446309073397298,-1.8009352384764885,4.1519866188754015,0.11256909672140612,1.3619958779843793,0.07679014368566092,1.0,0.4737925752025567,0.47361834219553284,0.32816431854725775,-0.5884267362132203,0.5834953830488262,-0.0024527247275675564,0.5597151938366255
1.8,0.38843848342291354,0.19543826161506928,0.26375173779755723,0.02339956044404284,0.013262514505438873,0.23453499149624127,-0.3915097337808876,-0.3980310882251402,0.8296303626415819,-1.8425706324782347,-1.8035753310276543,4.151535969667527,0.11306191104337084,1.3624414560564013,0.07656628665745555,1.0,0.47470275167011744,0.4744240983455782,0.32778959137765146,-0.588322676893238,0.5835006635378326,-0.002505822911518743,0.5598188317264967
1.9000000000000001,0.28253386575827405,-0.16652384948208088,0.13863698735840244,0.019720224824447276,0.00908317393547597,0.23208930582752726,-0.3902417385257924,-0.39671771344456186,0.8308582417410604,-1.8404149680088893,-1.8059813677470917,4.15108116136112,0.11347905999385706,1.3629341091012397,0.0763838239454385,1.0,0.47563817352907617,0.47541637254797803,0.3271650695565514,-0.5883955782280039,0.5834781713028716,-0.002483007834899965,0.5597657561935006
2.0,0.30144889455467405,-0.2511817393983991,0.2325285969084018,0.01915072650197995,0.009313854320952856,0.22786540768301553,-0.3942686963427665,-0.40082522998924014,0.8269552568872448,-1.838419931148065,-1.8083885594677682,4.150697194670729,0.11379065789807773,1.3633926104917071,0.07620763778686523,1.0,0.47626692099484724,0.47602300119688173,0.326869247695605,-0.5883749085390572,0.5834751877358263,-0.00245817521414168,0.5597907016670739
2.1,0.09430207788073931,0.013809164642326177,0.11900289547953231,0.018472129912968187,0.012895410164205442,0.23420569668798158,-0.39750095763186155,-0.40412601427675654,0.8238166702858098,-1.8365036485985757,-1.8106867275633753,4.150309705574894,0.11414448797192378,1.363695913435932,0.07607036860423862,1.0,0.4766253189895742,0.47639647189981676,0.3266527040534419,-0.5883838268717361,0.5834677707805147,-0.002432839572505795,0.5597891692662533
2.2,0.006367396755700569,-0.07066430844352672,0.1137271693117389,0.02180616976946463,0.010434165878833545,0.23033397562062213,-0.39831879211749494,-0.40496631811815975,0.8230082948859984,-1.8346004523090749,-1.8126001148999662,4.149907379920531,0.11451811926574619,1.364017596042275,0.0759040557969348,1.0,0.47715862605365816,0.47693817684148543,0.3263766272869403,-0.588383443979178,0.5834514514316728,-0.002442794273262687,0.5598065375016751
2.3000000000000003,0.21111402559582004,-0.014454764754202987,0.08230234647764785,0.019182803112345825,0.010951393036995416,0.22732157948341855,-0.39970382883353006,-0.40635231732430827,0.8216494333571074,-1.8328555347641036,-1.8151342549584049,4.149493934174632,0.11483866051104048,1.3643489907604438,0.07573137982904736,1.0,0.4779852191780412,0.4777123903987448,0.32594109108714925,-0.5883572406687636,0.5834682460084832,-0.002482866236581973,0.5598163972479495
2.4000000000000004,0.194978129966636,0.18242523496049368,0.08386531512599332,0.022166782324945938,0.007662608317031966,0.23202048821132817,-0.40206751248586875,-0.408679855664541,0.8193407667413785,-1.8309270517306513,-1.8169066357687844,4.14912708591298,0.11517282590700438,1.364635512930798,0.07559728622436523,1.0,0.47845442841767727,0.4781638061015063,0.3255401585231651,-0.5884031677894566,0.5835160453485561,-0.002505760074191828,0.5597181952755915
2.5,0.36023350893923034,-0.10526617899573648,0.31489734686528575,0.017781403384760842,0.007178909566232311,0.22972916820947767,-0.40180716911739167,-0.40836087414486105,0.8196292995346043,-1.8292533828839217,-1.8187540244294986,4.148805502076275,0.11546093364587179,1.3649505638070627,0.07551633426336583,1.0,0.47890219767509146,0.478602296516466,0.3253741888724078,-0.5883602841525533,0.583495690672582,-0.002499806542412566,0.5597845174401519
2.6,0.3546159642484919,0.27040145992418024,0.2703220153772821,0.019648378571246412,0.011998902577630796,0.23023212593066406,-0.4021583025692201,-0.4087397116868769,0.8192679794436603,-1.8277625610808168,-1.821050357225232,4.1484662561131245,0.1157784057238068,1.3652458190917969,0.07535594931666795,1.0,0.4795950184020118,0.4793016239070541,0.32504866454126685,-0.5883339990916249,0.5834681954965246,-0.0025033726738553745,0.559840784046805
2.7,0.29011750038590695,0.1157047058185844,0.06501256944803169,0.025419750381397606,0.00799201103419009,0.23001880110636172,-0.4027085088071313,-0.4093275482353377,0.8187042095760514,-1.8259591432798004,-1.8226873506715144,4.148207125304947,0.11607114054889733,1.3655732381092904,0.07524687326072695,1.0,0.4800550517427179,0.47977515861689535,0.32460231019160507,-0.5884124552394695,0.5835102414779864,-0.0025154244306684085,0.5597144390216272
2.8000000000000003,0.06931688819439685,0.10178873222643525,0.06544715595820146,0.027053865023066233,0.011103719535476876,0.23416978312381573,-0.40304126035491544,-0.409674363846187,0.8183670428008306,-1.8242925593512929,-1.8245317726582861,4.147874543530627,0.11631848898440048,1.3658627850695246,0.07513046264648438,1.0,0.48062180728626447,0.4803378619083701,0.3244612183286671,-0.5883384665747458,0.5834690749982758,-0.002478918454008676,0.5598352813394591
2.9000000000000004,0.2167075859626611,0.165442906362207,0.12698234526682006,0.02555884576441326,0.00974451002404361,0.2278599493750611,-0.402888016554649,-0.40951176619494845,0.8185238494885345,-1.8229722910555592,-1.8264172913274892,4.147617856791375,0.11655801835471971,1.3661446172686837,0.07497383909334104,1.0,0.48100869498411186,0.4807346516947719,0.32431807648270383,-0.5883020831799552,0.5834520227015888,-0.002463556240348737,0.5598913528732165
3.0,-0.03687763020421503,0.1679987889240468,0.0684653378021853,0.02625508885568429,0.012105088630250276,0.23116909761064294,-0.40268163494284726,-0.4093077441155204,0.8187273788328314,-1.8215547684772473,-1.828004462145139,4.147310667866273,0.11677424489941401,1.3664290081167445,0.07487455712797496,1.0,0.4813900939987383,0.48112871200985396,0.32396210547956983,-0.588370035834465,0.5834729446501267,-0.0024801405239125336,0.5597980642128395
3.1,0.27304809088998216,0.02389150847755042,0.031960978476081564,0.0257979266982568,0.0047123141647000145,0.23074200025146302,-0.4023629558092076,-0.40901617871251883,0.8190296483848538,-1.8198716078215844,-1.8296550842282013,4.1470073351828995,0.11702601491894526,1.3667226660030454,0.07479075932036983,1.0,0.48197557544436387,0.48172208784776016,0.3235961471179765,-0.5883894273146812,0.5834705046006035,-0.0024726483149632265,0.5597802587584961
3.2,0.39709934590701335,-0.12038788397502932,0.192194459716552,0.02026609193298329,0.005107286676493147,0.23141943593779857,-0.40211932022211583,-0.4087928526294935,0.8192609149615266,-1.8185308090522292,-1.8312657024623096,4.146787359214292,0.11724249898876948,1.3669727637542795,0.07469977606169939,1.0,0.4823814294071773,0.4821370971436347,0.32346795797187905,-0.5883401770645799,0.5834470757156726,-0.0024555788277592977,0.559856513781049
3.3000000000000003,0.37885963954651036,-0.11452621603037201,0.13710146283217856,0.019532598577668488,0.01029820658212394,0.23039014401589458,-0.4020406892326136,-0.4087195701151751,0.8193360612865033,-1.8173682575931573,-1.832778468206878,4.146520262682913,0.11744916121313069,1.3671538480666943,0.07454885797959229,1.0,0.4828567186450902,0.48263472986348604,0.3231548946228383,-0.5883607850460795,0.5834510895413922,-0.002463119824890435,0.5598306402597585
3.4000000000000004,0.38708905362869545,0.018952567278078675,0.15837167713777014,0.021990510051468626,0.008952874651090195,0.22966294279206353,-0.4021416165381543,-0.40882261443226575,0.8192349456213147,-1.8160804224980651,-1.8343926800102184,4.146255345441181,0.11763344078613415,1.3673872300969252,0.07449974793583845,1.0,0.48319931805294236,0.4829622313104651,0.3228857296400921,-0.5883879659408031,0.5834804804435434,-0.0024688823119781824,0.5597714132550407
3.5,0.36175112245084606,0.07224738404245006,0.1787422093226858,0.020030157089966492,0.009120268360567854,0.23067877184478372,-0.4026684592330105,-0.40934390905089996,0.8187157334591372,-1.8146498070693597,-1.835776496752326,4.146010875701904,0.11786845016259835,1.367626808038572,0.07437664188989779,1.0,0.48354790014569077,0.4833028213657414,0.3226395588997087,-0.5884045508907789,0.5835008515946832,-0.0024728898780280346,0.559732726839294
3.6,0.300277044198559,-0.1293269455549709,0.1518459225505661,0.019717639387164455,0.008149795770142772,0.2302123045329772,-0.402148736783823,-0.4087937462695891,0.819245344253513,-1.813401290256594,-1.8370976905439937,4.145788292972312,0.11801661282846217,1.3678400082247089,0.07429800519155015,1.0,0.48405646969316146,0.483806883732524,0.32239459563523437,-0.5883838424244994,0.5834913189512605,-0.0024790615163213948,0.5597644048493067
3.7,0.3270905025341093,-0.07850975950166375,0.008835681767666484,0.017854494958661295,0.008789224638103211,0.2258901576951155,-0.4015606409135404,-0.4081796128440409,0.8198405042477569,-1.8122738492627442,-1.838459565595447,4.145573756779122,0.11819167560915099,1.3680527264370708,0.07419685316121198,1.0,0.484384181998318,0.48413103491460857,0.32228095541090496,-0.5883595476370765,0.58346869573535,-0.0024808123623597657,0.5598135130301938
3.8000000000000003,0.32395148506788807,-0.1934919140942941,0.07546512216672811,0.01894324242580772,0.009814006296265389,0.22774276768019694,-0.4015144560186781,-0.40813574758820426,0.8198849599376254,-1.811202049255371,-1.8399995917413305,4.145334637236452,0.11838410368069179,1.368220329284668,0.07413064876716294,1.0,0.4848350205122344,0.4845545346670357,0.3219535515921079,-0.588378691728674,0.5835066526928798,-0.0024917015683032454,0.5597537787332032
3.9000000000000004,0.14293987729960134,0.0343207775603559,0.11150864068858209,0.02132960564549429,0.012416575179663892,0.23004170522717304,-0.40151985738468116,-0.40814256230858126,0.8198789083071887,-1.8099740947121696,-1.8411084505027118,4.145165033946053,0.11852305000927303,1.3684058863020099,0.07406042914661187,1.0,0.48506637828232646,0.48483104423974555,0.32172250280038234,-0.5884291241463506,0.5835111068261186,-0.0024997848204241727,0.5596960828367197
4.0,0.3111067503130939,0.26360486150893625,0.17406109001625772,0.02614670472915768,0.011526362216573811,0.22974248579391002,-0.40166264783934547,-0.4082843524202457,0.8197383411179371,-1.8088671098053313,-1.8421994011683014,4.144921043343242,0.11863592585753382,1.3686031208302103,0.0739634697586227,1.0,0.48536139603162715,0.4851415964436492,0.32162596329079696,-0.588402351755468,0.5834933014524764,-0.002486094834554579,0.5597428507280802
4.1000000000000005,0.37046831938081665,-0.07253510632777248,0.031026394777240715,0.018041273904591815,0.008047181463118632,0.22866972510828934,-0.40179457669991164,-0.40841877240199426,0.8196067431981979,-1.8078078736987626,-1.8433312974528362,4.144728183746338,0.1188110438649015,1.3687896071168995,0.07390690333994523,1.0,0.4857505787019689,0.4855019051161806,0.32155214045465796,-0.5883413326247066,0.5834631330272424,-0.0024654930971364335,0.5598385214213174
4.2,0.30482487137505315,-0.04409617778709257,-0.03720187369725257,0.018489901612235096,0.010760057043223767,0.22715003954350793,-0.40189507777372596,-0.4085318670728135,0.8195010976650985,-1.8067387948563043,-1.8448281633480266,4.144518107313058,0.11895869982859063,1.368970434969766,0.07384399682889686,1.0,0.4860519404876191,0.4857959276068415,0.32141367168544255,-0.588330388576173,0.5834478960187244,-0.002461712671359072,0.5598659183053178
4.3,0.12694127941350647,-0.009988309812102192,0.03945621765610045,0.021920499138654764,0.011779159983751631,0.22482918737541968,-0.40194198164015454,-0.4085723166453755,0.8194579327105086,-1.8055959164367372,-1.8461572458134303,4.144320964813232,0.11913435129729291,1.3691673278808594,0.07373570310447389,1.0,0.4865139054974432,0.4862863356363155,0.3209434118218451,-0.5884057770838096,0.5835024314783352,-0.0024931644654800837,0.5597297009130544
4.4,0.37440423344023505,-0.07733678411889348,0.11012114117626282,0.021074155580400548,0.00582887286985992,0.23123880419713638,-0.40197040557278774,-0.4085877187075946,0.8194363106125464,-1.8044526389894031,-1.8471456966795863,4.144099455243065,0.11927174877042347,1.369341050443195,0.07364002352669126,1.0,0.4867809391786146,0.4865446261640093,0.3208007390997322,-0.5884004172507886,0.5835023787924806,-0.002496951664368238,0.5597353733283257
4.5,0.3768429427494887,0.06737169347662839,0.10146096008464123,0.022990603819231896,0.006903682166571503,0.22910784354069458,-0.4019785914352959,-0.40859466759355695,0.8194288304012489,-1.8034156796647542,-1.8482196770777288,4.1439074885044525,0.11937386028069401,1.3695577567081842,0.07358064107708077,1.0,0.4871229527496774,0.48685917257536443,0.3207269003026287,-0.5883552269576202,0.5834798720539311,-0.002481647071002964,0.5598064015777154
4.6000000000000005,0.2889434613869373,0.34251555472333617,0.263801077802406,0.024756615140612094,0.013291801016951104,0.22975176926229324,-0.4019213114197062,-0.4085742722415097,0.8194670962034177,-1.8023500442504883,-1.8495454611376887,4.143703171010679,0.11953002738947842,1.3697555104301338,0.07349632529899687,1.0,0.48737276193936396,0.487113276083811,0.3206712151512368,-0.5883353177539036,0.5834499774275741,-0.0024548934814375882,0.559858599309836
4.7,0.31395845710319853,0.19727081251351927,0.3196161221777427,0.023333222001373482,0.014411334206596429,0.22966941890691966,-0.4018671038844102,-0.4085364298203995,0.8195125455390164,-1.8011877877204958,-1.8508345484569788,4.143488472525819,0.11969862179986418,1.3699888529136337,0.07340669631958008,1.0,0.48764989948815907,0.48740782211434,0.32046138850917777,-0.5883684412229061,0.583449255009488,-0.0024598429063237264,0.5598245201620572
4.800000000000001,0.27049771691924845,0.017716792436761816,0.2165534353759766,0.022445786557917614,0.013080829228369268,0.23010313969843965,-0.4018119343736459,-0.40847885659067795,0.819568291588688,-1.799970437982833,-1.852208160127056,4.143277645111084,0.11984215056932233,1.3701392462515285,0.0733231255746434,1.0,0.488127933432267,0.4878464739389904,0.320155452880171,-0.5883714398598323,0.583472876680027,-0.0024831997684325517,0.5597966458053423
4.9,0.21911596455234206,-0.07031150420418815,0.24122833099175667,0.01907471385537009,0.012148845934485827,0.22694924436448224,-0.4017493541451559,-0.40837463265656504,0.8196508983049278,-1.7989424053076541,-1.8533166069542075,4.143085956573486,0.11995890488619898,1.3703404826828929,0.07326316833496094,1.0,0.48841546560991483,0.4881701978184467,0.3199996566784695,-0.5883576194228664,0.5834697292973481,-0.002461845040155594,0.5598145460594381
5.0,0.06023069379599015,0.09363199422313431,0.16065139085500077,0.01815153408244803,0.013850097581120376,0.22504584755106785,-0.4017761327803332,-0.40837861896663247,0.8196357262993691,-1.7979039763116516,-1.854439994032053,4.14289154062035,0.12013254220093322,1.3705110549926758,0.07318186751005798,1.0,0.4888055166951291,0.48850444767595824,0.31978332066135773,-0.5883430485720161,0.583489215262573,-0.0024689740503381643,0.5598095185296439
5.1000000000000005,0.4737597231500421,-0.2563586842346631,0.2792848571458159,0.0173270173378651,0.008247521680788645,0.22827310305641718,-0.40213258840631516,-0.4087818317911331,0.8192598134177043,-1.7969258794608676,-1.855775411888222,4.142714023590088,0.12022104941352116,1.3706973564674427,0.07310707522317954,1.0,0.4889518491193285,0.4886740407816384,0.31971410232751524,-0.5883483430723564,0.58346841637252,-0.002456411132963262,0.5598256874636092
5.2,0.6973319297904964,-0.09539277227377024,0.32531605741601755,0.022137426994839067,0.005518785762242846,0.2340814145654781,-0.4022826658042706,-0.4089514680450773,0.8191015447625389,-1.7957440959707363,-1.85707736020549,4.142510026645786,0.1203891473957519,1.370847225189209,0.07303571701049805,1.0,0.48919701817613676,0.4889569000055949,0.3195496395833199,-0.5883693602035112,0.5834573302962072,-0.002447643140436988,0.5598151915948604
5.300000000000001,0.2314692225062018,-0.11932039239208847,0.12982424049836636,0.018210709009978288,0.0161875467199454,0.22637546688296176,-0.40234700710670007,-0.4090240691448906,0.8190336924578399,-1.7944356130910215,-1.8582172355004165,4.1423144227827144,0.12051506356861702,1.3710622787475586,0.07294806613268252,1.0,0.4898212569373723,0.4896122786030502,0.3191437815183455,-0.5883867142655789,0.5834746086840433,-0.0024621022036656988,0.5597788791563121
5.4,0.2681614721745834,-0.02096925452286407,0.08645392862821201,0.020412490305690794,0.015069081953588592,0.2242888848826638,-0.4022867136298158,-0.4089419055011982,0.819104320440805,-1.7934157491498643,-1.8594260815801908,4.142097649832675,0.12064670798731414,1.3712431081925294,0.07286221681104466,1.0,0.49005311569084886,0.4898254245468932,0.3190800909141497,-0.5883519642453546,0.583473959422825,-0.0024505497561680928,0.5598161302159639
5.5,0.18669949452088833,0.16907541131006026,0.17017500118407758,0.024745386415457746,0.011011283155800487,0.22730813852729803,-0.4021663937398239,-0.40879149555269867,0.8192384743987835,-1.7923905223413,-1.860624725854518,4.141888263039756,0.12077269143486828,1.37139166066648,0.072784423828125,1.0,0.4904532699632099,0.490192794959282,0.3188205377396483,-0.5883672273867862,0.5834858840615174,-0.002467411336454905,0.5597875853566533
5.6000000000000005,0.3819440073835224,0.07421471773742591,0.2678934060100597,0.020211435053359126,0.011773106666781578,0.2265207771104841,-0.4020254536828298,-0.40864299901607426,0.8193816791001944,-1.7914457646601867,-1.8618544345131616,4.1416707038879395,0.12088777961637551,1.3715782165527344,0.07274409720350958,1.0,0.4906640917840191,0.49037875317639257,0.3186977219617645,-0.5883682896086373,0.5834875601743746,-0.0024840181827854406,0.5597846483768824
5.7,0.38530952672967655,-0.060518425535491666,0.327063174753462,0.014572480958532464,0.012337551399058755,0.22598461220271987,-0.4018845136258358,-0.4084945024794499,0.8195248838016053,-1.7901201248168945,-1.8630828136851625,4.141491267349938,0.120994261066241,1.371758064361365,0.07264716760982125,1.0,0.4909304392010654,0.4906409552639739,0.31850753096553147,-0.5883830631577667,0.5834968779142962,-0.0024937023430254834,0.5597593642825249
5.800000000000001,0.36311310743937786,-0.3274126446546835,0.31280040816031585,0.01388539678559686,0.008993035969421918,0.22955870339142398,-0.40178568954094146,-0.40837239876114817,0.8196341984942371,-1.7888994497842818,-1.864288941812982,4.141282057889939,0.121103940342092,1.3719200947489725,0.07253313064575195,1.0,0.49140418078453635,0.49113552511960173,0.3183013077139116,-0.5883521371938747,0.5834869923667508,-0.002469549832883053,0.559802280918742
5.9,0.5045153061969024,-0.10118382246731683,0.45254078231116623,0.01756355836506362,0.007490438168549109,0.22249236912246512,-0.40170689510587143,-0.4082628470244944,0.8197273956672072,-1.7878392921806658,-1.8656507808666147,4.141065718042722,0.12124121345489111,1.3720883118034686,0.0724898170303288,1.0,0.4916753178221442,0.4913967004068153,0.31821695759020907,-0.5883251628577589,0.5834710359244237,-0.002480912794254558,0.5598472095646978
6.0,0.35019965374813317,0.22153960994135868,0.3962479146239434,0.024411926574635263,0.010194185256863232,0.223976445359624,-0.4017619415016473,-0.4083270910606815,0.81966840729103,-1.7868986129760742,-1.8667702394994161,4.1408986626855935,0.12137355958411461,1.3722691480012512,0.07245011354329052,1.0,0.4919645841265118,0.4916924224946163,0.31798882158276365,-0.5883473447130405,0.583486262823069,-0.0024879795268449023,0.5598079965700355
6.1000000000000005,0.37042199582236246,0.1193794876378701,0.32204429747119845,0.01755783973098983,0.008805882166581219,0.22485234433286613,-0.4018616525663219,-0.4084482677346267,0.8195591645694359,-1.7858464802882468,-1.8679134458671445,4.1407246589660645,0.12145773946728511,1.372458572905193,0.07234816643618797,1.0,0.49241163480407685,0.49213276137509604,0.3176282132110686,-0.5883933238426851,0.583506124464792,-0.0025053214292831668,0.5597388878164282
6.2,0.3196407163396451,-0.03028676744252068,0.15809284388170425,0.014305914999951173,0.006491309869265889,0.22873363241191685,-0.40184692982846576,-0.4084152280791688,0.8195828479265888,-1.7845158511287567,-1.8690967744062335,4.140551802212327,0.12160509533997257,1.372622013092041,0.07227165026861214,1.0,0.49264089520265464,0.4923401875911707,0.3175219392353792,-0.5883837687838093,0.5835069677414482,-0.002506614111785814,0.5597480469949279
6.300000000000001,0.24870889969080762,-0.01820424888310087,0.26635994496729964,0.018839108697362904,0.01661860098019663,0.22986643464915954,-0.4017935087920137,-0.40835260735711043,0.8196402084300106,-1.7833362825110513,-1.870568338660802,4.140322992403189,0.12168080564853564,1.3728453425577487,0.07219823003371784,1.0,0.49310111267404483,0.49282714641691355,0.3173853505903845,-0.58833147489851,0.5834833896213736,-0.0024776326417261514,0.559827715476993
6.4,0.3517952978761476,0.09316837454230115,0.29672468194087465,0.022368936812874107,0.012067455060992051,0.22562950048658434,-0.40151845387360674,-0.40812056919653705,0.819890445543816,-1.782252311706543,-1.871796755110683,4.140174404612438,0.12177552337389808,1.372987003877316,0.07211742676573084,1.0,0.49329182803647725,0.4930468728461891,0.3172021739738862,-0.5883691585526388,0.5834879182430239,-0.002482714550299977,0.5597833676137083
6.5,0.10908687202898898,0.10770043897034791,0.22874407243132777,0.02131285278399265,0.018641443821804743,0.22507258516771178,-0.401338140439919,-0.40798472351469295,0.8200463764351461,-1.7812013936784195,-1.8728582675287562,4.139980792999268,0.1218803290253921,1.3732353375134292,0.0720331971663551,1.0,0.4935771817152726,0.4933756088725703,0.316991826869253,-0.588393356688027,0.5834913469471839,-0.0024727704804347207,0.5597544026171736
6.6000000000000005,0.26552969941149235,-0.11859866035001553,0.3017124278071607,0.018281534239889142,0.009675042603508186,0.2300685919205803,-0.4017338278554595,-0.40843370030635817,0.819628952745913,-1.78008061446507,-1.8739464468027478,4.13977724793699,0.12197093389586657,1.3734294148196196,0.0719839938349036,1.0,0.4939850791262167,0.4937939117377809,0.3167918576201623,-0.5883909697582718,0.5834705752942079,-0.0024488138993048513,0.559778668567545
6.7,0.12116469427555854,-0.17931610253604716,0.20490092688031858,0.01930741915270223,0.014791842451545143,0.22577016274021863,-0.4017879501397802,-0.40848210440074595,0.8195783928965461,-1.7789011001586914,-1.8752027115615764,4.139549732208252,0.12208363425801155,1.3736023732203309,0.07191561799139098,1.0,0.4942220552557748,0.49400681162573834,0.3167083249162451,-0.588373941612052,0.58346902944215,-0.0024428665423362147,0.5597982037455904
6.800000000000001,0.15595404720404143,0.1220460191054576,0.31537854978748725,0.020544999424605897,0.013228831937561171,0.22456987810410614,-0.40164285139000483,-0.4082968707502701,0.8197418097879831,-1.7777345206844102,-1.87669028595001,4.139380449750564,0.12222145663349357,1.3737846071743491,0.07180309295654297,1.0,0.4945417073458485,0.494308840591242,0.3165393701559621,-0.5883681580968805,0.583474050732429,-0.0024588935029066722,0.5597989786542277
6.9,0.3481535219324554,0.1645351722561542,0.3252983864962672,0.023645375599151544,0.013174064397281398,0.22362096918678426,-0.40182130415243705,-0.40848156485494197,0.8195621993441015,-1.7766178660897054,-1.877802383209856,4.139156680634383,0.122328728887934,1.3739816678974663,0.07170045463318787,1.0,0.495060978357444,0.4948536833467048,0.3161361490431115,-0.5884090649352071,0.5834849881953141,-0.002457824162460136,0.5597445845679758
7.0,-0.14236960181594882,-0.07635524256066067,0.728380089087699,0.033607289944094905,0.01417069190513687,0.21954113344289308,-0.4020835695554946,-0.4087716382552536,0.8192889823090184,-1.7754745180771574,-1.8788008481002187,4.138967674201926,0.12236132892355578,1.374171686121096,0.07165541664281587,1.0,0.49527906607258393,0.49505180771403545,0.3160351929678409,-0.5883944351683166,0.5834838525591673,-0.002466517313796889,0.5597611086508336
7.1000000000000005,-0.15386991226830182,-0.31563116589986223,0.6740453421435586,0.03733044948522204,0.012228089155855385,0.21901474942696064,-0.40154953983973946,-0.40822028820293416,0.8198256907080159,-1.7748766713690989,-1.8792501696606758,4.1388459748138136,0.12234608709301753,1.3742990877902623,0.07160791513797607,1.0,0.4955317758879944,0.49528575291773447,0.31601015076945366,-0.5883644127178318,0.5834585405451416,-0.002459837373331532,0.5598190765883483
7.2,0.3502160720128987,0.024078840892332365,0.4984175286597786,0.01362977251023691,0.011720892456943814,0.22316363870618236,-0.4015609871349519,-0.4082546364360081,0.8198029796451896,-1.77487761747309,-1.8793345845978215,4.138845378916536,0.12236196837050925,1.3742632954831095,0.07160132602957317,1.0,0.4957651699069218,0.49550546432910875,0.3160108653627433,-0.588332338108399,0.5834239007337014,-0.0024427374587497096,0.5598889577606296
7.300000000000001,0.2193679208364815,-0.10061470750359898,0.21544084029532137,0.020468805472336087,0.010705781584449648,0.22371358915276335,-0.40156632544136206,-0.40825215345703575,0.8198016012745319,-1.7748655141209169,-1.879545176969409,4.138834960086646,0.12233095016536227,1.3742446290107027,0.07158130466223989,1.0,0.4958094501085932,0.4955347063846902,0.31596559322279466,-0.5883394585825481,0.583435862294406,-0.0024405422214306455,0.5598690202335207
7.4,0.4328926495750446,-0.004224593143388161,0.3725227266318696,0.021556666871889448,0.011111076884283422,0.22429675093559462,-0.40154748874274865,-0.40821862968111766,0.8198275191005022,-1.7748634571519692,-1.8795181923693822,4.138821904308183,0.12235050667129807,1.3742637424083486,0.07156656070668843,1.0,0.49583901577280326,0.4955649592282326,0.315840833218399,-0.5883790765596679,0.5834736337555383,-0.002463008249685499,0.5597879192777049
7.5,0.5202150430176615,0.0660705329057195,0.40431848734118137,0.023066475424540378,0.0076793219542156226,0.21988479869466715,-0.40153642589285204,-0.40818695352523354,0.8198486907542534,-1.7748545927567916,-1.8795235214051131,4.138808612476696,0.12235588103925481,1.3742375373840332,0.07161104236949574,1.0,0.4958453866095365,0.49557059413225024,0.31583492293599014,-0.588372580810258,0.5834732632499344,-0.002466484647116146,0.5597951175891358
7.6000000000000005,0.44012622125360035,-0.015616256552412722,0.42460466104773487,0.022257456089489838,0.011186320027886327,0.21959769470747662,-0.4019050635761949,-0.40852258908275607,0.8195007247760118,-1.7748035151126893,-1.8795373146434884,4.138831615447998,0.12236028513096604,1.3742663940283235,0.07155889879314419,1.0,0.4958594303795598,0.4955630914725417,0.31582173120994583,-0.588369448148127,0.5834866894074954,-0.0024739969944226822,0.5597843826948206
7.7,0.4202094392368068,0.2846445132886781,0.3479594683221452,0.026876440779374802,0.012062476796691386,0.22649047333949504,-0.40202272359313,-0.4086274671279517,0.8193908138074657,-1.7748115382486436,-1.8795249855635796,4.138819217681885,0.12234608709301753,1.3742702392975277,0.07157121160428791,1.0,0.49586962245622357,0.49556692956867104,0.31583998584774253,-0.5883634001332557,0.5834799460772152,-0.0024859888262764754,0.5597977150443901
7.800000000000001,0.35168648390553814,0.25276261305967085,0.35570744899427803,0.02565586714577539,0.01300843152670476,0.2239736695944262,-0.4019365093150722,-0.4085448961231448,0.8194742797953871,-1.7748507831553495,-1.8795448742308558,4.138807773590088,0.12234608709301753,1.3742480899830782,0.07157564163208008,1.0,0.4958734978562283,0.49556179952023105,0.3158361976484824,-0.5883667473167654,0.5834803026180229,-0.002489335438784858,0.5597938105389727
7.9,0.2990947064508671,0.13439735596383437,0.4184997551732249,0.022542137263582056,0.014290286783703945,0.2216804792835478,-0.4020791003619688,-0.40869252377240917,0.8193305467666193,-1.7748445529899222,-1.8795277097927108,4.1388079557592174,0.12233655374895404,1.3742588961536562,0.07161407817411383,1.0,0.4958687557827407,0.49555479648018835,0.31584555541163306,-0.5883581784313527,0.5834846734509409,-0.002482678011713653,0.5597982904856708
8.0,0.346263704575678,0.056687856022293204,0.28679233126813697,0.022196107378082704,0.009246894398879874,0.2249620627408232,-0.40241516927444626,-0.4090348074868597,0.8189946941671211,-1.7748589162557704,-1.8795420650949886,4.138793332350066,0.12234860740408424,1.3742444691792437,0.07160699293480156,1.0,0.4958607135348504,0.4955626864789264,0.3158452634314901,-0.5883561733157413,0.5834882268084691,-0.0024772912085247907,0.5597967180373911
8.1,0.29108844052048793,-0.1987538330073033,0.29199824949723885,0.017779716286173593,0.01274706908195959,0.22235395005149405,-0.4024607763416659,-0.40910223168648713,0.8189387209222435,-1.7748349319680472,-1.8795277388300107,4.13882669752916,0.1223317027713343,1.3742564613231054,0.07160695447064722,1.6619840183656316,0.4958594408654396,0.49556623687220713,0.31582226604715147,-0.5883795845587704,0.5834802021717869,-0.0024816734498289547,0.5597804564692374
8.200000000000001,0.19731768231858748,-0.022397656626690268,0.33350311868152926,0.019503896415706098,0.016613555637356846,0.22053544397657712,-0.40225099479917165,-0.40892730172093916,0.8191291708282331,-1.774829482711047,-1.8795417979486786,4.138821664428894,0.12235522580275872,1.3742690248789913,0.071619232830188,2.0,0.49583901952871184,0.49557233538102613,0.3158120100746517,-0.5883852592370064,0.5834822019702534,-0.0024613624004931013,0.5597724969946977
8.3,0.3335218261313908,0.03869847648683579,0.3446856721043344,0.020877131250170003,0.014598603955919644,0.2230456680833467,-0.402172457638869,-0.4088429329198271,0.8192098391649754,-1.7748545892027539,-1.8795224594958448,4.138819217681885,0.1223506347538769,1.3742328078167394,0.07161642891696289,2.0,0.4958417394430297,0.4955809147832657,0.31582088867061026,-0.5883777677181559,0.5834780246036336,-0.002460376118311056,0.559784729881941
8.4,0.11798708586783876,0.023366802644938345,0.39454402592987875,0.024153799103090373,0.019036061014745954,0.21975225834695777,-0.4023236541382736,-0.408973502207369,0.8190702426852535,-1.7748415515154776,-1.8795324764647425,4.138797175864497,0.12234311490211545,1.374266032585731,0.07158803939819336,2.0,0.4958544962510886,0.4955774093915699,0.31582531012222054,-0.5883825132608435,0.5834753941219779,-0.002473175270546658,0.5597824273297054
8.5,0.34730848570582507,0.14781632124274244,0.36476117099789057,0.02299361782407776,0.016697299125642946,0.21940002890422183,-0.4026973932591021,-0.4093122816707895,0.8187172760371123,-1.774825096130371,-1.8795297770929718,4.138807773590088,0.12235348765080382,1.3742671396151784,0.07159044274765267,2.0,0.49586772269931956,0.49557074540458357,0.3158383582876817,-0.5883658158007965,0.5834843495785488,-0.0024791417504475893,0.5597906166149466
8.6,0.2511857991514497,0.06724514939300791,0.44661129328438104,0.024557906083882905,0.014204329761746744,0.2215887687861934,-0.4026447878678734,-0.4092457685885929,0.8187763612730415,-1.7748314644491086,-1.879528023362109,4.138804879455347,0.12237180400872283,1.3742613792419434,0.07161188125610352,2.0,0.4958687935149617,0.4955612711176297,0.3158308380051079,-0.5883657451958149,0.5834883218690321,-0.0024861733968279424,0.5597865191878735
8.700000000000001,0.3667100762512301,-0.07524091502966061,0.28813434736487503,0.021656345316675162,0.01518290965825845,0.22655243154967392,-0.4021608287482556,-0.4087692010886751,0.8192523396821136,-1.7747854765611795,-1.8795163885939754,4.138783931732178,0.12235413102840108,1.3742174174399517,0.07161575824967505,2.0,0.49586969235745226,0.4955582349266797,0.3158254838258956,-0.588370239287745,0.5834874757465054,-0.0024889276293426224,0.5597826653324562
8.8,0.4380364681396004,-0.21405718311881533,0.14965903704770245,0.014584739061735418,0.01751187378416713,0.22924903606455987,-0.40226147589672623,-0.4088747711075535,0.8191502352548669,-1.7747831608998637,-1.8795412446790685,4.138839543144063,0.12234608709301753,1.3742330673139846,0.07161188125610352,2.0,0.49587000503982065,0.4955714359831055,0.31583345366395077,-0.5883653126468134,0.5834880808200129,-0.0024764009185911447,0.5597872683917402
8.9,0.4242598248531151,0.013963006609309839,0.2751522320488752,0.01954897729133996,0.014984317756821132,0.22201091084791413,-0.40221254650676846,-0.40882322982013086,0.8191999507173064,-1.7748209503410581,-1.8795172716679012,4.138773218207092,0.12236129188985886,1.374253472747586,0.07159667645926218,2.0,0.4958652619631095,0.49555815077190973,0.31583226990576513,-0.5883654846256254,0.5834892895934432,-0.0024804494625318544,0.5597858097535664
9.0,0.39425217814783103,-0.03634508643050015,0.41112829589989586,0.014771819041137713,0.01476966459345992,0.2220504281809664,-0.40199205277774647,-0.4085918939968309,0.8194236061711244,-1.7748168245897669,-1.8795448742308558,4.138803637819786,0.12232868239299624,1.3742506339899898,0.0716238021850586,2.0,0.495855950428859,0.4955812885558361,0.31583572887966,-0.5883624566224124,0.5834874030562804,-0.0024810798958375614,0.5597909559419734
9.1,0.5029566533734884,-0.35204397621417316,0.2735018993801023,0.004773389994405347,0.015257843081624799,0.23054493689197678,-0.4021595173513253,-0.4087695218331279,0.8192527972478895,-1.7748191804440885,-1.8795141154830581,4.138826783704031,0.12235370064445261,1.374250631811694,0.07159665415323337,2.0,0.495858691430183,0.49556801776476667,0.3158503763142422,-0.5883632304648254,0.5834798541005856,-0.0024863971643756077,0.5597979874248344
9.200000000000001,0.23206917993536175,0.1152915492259676,0.3108898325678647,0.01928976047442122,0.019488068182868336,0.22276167597352756,-0.4023873549916538,-0.40899325004935183,0.8190292310685906,-1.7748169725137573,-1.8795138071211692,4.138807773590088,0.12235031814333729,1.3742533817681626,0.07159901886313144,2.0,0.4958655561254007,0.49555670405713553,0.3158534559428555,-0.5883579622102839,0.5834826447704375,-0.0024836291864712267,0.5598006280288738
9.3,0.17563033560953262,-0.01707723024905264,0.18021909682601267,0.011752178473796745,0.019903674562164377,0.2238883989080721,-0.4026153453393561,-0.4092134736357479,0.8188071796708252,-1.7748427172820676,-1.8795605488840703,4.13879993307358,0.122349840817277,1.3742574753687136,0.07157954550530993,2.0,0.4958723843517923,0.495559635806119,0.3158404128118793,-0.5883601570858215,0.5834837185956038,-0.002489011858789996,0.5597971780098223
9.4,0.17551458998184363,0.1853408212425045,0.3341202715395105,0.01846054133351073,0.021108940511318057,0.22135090057260634,-0.40225677335308524,-0.40884415591278206,0.8191673296718773,-1.774837837331794,-1.8795206889376361,4.138819878336426,0.1223341409562953,1.37422513961792,0.07161188125610352,2.0,0.49588092919026094,0.4955616486391671,0.31584192476035966,-0.588357264937953,0.5834850088069823,-0.0024934355997815257,0.5597988532242247
9.5,0.25082268702690447,0.07182788939038745,0.2226323125800007,0.011675349220975467,0.02087153514451484,0.22443405773654848,-0.40180337843684455,-0.40838101193637016,0.8196211388788374,-1.774836540222168,-1.879555082468915,4.138819217681885,0.1223486393382744,1.374263058350665,0.07161100811956828,2.0,0.4958787704168213,0.49556033399539323,0.3158289582195434,-0.5883577355841508,0.583492091767352,-0.002494085258666195,0.5597909729193327
9.600000000000001,0.45699270188929997,0.6827004576901006,0.16563719473945218,-0.0104640989477808,0.03412534237923917,0.22218592864635345,-0.4021543679872212,-0.40876289480538086,0.8192586347074973,-1.7748052708069992,-1.879540696518787,4.138807773590088,0.12235800802197261,1.3742694381184577,0.07160382237958918,2.0,0.49587698137826897,0.49555372619774735,0.3158581215028324,-0.5883562324536575,0.5834785051586542,-0.0024817733520516323,0.5598067689406672
9.700000000000001,0.7894988514742873,1.3656177885449539,-0.14602381882028675,-0.06639570134069364,0.05682299865114605,0.2198307943578027,-0.4019880610240604,-0.4086031974250962,0.8194198874590115,-1.7748186605554597,-1.8795272592596535,4.138803774754821,0.12233267964528549,1.374253397687504,0.07159602095263277,2.0,0.4958738074870273,0.4955503022674624,0.31585845811011165,-0.5883627133984207,0.5834753322404858,-0.0024851119965705205,0.5598032496937357
9.8,1.1660988271065391,1.417490002745856,0.19505389465541295,-0.09950117456547963,0.06261624950161172,0.2226792399448371,-0.4017281005118035,-0.40833202832201754,0.8196824577428835,-1.7748099452054824,-1.8795408584950064,4.138800051021146,0.12234222580854688,1.3742697612722072,0.07158402366234388,2.0,0.4958581274526127,0.49556773355673656,0.31583755035757966,-0.5883680376396373,0.5834838554346394,-0.0024750794022353625,0.5597888143873221
9.9,0.8564223461664496,1.583536079521549,0.6874418372003693,-0.08366853744898645,0.06859998929656824,0.22617188335054147,-0.4014030016971888,-0.4079728939059278,0.8200205455216735,-1.7748257072076785,-1.8795607606759637,4.1388039666945815,0.12234611147351432,1.3742610366449344,0.07159184629370001,2.0,0.4958676209606135,0.4955670972559445,0.3158339325451537,-0.5883595260821503,0.5834952267206048,-0.002477830733932642,0.559785895514983
10.0,0.7419546616055784,1.7416253058489473,0.9463467751765237,-0.10082566550603321,0.06571985700922518,0.2299243899759037,-0.4014822549120142,-0.40804474797480483,0.8199460083141671,-1.7748252195389813,-1.8795647566149176,4.13879965490327,0.12233023537128934,1.3742613792419434,0.07160779323161948,2.0,0.49587221276243015,0.4955599968205647,0.31582321732676005,-0.5883588778575292,0.583502640232806,-0.002480329352644804,0.5597788381618906
10.100000000000001,0.8092816060004263,1.6785812741096162,1.2298957091557385,-0.12041450725068434,0.07284889877310485,0.22821256643995172,-0.4013787499335103,-0.40795270026306807,0.8200424035100315,-1.7748287477566085,-1.8795605989371416,4.138824007893336,0.12230949002312438,1.3742776135451922,0.07160792532767958,2.0,0.4958672894091434,0.49555590808790556,0.31582146950569406,-0.5883634085094596,0.5834981436585882,-0.002478632694637593,0.5597787708140401
10.200000000000001,1.129485040493108,2.1124892940773194,1.5664305236164133,-0.1436732086687379,0.07939789295207197,0.23160285453271748,-0.4011217480932236,-0.407727188279679,0.8202803572942241,-1.7748285684326857,-1.879556795159811,4.13881574537957,0.12233309617984055,1.3742707531735425,0.07157564163208008,2.0,0.4958689733570236,0.4955521192028432,0.3158480664464728,-0.5883580143636491,0.5834837426694655,-0.002483846306392404,0.5597994279043372
10.3,1.1832204913306068,2.402184793030555,2.059401010532291,-0.1584180158244091,0.08403329688574665,0.22784775394286197,-0.40123100884351187,-0.40785930941532034,0.8201612361291156,-1.774842943890517,-1.879560503196883,4.138800357515944,0.12236251287678361,1.3742488098167323,0.07162089096572552,2.0,0.49584921213792393,0.4955810432290336,0.31584258754183386,-0.5883630127107045,0.5834817977869255,-0.0024582592455941053,0.5597963146420336
10.4,1.5539461652948583,2.6837323480097703,2.822493393897163,-0.1931669071936254,0.07619869042448905,0.23503547527782218,-0.40046670392099565,-0.4071134556257862,0.8209036020616343,-1.7748127811230967,-1.8795760585723211,4.138793855116072,0.12233416616406245,1.3742905598992048,0.07162013094328103,2.0,0.49585776177155655,0.4955777527516365,0.31584191493088054,-0.588368843787517,0.583473531149312,-0.002474903253453063,0.5597987289751369
10.5,1.306078247491014,3.2918935568569956,3.1677183245136264,-0.21699309229879465,0.08220311692063928,0.22851910923921367,-0.39956761107940775,-0.4062321335860155,0.8217788922342086,-1.7748433690097616,-1.8795641632563393,4.138831615447998,0.12230912604676224,1.3742452974275658,0.07159948348999023,2.0,0.49585000205013485,0.4955909621484669,0.31580804071786595,-0.5883961423589149,0.583473031755432,-0.0024696850812273947,0.5597705793687909
10.600000000000001,1.49249774338507,3.2577463788257917,3.5643523038686817,-0.23861669376101585,0.08178010086873717,0.22842058001613746,-0.39910410096331483,-0.40571198724621826,0.8222612905139244,-1.7748170664007012,-1.8795722727159818,4.138852042943781,0.12230873868677496,1.374259793622566,0.07162024555784283,2.0,0.4958491226801486,0.49558555388892456,0.31579735388980873,-0.5883927602487864,0.5834816026804392,-0.0024736608534557374,0.5597651829314345
10.700000000000001,1.580984145610353,3.7050354578320785,3.6066476022649896,-0.25658659182604165,0.09450909354570697,0.23341944536962314,-0.3987913286403381,-0.40538433468961915,0.8225746047633642,-1.7748285313004089,-1.879563951764056,4.1388031998383665,0.12232700955981729,1.3742527029100375,0.07156388406957047,2.0,0.4958580723426193,0.4955756414491944,0.3158134907900747,-0.5883815669487527,0.5834825368719209,-0.002479436895997827,0.5597759491377928
10.8,1.2593114426224747,3.5675484941400497,3.7577527746703705,-0.2773762466392816,0.11084249106537855,0.2326443648380371,-0.39950027733609783,-0.4060892350170876,0.8218823840347078,-1.7748543744192822,-1.8795620224973117,4.1388383090394525,0.1223665821552006,1.37424898147583,0.07160693433459409,2.0,0.4958602182906559,0.495569178895411,0.3158225646297369,-0.588373132123734,0.5834818793780294,-0.002485479391186721,0.5597854733954658
10.9,1.3579566515459296,3.6719406719609093,3.7293971955195855,-0.2751489118833245,0.11012877093895321,0.23312342243295406,-0.3998949981466384,-0.40650529280097564,0.8214848169439206,-1.7748435501232416,-1.879556795159811,4.138806305126742,0.12234427659830337,1.3742578742914064,0.07162043204031163,2.0,0.49585079179451647,0.4955690188952923,0.31579260737883186,-0.5883933702093106,0.58347910338103,-0.0024891300110157426,0.5597670783845604
11.0,1.1112946532386094,3.659395813882548,4.055256258169531,-0.2478525744956751,0.0930957860021733,0.22564878879295094,-0.3995007024424637,-0.4061145031813276,0.8218682910741612,-1.7748240733791043,-1.8795309768763175,4.138841745015737,0.12233952272072288,1.3742613792419434,0.07160145991557353,2.0,0.4958541589418329,0.495567752605518,0.31580700023168373,-0.5883803507353202,0.58348063058972,-0.0024721771694947393,0.5597792466099891
11.100000000000001,0.6396206083638851,2.7515742707971698,4.109015712313486,-0.2313258370195045,0.04864035938073691,0.22497145048516745,-0.39796526851036607,-0.40453455707920993,0.8233926376516624,-1.7748136520385742,-1.8795292834005943,4.138831615447998,0.12239326859579253,1.374228460404634,0.07159442552648969,2.0,0.4958556149676452,0.4955707123894804,0.3158295048417696,-0.5883698530436292,0.5834781780350269,-0.0024718993587607655,0.5597928380212663
11.200000000000001,-0.17264225725530874,2.2325487382793034,3.800735255923011,-0.21276148260389086,-0.015769286731076353,0.21247572752915092,-0.3981607090833942,-0.40472999803253235,0.8232016220995411,-1.7748157466034997,-1.8795356749870933,4.138807773590088,0.12235493251971229,1.3742673799633551,0.07161495675836384,2.0,0.495848282905042,0.4955726528684497,0.3158492088734539,-0.5883615173177184,0.5834713634867137,-0.002477112843894452,0.5598086787845522
11.3,-0.08047766331978584,2.311131523461798,3.762757193558785,-0.21472680226661953,-0.024743863925606447,0.20506633900697963,-0.39904749027214514,-0.4056351153091173,0.822326278457942,-1.7748303136547905,-1.8795292334609002,4.138814259597773,0.12236668594708526,1.3742523541998262,0.07157564163208008,2.0,0.49584562443269,0.49557376145944226,0.3158454409529348,-0.588361083343774,0.5834774058253206,-0.0024605925374532843,0.5598029099444372
11.4,-0.45057569872172487,2.2680282037176474,3.780083857040433,-0.20760683351487844,-0.04858632685407566,0.20230748182609187,-0.3997254249756232,-0.40631829592576346,0.8216595385098848,-1.7747866876076335,-1.879538700607469,4.1388107025984295,0.12237305152395818,1.374255277141231,0.07159406997623141,2.0,0.4958610739267832,0.49556631345213564,0.3158617134794134,-0.588340125065691,0.5834827756125771,-0.002461258849812323,0.5598193369346975
11.5,-0.9417503164353882,1.7097928563953213,3.637593877774496,-0.19122652838640536,-0.10978839339813275,0.19779389808389736,-0.40024508484259425,-0.4068509444027682,0.821143179593719,-1.77482738824081,-1.8795118123781371,4.138828878106652,0.12236210306039381,1.3742438929266427,0.0716238021850586,2.0,0.4958481391884372,0.495585042211314,0.3158412659355572,-0.5883658212881924,0.5834765720964226,-0.0024635839474848754,0.5597987860906924
11.600000000000001,-1.1651231530304325,1.6421689686281538,3.494313475460057,-0.16855989402022198,-0.14397662898818253,0.19317978556708754,-0.40047699423687977,-0.4071350474726875,0.8208892514883316,-1.7748163808395823,-1.8795176886638174,4.138816465484793,0.1223518208369575,1.3742402895811243,0.07158435692286882,2.0,0.49584481754013787,0.4955911319746342,0.31583819871383945,-0.588379671663608,0.5834656494089009,-0.002464345984053799,0.5597956099611225
11.700000000000001,-1.4266802939539185,1.1651143703189084,3.499531826221415,-0.15199037750720218,-0.1687911000832741,0.19461950783723242,-0.40078223990533984,-0.40742844922595706,0.8205945938690435,-1.774798590397392,-1.8795140956261709,4.138834194151494,0.12233962718340093,1.3742613792419434,0.07158803939819336,2.0,0.49585720607929,0.49557455958131647,0.31585091824179223,-0.5883738692906932,0.5834670107497694,-0.002483851001519522,0.5598002034537223
11.8,-1.38343725295715,1.0386256871475452,3.6742658720130312,-0.146530746651179,-0.17469754475714552,0.1888234731617848,-0.40106661757932266,-0.4076855733746188,0.8203279992288038,-1.7747949324960959,-1.8795144769046672,4.138793291503417,0.1223400084618973,1.3742464176767422,0.07161188125610352,2.0,0.49586027925924164,0.4955644047295612,0.3158737734893497,-0.5883613489246852,0.5834699224608287,-0.002478619907802309,0.5598103510283031
11.9,-1.338192846913041,1.0807254489674305,3.6576064303340408,-0.14106014299815678,-0.17972751157337655,0.19023965853898814,-0.40117911403952516,-0.4078013015268941,0.8202154470941014,-1.7748126262659185,-1.8795086346068324,4.1388214401893055,0.1223450185798344,1.3742500927295405,0.07157777865844633,2.0,0.4958485672291916,0.4955789135018928,0.3158855531129763,-0.5883533907459046,0.5834661943926589,-0.0024478633054437113,0.5598227358405365
12.0,-1.2992793309619413,0.8576909548410893,3.550969624497157,-0.14344948808097263,-0.1779001736677219,0.19286043034490338,-0.4013061493239306,-0.40792642486654024,0.8200910818881774,-1.7747681342350694,-1.8795302203060806,4.138822647043051,0.12232450139376937,1.374238620340191,0.07160845189493728,2.0,0.49585422030490584,0.4955764256731775,0.3158892245194595,-0.588351390032975,0.5834660974855903,-0.002469853038436408,0.5598248429260443
12.100000000000001,-1.311008813374884,0.9437294220985248,3.5706725697947586,-0.14495264902259286,-0.17490297639327457,0.1942441103739402,-0.4014877436499147,-0.4080868050062724,0.8199223864231511,-1.774844137325191,-1.8795324764647425,4.1388417354244,0.12235449727845796,1.3742558462252061,0.07159682764195642,2.654685064181247,0.49586023719012223,0.49557333346569504,0.3158872772082431,-0.5883462762032059,0.5834709876901996,-0.002475026209597218,0.559825097728662
12.200000000000001,-1.482706862336799,1.378549890020797,4.052997002251094,-0.15427799474219847,-0.17287696060343147,0.18452884358034424,-0.40138937719009304,-0.40795750902457356,0.8200348437675664,-1.775069236755371,-1.8791536538214042,4.138846456276552,0.12234099737960058,1.3741553070208499,0.07161352096395636,3.0,0.4958607155800639,0.4955578717492337,0.31589630289766263,-0.5883429530792494,0.5834743652663188,-0.002476595145734956,0.5598250629576517
12.3,-1.3601488870417566,1.5639706257955621,4.258838272774099,-0.17467904681074947,-0.18700028728997925,0.1623838891884506,-0.401086302399534,-0.40760471462396364,0.8203584170790541,-1.7761398586117187,-1.8781675491241208,4.138898008057763,0.12218469069217959,1.37402288551572,0.07169665112119339,3.0,0.4958122041341724,0.49549029916584025,0.3159395850538675,-0.5883253589665003,0.5834775526595941,-0.0024876339069569912,0.5598401818526908
12.4,-1.5392859282850198,1.7655372236700313,4.805209453631317,-0.1719656212655414,-0.1899313428551199,0.1457930709371906,-0.40068916940175403,-0.40712575555330344,0.8207901666402398,-1.777202969612485,-1.877058291609206,4.13910842125269,0.12214405873560277,1.3738538926166202,0.07174259318472832,3.0,0.49549434503842565,0.49506904996312584,0.3160141060229276,-0.5883524503210819,0.5835448496996841,-0.002529497761956844,0.5597413726277736
12.5,-1.5836175592978354,1.504682000416011,5.898118194745026,-0.1609434340309734,-0.20738137250340452,0.10393146204771894,-0.40130429170041976,-0.4077929641540445,0.8201583438864476,-1.7783873496198523,-1.8756405315794886,4.139429477566919,0.12206990425829874,1.3736514103964823,0.07183676259719059,3.0,0.4952973112287743,0.494897577535043,0.31610227299239174,-0.5883797798306187,0.5835206470973837,-0.002541660199869437,0.5597378217174103
12.600000000000001,-1.8506420625941014,1.5399956774907473,6.189845447100013,-0.14898629040602923,-0.22673340708127923,0.08218698966616939,-0.40099830559560184,-0.40753514154484055,0.8204360869889112,-1.7795501318509093,-1.8742927754428627,4.139551639556885,0.1219531760888944,1.3735060691833496,0.07188282363546392,3.0,0.49495873929008877,0.494612704176847,0.316369695259603,-0.588349285818654,0.5834861291293951,-0.002500085598365699,0.5598060419129787
12.700000000000001,-2.1573122193675602,1.2507122534147455,6.432954491517229,-0.13095619455489727,-0.25008734173380687,0.05722552450458848,-0.4001227664702589,-0.406647612240236,0.8213012600502265,-1.7807385841724246,-1.8732649020981291,4.139796080303669,0.1218258309942264,1.3732938069693414,0.07198333740234375,3.0,0.4944589151119756,0.49411541104123247,0.31670189840673085,-0.5883195444535848,0.583482167625885,-0.0024873489938387655,0.5598414836107701
12.8,-2.000081306868995,0.9551929833103124,6.674908415502535,-0.13945576182970013,-0.2681130982798094,0.04434548082892703,-0.39895423794482665,-0.405436149288949,0.8224686187642133,-1.7817851757918481,-1.8721396494403948,4.139995206337924,0.12169668899550021,1.3731111376279685,0.07204347299623268,3.0,0.4942426992304041,0.4939084795147865,0.3167546638305897,-0.5883466430004877,0.5834986468620946,-0.002506433165321343,0.5597957436181069
12.9,-2.1188473630615237,1.164990716154328,6.960002108083898,-0.1455244585868354,-0.27964031216788643,0.021822091881459074,-0.3990811086829268,-0.40557799523613264,0.8223374726099104,-1.7828929617109774,-1.8708739605477112,4.140213922265419,0.12161514912868165,1.3729409637516894,0.07212686538696289,3.0,0.4939529448161319,0.4936570628754078,0.31686254925493423,-0.5883774835392477,0.5834967685382875,-0.002499505020680187,0.5597653172929259
13.0,-2.4378134336866086,1.2241675169449393,6.934546172143034,-0.13631548467786403,-0.31373851941549025,0.0002852149323500069,-0.399895770254656,-0.4064383790747912,0.8215168867045018,-1.784071922302246,-1.8694477783050771,4.140456854001818,0.12150699840959489,1.3727712795243832,0.07222270965576172,3.0,0.49350836045019314,0.49321605190967,0.31716722782620466,-0.5883558109579433,0.5834827709286075,-0.0024752532053967857,0.5598027946188413
13.100000000000001,-2.876106049729912,1.2640574208159203,6.9577536243358855,-0.12514703991294504,-0.35042564533949433,-0.014396991511028225,-0.40021628966989253,-0.4067974752104399,0.821183736033022,-1.785239926428851,-1.868190254903298,4.1406405000384465,0.12140301343916693,1.3725764989302953,0.07231816637641932,3.0,0.4932120513000506,0.4929102005051049,0.31740051286292964,-0.5883317988248121,0.5834617437798454,-0.0024684808122033435,0.5598499751178192
13.200000000000001,-3.010865182350727,1.202053596067353,7.007866946075136,-0.122572675829518,-0.3500534916225587,-0.02698240541682956,-0.40004555285696825,-0.40665684721847345,0.8213360450407005,-1.786352284599753,-1.8671747646727503,4.1408273628990715,0.12130086004223628,1.3723768993531218,0.07234648393329822,3.0,0.4927240792877789,0.4924618304193402,0.3176138852805244,-0.5883581591998238,0.583465474224983,-0.002465767608637603,0.5598183963398409
13.3,-2.8187765777261933,1.452060184585525,7.216672682187395,-0.1494039225927205,-0.33043582505719415,-0.01584045494360778,-0.39863277091084076,-0.4052462097093466,0.8227195158921966,-1.787339210510254,-1.8659975273632614,4.1410283728180115,0.12114898200811974,1.372216548180836,0.07244276460504362,3.0,0.4925639408372192,0.4923140069818914,0.3176482633004939,-0.5883863056974311,0.583480305207543,-0.002465234621005153,0.559773357101698
13.4,-2.870440160950212,1.5630145057475315,7.401521223472263,-0.1610562382719274,-0.3388619015152686,-0.006610625193278876,-0.39849113819771964,-0.4051130707843496,0.8228535238002137,-1.788434274843101,-1.8646913967528285,4.141297919541608,0.12104117885293648,1.372039689591881,0.07253360748291016,3.0,0.4922768907464193,0.4920569405178881,0.3178358955111317,-0.5883778471792319,0.5834711704998505,-0.0024543503743821617,0.5597918169359987
13.5,-2.913728152202442,1.7080938741851173,7.508475180567645,-0.16884765061175364,-0.35303468272563965,-0.0036031400918627742,-0.3992826050189911,-0.4058973133630123,0.8220826932446442,-1.7896645794508539,-1.8634104314765103,4.141451544936097,0.12092148380523769,1.3718523979187012,0.0725995194123729,3.0,0.4918129135304042,0.491598989605404,0.3181870274715894,-0.5883355663894798,0.5834507176819538,-0.0024468231078292116,0.5598576019080763
13.600000000000001,-2.850436188433844,1.6228388058228003,7.772881389854904,-0.1713511715289262,-0.3592397424584752,0.0027428071769089388,-0.4007708135097309,-0.4074277656814386,0.8205988622743459,-1.7909027609855506,-1.862245613623665,4.141643640797609,0.12078105894492529,1.3716780650387903,0.07270484061757466,3.0,0.49154820575981933,0.4913342164955699,0.3183247150006912,-0.5883410047437097,0.5834460667586971,-0.002440712635275396,0.5598567604689615
13.700000000000001,-2.6750721373600834,1.6552179570543322,7.94425654749624,-0.1847926840010232,-0.3585795224555997,0.009039421354066395,-0.4006022764414788,-0.40726348195243234,0.8207617708157917,-1.791957753203636,-1.861043900773342,4.141865253448486,0.12067836576605646,1.3714907003003498,0.0727653836095056,3.0,0.49125520186844585,0.4910334153373307,0.3183849271102248,-0.5883833297157659,0.5834702553024766,-0.002456336328997743,0.5597869995826001
13.8,-2.73858752508663,2.2719034096089485,8.138181870055398,-0.19655389179318106,-0.3463591195676857,0.010870024222209262,-0.3991156175258966,-0.4057369624637963,0.8222434185083308,-1.7929240217684301,-1.8598519196612378,4.142043609630328,0.12057004654875934,1.3713011741638184,0.0728449821472168,3.0,0.490830647495748,0.49059988951664435,0.3186188906730848,-0.5883800524171415,0.5834810525855156,-0.0024619101576487633,0.5597791655552
13.9,-2.881074039792084,1.9411318369585278,7.99152604546037,-0.19847941921954082,-0.3692461599717795,0.006530150929260694,-0.3991717173099737,-0.4058047713525707,0.8221827146113191,-1.794062755564864,-1.8586162547814629,4.142238942265524,0.12046480259786459,1.371098109498635,0.07291475188730827,3.0,0.4905907874955627,0.4903550898219053,0.3187961231962142,-0.588368729892027,0.5834700655860403,-0.0024653023426903327,0.5598025031514453
14.0,-2.7772709632366306,2.1340028774124726,8.019282174383777,-0.21010525846868935,-0.35893985075599505,0.012284448812941284,-0.3991848834706844,-0.4058277795232359,0.8221649393740631,-1.795202721028595,-1.8574088200234389,4.142450961222871,0.12031198381378128,1.3709007881387745,0.07301919034154254,3.0,0.49031037579289866,0.49008933238432495,0.31894000620943025,-0.588382013452437,0.5834646507037116,-0.0024639208986324606,0.5597941913941742
14.100000000000001,-2.7127520303540287,2.3887834778772437,8.238170847887408,-0.22334009751987607,-0.35218182723263214,0.012299161331675702,-0.39865154643206224,-0.4052791907793116,0.8226940107800988,-1.796507603828543,-1.8561232559853504,4.1426568031311035,0.12020436613800975,1.3707013130187988,0.07302647241817907,3.0,0.48990548880777907,0.48968037393779307,0.3191090963831242,-0.5883969769783691,0.5834834644862915,-0.0024774330420623356,0.5597587931237107
14.200000000000001,-2.9229192482277457,2.1591432023274426,8.050364493805924,-0.21889516011561042,-0.3530237995954068,0.014650320158949643,-0.3976928962424292,-0.40426903123861974,0.8236537870654225,-1.7974577679204584,-1.8548333373015242,4.142814122936744,0.12003914892163081,1.3705246664423552,0.073137506877878,3.0,0.4895474217999862,0.48929152857386016,0.3192794458878518,-0.5883978127381198,0.583503515808302,-0.0025002874408057386,0.5597369110279048
14.3,-3.1852146061918294,1.48910649831795,7.615300870709231,-0.17675963787481097,-0.3680151033709341,0.014417356278517398,-0.3960058437882583,-0.4025103997857208,0.8253220384051455,-1.7983853658882907,-1.8536459141537283,4.142990981025402,0.11988540893783482,1.3703420295533342,0.07325220108032227,3.0,0.4893004682000902,0.4890314583797717,0.31950087333777566,-0.5883744830369445,0.5834824964971637,-0.002498027154618946,0.5597833543905893
14.4,-3.6142432964715567,1.015388141908889,7.847214086458082,-0.15241545939903928,-0.4069211174724031,0.013218992268029056,-0.3938415386289532,-0.40026566903875765,0.8274516457231297,-1.7994985580444336,-1.8526248247043084,4.1432020224180794,0.11973001723211112,1.3701468046079546,0.0733062780943493,3.0,0.4890516904758634,0.48875087509837184,0.31975565333342043,-0.5883345021005619,0.5834631742031943,-0.002505838300373997,0.5598454775750444
14.5,-3.3800667771150934,1.1814786567740552,8.006998276270156,-0.165107192895767,-0.40321913609389765,0.01581519499752526,-0.39351456111919136,-0.3999874465890248,0.8277416450456109,-1.800716891709876,-1.8513608805353041,4.143401104038494,0.11961014536819035,1.3699690693441402,0.07340903860880663,3.0,0.4886384946217661,0.4883799647954341,0.3199299017072916,-0.5883611470361158,0.5834735589468119,-0.002485387585154073,0.5598067430076555
14.600000000000001,-3.301725951667929,1.8635692747224555,8.156637381433784,-0.18059526618179603,-0.393381319946556,0.01860378311602717,-0.39260969541768653,-0.39903927545628165,0.8286285117035931,-1.8019900472214192,-1.8499404593714786,4.1436386660805455,0.1194622161755326,1.3698010821382942,0.0734681505311417,3.0,0.48820280224977275,0.4879420776010619,0.3201079026662339,-0.5883773315528606,0.5835002402513076,-0.0024895554448625262,0.559761902468441
14.700000000000001,-3.261727898050667,1.3362486510982767,7.836971639264311,-0.16876875011660222,-0.39885795450638767,0.018629902358856462,-0.39166103862678286,-0.3981219150754152,0.8295178998884025,-1.8029367123915894,-1.8487291358322144,4.143867413457525,0.11933056890454097,1.3696434568758686,0.07355117797851562,3.0,0.4879303133032474,0.48767807518393264,0.3202734547486476,-0.5883818319507261,0.5834812828523624,-0.002485090751878987,0.5597769526474128
14.8,-3.6529202927319564,0.6035888119770623,7.513616835575258,-0.13158277698765886,-0.41906772375069334,0.017270280635678543,-0.3888031317347466,-0.39522985167856084,0.8322412408937694,-1.804006061586935,-1.8475996968612847,4.144039433053316,0.11920546941459785,1.369452953338623,0.0736227035522461,3.0,0.487591073583536,0.48734218063819024,0.3205055563020453,-0.5883696256876985,0.5834639409948089,-0.002482449642524258,0.5598078693361644
14.9,-3.6048816949449134,0.9511112442941106,7.811081792291225,-0.12485419537493543,-0.42909588232247664,0.02022395902505426,-0.388478055304629,-0.39492695473195943,0.8325367204325402,-1.8050976766491498,-1.8465234241881312,4.144221685991231,0.11901967309601656,1.369283833298848,0.07371373581303804,3.0,0.4873015721430992,0.4870798529170061,0.3206617177013577,-0.5883768562265772,0.5834639362038063,-0.0024654998087490247,0.5598003496936949
15.0,-3.5158936791588444,1.6421942128017448,7.972537485641769,-0.1457903976617945,-0.41523310365815935,0.017160050574995745,-0.3902985153592762,-0.39678402251533446,0.8308004089160473,-1.8062368955226302,-1.845107244453973,4.1444081986708445,0.11889020427637208,1.3691085682576791,0.07378962389995597,3.0,0.48702590097627635,0.4868093599398393,0.3207529599011024,-0.588401875080597,0.5834877438759323,-0.002463823863851168,0.5597492436084033
15.100000000000001,-3.326449277116306,1.6580759829729639,8.018032050124466,-0.17834355728863538,-0.4056982976523621,0.020819160884645273,-0.3897490408149541,-0.396183488711961,0.8313445391460008,-1.807394180334719,-1.8436700099569023,4.144605548111188,0.11872882214225096,1.3689074066068712,0.07383244514772562,3.0,0.4865937371601077,0.4863488760783298,0.3210081233757415,-0.5883858433251691,0.5834935356895106,-0.0024632669715872065,0.5597600606500166
15.200000000000001,-3.3544573962795656,1.4636066906529734,7.7385142134360665,-0.16966190833693678,-0.42083710096204785,0.021985985206652087,-0.3880818253819244,-0.3944429852206465,0.8329471503801562,-1.8077368746393987,-1.8431261095235287,4.144748010115063,0.11858842206577766,1.3688063621520996,0.07391147864951794,3.0,0.486311567672738,0.4860119411100615,0.3212597900942074,-0.5883560445855943,0.5834810159972106,-0.0024771520078293446,0.5598043698368093
15.3,-3.6420521966779105,1.0411723257464987,7.284079754698499,-0.1395755331184934,-0.4412920036584095,0.02529058756142822,-0.38628528666144957,-0.39259383185737173,0.8346576490785913,-1.807756679515002,-1.8431926397835117,4.144717495939843,0.11860956723800063,1.3687594347215815,0.07386355928837211,3.0,0.4861090216857665,0.48582877808471797,0.3215095829871892,-0.5882954219309234,0.5834501250846151,-0.0024614062881277896,0.5599003389469845
15.4,-3.6736070908127276,1.1037133666740615,7.204108240655722,-0.12952795700866454,-0.44428198146669645,0.0265359550718756,-0.3857690915105697,-0.3920767224002977,0.8351395080269682,-1.8077403308914368,-1.8431951008238734,4.144722809182592,0.1185871797749023,1.3687764201336596,0.07389856418931341,3.0,0.4861002361388931,0.4858305339229478,0.32145469739627514,-0.5883214186128521,0.5834599258318068,-0.0024669286823497108,0.5598627846290374
15.5,-3.6054283091307777,0.9581854618931843,7.125066251972447,-0.125052220364471,-0.45009454263675286,0.028941795983932664,-0.386178720697187,-0.39252059995264516,0.8347414145190658,-1.8077821731567383,-1.8432096748770626,4.144718554950069,0.11857787706065182,1.3687949180603027,0.07391775868689394,3.0,0.4861003364142406,0.4858456464826976,0.32143577736845425,-0.588337394273466,0.5834629790857986,-0.0024610887387865113,0.5598428400703658
15.600000000000001,-3.570356979857968,0.8508367633061873,7.086107372625957,-0.12126994456226944,-0.453852536343342,0.03382703694379142,-0.3863290484595084,-0.39269805556582993,0.8345885192502209,-1.8077832676004455,-1.8432178026362551,4.144749513540158,0.11858095907358941,1.3687814258504822,0.073896744148822,3.0,0.4860987914987585,0.485845899694293,0.3214338981437488,-0.588341540536278,0.5834663964260982,-0.0024660428340365233,0.5598348993709514
15.700000000000001,-3.6690946031999556,0.9351296385297532,7.0183528068370435,-0.12143151197762071,-0.44991782182993567,0.03241835398732383,-0.3860887978397481,-0.39247357809346184,0.8348052487885597,-1.80782843531965,-1.8432070217528285,4.14472990742848,0.11857599923808702,1.3687926672681978,0.07387476674244453,3.0,0.4860966497852138,0.4858352041844503,0.3214085299340665,-0.5883574772613807,0.5834694109140449,-0.0024790085983946147,0.559814951564006
15.8,-3.663254321763575,1.0666235199236593,6.9413977229408035,-0.11603072997613566,-0.4509996943798359,0.029493312090937095,-0.38476458541862085,-0.3911147057216293,0.8360468827884369,-1.8078194122332931,-1.843188427020708,4.144740452446525,0.11855262879420526,1.3687484461506507,0.07390603032923979,3.0,0.4860939074296645,0.48583376189690647,0.32139366603891983,-0.5883709324815506,0.5834666664657289,-0.002480358754756288,0.5598036644705072
15.9,-3.4770046986393983,0.9181600422441824,7.0134264703184135,-0.11749095697544429,-0.45560034591965787,0.03216804200904518,-0.3820026143254732,-0.3882511806008309,0.8386479422548857,-1.8078144449948277,-1.843208013699312,4.144718802903227,0.11856444749136147,1.36879388643596,0.0738759806275862,3.0,0.4861025758825508,0.48582174317426835,0.32139366531931024,-0.5883610742965948,0.5834782033850198,-0.002493653622253788,0.5598019418676203
16.0,-3.614575438894065,0.6510861412799598,6.946443573128853,-0.12554180790155264,-0.450759412655829,0.033347716196479055,-0.38169473040661706,-0.3879215625568501,0.8389433625460329,-1.8078180616935797,-1.843206656037014,4.144729517765102,0.11857525884594722,1.3687718076340216,0.0739329664404765,3.0,0.486085833759814,0.48583763498118865,0.3214033687535803,-0.5883629964921017,0.5834672102523674,-0.0024745898348085653,0.559811464087959
16.1,-3.7740787956268607,1.1661841410505909,7.027656946340317,-0.1113775089267261,-0.446792155141981,0.025530555243589055,-0.381799718896421,-0.38801824571727894,0.8388508851252405,-1.8078412397359502,-1.8432311465579465,4.144741596415173,0.11855052709330954,1.3687824590657842,0.07386213958525295,3.0,0.48610323158147695,0.4858225580952665,0.3213750064246,-0.5883634360409552,0.5834914845691704,-0.0024937782019842144,0.5597856157812791
16.2,-3.5733808982051607,1.0975286454479094,6.8455035562683575,-0.11088133213667951,-0.4483966157521331,0.03235041156759163,-0.38123370608186896,-0.38742934937907314,0.8393801345541011,-1.8078320532343273,-1.8431961990047576,4.1447403930786475,0.11858663068446014,1.3687705051483328,0.07388749268161673,3.6096126286914942,0.4861044740317462,0.48582615787168426,0.3213936765628218,-0.5883450272996202,0.5834936653661461,-0.0024800315813419673,0.5598027516659281
16.3,-3.8243293344603173,0.9678611967194836,6.893977620650986,-0.11549905368203534,-0.4415767813565302,0.03143718599116206,-0.38133782525327303,-0.387554766344737,0.8392750661910002,-1.8078289880697822,-1.843242338273902,4.14470667116714,0.11860966412847448,1.3687481268760657,0.07387354423317315,4.0,0.4861079409917763,0.4858202385255535,0.3213896230885497,-0.5883515578654441,0.5834845061339522,-0.0024901537576798366,0.5598053899286664
16.400000000000002,-3.6286678843180313,0.8808806231144588,6.9408012150850045,-0.11663043559723495,-0.4438682882323152,0.033837768791031286,-0.3812706742038718,-0.3875043367666256,0.8393288562750773,-1.8078083840920507,-1.843252204061814,4.144740768510096,0.11856391759601871,1.3688041800723423,0.07390876198042819,4.0,0.4861019589514957,0.4858401088463562,0.32136169235503403,-0.5883772602764809,0.583482583993997,-0.002482049429417827,0.5597804151592483
16.5,-3.472846998362233,1.0961337006693013,6.748155354358004,-0.11053074984775187,-0.44915399916951754,0.03219210289148203,-0.38102756467693993,-0.38725899840546274,0.839552536666619,-1.8077953885352698,-1.8432189426817835,4.1447529792785645,0.11862069302761459,1.3687811741162712,0.07387534291253743,4.0,0.486096774104443,0.48582836521273115,0.3214082685233863,-0.5883460129068845,0.5834873591622388,-0.0024679019068221167,0.55980834243036
16.6,-3.6498906630018624,1.090705014495134,6.669835283227731,-0.11134654040847257,-0.44527496744601724,0.03676136058166503,-0.3810268803807293,-0.3872331611978746,0.8395647544187227,-1.8078402884020777,-1.8432189426817835,4.144729685891888,0.11859804595148467,1.3688058558709606,0.07388584602949862,4.0,0.4861028633440848,0.4858256748803474,0.32140732684728957,-0.588342308232988,0.5834830136827084,-0.0024863049579346478,0.5598166837228774
16.7,-3.4896109878376724,0.975524152777627,6.808665004924519,-0.11201146122489973,-0.44622410476476687,0.036265391795715474,-0.3811746498639869,-0.38741400183478913,0.8394142286990351,-1.8078264337725347,-1.8432480508474238,4.144732845779013,0.11860389017442934,1.3687896517525726,0.0738978385925293,4.0,0.48610233373482087,0.4858333324192252,0.3214185356539798,-0.5883433042615102,0.583472438326074,-0.0024763482220915975,0.5598267033144785
16.8,-3.3404009039804285,0.9523801216335875,6.717799856812653,-0.11425848301924994,-0.4490548261845997,0.03855304692378845,-0.3810705949982797,-0.38734579021522475,0.8394929242543478,-1.807807212354696,-1.8432189426817835,4.1447293912391245,0.11857551266441727,1.3687709442167881,0.07392164457428817,4.0,0.48609635701893383,0.48583346128385885,0.3213889143953095,-0.5883681088436135,0.5834702439465428,-0.002475899619559004,0.5598029232201502
16.900000000000002,-3.3343030992135305,0.9324424790981767,6.729992946662512,-0.11541200356079909,-0.4487277579884255,0.03630690360857189,-0.38084420185382106,-0.387143446066816,0.8396889890159477,-1.8077942789782657,-1.8431963861066194,4.1447418406004894,0.11861102163281245,1.3687825202941895,0.07387367859532556,4.0,0.48608254923852734,0.48583622687696487,0.32137644594058634,-0.5883771842804105,0.5834670169625142,-0.002467033522902936,0.5597967871296852
17.0,-3.3834383424609453,0.9133338626668835,6.7441679999639,-0.11513169401406306,-0.44959768722616406,0.03399557138729929,-0.3806296300746349,-0.3868848265041852,0.8399053866280699,-1.8078545724191972,-1.8432311947598619,4.144716813926872,0.11859895787245053,1.368806076489286,0.0738978385925293,4.0,0.4860898976959085,0.4858302915718648,0.32135890930383926,-0.5883749465022456,0.5834852338237727,-0.0024779795856156124,0.559780103125567
17.1,-3.61055975275878,1.1948836172066484,6.7186943242869654,-0.10820599229736888,-0.4432807251234819,0.033180483770348455,-0.3803974957228132,-0.38662270573048274,0.8401312836098741,-1.80784139336533,-1.843231172146122,4.144729302422395,0.11861110413368244,1.368758929238924,0.07389775939169412,4.0,0.48609969372556766,0.4858264657606496,0.32139296690813085,-0.5883599632391014,0.5834823836351382,-0.0024873440043170626,0.5597987806029457
17.2,-3.552529298433471,0.9445344564373956,6.670391859559411,-0.11397546074783824,-0.44317558962609777,0.0373184630981276,-0.38006809750389897,-0.3863411947834041,0.8404097893665646,-1.8078183335023252,-1.843243178795147,4.144729137420654,0.11861118679622198,1.368782441015753,0.0739339130531432,4.0,0.4860853504684008,0.4858347197305509,0.32138956680472586,-0.5883669396038389,0.5834678442571563,-0.0024713408371801965,0.559806673391436
17.3,-3.2535349053356075,0.9844331647022514,6.642359375565761,-0.11167040483151378,-0.4492507963999408,0.03473509150415536,-0.3801244590941073,-0.3863962190878962,0.8403590038100431,-1.807819185107613,-1.8432191434867649,4.144729137420654,0.11857525884594722,1.3687831072625964,0.07388657985917674,4.0,0.486089196456136,0.48583899095155697,0.3213869265038356,-0.5883597232072529,0.5834740760440158,-0.0024764413455793787,0.5598077401486413
17.400000000000002,-3.3432469006102687,1.0720505075128282,6.567290589053375,-0.10993831154566011,-0.4472830898165131,0.03615375272923309,-0.3803527580228512,-0.3865998224670314,0.8401621011400718,-1.807854510358681,-1.8432428758231403,4.144729269320608,0.11857538567282602,1.3687946644065452,0.07388600894702087,4.0,0.486096741427538,0.485836973481984,0.32138275973275837,-0.5883598771573103,0.5834790267792648,-0.0024676597685722,0.5598024570466116
17.5,-3.229284432178596,0.9499835077679516,6.530777302225524,-0.11263716251906265,-0.44844049482155807,0.04370353933190069,-0.38032593012814325,-0.38657176793755743,0.8401871535452822,-1.8078293591410464,-1.8432318589182222,4.144730713570444,0.11859858223353205,1.3687602545860682,0.07390919941799193,4.0,0.48609105952178666,0.48583335085487916,0.3213664945190768,-0.5883724447001886,0.5834823589983347,-0.0024732521587603924,0.5597857501571661
17.6,-3.421738502875866,1.00931621130703,6.602895816175977,-0.10936520148576338,-0.4434203409153963,0.034989266718028295,-0.38030709494510184,-0.38655310164792284,0.8402042681634374,-1.807807059242488,-1.8432313404478968,4.144741338987467,0.11856258044197573,1.3688058867461035,0.0738979366921793,4.0,0.4860984287357536,0.4858363525513977,0.3213669921694251,-0.5883684735443966,0.5834865778734455,-0.002474995954689624,0.5597855189048719
17.7,-3.4631258400688356,1.1280885478776541,6.6726957106221825,-0.10699872266664931,-0.44295175747383,0.03833470393226616,-0.38034495446117667,-0.3866010289569484,0.8401650776792053,-1.8078298568725586,-1.8431831919420554,4.14475297124714,0.11859909668814503,1.3687710762023926,0.07389784276887014,4.0,0.48609447015795626,0.4858462789318202,0.321385863342303,-0.5883653076080235,0.5834767237005061,-0.0024732641755890136,0.5597991252827722
17.8,-3.443133194190631,1.0952113363766558,6.68247279820912,-0.10797661105260638,-0.44176452401641386,0.03857313021224976,-0.38021454877170957,-0.38646380946523473,0.8402871391091157,-1.8078399937871334,-1.8432749392348986,4.1447529792785645,0.11857525884594722,1.3688077782607566,0.07390473532116694,4.0,0.48609181494262016,0.4858353380045392,0.32138171374262736,-0.5883632740918878,0.5834816050287452,-0.0024680833363721188,0.5597961976090924
17.900000000000002,-3.191398475199606,1.0766050640346532,6.628632477097465,-0.1089797717218044,-0.44584141471806227,0.036384370081313025,-0.37997913527681904,-0.38621104701760106,0.8405098316205969,-1.8078416340459418,-1.8432313404478968,4.144764163676042,0.11859969549240418,1.3687825202941895,0.07392126510477745,4.0,0.48610044309690614,0.48582481982386705,0.3213918599006015,-0.588358575283732,0.5834789036282787,-0.002477286077975681,0.5598039111729451
