xiamingqian9007/apple-picking-rnn/final_data/grasper_20191127_120542_noimg.csv
,/manipulator_wrench.fx,/manipulator_wrench.fy,/manipulator_wrench.fz,/manipulator_wrench.tx,/manipulator_wrench.ty,/manipulator_wrench.tz,/ground_truth.x,/ground_truth.y,/ground_truth.z,/joint_states.elbow_joint,/joint_states.shoulder_lift_joint,/joint_states.shoulder_pan_joint,/joint_states.wrist_1_joint,/joint_states.wrist_2_joint,/joint_states.wrist_3_joint,/mode./mode,/manipulator_pose.x,/manipulator_pose.y,/manipulator_pose.z,/manipulator_pose.rx,/manipulator_pose.ry,/manipulator_pose.rz,/manipulator_pose.rw
0.2,-0.505404855457289,-0.6671353489760609,-0.30827400951628875,0.007938486134985332,0.020617124225841135,0.031139639200399544,0.1802204315246637,0.3677885985394464,0.9122779519006693,-1.742650080500302,-1.7956709661758228,4.164722265674925,0.2342462490640044,1.346286659091659,-0.31445765239288503,1.0,0.4746654305663263,0.48461702688869585,0.41419498263230153,-0.6259883542811352,0.432610132577815,-0.10997209334423179,0.6394475679685467
0.30000000000000004,-0.4035321027507637,-0.45638882256791197,-0.5021654416528377,0.004086034181436285,0.018918173345012453,0.061570038081750926,0.17959755786393075,0.36640845708948994,0.9129561419599656,-1.739802653616166,-1.798150403637334,4.16418190430199,0.23406856205124102,1.3469048234063348,-0.31450242623089547,1.0,0.4747740244531258,0.48470005252927206,0.41437266588065275,-0.6258633352763856,0.43259305968819545,-0.10996933387690033,0.6395819539926018
0.4,-0.1812340804069414,-0.27239937748575843,-0.28819760638000175,-0.014818462054446455,0.02916937785493027,0.09961702461504177,0.1796505956145397,0.3665340290309268,0.9128954988970982,-1.7361032393194773,-1.8019776120310997,4.16359009205109,0.23376533704437383,1.3475107405584528,-0.31461508005908906,1.0,0.47530283628792447,0.4852184403053551,0.4142928738502804,-0.625847980868997,0.43258406446158687,-0.10996978818667483,0.6396029844382146
0.5,-0.1567072985855176,-0.2836074896380918,-0.31142482910145586,-0.008323998570419048,0.038022857212511404,0.14448488430132606,0.17984697176835054,0.3669789128667635,0.9126781738220816,-1.7322480713111768,-1.8056801447227462,4.162984972414763,0.233550483216489,1.3481192588806152,-0.3147662321673792,1.0,0.4762013761254295,0.486167482842544,0.4139413666606411,-0.6259380204086519,0.4325939365375386,-0.10997176333693673,0.6395078513563527
0.6000000000000001,-0.2810441962514095,-0.23205508471887096,-0.1980115141478295,-0.020584198945890187,0.04109751350929048,0.18491189397051574,0.17999044258284908,0.3673159416953165,0.9125143385164466,-1.7285814131994934,-1.8091853601232095,4.162166646854675,0.23327377933567686,1.3488170529178283,-0.3148468214792002,1.0,0.47728150324090673,0.4873693675999282,0.413538336693309,-0.6260062597007414,0.4326107478314015,-0.1099683846531116,0.6394302605077655
0.7000000000000001,-0.4956328468366693,-0.6317411470290796,-0.06565653099589783,-0.01705704868634712,0.04408083672665516,0.20355405866679427,0.1801245806189983,0.3675991775659052,0.9123737808613451,-1.724799176141253,-1.812366985262494,4.161387595550648,0.23304628846413025,1.3496709479257303,-0.31497710066155005,1.0,0.4786701236914487,0.48870229715001545,0.4132242831112181,-0.6259913873274164,0.43261907199886657,-0.10996908318857346,0.6394390684634467
0.8,-0.28893735891438216,-0.595060599482292,-0.15524475249552294,-0.027354184537542455,0.04327947234256857,0.2383837105609657,0.18030399795034716,0.36800927052054827,0.9121728316794874,-1.7215398853423767,-1.815714516960522,4.160807118431735,0.23273484700319758,1.3501748987809428,-0.3150709168222584,1.0,0.4794998975324876,0.48953397059815107,0.412930889198386,-0.6260469781664473,0.4326361471248876,-0.10995379843462494,0.6393757170391994
0.9,-0.23244162211368838,-0.493870038946841,-0.03216164932682102,-0.008788243182102718,0.03819595019433367,0.25818770112798534,0.180586845372921,0.36872926653951094,0.9118258917127824,-1.7180205721595216,-1.8184964845239204,4.160269258381515,0.2324634106397838,1.3506830328534416,-0.3151569432517589,1.0,0.4805177588122245,0.4905371691762446,0.41272260199529276,-0.6260212219454997,0.4326443070634939,-0.1099689245262853,0.6393928126574028
1.0,-0.3063011622100188,-0.3229432809497206,-0.0875417263390901,-0.008642689523068077,0.03543731863573695,0.2743977777289943,0.1808172422114087,0.36930737827105686,0.9115465681373724,-1.7147574095957,-1.8216954739193847,4.15966662973258,0.2321445184895019,1.351249544586091,-0.3152851484836503,1.0,0.4813182264002883,0.4913432928207878,0.41259366407207987,-0.6259851447853285,0.4326464544622476,-0.10998956743651547,0.6394231298635245
1.1,-0.3257038119101158,-0.30645998307763433,-0.1037595217125147,-0.009846887837605591,0.03999318777347121,0.28228156311487484,0.18092038852255252,0.3695412640857677,0.9114312889019697,-1.711526007082682,-1.8243631529243576,4.159200127507233,0.23190274903084834,1.351716247434909,-0.3153720602865986,1.0,0.48229664867629585,0.4923540977790978,0.4124123416238763,-0.6259703095592923,0.43262849246934093,-0.10999919896729063,0.6394481490164025
1.2000000000000002,-0.19416382998587947,-0.28573193023251264,-0.01559611246766164,-0.010947580428685804,0.038407792453755106,0.27255131164475355,0.1812736094387681,0.3702742727864676,0.9110629042084223,-1.7085381612010386,-1.827289389118216,4.158733482470457,0.2315675797836191,1.352292537689209,-0.31545572157036944,1.0,0.4831641090364513,0.49327295503377716,0.4121914253357308,-0.6259765970416693,0.43263051993438484,-0.1099944384558566,0.639441441170508
1.3,-0.3561623363816436,-0.19788047118974073,-0.18323855830239197,-0.010854755814300494,0.04086707745703653,0.26374092422560924,0.18180202914565993,0.3712615892832781,0.9105559112700576,-1.7053902273639832,-1.8298858480387477,4.158298237430643,0.231254460463419,1.3528809547424316,-0.31552367554924565,1.0,0.4837855059742574,0.4939609207703284,0.4120424845256552,-0.625995124804972,0.4326081849677149,-0.10996668439573522,0.6394431877362958
1.4000000000000001,-0.23994166090150412,-0.21111201069671073,-0.1742505336072819,-0.003250578836137372,0.04118794184520687,0.26150578012678777,0.18137272698993628,0.3701851113564858,0.9110800024880783,-1.702691615717776,-1.8325528126062913,4.15771071381704,0.23097829618970248,1.3533524717725534,-0.31563183898622293,1.0,0.48439054076712074,0.4946308265879307,0.4119346355143782,-0.6260046288038258,0.4325711420926922,-0.10993357781077244,0.6394646356246223
1.5,-0.12036364601223468,-0.44107636692003016,-0.2099704273125415,-0.0018314793727016248,0.04251340195833471,0.26353967360819436,0.1816218564005883,0.37073589496967607,0.9108063798436273,-1.6995369911772182,-1.8352391823180585,4.157223744678671,0.23068348943676753,1.353785558033163,-0.3157241980182093,1.0,0.4854400509894947,0.4956829007891393,0.41173827978036626,-0.6259877758810036,0.43255729992237785,-0.10993301040649348,0.6394905941093914
1.6,-0.14841553518530295,-0.26384770631183607,-0.027102341104074952,-0.007547155445816056,0.03420165531820387,0.25654993309998825,0.18317902236635716,0.37418046417152206,0.9090698441979648,-1.6970320732229585,-1.8375735199200998,4.156745850450508,0.2304222811045502,1.354229401010591,-0.31576515679857575,1.0,0.48618092789027634,0.4964258036199132,0.411519994689962,-0.6260036276059269,0.43258009015530074,-0.10994981432173355,0.6394567711394323
1.7000000000000002,-0.12473591514672033,-0.4189334162211187,0.045132143192803426,-0.008376337267680547,0.03407240897875319,0.25551364742533156,0.18515736079590675,0.3785567984691214,0.9068622676852814,-1.6941528158576937,-1.8401216105810692,4.15620402158777,0.2301291136932635,1.3546483880428482,-0.31588658127055763,1.0,0.48675294496204136,0.49700322061495417,0.4113864153662532,-0.6260039785398995,0.43258500865506433,-0.1099561291870679,0.6394520144571533
1.8,-0.327489594134675,-0.21729430719465756,-0.2872172435932227,-0.01000608789899131,0.04321485304740303,0.2584070035270358,0.19010786124006138,0.38958200229060924,0.9010757283701637,-1.6917609715563187,-1.842407555993644,4.155786436817204,0.22988481937241534,1.3550378441390296,-0.3159311775205075,1.0,0.487602294787483,0.4978090313606632,0.4111391046188227,-0.6260143793088464,0.4326186924186619,-0.10998659526940564,0.6394138039873483
1.9000000000000001,-0.2363640758852437,-0.44779699295205033,-0.1680260507638101,-0.00420308171777468,0.04035374962164924,0.2575612499422906,0.19805109198891638,0.40716583292344194,0.8912589525770864,-1.6890130570831465,-1.8444920537440868,4.1553735646731536,0.22960583745922847,1.3554276259064115,-0.3160007002521519,1.0,0.48847195258923853,0.4986297997429799,0.41096271543503465,-0.6259836695119008,0.4326485094108346,-0.1100094074591264,0.6394197706354493
2.0,-0.02968273830155857,-0.457620733436664,-0.18273808732538319,-0.007339182133734586,0.03753211110022514,0.26171520177280666,0.21222214910410517,0.43825635265345336,0.8726117223825233,-1.6866978572601263,-1.8468969171988352,4.15499781042117,0.22934433247042557,1.3558961826451912,-0.31602585644135506,1.0,0.48891549718435384,0.499080600976175,0.41095202923909685,-0.6259299156510685,0.43263132028560514,-0.11001172125561189,0.6394836218288611
2.1,-0.3235693381157443,-0.3903652167113575,-0.2691093255470901,-0.002376840887799214,0.03513569099292808,0.24950595978996465,0.22216817674381695,0.4600201082357959,0.8596429972876634,-1.6842800250580146,-1.84868100594164,4.154609124004379,0.22904607478451977,1.3563404700668282,-0.3161470732432912,1.0,0.4894489172307322,0.49964495095816774,0.41077416939764966,-0.6259622786293841,0.4326267506079949,-0.10999839014720954,0.6394573281748356
2.2,-0.29280668350109584,-0.05196050415156763,-0.15985230319476781,0.004388998630091661,0.03891174872991531,0.2498788252935904,0.21829709797978808,0.45128256356001767,0.8652446773538056,-1.6819818126885864,-1.8507891740198463,4.154252167878242,0.22879139959301753,1.356679618464932,-0.31619375306614106,1.0,0.4901894472833043,0.5004147207623374,0.41063684458784516,-0.6259669367747134,0.43259696950461646,-0.10996288163141314,0.6394790228800469
2.3000000000000003,-0.3042310298180072,-0.17467224501562975,-0.1111051893488176,-0.004384952448829284,0.03902909693176129,0.2544944225756879,0.21752993639393206,0.44961216862752634,0.8663305698060708,-1.6796912857655728,-1.8529090203348755,4.153871030486032,0.22853432167941176,1.3570055961608887,-0.31622979475237406,1.0,0.49075382523200245,0.5009971235370229,0.41052938337794387,-0.625968021248497,0.4325850465058585,-0.10995578571523312,0.6394872470202287
2.4000000000000004,-0.2539219638701601,-0.5013653837711228,-0.18006403547965896,-0.00668405521409329,0.038870134405965144,0.25440687762168196,0.21786575234869157,0.45044231728104905,0.8658153570453803,-1.6776075869781888,-1.8545657501992092,4.153597146551061,0.2283080162146629,1.3573343058818501,-0.3163107077227991,1.0,0.4912421778159238,0.5014951143462342,0.4103493752144007,-0.6259955162245858,0.43260712536731954,-0.10997311625388242,0.639442415272516
2.5,-0.1748900781163,-0.4909428489313478,-0.063497130410553,-0.009798051878593526,0.0370769435525625,0.2499304972873183,0.2178663032132752,0.4504694612737122,0.8658010961217426,-1.675276756286621,-1.85660454543582,4.153263568878174,0.22798789596547858,1.3576571224225635,-0.3163790653874638,1.0,0.4918087739275264,0.5020865449434916,0.41023758133924243,-0.6259802500997748,0.4326047466984499,-0.1099823382351892,0.639457383173667
2.6,-0.37311559671974426,-0.25072949088619895,-0.0800513735223417,-0.0020863382733303827,0.04120788039308536,0.2497557501421121,0.21785485360517046,0.45041093120772546,0.8658344235301446,-1.6733468989691402,-1.8583738823026057,4.152998454859368,0.2277142164082688,1.3579408716219556,-0.31639491382654816,1.0,0.4923522341897146,0.5026931442974643,0.41013697848948716,-0.6259744138304043,0.4325817038436809,-0.10997723820065132,0.639479561680541
2.7,-0.051936551120849335,-0.22655525005070457,0.0777916893772059,-0.0010656399262727735,0.037237542446751225,0.25305225227486955,0.21782592461440045,0.4503084404158649,0.8658950071828792,-1.6714701910095289,-1.8600930066253332,4.1526875495910645,0.22752157784377722,1.3582346417376845,-0.3164688071960595,1.0,0.49311264347661715,0.5035021065234835,0.4098838841313623,-0.626000493438607,0.43260519023788424,-0.10995867812197929,0.6394413348381005
2.8000000000000003,-0.1295468087336261,-0.1346707674056075,-0.036387696793502664,-0.0006969679367638789,0.03909283863467824,0.24932118690185615,0.2177457164889712,0.45017349820188163,0.8659853304951377,-1.6693227503250097,-1.8617857978259673,4.152309664439838,0.22724049503261134,1.3585348116354818,-0.3164961960855759,1.0,0.4934612563683235,0.5038428368686821,0.40978654076563115,-0.6260118301568882,0.4326149626424203,-0.1099632121133576,0.639422844902521
2.9000000000000004,-0.1783111522852686,-0.29076977895433415,-0.029145547962933855,-0.002731579564622679,0.04029307449665685,0.25060820309908266,0.21757944609634658,0.4498398865168876,0.8662000245729802,-1.6676299617927475,-1.8633736372253198,4.152064293641773,0.22702044698366905,1.3588461824424982,-0.3165686817744415,1.0,0.4938868929187509,0.5042425921690566,0.4097747856933498,-0.6259657641771745,0.4326088161237233,-0.10998050276421813,0.6394691261521908
3.0,-0.2569410994916813,-0.06976940155965584,0.036039117672094535,0.0015468953878004555,0.037270461116544064,0.24373489925609756,0.2170410862693429,0.44864732916957484,0.8669524345317479,-1.6658280074813676,-1.8650297040836772,4.151758908588136,0.22680396085807533,1.3591642194356257,-0.31658532884502727,1.0,0.4944887951179982,0.5048536213972478,0.40964378873739465,-0.625965663611967,0.4326054487160813,-0.10997254426181302,0.6394728713781149
3.1,-0.21807903734416825,-0.1891119040607966,-0.16695087259494862,-0.0005229888200506219,0.03683056150741408,0.24726026555843644,0.21667963410037874,0.4478402955575692,0.8674609684069678,-1.6638859400406114,-1.8665741777224079,4.15148334673693,0.22657000430262142,1.3594097891330514,-0.3166702429400843,1.0,0.4949290206614713,0.5052921207864071,0.40946737667777305,-0.6260026699852456,0.43262245988911263,-0.10997389949938896,0.6394249023925602
3.2,-0.08304156051206643,-0.3063130380832234,-0.18082296464367795,-0.0014756488608740812,0.033188036956071074,0.24712032912987497,0.21712041229107562,0.44878151212455963,0.8668635874767733,-1.6623215602751096,-1.8679660712410198,4.151189794685611,0.22633056297827012,1.359710337546579,-0.3166938489439374,1.0,0.4953089500616426,0.5056725703898959,0.4094073095736214,-0.6259928113911588,0.4326131890648478,-0.10998032363752534,0.6394397212766193
3.3000000000000003,-0.18739999598526402,-0.3268625728926332,-0.10995048941226108,-0.0026144854429287117,0.03789485743650482,0.24625669422089572,0.21743422096954998,0.449454008321851,0.8664371387681684,-1.6607528284674387,-1.8693349149709781,4.150972843170166,0.22613936447318594,1.3599616094209874,-0.31674224535097295,1.0,0.4958402324526208,0.5062363158065096,0.40932199879365383,-0.6259883322325819,0.43259175485260914,-0.10996477406046343,0.6394612810859173
3.4000000000000004,0.04711044691093806,-0.6623804256313154,0.10221026595398248,-0.00698160776366102,0.03172881295708185,0.25290700987183695,0.21714481217682507,0.44884984511459536,0.8668227692795984,-1.6589928935934062,-1.8709789083911839,4.150757312774658,0.22591363198888226,1.360189197503799,-0.31680203111611516,1.0,0.49621816680465075,0.5065986273494382,0.40920139131915595,-0.6259982885959683,0.43261459025667504,-0.10996476872243079,0.63943608641661
3.5,-0.061241168171158496,-0.30480926653284823,-0.05250945980525314,-0.008406759990956063,0.03484954613310511,0.25372531641598095,0.2172128777921912,0.4490134553172362,0.8667209549228307,-1.6574315669534168,-1.8722400962701264,4.150499785184618,0.22569621111412633,1.3604295623801688,-0.31679600054567864,1.0,0.4965360255878716,0.5069347878866648,0.40908661307111954,-0.6260159447718527,0.43262270826915455,-0.10996815538941006,0.6394127258520255
3.6,-0.1699631513151311,0.10314193228459062,0.04434055929241901,0.007470388762051051,0.04102852105095303,0.24787681675647266,0.2174309640937922,0.4494937600288391,0.8664174120243199,-1.6559854374111556,-1.8733561508317214,4.150260298430594,0.2255049905222976,1.3606389926575646,-0.31684342519589115,1.0,0.4970472066008607,0.5074860223193131,0.4089780137239878,-0.6260146851416103,0.4326064595721071,-0.1099744834509491,0.6394238642037331
3.7,-0.0990618922973175,-0.33038301340738674,-0.11824946843585378,-0.004627983815037479,0.040093500904563574,0.24983900704322798,0.2175353061799228,0.4497055102568589,0.8662812391301391,-1.6544460625763155,-1.874502483099319,4.150034223273664,0.22532437342528502,1.360843187254747,-0.31687740028054234,1.0,0.49742521521226446,0.5078460961751871,0.4089901194181593,-0.6259682978817429,0.4325935423300331,-0.10996859102675781,0.6394790271533362
3.8000000000000003,-0.3837981185791884,-0.12854804690307498,-0.004745319449184798,0.005277640041674318,0.044112792625441766,0.24330623846671068,0.21785349200805623,0.45040419189139386,0.8658380885234951,-1.6530341929399537,-1.8759717082800065,4.149804596966804,0.2250796991535644,1.361052764489981,-0.31690960656094,1.0,0.4977451527884259,0.5081639044329471,0.40894097093776133,-0.6259590560867454,0.4325948156689232,-0.10996093810935559,0.6394885281609606
3.9000000000000004,-0.11110597916880212,-0.31177600335704747,0.05639841447568863,0.0011358564991386698,0.039448405016118925,0.24246913045484209,0.2179235914972903,0.4505704297098203,0.8657341220282256,-1.6517024037657149,-1.8773007591626858,4.149588460855551,0.22489433354337504,1.3612516023062327,-0.3169816176043909,1.0,0.4981654990450807,0.5085819324808917,0.40877343279920186,-0.6259827689475681,0.43262143445043716,-0.10996474743704542,0.639446652783396
4.0,-0.09829898360945291,-0.16358991295746114,0.0510526207172615,0.0038424848204968386,0.03950745156406478,0.24663346688381432,0.21785459409038888,0.4504381372564237,0.8658203290722168,-1.6502709131355746,-1.8782498290331275,4.149385880964348,0.22473335313717463,1.3614253186605063,-0.3169705210866672,1.0,0.4984802385818597,0.508921576659692,0.4086181846461175,-0.6260258837878669,0.4326203307355593,-0.10996554501882014,0.6394050525063039
4.1000000000000005,-0.06722648528151048,-0.15539797764923563,0.03768477384426108,-0.0009471970116841661,0.03524663524422595,0.2524092670314443,0.21773637085945052,0.4502540636664848,0.8659458004469855,-1.648852843822356,-1.8792382679381312,4.149181555106492,0.22451703130688472,1.361642067648933,-0.3170291787876544,1.0,0.4988734566304589,0.509284311288159,0.40863265653577874,-0.6259754249446627,0.43260616383753503,-0.1099908326200677,0.6394596868565405
4.2,0.06656908353373114,-0.4236383849755083,-0.13717073488150108,-0.006128151007753722,0.03591231004630999,0.24902159625046952,0.21732519782943607,0.44936281412033746,0.8665110038598077,-1.6475341241656545,-1.8805099769627998,4.149002305775762,0.22431393487514184,1.3617960761136028,-0.31705413305008945,1.0,0.49918485577616273,0.509580178709397,0.4086893692499828,-0.6259077474633818,0.4326019200112087,-0.11000031768664689,0.6395271695375951
4.3,-0.05856699595232488,-0.2513715522315316,-0.13637637929522456,-0.0036523119148511507,0.03357007098764108,0.24746318468403314,0.21680418038985913,0.4481846603527859,0.8672522445703953,-1.646265116957493,-1.881786527037911,4.1487581791004375,0.22412038544394428,1.3620195388793945,-0.3170877077605451,1.0,0.4994031364277421,0.509827566208279,0.40859180226374053,-0.6259385366253447,0.43260601939075116,-0.10999075341037895,0.6394959065689383
4.4,-0.17252524950705478,-0.11100563531768406,0.08448657753952177,-0.0034214016882316584,0.041099112319561856,0.2478377564493511,0.2166568841401128,0.44793628771670596,0.8674169983720902,-1.6447686876569476,-1.882999736552982,4.14856647327968,0.22392803768941819,1.36222745350429,-0.31712355159050976,1.0,0.4998702168234335,0.5103242056980903,0.408338423221774,-0.6260131501250406,0.43262258058834246,-0.10999666940681231,0.6394106437611242
4.5,-0.3579517752046425,-0.5162699588764909,-0.1385672351129974,-0.008689394268821302,0.03941833216731384,0.24077228367775164,0.2159028875590397,0.4462605477083921,0.8684673053278023,-1.6433278829379754,-1.8841119018939203,4.148400850889948,0.22373127102129603,1.362438678741455,-0.3171733061419886,1.0,0.5002762820375759,0.5107300636439754,0.40829574497864213,-0.6259737387426858,0.43262677759338486,-0.10999459525391642,0.6394467442473961
4.6000000000000005,0.036918537001568524,-0.5806263252874482,-0.07706550219950839,-0.00476355720177761,0.03305562776483748,0.24665066068946645,0.21543568919581918,0.44520766410958507,0.8691244249726404,-1.642057893662014,-1.8851618089272266,4.1481869210741715,0.22353474676098628,1.3626484972217725,-0.31719669142415646,1.0,0.5005278554644242,0.5109906470043308,0.40827232436667943,-0.6259573235650553,0.4326180409914244,-0.10999270765318538,0.639469048466879
4.7,-0.24556490315643387,-0.04240737829085217,-0.005771303950879339,-0.0027193059775705722,0.045405563640508566,0.24391258985302577,0.21517791852614754,0.444609858696582,0.8694944023397407,-1.6407849532736223,-1.8864522991576136,4.1479890175727805,0.22334963178730383,1.3628468300124346,-0.31722686524591664,1.0,0.500801373047319,0.5112719403669318,0.4082472387152573,-0.6259437495284904,0.43260443910305374,-0.10999038440923464,0.6394919366435011
4.800000000000001,-0.16842638261160814,-0.0955077714412517,-0.051696356552719015,-0.0017289989841241067,0.037829196887663445,0.23759383097921452,0.21505811074995862,0.4443144916272734,0.8696749432400263,-1.6392054177757003,-1.8877117372168826,4.147766959004932,0.2231637141133888,1.3630624084136425,-0.3172390017191862,1.0,0.5013166017827783,0.5118110284080596,0.40800240328949666,-0.6260187682266962,0.4326208338125872,-0.10997455077302028,0.6394101298552471
4.9,-0.20233812340264468,-0.23688486651016735,-0.007175000412898962,-0.0006240065687433015,0.037377081969168884,0.24417525738698784,0.21497291768126603,0.44409550613937765,0.8698078696609457,-1.6377689176804409,-1.8888572186134005,4.147569267626782,0.2229336369935289,1.3632664680480957,-0.3172832736364968,1.0,0.5015724291882194,0.5120936387198166,0.4079672847434922,-0.6260051269154844,0.4326053824241619,-0.10997236722825512,0.6394343145463707
5.0,-0.11368703859707038,-0.6202148870222596,-0.04867632908071118,-0.0007341977793691467,0.03705150694272989,0.24549535822156404,0.21532841438791836,0.4448489564854951,0.8693346024799897,-1.6365510717322227,-1.8899649440312034,4.147383354350856,0.22276827522588086,1.3634464869802987,-0.3173296516281917,1.0,0.5019974184006951,0.5125098492899256,0.4079619459699989,-0.6259540278405638,0.4325907612309092,-0.10997207703651737,0.6394942772223308
5.1000000000000005,-0.047245223859537694,-0.42060459238832815,0.048597157577091224,-0.016037432164003267,0.036907932853078286,0.24506284320722926,0.21543365495051295,0.4450634318098336,0.8691989692115674,-1.6352686300254793,-1.8911411442279886,4.147193991880092,0.22252769169512276,1.3636489164612362,-0.3173725319150649,1.0,0.5022035491457836,0.5127245810240799,0.40787544997784037,-0.6259841522452441,0.43259466542312824,-0.10996830493605265,0.639462796802712
5.2,-0.07506418054056117,-0.43429346985648287,0.01915826379045897,-0.0077508179994046165,0.03706993556121456,0.2440503833381998,0.21537184147552021,0.44491600410433296,0.8692897506539264,-1.6336161389905353,-1.8922714118909667,4.146973287316256,0.22232548772778316,1.3638747580328654,-0.3174068798337781,1.0,0.5024919889737122,0.5130407558683824,0.40771123883829935,-0.6260390850102701,0.4325972588953324,-0.10996195430324508,0.6394083548418492
5.300000000000001,-0.1089415657812349,-0.39892170503217794,0.03988411205110308,-0.001642507575958544,0.03969149784929096,0.2431723899621399,0.2157132826760598,0.44560863950837043,0.8688502272281221,-1.6322143731004906,-1.8934853126250029,4.1468081123853855,0.22212634289877708,1.3640173474531523,-0.3173999078662138,1.0,0.5029226664113472,0.51345179001577,0.4077859013413144,-0.6259353343007192,0.43258208981689145,-0.10995837978020241,0.6395207952518907
5.4,-0.2067547706111089,-0.37070400339250986,-0.10064284431052771,-0.007291517462498608,0.03794291723783557,0.23960822652309982,0.2156105331401817,0.44547113659308485,0.8689462272496461,-1.6310200415864258,-1.894672361881331,4.146633625030518,0.22192971288647456,1.364202238562716,-0.3174369522737681,1.0,0.5034241979824619,0.5139950278577161,0.40764445553525713,-0.6259451652051488,0.4325944650743607,-0.10996013194892612,0.6395025006402255
5.5,0.11044500515616051,-0.6229601112600216,-0.00043604558820143496,-0.01157826061924869,0.03490461043884174,0.2463063519541087,0.21539101614385991,0.4450594829546402,0.86921137188312,-1.6297060843013207,-1.8958956437677386,4.14641809463501,0.2216876346150238,1.3644244845576852,-0.3174644752586367,1.0,0.5036910735633987,0.5142582115295959,0.40749238954669975,-0.6259964154425465,0.4326040782580599,-0.1099873059092028,0.6394411559060088
5.6000000000000005,-0.12977777309668778,-0.1824885116448437,0.08364993477673582,-0.0004635687802204986,0.036127100934109035,0.24065000539741302,0.21511740921722092,0.4445103458104727,0.8695600319097022,-1.6280940937327562,-1.8971554241576136,4.146219983893669,0.22147944582652154,1.364600344533345,-0.31753236452211553,1.0,0.5039793860502262,0.5145482620983205,0.40738071589227165,-0.6260265101833986,0.43261346323428995,-0.10998938242449643,0.6394049856936577
5.7,0.08379505748593037,-0.4707608957630638,-0.1673785541440522,-0.0006718095505891843,0.032614248828059925,0.2479433297786674,0.21618266096926847,0.44679243905491867,0.8681229374840331,-1.6266571326077488,-1.8982179867411964,4.146018858450601,0.22122745523543427,1.3648071456904578,-0.3175759260986183,1.0,0.5043975878927429,0.5149895982587408,0.4072883115048873,-0.6260148548703952,0.432626059033443,-0.10997336227204618,0.6394106302818021
5.800000000000001,-0.08833624518154937,-0.13987377228471204,-0.08691707179422686,-0.0009318137274453749,0.03715747627710656,0.24388003193655286,0.21664938479411175,0.4477909082880462,0.8674942779391248,-1.6253850031035417,-1.89934265165586,4.145819187164307,0.22102932821807522,1.3649811744689941,-0.31755892674283165,1.0,0.5047043289280124,0.5153034601384485,0.40725778130426105,-0.6260003486059069,0.43261805962198124,-0.10996867315992531,0.6394310509801977
5.9,-0.0015262432071768972,-0.31965190117523745,-0.0998929106027872,-0.005578195923774262,0.038346082378383536,0.2463272949559001,0.21657359138608587,0.44762561993300165,0.8675985145179866,-1.6239756501656668,-1.9005086073371908,4.145651340484619,0.22075669347729487,1.365131707257087,-0.3176375392570458,1.0,0.505036670467002,0.5156305840843475,0.4072406790215917,-0.6259739948087824,0.4326073051347721,-0.10997723851248985,0.6394626528393441
6.0,-0.16238745622493694,-0.10789620690613938,-0.09102916877598677,0.0016089104784957483,0.04025612780482101,0.245210627240398,0.2166722919036536,0.447818883807023,0.8674741114282841,-1.622520280026725,-1.9019392673176847,4.14542158776958,0.22054116308178706,1.3653741763034137,-0.3176644484149378,1.0,0.5053292712661167,0.5159368818852413,0.4071910616942346,-0.6259634547814534,0.4326040130546577,-0.10997790157695089,0.6394750834331262
6.1000000000000005,-0.077669412365282,0.003449480035615432,-0.13054611091476007,0.004345111709420162,0.0368558714587601,0.24547610810823256,0.21652753506973205,0.4474906512050107,0.8676793058450806,-1.62111464483806,-1.9030440785248972,4.145239922252982,0.22032305619985504,1.3655657338265006,-0.3176985207725241,1.0,0.5057815422471907,0.516430719766546,0.4069975691788494,-0.6260076629554108,0.43261384126288005,-0.10996937960311143,0.6394266227008281
6.2,-0.07128113281242797,-0.49097275869418233,-0.1621837930215857,-0.008543200943351096,0.03477566997522286,0.2485482419742132,0.21614772938807006,0.44665893351601055,0.8682027141652433,-1.6197227219519281,-1.9040542974092238,4.145061315110461,0.220073862666748,1.3657727241516113,-0.3177179464580229,1.0,0.5061254006920721,0.5167737349419508,0.4069073302271325,-0.6260044331919672,0.4326214274916109,-0.10996462397247073,0.6394254699132007
6.300000000000001,-0.12183899009022603,-0.5112051193005968,-0.11290261815855888,-0.0036609594434869317,0.03954954189627806,0.24468071767996524,0.21648206746743007,0.4473267526672328,0.8677752647496157,-1.6182305068969727,-1.905094694177145,4.1448134956359866,0.2198002802082519,1.3659995765686035,-0.3177807699786585,1.0,0.5063631693144259,0.5170060792685758,0.4069381476446078,-0.6259726012094697,0.4326061527112134,-0.10995528663039579,0.6394685716385753
6.4,-0.20754109299387138,-0.22220567959047588,0.0015859546261606794,-0.003339036373840287,0.042429674951763426,0.24553600976345646,0.21666795128222577,0.4477159290937834,0.8675283487803811,-1.6168790907648478,-1.9063518383100462,4.14465933298008,0.21959779296738485,1.3662117867681112,-0.31777355101642807,1.0,0.5067642148878213,0.5174085177155395,0.4069072114750223,-0.625969132572235,0.432586201524017,-0.10995999574163826,0.6394846539630837
6.5,-0.19923152677539546,-0.17518330871324506,-0.05437401821023673,0.002597716847950113,0.0430996350203832,0.2436372208453264,0.2166974481005097,0.44781124486676877,0.8674717832692822,-1.6155897286869583,-1.9077565625781716,4.144406019221682,0.21939235236357876,1.3664072964495657,-0.3178075942817848,1.0,0.5071177920202294,0.5177802032576012,0.4067973843925247,-0.6259803336508833,0.4325879638717057,-0.10996936900698706,0.6394708854012555
6.6000000000000005,0.14125657140808134,-0.29208725298171984,-0.007146455173554159,-0.006208688908409424,0.03555279034898939,0.24309705065177717,0.21660392782084584,0.4476391894022311,0.8675838408186725,-1.614077433495018,-1.908870112146024,4.144253333077351,0.21918400538895733,1.3666169673054582,-0.3178761700436765,1.0,0.507436873921228,0.5181096934204503,0.40659277552977136,-0.6260318098104258,0.432609896602747,-0.10996760971867003,0.6394059549922926
6.7,-0.026166279325449106,-0.30387109268331247,0.029798938470005296,-0.005556668479012851,0.03896860047893035,0.24580186976383994,0.2163771043987362,0.44717740651966764,0.8678786208044316,-1.6125079866020495,-1.9098468387240206,4.144040397442275,0.21893076075596607,1.3668293952941895,-0.31788514078285834,1.0,0.5078324811524295,0.518497613157217,0.4065078134220899,-0.626019879591102,0.4326095638548333,-0.10997049874578768,0.6394173637176862
6.800000000000001,0.042045649122093506,-0.43549093078819856,-0.15395495192306985,-0.006911419690874697,0.03222747728650731,0.24521071896083074,0.21657608501305556,0.4475376897069993,0.8676431045021065,-1.6112428779095016,-1.910906487928249,4.143829822540283,0.21866807911961822,1.366993461078985,-0.317916645442952,1.0,0.50819156559356,0.5188599005456912,0.40663209927122873,-0.6259311623862902,0.4325678464626827,-0.10995243970332447,0.6395355339335502
6.9,-0.2076596065803397,-0.48731021364495336,0.1786716866116665,-0.0028986489657035546,0.042344522273981194,0.24826454241994142,0.21678800112471242,0.44792294643273967,0.8673914783331861,-1.609959019831757,-1.9123219980735222,4.1436457610397195,0.21848122655834956,1.3671612715988017,-0.3179281393634241,1.0,0.5084693239351806,0.5191244124219023,0.40659760036313203,-0.6259277565521032,0.4325726834466461,-0.10995203302435634,0.6395356655787301
7.0,-0.4170304969185561,-0.1094702638036274,0.09677675054505291,0.003977348981182703,0.04243080671402933,0.24916467016488014,0.21651843366639006,0.4474116474563132,0.8677224883522874,-1.6091547012329102,-1.91299515928879,4.143495082855225,0.2184203710070793,1.3672595024108887,-0.31796390215028936,1.0,0.5087589030537086,0.519415558574621,0.4064150875283775,-0.6259739388864543,0.4326007959094933,-0.10995892215324463,0.6394702609600758
7.1000000000000005,-0.3918595759199048,-0.3936854011352349,-0.2295899169969354,-0.003737511779228559,0.03571698836480467,0.2431132460943069,0.21651821142714753,0.4474566531186457,0.8676993542782132,-1.6091100649630425,-1.9129907093443812,4.143499281178147,0.2184420652336375,1.367291417966726,-0.3179599291739975,1.0,0.5090589250624576,0.5197314877150266,0.40623225434403604,-0.626020759309559,0.4326099715866432,-0.10996391823274179,0.6394173582912726
7.2,-0.0809779219259063,-0.40691122523193124,0.016812454373038785,-0.006759183991721573,0.0369569438442429,0.2401159594607706,0.21674196978611848,0.44795134741050097,0.867388321401286,-1.60906982421875,-1.9130026302733363,4.143487990231181,0.21842209875073237,1.3672770973488766,-0.3179704950207394,1.0,0.5090956424794112,0.5197794983265511,0.4062202026750581,-0.6260253233790457,0.4325996479877817,-0.10996606150118773,0.6394195057760794
7.300000000000001,-0.04195552800272402,-0.4332805885501192,-0.1705483268239973,-0.0048637270126029985,0.03953448976081942,0.24566573135557693,0.2167971573075378,0.4480979890901701,0.8672987783282379,-1.6090549103500917,-1.9130115582625882,4.143492827513783,0.21840649811367008,1.3672852562260382,-0.3179686735942758,1.0,0.509099403280709,0.5197725057260679,0.40624383908257944,-0.6260069019007577,0.4325993031538606,-0.10997286258755969,0.6394366045025162
7.4,-0.26084426140453054,-0.20416418603740055,-0.21574403925797775,-0.004308032141094036,0.04218936613046495,0.2385785556855229,0.21684364149103402,0.4482405640880436,0.8672134846239725,-1.6090097427368164,-1.9130000633640893,4.143495082855225,0.21842809639809796,1.367265656371223,-0.3179576583445104,1.0,0.5091107451106921,0.5197689097314757,0.40627747090726507,-0.6259872727437598,0.432592156170541,-0.10998450828147405,0.6394586528624304
7.5,-0.416754504076478,-0.07659712153568884,-0.2445869419989142,0.0061847443740056796,0.04716801210353195,0.23452130963574924,0.2168973402187255,0.4483517369020061,0.8671425794787505,-1.6090444198137597,-1.9130168090111457,4.143499285359926,0.21839301470203867,1.367271900177002,-0.3179800655718719,1.0,0.5091118408050463,0.5197704390964581,0.4062785180683233,-0.6259849322312454,0.4325914299713649,-0.10998417364069074,0.639461492885496
7.6000000000000005,-0.16596197506494004,-0.20652571854845647,-0.1937729131323508,-0.003065349159037916,0.04039819790496539,0.23785697840215825,0.2169089999672064,0.4483844735214842,0.8671227401628503,-1.6090143664604883,-1.9130068079053582,4.143515193172763,0.218386305218359,1.3672595024108887,-0.31794777804111013,1.0,0.5091254639702292,0.5197625073800063,0.4062730341944776,-0.6259804886025676,0.43261263978395037,-0.1099839391862645,0.6394515344489565
7.7,-0.198375622851226,-0.2818796098343495,-0.051384258917548775,-0.003525253329935807,0.04096210550200345,0.2339435530800372,0.21694866977104013,0.4484722909425354,0.8670673468802168,-1.609023768351581,-1.9130264134918746,4.143516183073301,0.21842154185514118,1.3672492893890178,-0.31796288983660115,1.0,0.5091185956292578,0.5197752501189719,0.40626176235839373,-0.625988590208584,0.43260962189702645,-0.10997688976698092,0.6394468575948771
7.800000000000001,-0.1400054403911145,-0.3140373345056936,-0.03387504270815237,-0.002570077110710885,0.040853812826690566,0.24056551103177848,0.21713751599605033,0.44883172384580017,0.8668340934691701,-1.6090497031151587,-1.9130269489684046,4.143493561140197,0.21839024734347345,1.3672848659838264,-0.31796018139597054,1.0,0.50910653910053,0.5197854441784361,0.4062571789382483,-0.6259954163492936,0.43260234257457464,-0.10996840030697463,0.6394465598019825
7.9,-0.14629077599251233,-0.3039651751593403,-0.030661032223487743,-0.0013294258854247712,0.03944718810776658,0.23928726845407872,0.2170564854575589,0.44865725996023764,0.8669446862455151,-1.6090117481363035,-1.9130169563081871,4.143526666528955,0.21840784984663092,1.367271900177002,-0.31798388747072415,1.0,0.5091107689324555,0.519779206414521,0.4062587696524417,-0.6259921398717045,0.4326076676681492,-0.10996932628744321,0.6394460055152854
8.0,-0.12460977838151721,-0.49832371768347694,0.0025115851927067813,-0.007208505442332853,0.04126618281828205,0.2364053855055309,0.21687822441345148,0.44826441654617216,0.8671924209171594,-1.60902793423633,-1.9130359730306596,4.143518924713135,0.21840112625918667,1.3672531301275117,-0.31795799254222107,1.6219399343820982,0.5091090681770475,0.51977733807621,0.4062654024040524,-0.6259901011644158,0.43260259543900037,-0.10996920140906338,0.6394514542989622
8.1,0.055030661666365124,-0.4973144977901969,-0.03488452475704244,-0.0076039040512404215,0.03749697806271795,0.23810362343257238,0.21676571931698776,0.4480161635918716,0.8673488365682342,-1.6090095448338129,-1.9130154778558355,4.143506329044018,0.2184043028139983,1.3672720980800055,-0.317981895990027,2.0,0.5091194688780981,0.5197737979905215,0.40625475649908555,-0.625994863825625,0.43261594318632646,-0.10997159763462662,0.6394373494554648
8.200000000000001,-0.3022356966334787,-0.19675348929219227,-0.16056460266408976,-0.00043683559698700714,0.03331689938135704,0.23446226417936603,0.21695720566084672,0.4484764430759387,0.8670630783751798,-1.6090266443948371,-1.913019338551697,4.143504227858973,0.21842209875073237,1.3672453295359799,-0.3179735711332908,2.0,0.5091269662795616,0.5197707425255875,0.40625706747444335,-0.6259864828368131,0.4326174279813316,-0.10997610379188597,0.6394437746253927
8.3,-0.21765494369816082,-0.14450093457269586,0.010048175450804827,0.006784780443161676,0.03573077334932753,0.23942989013540197,0.2172744339744142,0.44918637493133307,0.8666157697968482,-1.609017393245487,-1.9130364962686384,4.14350975930491,0.21844119335119988,1.3672810655852263,-0.31796390215028936,2.0,0.5091132667632643,0.5197734917944183,0.4062664312096314,-0.6259824799015,0.4326028830136832,-0.10997408913388927,0.6394578799137509
8.4,-0.0833328254210004,-0.4875900570983064,-0.14895678765476444,-0.0058958388968546665,0.039282575044366344,0.24106731471282666,0.21747450320418382,0.44962627702917485,0.8663376950932866,-1.6090295732391546,-1.9130074998218805,4.143523303185475,0.21838396316931258,1.3672766742442022,-0.31797096776974576,2.0,0.5091308463880996,0.5197634704600833,0.40627123348912614,-0.6259651266136457,0.4326192822292043,-0.10998595365476838,0.6394617321667515
8.5,-0.09095213919112816,-0.20889022609879482,-0.1677268859203421,-0.005765578319700564,0.04603074281963475,0.23826471778693134,0.2173716471359025,0.44938382101648056,0.8664892750816302,-1.6090509344595982,-1.9130101711733596,4.143499844488646,0.21843202046746646,1.3672694241276229,-0.3179396618424882,2.0,0.5091224259032393,0.5197700259984188,0.4062751042601884,-0.6259668409452692,0.43261872607167506,-0.10998199768380698,0.6394611106819557
8.6,-0.021192904528671324,-0.4250128962424041,-0.19625442444441207,-0.00713178123413491,0.03876211408030693,0.2391568445475168,0.21739791275765263,0.44942411247666536,0.86646167391667,-1.6090197996680309,-1.9130366190945722,4.143516763942459,0.21837891664048684,1.3672856851036976,-0.31797318547141035,2.0,0.5091088257877266,0.5197797222339522,0.4062802436073414,-0.6259733009601103,0.43260960169147894,-0.1099715394055225,0.6394627585170407
8.700000000000001,-0.06754026873288099,-0.1640256459430935,-0.04217475569827822,-0.0003815857439843863,0.041829141331677755,0.2400931354445146,0.21771988718957802,0.4501119397518229,0.8660237199625197,-1.6090173378527144,-1.9130269489684046,4.143518924713135,0.21843449651684566,1.3672833442687988,-0.31797534624208623,2.0,0.5091147509647306,0.519777498376523,0.4062741511039718,-0.6259817990420586,0.4326069968105334,-0.10996740060852608,0.6394569136243993
8.8,-0.23130832411078694,-0.2559137369701068,-0.031407426736733385,-0.007995704024364373,0.04697992849808215,0.2408102891308523,0.21745061081188327,0.4495056070486503,0.866406193708021,-1.6090221405029297,-1.9130269489684046,4.143507480621338,0.21839700106702928,1.367229788184628,-0.3179511023316008,2.0,0.5091279355324617,0.5197703616147016,0.4062640116940864,-0.6259794364736306,0.4326211595304718,-0.10996318367099936,0.6394503699862906
8.9,-0.14457626035951068,-0.16646419468799117,-0.05038377787779327,-0.007102400525541524,0.044379578848346056,0.23918090965062055,0.21728354594029053,0.44918446134240814,0.8666147778048728,-1.6090363540621309,-1.913026074395128,4.143506002522762,0.21841880485906875,1.3672627963025523,-0.3179844501165359,2.0,0.5091312304421369,0.519762240776229,0.40626621290740433,-0.6259692106015031,0.4326228272864101,-0.10997131553927841,0.6394578535354808
9.0,-0.007457896326413537,-0.24128636008349486,-0.026795347524937646,-0.009276196559076064,0.04567418588900733,0.2401023285935315,0.21749998396994544,0.44966163393574166,0.8663127413264132,-1.609019532891056,-1.9130388698973597,4.143514902285902,0.2184194911388586,1.36727832963058,-0.31796153366061364,2.0,0.5091157427259126,0.5197729720713273,0.40629782219680666,-0.6259646915317898,0.432602712325851,-0.10997765408673851,0.6394747953167549
9.1,-0.3069457705760855,-0.15357702576956178,-0.07311320336839655,-0.006656185691056073,0.03684563639307653,0.23814340947838372,0.2176392576835186,0.4499616713556689,0.8661220286824886,-1.609034272226699,-1.9130150280394496,4.143501172124978,0.21841579025437233,1.367265591680642,-0.31796390215028936,2.0,0.50911099970938,0.5197783679775718,0.40628965269751194,-0.6259713843904979,0.4326011739185716,-0.10997615958522969,0.6394695415509652
9.200000000000001,-0.34544986131782346,-0.2567952815111702,-0.06290772973597947,-0.0320015592897728,0.02058620025334203,0.23141724023349727,0.21729824824078023,0.44923652325017077,0.8665839557081348,-1.6090399063908543,-1.913009212574154,4.143507741126028,0.21842286558625454,1.3672706859979955,-0.3179765604210927,2.0,0.5091162764047444,0.5197744625016372,0.4062721279137201,-0.6259807437660825,0.4326054918940053,-0.10997914570416306,0.639456944858206
9.3,-1.1029215449746212,-0.24464624595137172,-0.2442250739688259,-0.043590012451970535,-0.02508944195207265,0.24277536356655835,0.21744968677442023,0.4496535103589714,0.8663297106627018,-1.6090193934663928,-1.9130319308113817,4.143525586235674,0.21844044653556877,1.3672833442687988,-0.31796761736257234,2.0,0.5091316211349757,0.5197606659269876,0.4062924381887748,-0.6259665811743385,0.43260966097260567,-0.10999713522102171,0.63946489405537
9.4,-1.7551016194854845,-1.2278388520060701,0.14429950523440155,-0.01266959766171703,-0.11745538012784924,0.262836257606654,0.21750653347489257,0.44970062520226584,0.866291072011911,-1.6090198674152807,-1.9130070809719617,4.143518924713135,0.21844183227144992,1.367271900177002,-0.3179625076883594,2.0,0.5091225456993567,0.5197640437729653,0.4063003953603402,-0.6259600328076608,0.4326049469660197,-0.10998467870577164,0.6394766357248308
9.5,-2.7539117294469833,-0.8173816401864947,0.10115755789638975,-0.02844469213034645,-0.21150029760800496,0.2948043610313422,0.21617536407835514,0.44667069082251953,0.868131779380914,-1.6089963870190827,-1.9130269489684046,4.14353401778408,0.2184471214736146,1.3673002300237227,-0.3179686683832193,2.0,0.509098766861316,0.5197949314886696,0.40627606741035716,-0.6259943659804679,0.43258429786962516,-0.10996119757071302,0.6394610340170621
9.600000000000001,-3.27080369082314,-0.8439289059698373,0.3530000589974417,-0.03627455019587966,-0.23099938616939036,0.31242987344377254,0.21048101806721387,0.4341751361051737,0.8757587033240981,-1.6090209340599717,-1.91304541038249,4.143541560128087,0.21842890085526795,1.3672875646713178,-0.3179821483466218,2.0,0.5090997403195815,0.5197983228270939,0.4062732722075013,-0.6259914415696388,0.4325891286815543,-0.1099588816119611,0.6394610271023135
9.700000000000001,-1.9259821550809044,-0.42844145987276083,1.1883362849669912,-0.0011346855757727843,-0.10582550715188146,0.24093989649280095,0.20597367487524296,0.42428494166310693,0.8817917879599725,-1.6089868095451398,-1.9130269489684046,4.143494174188991,0.21839076490781764,1.367192149888179,-0.3179947941047472,2.0,0.5091127989378738,0.5197752414996983,0.40628393494498316,-0.6259644943638052,0.4326140310394588,-0.10997480925474651,0.6394678203577083
9.8,-1.1581888359284878,-0.3806267007339794,1.3289357728238822,-0.023586972741512564,-0.06972796689587395,0.2554736362888138,0.20565701457141236,0.42359290458572413,0.8821978639622389,-1.6090230889387922,-1.913027423186336,4.143549212047426,0.21839871214203624,1.3672599792480469,-0.3179712934433058,2.0,0.5091167973036398,0.5197726077465024,0.4062650496800212,-0.6259811064270058,0.4326218907076529,-0.10999128875709369,0.6394434067800769
9.9,-1.1566131701811344,-0.31775767436183816,1.6894462976839393,-0.03132918667407426,-0.06449920839652717,0.2504738213337948,0.20534035426758177,0.4229008675083413,0.8826039399645053,-1.6090339048038695,-1.913062868383285,4.143530368804932,0.21839857014885247,1.367242097510618,-0.31796390215028936,2.0,0.5091070045843299,0.5197924374250383,0.40626549697740155,-0.6259925607019285,0.43260570515009333,-0.10997896426826484,0.6394452636746262
10.0,-1.150153019096147,0.03183190493397886,1.731208074162005,-0.02477719725835899,-0.05831627999637616,0.2549687536058254,0.20452157817719083,0.42109067758818325,0.8836582281368703,-1.6090228282529537,-1.9130507908263148,4.143522622612952,0.21838280674288957,1.367267206368842,-0.31799929994512965,2.0,0.5090999817890075,0.5198065623396444,0.4062668342345276,-0.6259928368996515,0.43258970875330327,-0.10996196331234835,0.6394587388217887
10.100000000000001,-1.0853321512341838,-0.23014207561154504,1.8506112802508434,-0.038995536076127775,-0.05636620417007848,0.2532840299149097,0.20412925045136154,0.4202336200875284,0.8841577155394597,-1.6090305724481897,-1.9130430858699898,4.143503514800485,0.21839825689282222,1.367279296935074,-0.3179606633183713,2.0,0.5091175885742236,0.5197961757021787,0.40623869117978534,-0.6259981154882104,0.4326035223269833,-0.10997165844045256,0.6394425589647228
10.200000000000001,-0.7821325074794364,0.8410167885259202,2.4445860369127823,-0.08657103525497674,-0.05173714948965478,0.2570031005705979,0.20401064739618227,0.4199876228330004,0.8843019851767955,-1.6090221405029297,-1.913095187076742,4.143530368804932,0.2184143337846401,1.3672796170850745,-0.3179515043841761,2.0,0.5091225193571568,0.5198040003738637,0.40623580892909567,-0.626004984260238,0.43260903693855035,-0.10996990640606724,0.6394324049698138
10.3,-0.7251315167016431,1.25023083549242,2.6657823171501422,-0.13085919864742115,-0.05542156295487779,0.2711702099977308,0.20402763091467874,0.42001762094892686,0.8842838274054308,-1.6090349093458862,-1.9130603894735645,4.143536126772707,0.21837441503491206,1.367266142209226,-0.3179515043841761,2.0,0.5091176665131759,0.5198000221845639,0.4062413949124514,-0.6259999482189056,0.4326189587360103,-0.10996245150946563,0.6394319046076181
10.4,-1.020880364011856,1.643205648839574,3.019579736617589,-0.15754763855752893,-0.06684145084383929,0.2762878529829116,0.2041076964793391,0.4201760267104487,0.8841900998116555,-1.609018014454509,-1.913074632684225,4.143522733373215,0.21837855089375835,1.36727571789286,-0.3179836081493532,2.0,0.509109845554394,0.5197974300513595,0.40623179205268145,-0.62600693420458,0.43261618955122716,-0.10995950775578663,0.6394274450788489
10.5,-1.0507314896749882,1.8219787936643814,3.184616285157847,-0.1763076269882552,-0.08222992442581739,0.27853185550211307,0.20409680187767257,0.4201536516724447,0.8842032497812861,-1.6090261989749983,-1.9130568785344175,4.143513487159999,0.2184399340699811,1.3672714233398438,-0.31798563360272386,2.0,0.5091009517291529,0.5198078553332619,0.4062088146352106,-0.6260229095137066,0.4326054865969133,-0.10995783441056328,0.6394193337567926
10.600000000000001,-1.113972075293578,1.968082866545934,3.1329729065140146,-0.18518273741717897,-0.08311626430525805,0.2772104726680145,0.2040415757022727,0.4200431688652117,0.8842684890420194,-1.6090583801269531,-1.9130934385322107,4.143539344610416,0.21839825689282222,1.3672574096201147,-0.31794389874631945,2.0,0.5091054312946839,0.5198038826088007,0.4062285348405409,-0.6260063707163401,0.43260768019552265,-0.10996180748939102,0.6394333583353863
10.700000000000001,-1.06939241311789,1.8781562855799723,3.189827986760656,-0.19231064171927664,-0.08670076019111828,0.27847674930507804,0.20401424504408022,0.42000900571498445,0.884291028354228,-1.6090338510500786,-1.913042722051027,4.143534375044745,0.21843049027703154,1.3672880377275773,-0.31796760021781006,2.0,0.5091167192128649,0.5197867361911791,0.40624708367950196,-0.6259933197503039,0.4326103613967238,-0.10997751509277606,0.6394416197075448
10.8,-1.0466222696918936,1.9521350349699798,3.196778746127082,-0.19600884991904965,-0.09016932697098926,0.27936084990889504,0.20392941658820574,0.4198383627743247,0.8843914801432995,-1.6090385552010205,-1.9130647202212587,4.143530368804932,0.2183906690557238,1.3672512822540321,-0.3179877440081995,2.0,0.5091222026286474,0.5197829512960443,0.4062404378611044,-0.6259984760152535,0.432606819100481,-0.10997253974299173,0.6394398240622958
10.9,-1.0385135636225458,1.8725331170503883,3.220060206344137,-0.20544036266185506,-0.0883562372824432,0.2813024083131892,0.20353065388055205,0.41888812024201866,0.8849339036868376,-1.6090265094845573,-1.9130190745836206,4.143543429959833,0.21842209875073237,1.3672638713925163,-0.3179515043841761,2.0,0.5091185447195976,0.5197872721191313,0.40624281261088363,-0.6259959437131993,0.43260825848861806,-0.10995928784592456,0.6394436082708803
11.0,-1.0904008607021205,1.9428813960722169,3.339029166327439,-0.2116933450806348,-0.09071109658554068,0.2857078632614755,0.20357746463592286,0.4189570703311811,0.8848904934789305,-1.6090289197850085,-1.9130615956033041,4.143530368804932,0.21843290352772174,1.3672759256719125,-0.3179831970300521,2.0,0.5091065424664423,0.5198001953075561,0.40624969173465647,-0.6260005323067496,0.43259696556501087,-0.1099572864237569,0.6394471003123988
11.100000000000001,-0.8809641967525147,2.138284161933134,2.7610450661576658,-0.2416664717436034,-0.08894504039978499,0.2852778236114934,0.20335680153985378,0.4184925643040807,0.8851608696705624,-1.6090590073444893,-1.9130208358759186,4.143553150953849,0.21842209875073237,1.367251131411394,-0.31796760246012756,2.0,0.5091072832628982,0.5198037382642009,0.40624742856108925,-0.6260067581378042,0.4325918011683697,-0.10995929141635752,0.6394441543707436
11.200000000000001,-0.8595981777788841,2.369817330163772,2.2453149363076315,-0.27414405847374024,-0.08450133268535553,0.2854679467769502,0.20286449143541194,0.41740622078444006,0.8857854670628327,-1.609023558519215,-1.9130361429429648,4.143525301228088,0.21841519085953306,1.3672966286749513,-0.31796090950777145,2.0,0.5091062423463208,0.5198007249431124,0.40625836064382925,-0.625992301984618,0.4326012943381639,-0.10995721275071613,0.6394522416545569
11.3,-1.0098415290592089,2.6255600805129733,2.320601819239531,-0.2702674438270836,-0.09300710708632356,0.28954457183379023,0.20230145003585995,0.4161315940404693,0.8865140021927854,-1.6090395367519827,-1.9130269489684046,4.143522892610402,0.21840867039894665,1.367271900177002,-0.3179877440081995,2.0,0.5091002685608331,0.5197987559287467,0.4062708000852477,-0.625986281213754,0.4326004478491596,-0.10994821349528067,0.6394602556860571
11.4,-1.2768568273967664,2.687363020500363,2.117903080066938,-0.27854551557130736,-0.09183278242884808,0.29050119206828123,0.20166071338353586,0.41475123309741196,0.887306361711201,-1.6090221405029297,-1.913031767234748,4.143559789872848,0.21842710974772966,1.3672595024108887,-0.3179730964785151,2.0,0.5091033092870341,0.5197941830628489,0.40625200211626017,-0.6259974337078329,0.43260448929642614,-0.10995099745089777,0.6394461251671939
11.5,-1.1158847938985679,2.7651416219461233,2.3945812580152124,-0.28004872422746546,-0.09388829726772419,0.28627784342005713,0.2010151979421979,0.4133997038755482,0.8880841717037977,-1.6090575980028685,-1.913028453053183,4.143542766571045,0.21843449651684566,1.3672711180529173,-0.3179654062350676,2.0,0.5091060456393304,0.5197972965524451,0.40625136877004664,-0.6259949168700866,0.4326018094947798,-0.10996840899615595,0.6394474079214882
11.600000000000001,-1.1209282539469605,2.584123100944215,2.1769717241067656,-0.2841741765188546,-0.0928335258756591,0.2883852534602751,0.20072789079191816,0.41282659930643634,0.8884156018000872,-1.6090159025358968,-1.9130509411493009,4.143554840829446,0.21841586078369937,1.3672471046447754,-0.3179751959191003,2.0,0.5091156600920345,0.5197911196402099,0.40624695137433675,-0.6259945200210921,0.43260791710412316,-0.10997936734289548,0.6394417797745555
11.700000000000001,-1.172251854893657,2.6193156362073147,2.1618016204522057,-0.2814907943828281,-0.08920019426148411,0.2901340163464666,0.2007860771290763,0.41295815763594246,0.8883412641413164,-1.6090222846692248,-1.9130436290291464,4.1435378170739865,0.2184051322181038,1.3672545529138305,-0.3179925493389626,2.0,0.5091255149108019,0.5197821377210915,0.4062358721295467,-0.6260032945586449,0.4326161002815645,-0.10998368893420923,0.639426909933666
11.8,-1.1145900891631635,2.4290467637697337,2.0635682082776206,-0.285731365498448,-0.09058825914243983,0.2923249410769343,0.2009904476728405,0.41337389380841055,0.8881015807230633,-1.6090184517970598,-1.9130620715396431,4.143547121101166,0.2184097009846191,1.3672631911167585,-0.3179917635744657,2.0,0.5091099336507386,0.519791888961043,0.4062473341029693,-0.626004843883802,0.43260201059691017,-0.10997157955681909,0.6394370082747054
11.9,-1.0342112061692,2.5097675626688636,2.050318138215612,-0.2852912061520877,-0.09192556429145134,0.2917123056448955,0.2003067392539616,0.411831796743711,0.8889713873449664,-1.6090104166507497,-1.9130514388204813,4.143529124656132,0.21839955288115548,1.3672705523491353,-0.31798577410593293,2.0,0.5090997778409907,0.5197949608084877,0.4062609020669672,-0.6259954160718536,0.4325930647163906,-0.10996339252818978,0.6394536978702983
12.0,-1.1937649470891152,2.5450859189254675,2.121073155802734,-0.2843925705228061,-0.09248782571339695,0.29585546743012603,0.20052606570991277,0.4122961162123058,0.8887068050556955,-1.6090469437718327,-1.9130589497963486,4.143526757324367,0.21841818631345433,1.3672595024108887,-0.31798383157092147,2.6285085408984874,0.509100203263604,0.5197863425493873,0.40627064071764796,-0.6259845708314945,0.432593829971558,-0.10996323627683169,0.6394638238547778
12.100000000000001,-0.9635287331909007,3.0906957521038203,2.4407080737670364,-0.3164428324519342,-0.08523616925113527,0.2958649470408813,0.2002510856567746,0.4117395755582173,0.8890247742210465,-1.609335027754616,-1.9127370871782254,4.143527006853326,0.2184709625136991,1.3672140344924362,-0.31796070156809514,3.0,0.5091086554634963,0.5197784373594285,0.4062837278985252,-0.6259681412679381,0.43260764216301584,-0.10996961330215399,0.6394694662060836
12.200000000000001,-0.6488743112307903,3.81107254394394,2.8792388978882166,-0.3628139019690796,-0.05398899485317661,0.2961447103675597,0.19904960013810058,0.409190879772332,0.8904717255896296,-1.610577384790156,-1.9115466639398735,4.143603603204463,0.2185687744704968,1.3670062068174018,-0.31791631425932654,3.0,0.5090536584239933,0.519671550422992,0.4063313389923856,-0.6259506208170041,0.4326182349755819,-0.10998522255067308,0.6394767657123268
12.3,-0.4690103046026165,3.4916515367771384,2.905771694904971,-0.35403811796553997,-0.04339103544523251,0.28625929554321,0.19706801850444225,0.4050328666056969,0.8928044604961114,-1.6118472548790488,-1.910508489950139,4.14379864286031,0.21888744275200975,1.3668596819266807,-0.317936552113473,3.0,0.5087935725678675,0.5193096669169659,0.40644131015544216,-0.6259290725740997,0.4326358995238149,-0.11001941424593786,0.6394800255197404
12.4,-0.7003045437984824,2.696915551606716,2.8493710873543905,-0.3147812640946709,-0.04052585903854794,0.26290723628329815,0.19605386700223593,0.4028338019268162,0.894028838416582,-1.6132882197218166,-1.9094842544031099,4.144120016169415,0.21909509881651354,1.3666111368742637,-0.3178204293226368,3.0,0.5084910361383721,0.5189867254610138,0.40654021332305934,-0.6259143897331032,0.4326284830511924,-0.11003472640146097,0.6394967797914364
12.5,-0.6123659204261525,2.1328140970590512,3.215508006006408,-0.27877378034635364,-0.047687953860643145,0.24259512093577149,0.195842829375793,0.4022655324061451,0.8943310443665049,-1.6149456471773194,-1.9083785107018272,4.144286161547461,0.2193940059168418,1.3664425626112915,-0.31785577786297253,3.0,0.5080672358923705,0.5186639605900867,0.4064868316736668,-0.6259864639729728,0.43262454579511456,-0.11000402749431322,0.639434174276927
12.600000000000001,-0.5313193826786349,2.236352712725861,3.056323931136777,-0.2665471945051587,-0.0441974924417848,0.24035689004644428,0.1956476875256188,0.4018395037324378,0.8945652512491233,-1.6163349151611328,-1.906974051261558,4.1445078691319495,0.21962856294999142,1.3662849707806122,-0.31779091653574804,3.0,0.5077842613130749,0.5183937734222945,0.4064379107389193,-0.6260370027936978,0.4326445049903513,-0.10999919125274474,0.6393720210945106
12.700000000000001,-0.6609025801999828,2.0485421985035006,2.9599805286086505,-0.2510973109226083,-0.04224108487562452,0.22202106608404626,0.1954490462564006,0.4014185709847778,0.8947975964360039,-1.6176795959472656,-1.9056566598529692,4.144682706820566,0.2197893378824247,1.3660593032836914,-0.3177729969248234,3.0,0.5074822424036594,0.5180668087022126,0.4065683526685827,-0.6260042536271255,0.4326403045552349,-0.11000435585661003,0.6394060392330304
12.8,-0.5991643538997633,1.7011113010036456,3.07940291769636,-0.22488058398383454,-0.05078220925616251,0.19758706449222066,0.19478680332330406,0.39988332724485026,0.8956271103920697,-1.619023730533946,-1.9046524210403961,4.144897839980691,0.22010025586671075,1.3658684949833673,-0.31772377995998696,3.0,0.5069829486316408,0.5175657906892671,0.40684870109307947,-0.6259367389873578,0.4325980027977169,-0.1099844675981662,0.6395041701571985
12.9,-0.6799990809091647,1.3847373649200114,3.018458251968047,-0.19606287423394236,-0.056989069425869496,0.19006571806483277,0.19412659028332882,0.3983530303248898,0.896453975363153,-1.6205018004722704,-1.9035717449583949,4.145126240468228,0.2202561555725609,1.365711455574792,-0.3177121321307581,3.0,0.5067052780830561,0.5172895047078305,0.4068744222538301,-0.6259527655477515,0.432610694370079,-0.10998100422096009,0.6394804931585554
13.0,-0.5306630512679061,1.349551937187644,3.1200469828427626,-0.17971938068200727,-0.06679094798711087,0.18468862482163892,0.19417765070464874,0.3985560964689342,0.8963526374167257,-1.6218917890008004,-1.9023955587456935,4.145306877654365,0.2204357042142541,1.3654605305369747,-0.31768742979954734,3.0,0.5064645663597098,0.5170483608078891,0.4068161022110664,-0.6260017968646214,0.4326390284848253,-0.10999222882388739,0.6394113941370809
13.100000000000001,-0.8764340308413523,1.3201065621245136,3.2466643022308856,-0.17210403704355792,-0.06032637912482808,0.171037912590618,0.1947463390048446,0.3997518047798928,0.8956954985160134,-1.623283545214891,-1.9010756279064422,4.145496686260939,0.2206985193439941,1.3653381518758194,-0.31765241665498856,3.0,0.5060412541534828,0.5166397899520367,0.4068794650112027,-0.6260260526100043,0.432630212523618,-0.10998922750107443,0.639394127670111
13.200000000000001,-0.9195528784723626,1.2611389629633654,3.1930929567487927,-0.15976087074103143,-0.057604168326800285,0.14762300130836117,0.1947371822091152,0.39961379485452037,0.8957572687612594,-1.6246772950166406,-1.8997457686992423,4.145712507618299,0.22090217836532403,1.3650998409326718,-0.3176154001763578,3.0,0.5056088858273321,0.5162158958671348,0.40711524124114135,-0.6259768094918339,0.4325885298170393,-0.10996720621201311,0.6394743242750887
13.3,-0.8713498516062568,1.1152743348193341,3.1128829905437967,-0.1478963599731121,-0.05645011623523178,0.13990236419345276,0.19355117568596966,0.3969782766604942,0.8971877138846178,-1.6261142424550077,-1.8987874874104926,4.145939350859309,0.22108440512642327,1.3649292250369573,-0.3175580879104511,3.0,0.5052468665842166,0.5158388474987755,0.40722744595067883,-0.6259629834631527,0.43259705366030277,-0.10996070535780925,0.6394832099246601
13.4,-0.5606597039737401,1.4820749178158306,3.0098004052066685,-0.17757458802227705,-0.0443455309442271,0.1424483472563691,0.19305292332912025,0.39596259105062476,0.8977439215777554,-1.6274446778600442,-1.8976718387999476,4.146130758439849,0.22132276543414514,1.3646793365478516,-0.31755404758934624,3.0,0.504954262122354,0.5155239074614805,0.40725442047544463,-0.625968241955209,0.43261355696696,-0.10997197884393933,0.6394649593691963
13.5,-0.272943606607943,1.7846192681900164,3.1083586162429704,-0.21457832682430536,-0.032985659637528066,0.13944490758547473,0.19147708494757532,0.39255014669392463,0.899572838655598,-1.6288889248977416,-1.8964968185402193,4.146345824211677,0.22156157277945934,1.364476146257058,-0.31750535778829525,3.0,0.5047029896467605,0.5152747226318013,0.4072619139818201,-0.6259954709177542,0.43261531524214414,-0.10998275580426649,0.6394352608623475
13.600000000000001,-0.6246323721612465,1.8985031499068559,3.180536932078604,-0.19737708815872082,-0.026206423902695307,0.1194504927763652,0.1902141011996516,0.38976973079358346,0.9010524471683832,-1.630340110325965,-1.8952103620307976,4.14654016494751,0.2217646624952217,1.3643073711971958,-0.3174961248980921,3.0,0.5042800901255442,0.5148760890970118,0.4073271985876178,-0.6260231332243194,0.4326140757881979,-0.10997482926893903,0.6394103807612115
13.700000000000001,-0.3024835695095708,1.6908851531542657,3.203765710555596,-0.19565338044738503,-0.027232890431017235,0.1113723739295516,0.1893661190244528,0.38783675606430057,0.9020657969939647,-1.6315613577823254,-1.8940135152010857,4.146671772003174,0.22195666348567797,1.3640925977244476,-0.31744739870090727,3.0,0.503883534245089,0.5144801423138317,0.40746694158986174,-0.625996005171555,0.4326088756204709,-0.10996329220798362,0.6394424419839742
13.8,-0.31878976601902836,1.3919720643871276,3.1578442679157686,-0.18944045909100737,-0.02145516958945934,0.10300533276666451,0.18781029930287488,0.3844619256204782,0.9038336673626847,-1.6328881207491428,-1.8929200719241936,4.146935634869384,0.22214054728401608,1.3638617811467084,-0.3174209687654633,3.0,0.5035617986429535,0.5141361899068078,0.40761274767629685,-0.6259536085421098,0.43260014257702445,-0.10997587102737486,0.6394876890036427
13.9,-0.3364725816610007,1.9800836537769486,2.9594040836385664,-0.21554258796733725,-0.010522960023204773,0.1026211998191072,0.18659314442075103,0.38188206172850575,0.9051762060065932,-1.6344406107980558,-1.8917483494602456,4.147091388702393,0.22236657675569357,1.3636472316813972,-0.3174107599511738,3.0,0.5032757473692181,0.5138148513725449,0.4077124061942333,-0.6259316510292472,0.43260614185738316,-0.10999206915966209,0.639502336969183
14.0,-0.06372681508686774,2.3158558922986887,3.2400257520756477,-0.25869927373718593,0.0031192693067413064,0.0970675089794124,0.18512996841518498,0.37872638182419915,0.9067978519538954,-1.6360017023641835,-1.8906403503644733,4.14732027053833,0.22263701923530294,1.3634573629083495,-0.31737421142880523,3.0,0.5028942064158648,0.5134351256016066,0.407680616520763,-0.62600024795788,0.43262378076549024,-0.11000011367759976,0.6394218708049959
14.100000000000001,-0.022155916967308453,2.285885702297955,3.255529503214767,-0.2444652545339066,0.004012830773011055,0.08067209088122382,0.1833028808992399,0.3747198006319152,0.9088356905042166,-1.6371627869339604,-1.8893995874143343,4.147546711139329,0.22284068856730635,1.3632980989600532,-0.31730491319765264,3.0,0.5025768179118721,0.5131260262886665,0.40766190095566857,-0.6260404470444143,0.4326372474369701,-0.10999160750211964,0.6393748642804873
14.200000000000001,-0.04642792508490036,2.0932410104309396,3.3094131633214317,-0.23108866456740168,0.0019434348898398242,0.07456652196107232,0.1831523156718641,0.37433169803537464,0.9090275052344297,-1.6384252254320308,-1.8883044622935687,4.147750449062929,0.22298588913327286,1.363071954604792,-0.31730313101949137,3.0,0.5022784242725297,0.5128382056948622,0.40778501126485245,-0.6260066256940819,0.43262481600641967,-0.10997113725551916,0.6394199106481193
14.3,-0.146252939207023,1.818836563803717,3.2965941969431944,-0.20433360562222896,-0.004583734025092914,0.07445767688124061,0.18315499948174555,0.37427435654169233,0.9090505769809588,-1.6399955274285938,-1.8870092593440786,4.14793062210083,0.22318951665844722,1.3628926039547755,-0.3172562713000133,3.0,0.5018115301946032,0.5123686034428713,0.4079556025916057,-0.6259819491312355,0.4326098830037446,-0.10997109446027606,0.6394541788686312
14.4,-0.17563093197925028,1.552238107812186,3.3657736648074468,-0.19513468676304518,-0.00458206646837604,0.05931282823504646,0.18304706369606455,0.3740458579358215,0.9091663318427968,-1.6414363912895746,-1.8857512837793637,4.148135943236508,0.2233786326294467,1.362733165598597,-0.3172184172912107,3.0,0.5014967974193346,0.5120371190939096,0.4080057905897589,-0.6260067905086937,0.43261052271458644,-0.10997997322498591,0.6394279000505438
14.5,-0.14240486606617087,1.3173399188252606,3.306723948526828,-0.18056454524343885,-0.0048090582402235795,0.05422854992477111,0.18283183119364835,0.3735754583494281,0.9094027087859653,-1.6426430781316097,-1.8846654098308764,4.148324962914814,0.22359110979204838,1.3625541766118343,-0.31719714799989873,3.0,0.5011892483890871,0.5117354364918545,0.4080908757340556,-0.6260071423679743,0.4325945767603595,-0.1099808272590426,0.6394381967768465
14.600000000000001,-0.3235132268374731,1.015329833033621,3.3688874612549253,-0.16221008639980874,-0.005681729994590755,0.05231362383458129,0.18246987746203888,0.3727618172974605,0.9098090721831216,-1.6439442718086648,-1.8836163141546776,4.148542881011963,0.22377830456102532,1.3623514935530174,-0.31712589499624305,3.0,0.5007869219505225,0.5113076829551474,0.40824154928042866,-0.6259677049634407,0.4325918627288882,-0.10997901464117177,0.6394789511642354
14.700000000000001,-0.3376689269414538,0.8770007312668114,3.48461542504239,-0.14090673946549745,-0.013163490913764168,0.04744623979248469,0.18234402883397197,0.37245154854143286,0.9099617616934601,-1.6454795155733553,-1.8823664431526275,4.148744680274714,0.22394446767337425,1.3621251326079309,-0.3171149399407753,3.0,0.5005005627711843,0.5110070486980062,0.4082886564688125,-0.6259707198630542,0.4326107918295107,-0.10996460994229304,0.6394656716564331
14.8,-0.31943390854207787,0.9470587283830862,3.628081689412433,-0.12387295623446117,-0.012970569399998405,0.04865324670859428,0.18229358104137333,0.37229222819261604,0.9100365596383465,-1.6470003128051758,-1.8810722566199973,4.148939114020615,0.22416076097829002,1.3619658022233514,-0.3170763062660027,3.0,0.5002206375979862,0.5107310556456638,0.4083158879919797,-0.6259962079109109,0.4326103904168178,-0.1099616848302699,0.6394414950985403
14.9,-0.45669410574330427,1.0012217769557563,3.488720287410643,-0.11866142459480139,-0.007300069265783306,0.05007463140325893,0.18172114798208752,0.3710031847621403,0.9106775486607528,-1.6481895697963975,-1.8798969395576361,4.1491788670721,0.22435109197583003,1.3617061323193207,-0.3170420961714695,3.0,0.49975421203377396,0.5102630536922927,0.40844241937762316,-0.6259997716249182,0.4325897387576092,-0.10996193236227648,0.6394519350806029
15.0,-0.3626339287004259,0.7852752488887547,3.4615017541660387,-0.12438038485789135,-0.014982152402077004,0.06178401949638867,0.1816848473882764,0.37094344426180764,0.9107093663908744,-1.6489783168872254,-1.8792091808714808,4.149330652187345,0.224456032340665,1.361593639747296,-0.3170089588371733,3.0,0.49937332806619933,0.5098908175907613,0.40856174926709904,-0.625990176445083,0.4325801771878144,-0.10995808441753467,0.6394684581507046
15.100000000000001,-0.4047082799471418,1.2493302841147957,3.3580068407393826,-0.1225098964258607,-0.01821913041643191,0.06866771558415724,0.18173671922788381,0.3710858751234783,0.9106409997101119,-1.648988879351074,-1.8792087040343226,4.149297315723209,0.22445988811712306,1.3615618148998767,-0.31700899155321105,3.0,0.4992367527528418,0.5097426347186167,0.4086116387505546,-0.6259723014657794,0.43258563033252256,-0.10996762395549062,0.6394806266878094
15.200000000000001,-0.5288500232116451,1.0767739603414528,3.531306067398148,-0.12977131048847465,-0.020672289017296487,0.056078283536391355,0.18188385846754165,0.3713956039761158,0.910485254332398,-1.6490188679320208,-1.8792397611125915,4.149299787681188,0.2244728515503287,1.3615722248518145,-0.31700882865390134,3.0,0.4991579260638924,0.5096698801401504,0.40863677938317927,-0.6259617255548756,0.4325916785294555,-0.10996542228767442,0.6394872662598718
15.3,-0.5894005543393338,0.7139124065441893,3.298467777191098,-0.12295398746215006,-0.028410952502115724,0.06590497696199318,0.1820480809452119,0.37173533250752244,0.9103138403096236,-1.6491206729019061,-1.8792087040343226,4.1492902386537756,0.22445790349926753,1.3615485585128888,-0.3170187301471683,3.0,0.4991506632816947,0.5096871725982864,0.4085945808440107,-0.6259857862382056,0.4326029067356342,-0.10995375227425112,0.6394581244088062
15.4,-0.8168873986808655,1.0783892008370914,3.246484507527037,-0.1207039548095882,-0.022266597708467017,0.059161329327610875,0.18124195134625953,0.3699858428683816,0.9111849656526436,-1.6490968827910446,-1.8792079470649012,4.149307894239839,0.22445863018991197,1.3615528821562497,-0.3169961198526498,3.0,0.4991465135455242,0.5096790284028277,0.40858313257484585,-0.625986611898926,0.43260627577674293,-0.10995146392478604,0.6394554303957987
15.5,-0.47599095010564235,0.9342494244116717,3.281939877276578,-0.12883325760157485,-0.027498494575454738,0.0693516668716045,0.18052664140123037,0.3684648639928092,0.9119450378607177,-1.649094581604004,-1.8792184263028213,4.149306394881163,0.22449010864547525,1.361549315542631,-0.3169882135857599,3.0,0.49914599615592503,0.5096658346538874,0.4085684913316844,-0.6259971462581713,0.43260757596877253,-0.10996611620689892,0.639441718515002
15.600000000000001,-0.41885193335045967,0.9628197720228092,3.475878154190217,-0.1279121356226168,-0.0282418911592686,0.069400147880245,0.18022197869763115,0.3678408273496541,0.9122565852097335,-1.6490968169082993,-1.879204047150374,4.149303362185526,0.22446711228676902,1.3615668039482305,-0.3170220372752049,3.0,0.49914520567980686,0.5096582760572216,0.40858178680866747,-0.6259936555362433,0.43259902761525765,-0.10997549191325348,0.6394493066015027
15.700000000000001,-0.5654696203187722,0.9877520268075703,3.4003780281349716,-0.12938379219428858,-0.025770556448209223,0.07158481561402741,0.17960559839955273,0.36643215318452077,0.9129450116141108,-1.6491463632417254,-1.8791777742539677,4.149318566090765,0.22446273650577792,1.3615927049878744,-0.3170557782710837,3.0,0.4991333514517593,0.5096581552718115,0.40861417066000716,-0.6259808917768873,0.43258551655901845,-0.10996690082639736,0.639472419042618
15.8,-0.46694466740396,0.933746735706424,3.3664645235323247,-0.1296501922086889,-0.02705485779449294,0.07017713826637803,0.18040649378985674,0.36814899847287424,0.9120936767395759,-1.6491060256958008,-1.879177097583375,4.149316756664796,0.22448782549269614,1.3615622520446777,-0.3170153022232973,3.0,0.49913731247405785,0.5096456177909329,0.4086094825200312,-0.6259857915284541,0.4325921267175996,-0.10996781569554809,0.6394629936263619
15.9,-0.6138432708978856,1.100034460171973,3.274448124394709,-0.1253210869515091,-0.024967013689797066,0.06994866025949123,0.18092325123006664,0.3693042873852604,0.9115262301439409,-1.6491308212280273,-1.8791870970529534,4.149306357216434,0.22444645940747066,1.3615781658895567,-0.31701738039125615,3.0,0.49914097566346294,0.5096525098277709,0.4086212263465274,-0.625975992623201,0.4325913513707933,-0.1099655157739795,0.6394735058774149
16.0,-0.4621581542021293,1.0853069660681054,3.3834925283562387,-0.12928505126305997,-0.029244928743123275,0.0729385950443977,0.17987537125721598,0.3671131280125504,0.912617051940544,-1.649120055339121,-1.8791848621764125,4.149313298544329,0.22447491211386583,1.3615668691009695,-0.3170439090655378,3.6476237434866956,0.4991547576328752,0.5096416289855816,0.4086010775051993,-0.6259813741005595,0.4326006217200873,-0.10998482746236547,0.6394586453357584
16.1,-0.4673429517070673,1.1350430882778069,3.423091191474958,-0.12795978469562821,-0.02949582877739667,0.07077236452154417,0.17933507348629096,0.3659145141254663,0.91320414914362,-1.6491101998799438,-1.8791954100184785,4.149318223233421,0.22444777757088427,1.3615512822889293,-0.31700403145193634,4.0,0.4991570926480277,0.5096390135608355,0.4085934231024135,-0.6259804375488673,0.4326099687873119,-0.10997689210273003,0.6394546034828382
16.2,-0.5754328891378824,1.4580893608755356,3.3395053794172753,-0.12224664004797554,-0.029170326522895165,0.07680987960311601,0.18038946035005982,0.36821512225247466,0.9120729625059918,-1.6491201265419522,-1.8791657645227067,4.149323034937539,0.22445790349926753,1.3615523212647507,-0.3170460613374547,4.0,0.49915577798054483,0.5096379284576279,0.4085945455833493,-0.6259709701696332,0.43261546745497786,-0.10997768296152058,0.6394600152269214
16.3,-0.5752188994045119,1.1372271164541488,3.303466802879335,-0.12867892326083458,-0.027321438588754483,0.07380779393735205,0.1801811180006589,0.36777713589727506,0.9122908989266627,-1.6491084253546897,-1.8791873618210884,4.149308681488037,0.22447434640893685,1.3615786954258264,-0.3170198800359321,4.0,0.49915285778468377,0.509648608021415,0.4085803270589687,-0.625981142141744,0.43261057126810654,-0.10997926822679807,0.6394530974749425
16.400000000000002,-0.6241730574957494,1.1393983966446406,3.2471803741262413,-0.13025507401050157,-0.024453828828008478,0.07374724664074017,0.1802808701383663,0.3679583908219998,0.91219805243138,-1.6490987382794173,-1.8791596529910637,4.14929770574246,0.22444777204181177,1.3615608300241415,-0.3170371202668504,4.0,0.49914980963975136,0.5096545584773797,0.4085818290252773,-0.6259918187123388,0.43260096334049647,-0.10997144080463628,0.6394504919299424
16.5,-0.5218874958100022,1.0537725548553467,3.5186208472429814,-0.13346545484047972,-0.027580296220400834,0.06993735244945114,0.1800266352250192,0.36740971877558315,0.9124693812931336,-1.6491258513500222,-1.8791586309540769,4.149298768660926,0.22445790349926753,1.3615689174076235,-0.31701250608782805,4.0,0.4991508419956758,0.5096470540868511,0.40858182060820664,-0.6260013487113764,0.43260263180624253,-0.10996946922296659,0.6394403726733788
16.6,-0.5776286466996554,0.9508619738435387,3.5822155489355665,-0.13722846809830547,-0.025983768713909856,0.0734209917713087,0.1799678194310258,0.3672751654114788,0.9125352249822588,-1.6491395035825827,-1.8791634834376802,4.149311673370049,0.22449684171382295,1.3615954366399798,-0.31702930132021123,4.0,0.49916004252090324,0.5096400846880996,0.408582473521541,-0.6259879655023562,0.43261719544796406,-0.10997050960144673,0.6394434425865645
16.7,-0.530159650978242,0.7737185221159655,3.4816283808988433,-0.14200900980014922,-0.0258365149769238,0.0753315611596452,0.18104953634253082,0.36962863055404177,0.9113654499348199,-1.649125841488174,-1.8791665280162497,4.1492665054699645,0.22445790349926753,1.3615648957395965,-0.31702654747133746,4.0,0.4991449817590779,0.5096521780000962,0.40858330496858514,-0.6259900419728248,0.43261134191535666,-0.1099652358263998,0.6394462769511602
16.8,-0.48213168456124217,1.0493049360860833,3.6047206775817617,-0.1347172346622653,-0.02720399746228947,0.0748862308456769,0.18211505515564413,0.3719512862266604,0.9102120906975311,-1.6491084395862017,-1.8791710781951727,4.149293869831523,0.2244603173896684,1.3615498542785645,-0.31704559977061864,4.0,0.4991394624941932,0.509651835688186,0.4085960617779889,-0.6259855449900412,0.43259739222581906,-0.10997057217989198,0.6394591988214489
16.900000000000002,-0.6391741140974486,1.133741203212055,3.453568475337503,-0.1318876765914828,-0.021681182837791434,0.06952133978906573,0.18167562824348263,0.370995389271054,0.9106900164863198,-1.6491346160162577,-1.879182345958134,4.149306064621028,0.2244767129206208,1.3615458581928719,-0.3170198966095346,4.0,0.49914835797834034,0.5096438604251528,0.40859399482742653,-0.6259803071053593,0.4326007597077574,-0.10997226193730764,0.6394617575906656
17.0,-0.6677839151207992,1.1163978731012802,3.446947290835645,-0.13474750304758537,-0.023466583564838193,0.07008477664611688,0.18149898524256997,0.37058335034636564,0.9108928929023113,-1.6491403508806761,-1.8791967831053675,4.149304693073145,0.22446396588990342,1.361584019926844,-0.3170291772361924,4.0,0.4991449441505008,0.5096471373055642,0.4085830642867746,-0.6259896869995185,0.43260229531279804,-0.10996477531780122,0.63945282394376
17.1,-0.5070330087403034,0.9947888123923776,3.342616463690246,-0.1366971671560556,-0.025350898599828572,0.07789293159103522,0.18140397497229852,0.3703538719252276,0.911005198467392,-1.6491308212280273,-1.8791766524330438,4.149305835443669,0.22448319679879924,1.3615622520446777,-0.3170476700158755,4.0,0.499138399320873,0.5096522413155157,0.40859507401195855,-0.6259884511165608,0.4325931561384023,-0.10996646083517822,0.6394599266742919
17.2,-0.5448757945403458,1.1783093835800678,3.435878398125191,-0.12888741543964832,-0.02659851322364557,0.07677824011282973,0.18169410945741138,0.3709857173864397,0.9106901890578905,-1.649104886615651,-1.8791848621764125,4.14929955534663,0.22447589084047664,1.3615706761752073,-0.3170109629735634,4.0,0.49913947576419415,0.5096452534004832,0.40861318242416816,-0.6259743849109686,0.4325990243171401,-0.10996239480568668,0.6394704256834647
17.3,-0.5780488714970893,1.166179632957123,3.383008387226084,-0.13133059094788826,-0.026342067202219398,0.07756230433684826,0.1818992218120648,0.3714507520758199,0.910459675257716,-1.6491231770728199,-1.8791545871637994,4.149284839630127,0.22445526936762655,1.3615636834696796,-0.31702930132021123,4.0,0.4991386987271854,0.5096496671050728,0.408607220025463,-0.6259812018610913,0.43259510587001504,-0.10997036330518212,0.6394650330458895
17.400000000000002,-0.5639626605951779,0.8955574990414253,3.3042752974677487,-0.13964827356138412,-0.027125242120944845,0.07837255211396582,0.18206197385985484,0.37183267716250323,0.9102712594374481,-1.6491422653198242,-1.879166444233781,4.149270613352457,0.2244526965405999,1.36157057756991,-0.31696704442983703,4.0,0.4991423371477173,0.5096492017384929,0.4086053542103972,-0.6259838366176842,0.43259408274751765,-0.10997533421421204,0.6394622910928454
17.5,-0.4494283581252565,0.9535508672250472,3.4366695715831725,-0.1365247821840952,-0.029323262057392076,0.07500407314763412,0.1812298424161835,0.3700412313392539,0.9111650603213681,-1.6491375336803484,-1.8791659491096229,4.149267989910052,0.22447139699318253,1.361586093902588,-0.3170018235506271,4.0,0.4991525283194649,0.5096389652240478,0.4086012368869609,-0.6259848264048273,0.4326015582954838,-0.1099733105168225,0.6394566129497825
17.6,-0.15386332904772132,1.9982430780862697,3.289888396555502,-0.1726407994285775,0.006107932430046141,0.08750012261340162,0.1820330042702666,0.3718034163242116,0.9102784887382969,-1.6491249042929161,-1.8791657926846512,4.149287692663942,0.2244253811279033,1.3615789453397817,-0.3170328756016143,4.0,0.4991552361257106,0.5096359075933027,0.40859745962609656,-0.6259880949501699,0.4326027877348806,-0.10997751718508035,0.6394518580303543
