xiamingqian9007/apple-picking-rnn/final_data/grasper_20191127_125004_noimg.csv
,/manipulator_wrench.fx,/manipulator_wrench.fy,/manipulator_wrench.fz,/manipulator_wrench.tx,/manipulator_wrench.ty,/manipulator_wrench.tz,/ground_truth.x,/ground_truth.y,/ground_truth.z,/joint_states.elbow_joint,/joint_states.shoulder_lift_joint,/joint_states.shoulder_pan_joint,/joint_states.wrist_1_joint,/joint_states.wrist_2_joint,/joint_states.wrist_3_joint,/mode./mode,/manipulator_pose.x,/manipulator_pose.y,/manipulator_pose.z,/manipulator_pose.rx,/manipulator_pose.ry,/manipulator_pose.rz,/manipulator_pose.rw
0.2,-0.7359988774767678,0.03464173456150056,-0.026762700552604875,-0.01647642275306222,-0.013055926067594988,-0.01621404899426508,-0.1902868066860352,-0.4702728184986643,0.8617623750987112,-1.9235566695027153,-1.7943234304541993,4.164791712336398,0.28940503179516597,1.3421238854425963,-0.3344989424503392,1.0,0.46114171527556425,0.46089272587370395,0.32651020227867494,-0.6658714152472494,0.4409165333442363,-0.12001156794407339,0.5897500254683602
0.30000000000000004,-0.22006993668556657,0.47892046893466333,-0.41602203398991233,0.0024299243252214444,-0.0008086174960938849,-0.0001208240875073519,-0.1903262686026271,-0.47042329753135737,0.8616715335639207,-1.9213843059450915,-1.7967499484872385,4.164516925811768,0.2895454990451687,1.3428094876556895,-0.33462303221976486,1.0,0.4612157212156996,0.4610111568230541,0.3264511747102533,-0.6658966288429311,0.4409097618594301,-0.11998556028943443,0.5897319110534134
0.4,-0.5979169997075203,-0.20802560306267578,-0.1633729671170017,0.0005047557254775064,-0.020641731118127688,0.0065613513699293155,-0.19055618673458946,-0.47142305189915895,0.8610736876271275,-1.917643483199737,-1.8004398293778225,4.163761615753174,0.28975632720142963,1.343366170569234,-0.33485507643423174,1.0,0.4616427548469148,0.461557327850289,0.3262369886158734,-0.6659480955959017,0.4408613286684983,-0.11992756238760457,0.5897218010525009
0.5,-0.7759155950763763,-0.2977332419566935,-0.26312503314923896,0.003849762635569067,-0.00656190544784208,0.0031403487301172512,-0.19062199242233402,-0.471622877040187,0.8609498387319274,-1.9143239290286334,-1.8043291575178346,4.162886142730713,0.290048098567425,1.3440530136461786,-0.3351054150912822,1.0,0.46267431466783593,0.46262324130347005,0.3258332014553196,-0.6659419280582823,0.44084520709918884,-0.11992384102599085,0.5897415740689003
0.6000000000000001,-0.7651111290526648,-0.10168318493124479,-0.35345806467794866,0.011085729517628826,6.518603076424191e-05,-0.0001385640463130453,-0.19050217220018084,-0.4709195037607011,0.8613612548336914,-1.9107693213366763,-1.8077611594904615,4.1621139479798375,0.2902313045366632,1.3446650505065918,-0.33528753683051565,1.0,0.4635169900406364,0.4633803024738063,0.3255354527369796,-0.6658873389012386,0.44088406079717085,-0.11997937779518329,0.589762872457994
0.7000000000000001,-0.379983603900349,0.07062856302939849,0.00026112913962306195,-0.0008375497872444484,-0.015466468032829027,0.006926793275670326,-0.19048826603553523,-0.47060911084274976,0.8615342566284976,-1.9075605725699372,-1.8113698800691067,4.16127827141843,0.29039611902977414,1.3454209158924877,-0.3354958288509092,1.0,0.4647853592196999,0.46451850064858546,0.32495122442581853,-0.6659023111328752,0.4409476244212555,-0.12004435879150221,0.5896852181185177
0.8,-0.5939759887650162,-0.2683064489229552,-0.10943560360983659,0.009639346490048144,-0.015941319731377177,0.006051454280545925,-0.19059186237012896,-0.47084615491938997,0.8613817446170348,-1.9043727535648056,-1.8145899660053895,4.160594106078973,0.2905685144611816,1.3461764902025806,-0.33567238137331235,1.0,0.4658410420808731,0.4655102925376942,0.3244757943222881,-0.6659290079592215,0.44096754888910783,-0.1200413265507713,0.5896407865006547
0.9,-0.6537473388976709,-0.12244662370570912,-0.03576639636449006,-0.0012555599273781095,-0.018071733049545062,0.0021788582579096547,-0.19069211970069264,-0.47120086086442536,0.8611655578439769,-1.9012573535860502,-1.8176220652286397,4.160077717437744,0.29070687792084204,1.3467156280869703,-0.33587318660698257,1.0,0.4666806220575995,0.4663607124445859,0.32422057909183377,-0.665887568407434,0.44094471814496505,-0.12000612159982549,0.5897118216205779
1.0,-0.6004060946292498,-0.26431629491152936,-0.08142636013150094,0.00747301122138619,-0.011344623324032974,0.00023372506396856547,-0.19072230534634704,-0.4712959836755765,0.8611068837226444,-1.8981986077139623,-1.8206758693333607,4.1594447018929035,0.29080693304028316,1.3472544838800389,-0.3360290336594344,1.0,0.46756114064276244,0.46727925183387947,0.323836643012477,-0.6659084131613017,0.44093405025664334,-0.11999347095366339,0.5896988346043777
1.1,-0.710903601722345,0.34318669159875154,-0.02886954195877961,0.019198324446457887,-0.015559360016360331,-0.001002211193244932,-0.1906676156620584,-0.4710766827053587,0.861238999052182,-1.8953392056051743,-1.823640393250268,4.158937690992853,0.2909280729828469,1.3477581456367704,-0.3362192717778328,1.0,0.46839085227120636,0.4680849177365138,0.3236113789675097,-0.6658533152009813,0.44091616049767135,-0.12001372708223429,0.5897703005066339
1.2000000000000002,-0.4879883806280062,-0.03714936274587671,-0.21398254228340202,0.005264952237734691,-0.012254098495663808,-0.001862430013542529,-0.1907225039573431,-0.47128371984215056,0.8611135036296138,-1.8924188613891602,-1.826654695701193,4.158451721197688,0.29102554960753907,1.3482488025807964,-0.3364025750911791,1.0,0.4692230008630423,0.46895679730122525,0.3232247068556546,-0.6658721828232601,0.4409165099316671,-0.12002282962502485,0.5897468845027224
1.3,-0.45118474937304404,-0.2200681552956918,-0.08455597810854174,-0.00130002139184266,-0.013257221936251862,-0.002073447385590437,-0.19078424802107313,-0.4715174309087999,0.8609718907382591,-1.889843442495562,-1.8293730002376956,4.157870477097595,0.29114900971673535,1.3488614884997738,-0.3365386600944209,1.0,0.469748605889313,0.4695344822781795,0.3230147835142707,-0.6658747694245131,0.4408931067022055,-0.12001517749185459,0.5897630177265509
1.4000000000000001,-0.5598828032678689,-0.2806710583339321,-0.03208663694355743,0.010521761097508108,-0.009652446234396574,-0.0021853763984982094,-0.19067756457324173,-0.4713473419917934,0.8610884827293711,-1.8869435355719846,-1.8321187512346744,4.157238550601423,0.29119753945506277,1.3495263541144191,-0.33671091661354385,1.0,0.47075867170749325,0.4705867605981199,0.32260431663364897,-0.6658806778776117,0.4408853655851416,-0.11999109817926981,0.5897670333274326
1.5,-0.7052248772410982,-0.23921700849405098,-0.17041296689679464,0.004387101919927384,-0.017089337598439596,-0.008494896648639654,-0.19035015106407338,-0.47064805927305037,0.8615434611219445,-1.8845396041870117,-1.834857187379826,4.156761646270752,0.2912846885590629,1.3499588558668776,-0.33688510492309004,1.0,0.47163494513234905,0.47143291976406293,0.32226757104630305,-0.6658826369667181,0.4408727094918523,-0.11996530638504642,0.5897795292102843
1.6,-0.7597483382158039,-0.06413630286700343,-0.19085817451160844,0.007296145983008196,-0.012719403699320812,-0.006193298677901171,-0.19053799860472892,-0.4709706255116164,0.8613255164031123,-1.8819279964264566,-1.8373381925252996,4.156198485749683,0.2913383985677931,1.3503856658935547,-0.33697168098391017,1.0,0.47230850189703244,0.4720813374516935,0.32195060991965774,-0.6658940103762376,0.44089640612415415,-0.11997484838612621,0.5897470320116773
1.7000000000000002,-0.6718166464540564,0.025634331533253868,-0.2481228750675771,0.006942025199521751,-0.012391965460675992,-0.003722917884702583,-0.1907689765631498,-0.471378726592059,0.861051244013231,-1.8795682136137701,-1.8399491172454652,4.15569543838501,0.29135974920395996,1.3508187959305225,-0.3371278739002887,1.0,0.4730641530359089,0.47276458328863985,0.3216336955105851,-0.665889012667155,0.44092658055195355,-0.1200103316092769,0.5897228956713099
1.8,-0.49776673614708,-0.22262699165929167,0.10160860664527332,-0.0021805097214856635,-0.018276656402286404,-0.009635660686765132,-0.19069840444903208,-0.4712202643040902,0.861153610070554,-1.877206164208528,-1.8422126309009463,4.155264377593994,0.2914067941853027,1.3512368202209473,-0.337270524607267,1.0,0.4736038729217477,0.47330036094109573,0.3213798387306621,-0.6659054465164196,0.440931841467574,-0.12001480270415449,0.5896994951767085
1.9000000000000001,-0.7576912492482726,-0.2123561284042591,-0.3392832645019173,0.007992231783482202,-0.014820283530194683,-0.0068419038061048295,-0.1906487791303685,-0.4710241471110665,0.8612718962144522,-1.8747089900241292,-1.8443881144483165,4.154858059153212,0.29146958090812797,1.3516440391540527,-0.33738691011537725,1.0,0.4743416145354519,0.47404433337645446,0.3209916205124759,-0.6659407674481183,0.44095610257330775,-0.12002081055442257,0.5896402419169078
2.0,-0.5553392141096137,0.030927768389813384,-0.1304693212807454,-0.00209050977547173,-0.013955225377578154,-0.0018170136217522139,-0.1906755628052368,-0.4708524050614679,0.8613598761230689,-1.8726225656903945,-1.8468724704149446,4.1543958483099495,0.29144432936036085,1.3520622267688056,-0.3374841867983291,1.0,0.4751297566190044,0.47478659197515455,0.32088627338468256,-0.6658189269977924,0.44094816395166886,-0.12003658767814498,0.5897805445907383
2.1,-0.5774953173106666,-0.058310463224553855,-0.2027667211703277,0.00277062391190546,-0.01564403108446203,-0.0016549427343799388,-0.19060825056717914,-0.47074251696492964,0.861434823784398,-1.8704025495923386,-1.848716970682394,4.153959728292732,0.2914704997291871,1.352497554830818,-0.3376368681039331,1.0,0.4756047942546021,0.4752575310380453,0.32062577105702406,-0.6658512830592267,0.44096148975700955,-0.12003878422579045,0.5897336039952739
2.2,-0.678998309947966,-0.18273358562924208,-0.16299941318414735,0.009326949542199989,-0.016449531396023447,-0.010852220754009845,-0.1905284281434697,-0.4706408524395542,0.8615080387898875,-1.8683192269320719,-1.850887221127631,4.153608465745772,0.29149613071282304,1.352916466241625,-0.33773388094907847,1.0,0.47629454908829183,0.4759595992973298,0.32036254311455586,-0.665860521252691,0.44093790720854875,-0.12003145842459742,0.5897422972893365
2.3000000000000003,-0.6154973145146992,-0.14918698873318517,-0.15339693972202442,0.005452307779871838,-0.013633302589695086,-0.005054768378116944,-0.1903870102978657,-0.47046490477580205,0.8616353740394158,-1.866216279505232,-1.8531005323350684,4.153278160809745,0.2915112856296914,1.353277349829311,-0.3378769553055976,1.0,0.47692772644993875,0.4766521428917108,0.32010680819317344,-0.665868731727006,0.44091154530211957,-0.11998867559593887,0.589761442497132
2.4000000000000004,-0.5237048111949434,0.029372310685106845,-0.13254266151966937,0.0076134214660025165,-0.015583323332433016,-0.003763402180939054,-0.19038004717974863,-0.4705784248244024,0.8615747939063438,-1.8643207925231489,-1.8548210814403057,4.152961543018687,0.2915192902363725,1.3535830106535187,-0.33799037209538046,1.0,0.477439493445744,0.4772169846780158,0.31986489109991373,-0.6658903585567644,0.44089564334185055,-0.11996819100928402,0.5897530798641746
2.5,-0.7566246808430874,0.1949303311062677,-0.24610840178185794,0.007813387708314795,-0.009587388151597627,-0.005973223253638559,-0.19062025666205956,-0.47120973219508255,0.8611766278237275,-1.8623384520432575,-1.8568800826286234,4.152591331814284,0.2915204607127865,1.3539503591817774,-0.33805559673287516,1.0,0.4779683991121011,0.4777498738256406,0.3196784140328453,-0.6658777661697768,0.4408859596687825,-0.11997360056044526,0.5897734363772649
2.6,-0.6077210725610553,-0.005751005905173784,-0.11476701402468202,0.005932913992635008,-0.008905373789994939,-0.005783723398698238,-0.19073626275923103,-0.47140595947921843,0.8610436003510983,-1.860413631957525,-1.8586898391391695,4.152184009552002,0.29149554846946457,1.3542690322235167,-0.33814412300904817,1.0,0.47836648351677213,0.4781182675721234,0.31951791010925806,-0.6658711367431891,0.4408989246176865,-0.11999513426521675,0.589766848234091
2.7,-0.6119746624047782,0.03345644505199605,-0.03025641504477776,0.0033033031704545373,-0.012297817112470289,-0.005824287596446171,-0.19077804519285854,-0.4714163896402856,0.8610286240577284,-1.8587713241577148,-1.8604672100735937,4.151868579602003,0.29149669333732386,1.3545987934701054,-0.33826737458029943,1.0,0.4789487092325961,0.4786992968008299,0.31929020510915246,-0.6658531471747278,0.44091084313503986,-0.11999508607649768,0.5897782584335848
2.8000000000000003,-0.6133418528715515,-0.2578855975054745,-0.047701851678468965,0.0026469655379396805,-0.0143911412302948,-0.0038537654316067927,-0.19072015142904436,-0.4712167291125579,0.8611507221174388,-1.8567991233090404,-1.862178215578515,4.151502736290568,0.2914885584635841,1.3548707962036133,-0.3383595332428201,1.0,0.47945124585841314,0.47921915250186137,0.3190063238420528,-0.6658974039798631,0.4409237196691572,-0.11999722436204002,0.5897182267417208
2.9000000000000004,-0.7060893068863577,-0.022389438691773223,0.017130584203087218,0.0068422639696678255,-0.012429684900494838,-0.01291570754662877,-0.19064534274091255,-0.4709383629243015,0.861319540790855,-1.8550424575805664,-1.8639022312560023,4.1511737799764195,0.2914700251646938,1.35515638148967,-0.3384446090277433,1.0,0.48023022822328754,0.4799268946200655,0.3188225087763448,-0.6658241230484265,0.44091954249584586,-0.12002853766349424,0.5897977147788981
3.0,-0.5593625877098053,0.03864061039536724,-0.11625779898537886,0.008011723448102337,-0.012789322444339373,-0.009132621333206754,-0.19055950499953617,-0.4706521031745188,0.8614950215358336,-1.8536727682164824,-1.8656070306194408,4.150879596132882,0.2914090635104095,1.3554464343228827,-0.3385146620520152,1.0,0.4805810978015483,0.4802638860008405,0.31869671948552947,-0.6658093893083217,0.44092129046345807,-0.12003426608776525,0.5898118748293307
3.1,-0.6159768302603396,-0.08586037388517802,-0.08916661483495218,0.00034224145171650336,-0.018031859059934607,-0.007941368684555833,-0.19051826700365557,-0.4706611956779194,0.8614991749262032,-1.8519661927236657,-1.8671186001071896,4.150634730858426,0.2914420801350097,1.3557586669921875,-0.3386056218421329,1.0,0.48085640095715376,0.48055057135125057,0.3185019969234655,-0.6658599908847743,0.4409215238193169,-0.12003652625564237,0.5897541137934166
3.2,-0.5633184730044012,-0.02499963288749435,0.00707035634801835,0.0035604240947063747,-0.020547806948233535,-0.007166445797724331,-0.1903589670885464,-0.47037402723643745,0.8616911392809438,-1.850222349430316,-1.868558449091887,4.150331549552265,0.291370245308672,1.3560746515488755,-0.338685656055122,1.0,0.48124207238271666,0.4809673787743741,0.3181689558675638,-0.6659541088827314,0.44093785470758,-0.12002079829951412,0.5896388226055267
3.3000000000000003,-0.6122749556626408,0.16510320652241808,-0.15086117725155246,0.0058031363204575845,-0.019996851794458925,-0.008391356408482781,-0.19029995620270557,-0.47031587362363375,0.861735874109035,-1.848880605757141,-1.8701677157376293,4.150038242340088,0.291345278974185,1.3563488323991715,-0.3387796476030472,1.0,0.48185111036947276,0.4815817996220925,0.31814362823057313,-0.6658598708981254,0.4408939097993828,-0.12000389922756935,0.589781533111647
3.4000000000000004,-0.8199920557974185,0.025803308424531088,0.02086301222954033,0.007702536480029488,-0.006455036436682037,-0.007194722243710164,-0.19051149101070755,-0.47088781917362876,0.8613767515165507,-1.847469153909593,-1.8717702196903205,4.149768954934504,0.2913371171185998,1.3565915844247824,-0.3388667787890801,1.0,0.48247490946443866,0.48221569498557726,0.3176648441207386,-0.6659605166167433,0.4409369658344471,-0.11999245038276754,0.5896380197370343
3.5,-0.7455263248034751,-0.03499523344118659,-0.17759192955003836,0.014267561550649796,-0.015207111434765374,-0.0013722582086839082,-0.19049599664086939,-0.470777002138015,0.8614407874250904,-1.8458776473999023,-1.8728658341281805,4.149520788001589,0.29133792524072843,1.35683784988087,-0.3389323393451136,1.0,0.48278722472769015,0.4825104487671631,0.31751025465716604,-0.6659670288792195,0.44095238526281944,-0.12000431549788063,0.5896167184185841
3.6,-0.7160055135259508,-0.19525713263831174,-0.168580872011088,0.006825635452017104,-0.015430894791027848,-0.0035474666869313824,-0.19035838744744055,-0.4703704234059993,0.8616931315280876,-1.8444834499796163,-1.8740384793931886,4.1492555436542204,0.2912823242753575,1.3570414030697509,-0.3390298517449859,1.0,0.4830903285719682,0.4828033009310701,0.31754042104603425,-0.6658984175370228,0.4409259142674851,-0.12000712462956446,0.5897134267482942
3.7,-0.7068394635350311,0.1292984951825377,-0.18743985858747808,0.007149752236339884,-0.01466678002125701,-0.009749536950644403,-0.1900625437540833,-0.46965244893583863,0.8621499813984232,-1.8432207107543945,-1.8754549921610484,4.148987169657286,0.29119031011547847,1.357288001330086,-0.33909151026636186,1.0,0.48350435018961874,0.4832167589306194,0.3175252604184143,-0.6658350718782977,0.4408891360580045,-0.12000694432903633,0.5898124787385021
3.8000000000000003,-0.6007541351750119,0.05523110259121491,-0.10727831188779997,0.006165746520970739,-0.016482758434302268,-0.0051460327653613126,-0.19005982059116514,-0.46965321344462907,0.8621502854074484,-1.841989009008725,-1.8769559791579855,4.1487853347524455,0.291192904310041,1.357459132166126,-0.3391433577420824,1.0,0.48387560405169655,0.4835818632895557,0.3172897641658764,-0.66587736532812,0.44090801061919516,-0.12002003377183755,0.5897479563414462
3.9000000000000004,-0.6117084645128785,0.07372167854586195,-0.13210741252379296,0.0067356273439056515,-0.0160891677747295,-0.006746404735698874,-0.19013394151528554,-0.469839434213413,0.8620324584817103,-1.8406616689068425,-1.877980293045069,4.148570203910505,0.29114945905931755,1.3576792885957074,-0.33919833600966864,1.0,0.4841275137350095,0.48384446607129306,0.31708560154857707,-0.6659244929726421,0.4409296991476473,-0.12001864612754995,0.589678806343254
4.0,-0.4310201349291447,-0.384814038520945,-0.14299521569653154,0.0031720722619648506,-0.02053379373785327,-0.00783421905640487,-0.19024624505539062,-0.4700916813717078,0.8618701029644814,-1.8394072853069197,-1.8789420049797303,4.148357012701899,0.29112660992095746,1.3579049110412598,-0.33927549141693525,1.0,0.48456392541528875,0.4842723714073532,0.31694577741732216,-0.6659001971177987,0.4409277966007557,-0.12001900125265884,0.5897075927962891
4.1000000000000005,-0.6661990291054518,-0.13658125615481848,-0.0350102791153714,-0.0034248784951559056,-0.01171842122485228,-0.007509626669291976,-0.190457440715817,-0.47051626979661626,0.8615917325387026,-1.8382235356976548,-1.8801928894685922,4.148140587172898,0.29102627382621543,1.3580846786499023,-0.3393500508491201,1.0,0.4849212728962838,0.48461222630617873,0.3169537593909576,-0.6658257230212654,0.44090868462322047,-0.12003122705366481,0.5898034782188236
4.2,-0.4950974642717356,-0.006307414412090151,-0.17722298252627097,0.012789485535955662,-0.02145657416110895,-0.004609768430559432,-0.1905429661251679,-0.4707165439472722,0.8614634567720272,-1.8368947968154767,-1.8815514672259905,4.147964602925703,0.29103486120190425,1.3582886542107442,-0.33938809956925814,1.0,0.48515691509460235,0.48485818424166044,0.31686813846482914,-0.6658175501841574,0.4409129354128477,-0.12001074537183486,0.5898136945236944
4.3,-0.7158077036759015,0.1187855696948028,-0.026996718337776213,0.008439544131822012,-0.01322536004857381,-0.008454622479852954,-0.1905905201384191,-0.470849041308389,0.861380532261552,-1.8356366554157308,-1.8827684703052094,4.147694479433791,0.29097640190997426,1.3584514498293607,-0.33943925894668364,1.0,0.48561374210982794,0.4853164869702226,0.31658406645320764,-0.6658699309717782,0.4409292255788067,-0.12002789864145734,0.5897388884971292
4.4,-0.4645076189569313,-0.19909611732193125,-0.2081545574269721,0.009342589665700908,-0.019201486596485427,-0.008908778511186839,-0.1905086011888243,-0.47071273056284324,0.8614731445486831,-1.8344509822274644,-1.8839468953231464,4.147510996092741,0.29097436106324864,1.3587029271157307,-0.339531802737965,1.0,0.48586997596550024,0.48558161043650866,0.31646584793520943,-0.6658803109240734,0.44091862025088036,-0.12002458431901394,0.5897357721885006
4.5,-0.5884423154489729,-0.46667089704280706,-0.29721481838601077,-0.003412925352116364,-0.015494214442727586,-0.008698792105075454,-0.19063157874945472,-0.47104933489283124,0.8612618795014106,-1.8332732037588977,-1.8849513037063026,4.147303752206638,0.29091469823803706,1.3589260401415573,-0.3395994698774288,1.0,0.4862140386063326,0.48595075898575185,0.3162846144652267,-0.6659024809545715,0.4409202765709776,-0.12001648114018953,0.5897111494806974
4.6000000000000005,-0.7992490097075834,-0.2076979549670088,-0.1947416692184472,-0.0010422161983268917,-0.00767808711324581,-0.00823191785339431,-0.19061091684171977,-0.4709761080605881,0.8613065020922533,-1.8319199406914366,-1.8862227546780714,4.147076918069076,0.2908761269621652,1.3591296876481702,-0.3396518866168421,1.0,0.4865931983413652,0.4863095156315458,0.3162016871698131,-0.6658644555732354,0.4409166627616259,-0.12001169844843423,0.5897577600496933
4.7,-0.6319488032957515,-0.24772303860279443,-0.12782265162212583,0.005016561318880011,-0.01572346241739077,-0.007258810120716175,-0.190507631579627,-0.47069766356915643,0.8614816011191155,-1.8305118615468952,-1.8875036497247528,4.146851974688702,0.2908014797820002,1.3593501399250276,-0.3397114912616175,1.0,0.4869161227426907,0.4866158528480852,0.3160749975033545,-0.6658677694258701,0.4409208658604558,-0.12002199823465984,0.5897487800991552
4.800000000000001,-0.5877471180050309,-0.05453889769964936,-0.10498523641718979,8.180570260025092e-05,-0.017475163453747385,-0.009080523462200842,-0.19046426996700896,-0.470620401211244,0.8615333980277213,-1.8294757865814573,-1.888735817291499,4.146672056965619,0.29079343911863087,1.35959470137182,-0.33977047658801207,1.0,0.48732593798258395,0.48704107106226757,0.3159284069805525,-0.6658508823733029,0.44090917059946255,-0.12002408608157515,0.5897761647305447
4.9,-0.5869102738116405,-0.17139227463072967,-0.2659093024020796,0.0009072609111032213,-0.015380526766518103,-0.0015798283289103349,-0.19059444933604175,-0.4710429542478932,0.8612734409365962,-1.828284126840642,-1.8898143657449484,4.146478176116943,0.2907405280639388,1.3598013795466175,-0.3398078123675745,1.0,0.4876282938215962,0.4873976679979961,0.3157584917038505,-0.6658869334099635,0.44090133396835424,-0.11998459693606339,0.589749355334019
5.0,-0.5243629079715637,-0.12774786679772568,-0.154220015903195,0.0006024961877254017,-0.01598416272933198,-0.007812859413014685,-0.19077885845976025,-0.4715995032827355,0.8609281752123197,-1.8270089900599116,-1.8910414645329097,4.14622877762381,0.29067237212611696,1.3599676495104764,-0.33987037087085203,1.0,0.4879199347978108,0.48768873148000047,0.31559340949577536,-0.6659105641767397,0.4409054092748042,-0.11998459633794831,0.5897196259508866
5.1000000000000005,-0.6227387208023938,-0.08427446154045282,-0.0015558724685701929,0.004263146225371423,-0.017449386312578703,-0.008550497691773453,-0.19085685619879839,-0.47174956287495406,0.8608286546221136,-1.8255256811919625,-1.8921768355827235,4.146011829376221,0.2906047594574852,1.3601737076122704,-0.33995141391838263,1.0,0.48815629838326763,0.4878995664456622,0.31548484178470343,-0.665915965103816,0.4409169230375036,-0.1199995146691751,0.5897018830546127
5.2,-0.4170417795589328,-0.5639879574214546,-0.2858681748720513,-0.0035191596647634474,-0.019987080610912526,-0.0003005705642316394,-0.19093567249955826,-0.471907214740778,0.8607247705870836,-1.8242593444096251,-1.8933613304501784,4.145827530431792,0.2905414848866509,1.360379828996364,-0.340015422984089,1.0,0.4886098628383536,0.4883513337488804,0.3154024206305231,-0.6658717088681774,0.4408966654379932,-0.11999589624881775,0.5897677361623593
5.300000000000001,-0.5218441228016041,-0.46846869722649875,-0.07042708339449186,-0.004461824159521399,-0.01138890404880788,-0.011611057455821985,-0.19101847737699823,-0.4721018612090218,0.8605996249491625,-1.823227882385254,-1.8946243160406948,4.145612225802654,0.2904637372837224,1.3605919060567766,-0.34010431334071584,1.0,0.48899696247858454,0.4887376569280966,0.3152932691474683,-0.6658505019840251,0.4408869534203439,-0.11999580391972026,0.5897989575719929
5.4,-0.4590524694570924,-0.15106603853030734,-0.12727295639515002,0.00262567259549303,-0.019645254673547673,-0.006077934191251404,-0.1911193646964823,-0.4723399789643531,0.8604465616752488,-1.8220508283982484,-1.8958261564180983,4.1453985068504915,0.29042798769257333,1.360792129781398,-0.3401322158927076,1.0,0.48933400692850737,0.4890642341063668,0.3150419246085986,-0.6658975475418702,0.4409113424726011,-0.12000705843535311,0.5897253175694808
5.5,-0.6785466363520685,-0.0478591589585482,-0.1243535790476615,0.0032329921110887273,-0.014096819079646994,-0.011150302889017055,-0.19127629639805102,-0.4727110196244028,0.8602079134670219,-1.8206026601129592,-1.8970601552174824,4.145158916589564,0.2903749185749511,1.3609995705335067,-0.3402143480761177,1.0,0.489664273370626,0.4893949254916682,0.3148459296372337,-0.6659263998615919,0.44092314657159337,-0.12001301166087927,0.5896826992687427
5.6000000000000005,-0.6061605447109685,-0.1957644565950276,-0.04891811050328611,0.0016047501261765554,-0.01646835967949089,-0.013811224881108617,-0.19120256359424576,-0.47251705819699,0.8603308386111136,-1.8192942772626381,-1.8981562940356584,4.144963066426687,0.2903123248249935,1.3611691988270618,-0.3402631918536585,1.0,0.490057532402566,0.4897942124685711,0.3147869124634627,-0.6658711695483069,0.4409085132433136,-0.12001450988401188,0.5897557002108933
5.7,-0.7763776369213417,-0.154706514574562,-0.04769630308300549,0.003119931340628875,-0.013601298410002462,-0.012759974918531519,-0.19110670471204916,-0.4722756128196045,0.8604846803342521,-1.8181142886125223,-1.8993140563382214,4.144752027263182,0.29024331470954456,1.3613834365152229,-0.34029895783078123,1.0,0.4903211683812971,0.49008264215036434,0.3147241657584981,-0.6658571980617469,0.4408969861536451,-0.11999814131719483,0.5897834225123748
5.800000000000001,-0.7873520106129817,-0.16154469895986193,-0.12295966901339209,0.0035945706380649295,-0.013501562346067232,-0.009357498341292283,-0.19087285766016385,-0.4717380361879388,0.8608313317401662,-1.8169780459050058,-1.9004918347052737,4.1445265988275,0.29021515354630106,1.3615518978745669,-0.34035964920698514,1.0,0.49056898373490787,0.49033645848690016,0.3146014793594425,-0.6658724562433254,0.44089648766143447,-0.11998948418299007,0.5897683298294266
5.9,-0.8805726862010383,-0.019937104363180157,-0.22798625365339348,0.007112095506145336,-0.011478923661134129,-0.0158901350110887,-0.19086314784122935,-0.47168559692076023,0.8608623030219412,-1.8156180616637503,-1.9019552155059931,4.144343399645928,0.2901231485554199,1.361777343089204,-0.3404539362032832,1.0,0.491026339727762,0.49076622132776804,0.31432018255690536,-0.665906663909172,0.4409239152626312,-0.12000673098598089,0.5897056896697601
6.0,-0.6510588081057016,0.03756036242452228,-0.11472321743488115,0.004385643794374472,-0.015788500576519038,-0.01076605276822331,-0.19099354982494354,-0.47194162353982144,0.8606930461530663,-1.814303251548237,-1.903020062579646,4.144117113307386,0.29006178336553623,1.361959431723302,-0.34050192225310144,1.0,0.49139580762187723,0.49113007895072663,0.3140794032943058,-0.6659488026270419,0.4409430385741149,-0.12002699793992748,0.5896396770725021
6.1000000000000005,-0.7503307907626481,0.13427171105831207,-0.1350656442196844,0.00818249706902275,-0.01221403668990362,-0.006642546821566942,-0.19118256489598356,-0.47236227853460516,0.8604202345541849,-1.813035011291504,-1.9040365060042366,4.143911269938725,0.2899314600178222,1.362175051220764,-0.3405296407825438,1.0,0.49165484449125096,0.4913814825190994,0.31404769476275457,-0.6659172665684954,0.44093401213378924,-0.12002487213524526,0.5896824748103513
6.2,-0.49537656465095914,-0.06899429181991781,-0.3206489790645809,0.009409305240532668,-0.015447567513090208,-0.007111518454736366,-0.19146615723391516,-0.47299379039923944,0.8600102064438524,-1.8117529972338933,-1.9051666848700768,4.143661102568787,0.2898242119530089,1.362403094034024,-0.3406103293048304,1.0,0.49203870395836596,0.49173291844302325,0.31404625233453376,-0.6658471722050417,0.4409249912080047,-0.12002063410047742,0.5897692284147161
6.300000000000001,-0.4390281426285817,-0.14349412626775904,-0.1795940334204678,0.003137277304128213,-0.019910129909911728,-0.014021966696259384,-0.19162365382937724,-0.47342392326416566,0.8597384193001147,-1.810528461835998,-1.9064620324049033,4.1434454917907715,0.28977606788205257,1.362535416217979,-0.3407059346337016,1.0,0.49238455194976194,0.49207894231559424,0.31392077399319834,-0.6658521684448073,0.440910323447646,-0.12002881985659983,0.5897728875240635
6.4,-0.6318288882858959,0.052595898417904,-0.15651625951968223,0.005222560411719566,-0.016289996878932102,-0.015350589194879838,-0.19168836082049096,-0.47365511244637637,0.8595966083311195,-1.8092369507366444,-1.9078648132973948,4.143265354884816,0.28969229457179874,1.3627987941995956,-0.34072991202784214,1.0,0.49273362029970935,0.4924490037327327,0.31371166551696883,-0.6658871880726296,0.44091188639700696,-0.12001990966185816,0.5897339929826995
6.5,-0.8050816732580813,0.0005414597022191381,-0.1460642371836129,0.0034387138073641525,-0.011923839243944849,-0.01668022935220936,-0.19175332954636745,-0.47387797466853476,0.8594593193818846,-1.8079069801243806,-1.9089064526740256,4.143038920753376,0.289643294879297,1.3630150219764197,-0.3407660930816352,1.0,0.49310756803469713,0.49284219254497474,0.3134475335512927,-0.6659351079713867,0.44093174559061665,-0.12000943016379334,0.5896671640623299
6.6000000000000005,-0.5788806441421845,0.10417435844712701,-0.14777720215205167,0.0006178874294689943,-0.01528716350079485,-0.011786008235156971,-0.19182096157321835,-0.4740161053075272,0.8593680445711808,-1.8067083358764648,-1.9098835575442776,4.142846584320068,0.2894997668564713,1.363230148649334,-0.3408741757864938,1.0,0.49336693848325464,0.4930888680882177,0.31336951511333516,-0.665922339906134,0.4409303582561156,-0.12000675900509483,0.5896831642290339
6.7,-0.4633562273953319,-0.08850058809838776,-0.12759417316040894,0.008339170886329626,-0.021121747555764146,-0.012630646842139197,-0.19175023022501697,-0.47386824642440334,0.8594653114166204,-1.8052728142139052,-1.911005897661245,4.142690648345793,0.28939332715389693,1.3634104737268642,-0.3408985637456318,1.0,0.4937540594381446,0.49347671914479574,0.3133493251713622,-0.6658705643591073,0.44090268691329215,-0.12000108505270782,0.5897634710448727
6.800000000000001,-0.5119916220020436,-0.15820563865628362,-0.10182620106203545,0.0013663490662302585,-0.02002224506889387,-0.013270852149057337,-0.19159098033698285,-0.47354228583862895,0.8596805217756384,-1.8040876388549805,-1.9123835116007804,4.142471326991277,0.2893227230080052,1.3636236325943045,-0.3410195913707394,1.0,0.4940623574499606,0.4938173570406644,0.313308122637833,-0.665841287439461,0.440882375314906,-0.11998878668325698,0.5898142098558894
6.9,-0.5533487539325841,-0.17782906276512023,-0.14336268202511682,-0.002227237588524597,-0.016872090276983682,-0.01675489110465617,-0.19157928476434002,-0.4735864071648875,0.8596588226690052,-1.8029366049836928,-1.9135605123898627,4.142248042426459,0.28927424163944643,1.3638053624240511,-0.34108868272026527,1.0,0.4943153770263623,0.49409105141949256,0.3131448686980739,-0.6658696208007019,0.44088888749106225,-0.11997952507206315,0.589779238821701
7.0,-0.7259648532465102,0.7724363874861991,-0.33095102647574204,0.008287474013934844,-0.022101256594290172,-0.0072075740467329764,-0.1915261200864588,-0.4734397201788444,0.8597514012590561,-1.8020098620502532,-1.9146092488099524,4.142109977765059,0.2893325525471191,1.363972281581586,-0.34106394736517454,1.0,0.4946489064812148,0.49443859886572233,0.31288337550745166,-0.6659260184141346,0.44089793055665755,-0.11997986540679377,0.5897087287186126
7.1000000000000005,-0.7475228664976555,-0.2733953506168167,-0.27841248706560784,0.013755637039667857,-0.014311280110410617,-0.018253299035362096,-0.19144021867493882,-0.473142404408795,0.8599341934791261,-1.801961578009785,-1.914573175829225,4.142032562822536,0.2893444296623411,1.3640089639718982,-0.34106502376941716,1.0,0.49499026893864734,0.494741909201956,0.312685099795926,-0.665937441286055,0.44090926769961913,-0.12000342999119987,0.5896825576022363
7.2,-0.5467705060924998,-0.33444567793798397,-0.18283102826534706,0.004593247060312569,-0.020143701269062664,-0.013847341084108638,-0.1916311762745214,-0.4735889758937341,0.8596450270055083,-1.8020046666760092,-1.9145719038205744,4.142039918401145,0.28937840756945993,1.3639607429504395,-0.34110958272865244,1.0,0.49506665451331094,0.4947781601428239,0.31263818026090073,-0.6659322135063251,0.4409333606167166,-0.12001243989721841,0.5896686126798093
7.300000000000001,-0.5269045772250637,-0.36702004601099625,0.06675648737001871,-0.0007001907448527655,-0.017883142024270642,-0.01524383818245741,-0.19204904779191434,-0.4746452381045283,0.8589690427223384,-1.8018884625435898,-1.9145618841647563,4.14200832573508,0.2893440002548203,1.3639731301469862,-0.34110097735646594,1.0,0.49506430750091085,0.49479061923391354,0.3126634191018059,-0.6659208553136728,0.4409237485725528,-0.12000525302770987,0.5896900894951432
7.4,-0.5973398943478314,-0.06372618471094732,-0.11090976596160089,7.1864677560202e-05,-0.020838613579675643,-0.009629625423885834,-0.19221522757590143,-0.4750465891927402,0.8587106705719602,-1.8018738816990492,-1.9145705377820097,4.142074927933092,0.28937928864442075,1.363943442947741,-0.3410960925040362,1.0,0.495071402032824,0.4948055257521083,0.31269679696151526,-0.6659002836372347,0.44091700075085705,-0.11999924092872283,0.5897195883445365
7.5,-0.5073249378157966,-0.13608748532458215,-0.06698922408085906,0.0021713811878480375,-0.01951031880607086,-0.01658753308025842,-0.19216720114247463,-0.47489056784598044,0.8588077138104822,-1.8018965750094076,-1.9145389407239033,4.142055342834915,0.28935709367161927,1.3639376003591193,-0.34111339250673467,1.0,0.4950774991562819,0.4947925514403366,0.3127072949828344,-0.6658942008400552,0.44092390611203475,-0.12001225109945605,0.5897186463836213
7.6000000000000005,-0.5627642379088384,-0.5236026727477615,-0.16571505019443916,-0.006137380855196724,-0.01446394630489199,-0.01868026634936487,-0.19220283010802366,-0.4749456429578379,0.858769254496758,-1.8018770217895508,-1.9145631419214253,4.142091625948224,0.28936748786474725,1.3639588366564772,-0.341043271306993,1.0,0.49507225575841124,0.49479471834661065,0.3127247924197455,-0.6658885815030968,0.44091384021454744,-0.12001164284151254,0.5897326412142501
7.7,-0.6275540650794965,-0.2045095551422391,-0.18165329060852808,-0.0003141611689636654,-0.01374488481656862,-0.01626802792555919,-0.19231246582715533,-0.47518746708752696,0.8586109212225164,-1.8018683032723917,-1.9145375690855921,4.142036461947034,0.28935639440502925,1.3639607429504395,-0.3410923897890722,1.0,0.4950787375164173,0.49479708746501566,0.31272121068057773,-0.665878616125007,0.4409128995226325,-0.12002139673444358,0.589742611609424
7.800000000000001,-0.6318076474347338,-0.22702746690886846,-0.2382339866307212,0.0027451680764388406,-0.014643187663353811,-0.018207372499662654,-0.19231813666319234,-0.4751845824885471,0.8586112619467805,-1.801876016976514,-1.9145639811411537,4.142036416909264,0.2893482670943222,1.3639482103111862,-0.34104243677609264,1.0,0.4950800894631972,0.4947902002136649,0.31273081346790454,-0.6658770247752034,0.44092520166848903,-0.12000950005608127,0.5897376317536591
7.9,-0.6468288663161265,-0.11429136220295832,-0.09967382725606404,0.0019796063614300518,-0.01283416881557269,-0.016595023948909795,-0.1922214521319429,-0.47494077758017483,0.8587678201832701,-1.8018839957552122,-1.9145643096915776,4.142044544219971,0.2893784786296237,1.3639665404465904,-0.3411158144176519,1.0,0.4950800546196233,0.4947861280331972,0.3127197789500599,-0.665882061430748,0.4409287723795153,-0.12000894300304615,0.5897293884078719
8.0,-0.7611412004824482,-0.03254841417589137,-0.1195496420264727,0.005104068975778174,-0.01350478690557812,-0.014439634858232714,-0.19228231669798698,-0.47509856382905213,0.8586668871442262,-1.8018643100737597,-1.9145410097792905,4.142110365485728,0.2893359932408174,1.3639391647068044,-0.34112191801427694,1.3925457351419843,0.4950766448991765,0.4947911737310253,0.3127045377738782,-0.66588892938368,0.4409196469964331,-0.12001575371180728,0.5897270703281174
8.1,-0.5255413015552388,-0.36683025637508065,-0.2309861603690015,-0.0016578630198437415,-0.016514288766915235,-0.014123953656772197,-0.1923456323626128,-0.475262597905006,0.858561948138083,-1.8018666494241,-1.914550651051422,4.142046776983191,0.2894120103605211,1.3639492988586426,-0.3410917834120454,2.0,0.49507432748343416,0.4947953999749789,0.3127074693202393,-0.6658860599655401,0.440922627536931,-0.12001812808636439,0.5897275986420707
8.200000000000001,-0.38881308142999793,-0.47139650369886976,-0.24991517282695633,-0.003516405686449186,-0.018764441875140158,-0.015503832917613201,-0.1920556883178087,-0.4745012694908649,0.8590472609826105,-1.801865577697754,-1.9145928749735661,4.142080783843994,0.28934286184431174,1.3639369010925293,-0.3410676433922902,2.0,0.4950939553546244,0.49477846486105487,0.3127257092076981,-0.6658750869534693,0.44092743286839053,-0.12003217615181032,0.5897335366138348
8.3,-0.87850066678452,-0.2941375726464991,-0.26501432181830237,0.007844388921693536,-0.009017962683711205,-0.016549275283783412,-0.19175725438203217,-0.47371770183901524,0.8595467593504929,-1.8018471131071705,-1.9145818493840152,4.14207093887693,0.289390081230003,1.363939453891579,-0.34108567039426896,2.0,0.49509718763250227,0.49477129255833185,0.3127305974931739,-0.665871126584576,0.4409307663071177,-0.12002924577736412,0.5897361123951315
8.4,-0.7981063175283659,0.0722307620258342,-0.2599580097874216,0.0021661634511614108,-0.012202191182154837,-0.017553741655219734,-0.19180690356922747,-0.4739408661564867,0.859412631688634,-1.8018770217895508,-1.9145481022602893,4.142075121806622,0.2893632411541111,1.3639565241774956,-0.34106523195375615,2.0,0.4950772355235504,0.49479234365382074,0.3127338843395744,-0.6658729438388009,0.4409194485890935,-0.12001439110712803,0.5897455455079963
8.5,-0.7514090021126106,-0.1534515279881226,-0.136215429773692,0.0035740600327214614,-0.009620488161631746,-0.015482653681287099,-0.1918685731964402,-0.4741987961964314,0.859256622863394,-1.8018639116067063,-1.9145603406961162,4.142059082480856,0.2893609166521583,1.3639447766115136,-0.3410756653014188,2.0,0.4950635784721661,0.4948110068576402,0.31275382897522924,-0.6658753192532798,0.44089524507672484,-0.12000730000587818,0.5897624013307193
8.6,-0.4712389472983061,-0.23127724287841453,-0.17388684852445035,-0.005740322726716106,-0.014096987976257958,-0.015039992054756384,-0.19199094937615885,-0.4744352084440978,0.8590987453801976,-1.801865577697754,-1.9145600184437275,4.1420542627699835,0.2893669228342094,1.363951024400427,-0.34109739986190385,2.0,0.4950707733148302,0.49480357521134055,0.3127630649340444,-0.6658665718575691,0.44090158803193225,-0.12001068454568373,0.5897668469390642
8.700000000000001,-0.5011068739126416,-0.0789450202458638,-0.23651334384243244,-0.001724017043569232,-0.01503149646981012,-0.012272446859437722,-0.19213079065168825,-0.47473355918775956,0.8589025557556336,-1.801867273087526,-1.9145513266868004,4.142055988311768,0.28933424793689133,1.3639404331545548,-0.3410956966475832,2.0,0.49508566261903014,0.49479840635211025,0.3127453192556623,-0.6658720803147495,0.44091464004768044,-0.12002309154176166,0.5897483449283173
8.8,-0.5649235169383054,-0.272283171264816,-0.26952043769317596,0.0070670750204809285,-0.0033263289717400807,-0.010622582964895568,-0.19229156802396496,-0.47512213673735226,0.8586515803902327,-1.8018671417645484,-1.9145807767603882,4.1420790894383,0.2893546999993352,1.36392619773211,-0.3410738944102227,2.0,0.495086124414532,0.4947937262383083,0.3127344611703868,-0.6658705433744389,0.44092422715392354,-0.12001850780586265,0.5897438453761079
8.9,-0.36599964686906344,-0.44262335066215863,-0.2443906626707322,0.014959824279767038,0.0002074457031313935,-0.009093509846312806,-0.19245234539624168,-0.47551071428694497,0.8584006050248318,-1.80188494733654,-1.9145738087096156,4.142051874521654,0.2893583002834668,1.3639589836780355,-0.34109732958977995,2.0,0.49508464827821613,0.4947941817719017,0.3127463527053084,-0.6658644040905852,0.4409182441155373,-0.12001959860426581,0.5897550282295456
9.0,-0.6299501746145058,0.12126723393936178,-0.2947941565862838,0.010597407146025705,-0.00587505439649535,-0.008088365700564669,-0.19220579944308397,-0.47497463002901114,0.8587522125938037,-1.8018588833884945,-1.91455742049527,4.14206610863827,0.2893413119302379,1.3639607429504395,-0.34107180149109523,2.0,0.49506950957420354,0.4948094639216017,0.3127361219770716,-0.6658847428614936,0.4409037935925645,-0.12001130603762314,0.5897445552466861
9.1,-1.1605462499248766,-0.27834573191147305,-0.1825249010026444,0.01113198101599237,-0.04878774482669238,-0.017774460986263892,-0.1919150188763575,-0.47433812908687656,0.8591692596345188,-1.801865577697754,-1.9145534299633,4.1420528361977755,0.28936448034268425,1.36393669505238,-0.3411163385805777,2.0,0.49506348516321064,0.49481518182222706,0.3127245922730839,-0.6658926681960141,0.44090116485986286,-0.12000076381509503,0.5897397171225648
9.200000000000001,-1.8524624012532052,-0.8732043174229073,-0.16853978023045735,0.04592166952232711,-0.13856584260308033,-0.029767863819318337,-0.19190581610544863,-0.4742985418837014,0.8591932539911115,-1.8018503650656592,-1.9145679149360095,4.1420787675530235,0.28939913802156,1.3639551926322486,-0.3411074987331287,2.0,0.4950711900772994,0.4948108386826201,0.31270375094437336,-0.6658989685904168,0.4409054501142238,-0.12001169351521497,0.5897271751491557
9.3,-2.9284418851435676,-0.9587365148781082,-0.29324556987934125,0.058387199934689174,-0.22427354871095956,-0.04506123401797986,-0.19193405002059402,-0.4743383163083919,0.8591649907117794,-1.8018532883050242,-1.9145434774474814,4.142092227935791,0.28938638095930425,1.3639732490899363,-0.34108952272470194,2.0,0.4950798934528815,0.4948021136564515,0.3127145725653359,-0.6658872781688313,0.4409144575547338,-0.12001006990283215,0.5897339713922184
9.4,-3.04646440656774,-0.1911325481552072,-0.9526813566172306,-0.008296452749154283,-0.2640227704000014,-0.05781374604019909,-0.19195597999540753,-0.47440230599978317,0.8591247546781783,-1.8018605768530074,-1.9145448780125294,4.142101363945398,0.2893779281807487,1.363992174069899,-0.3411085840021707,2.0,0.49506305116002797,0.49480910496410146,0.3127558064345887,-0.6658723492493528,0.4408988575653732,-0.1199875480000177,0.5897670728581241
9.5,-2.978775496404936,0.6793012938128158,-1.5308574148189342,-0.07352151054966438,-0.2874368487900502,-0.06270941369250164,-0.1919768522454789,-0.4744703587192772,0.8590825097615998,-1.8018211500885033,-1.9145662621212427,4.14208726307502,0.2893726896745666,1.3639390059829724,-0.3411060588986084,2.0,0.495062763280481,0.49480609775938444,0.3127464161555384,-0.6658711066041167,0.4409118618243902,-0.11998413613803359,0.5897594480528215
9.600000000000001,-3.1480827702677305,1.516538283091181,-2.0380209178032116,-0.1476620592079009,-0.3061362083755394,-0.06338902231922346,-0.19196682438850987,-0.4744642506958754,0.8590881170215279,-1.8018831211498374,-1.9145948668531976,4.142100690427349,0.28934132427316084,1.3639488220214844,-0.34114080415061515,2.0,0.4950548904555227,0.49481919799025403,0.31275392178298295,-0.6658804124166017,0.44088714448999566,-0.12000534814283739,0.5897631037971695
9.700000000000001,-2.829433259988966,1.5562310958087862,-1.7177415674767766,-0.17797721442629566,-0.3222573095669864,-0.06290901120832171,-0.19189833854515292,-0.4743178425857113,0.8591842528313792,-1.8018496021574035,-1.9145431452979236,4.142097184468498,0.2893659493962285,1.3639552760756048,-0.34109688254473397,2.0,0.49504643988469654,0.4948305522624095,0.31275458123432387,-0.6658845588523821,0.44088215448348456,-0.11999954189743706,0.5897633339606447
9.8,-3.1210791742777584,1.2330482544286314,-0.8843279484947688,-0.1539367241207333,-0.33477428689107264,-0.06605508177799346,-0.19190828203491028,-0.47435067688698024,0.859163844977705,-1.8018844841386392,-1.9145706986623363,4.142083769489382,0.2893303141952689,1.3639607429504395,-0.34107715288271123,2.0,0.495046261319747,0.49482552085922105,0.31275430469116056,-0.6658834940026206,0.44088323945875846,-0.12000200762136506,0.5897632234601062
9.9,-3.531713186431302,0.03900923570759618,0.3310327553596136,-0.08204664472918295,-0.3653079079971314,-0.06844387434468631,-0.1920724893564002,-0.47473606577591004,0.8589142056441021,-1.8018407821655273,-1.9145652655804977,4.142124954647984,0.2893325525471191,1.3639492988586426,-0.3410792821373193,2.0,0.49504716225899936,0.4948231573793751,0.3127291165828434,-0.6658960829410132,0.44089311384487345,-0.11999732956061321,0.5897425792549733
10.0,-3.4474269998908538,-0.04679820850636096,0.5448694487863422,-0.08743955364980328,-0.37637655690986427,-0.0671475219939065,-0.19216011344120887,-0.4749351980912046,0.8587846176057395,-1.801858636570401,-1.9145768905909026,4.142094549658979,0.2893533655580283,1.3639492988586426,-0.34107715288271123,2.0,0.4950581712460041,0.494814905285837,0.3127169285649139,-0.66589586185704,0.4409049799917737,-0.12000347709868467,0.5897327066259334
10.100000000000001,-3.1686559622403228,0.6302733142147053,0.87395138097361,-0.09728893209402284,-0.3588943715079062,-0.06439607861056632,-0.1920900345866522,-0.47475078421008204,0.8589022434872171,-1.801880415331096,-1.9145738087096156,4.142073431170646,0.2893547428538094,1.3639680956237876,-0.34109662052704387,2.0,0.49505924362531245,0.494814889462711,0.31272749461616545,-0.6658861698693495,0.44090086786542765,-0.12000643544938644,0.589746122448442
10.200000000000001,-3.2712166185599885,1.361738456523089,1.045563410036312,-0.12093560064372885,-0.35108902832036526,-0.0606159223101731,-0.19197447928366104,-0.4744544924793666,0.8590917083468746,-1.801865577697754,-1.9145618877806605,4.142088337447755,0.28935242602966,1.3639689260211807,-0.3411131556605782,2.0,0.49506043749235534,0.4948157610272939,0.3127257970102921,-0.665886702897794,0.44090086432202935,-0.12000829930616638,0.5897451439746108
10.3,-2.7896275352532878,1.2923143712144676,1.1649161597884046,-0.13801730030599785,-0.3572982023964286,-0.054702459843660525,-0.19176205115429534,-0.47391988126962703,0.8594342028537392,-1.8018594175075977,-1.9145738087096156,4.142097508098782,0.28933871647592496,1.3639479014320939,-0.3411076723301611,2.0,0.4950704866339032,0.49481274630210226,0.31271369857964126,-0.6658949231451883,0.4409079931416838,-0.12000835968693821,0.5897305202535197
10.4,-2.760532767924209,1.3349313319475167,1.1862512762298851,-0.15024062218744474,-0.3490894749102959,-0.05142449889743635,-0.19172042337127573,-0.473847067794725,0.8594837023764857,-1.8018329793633436,-1.914581936628557,4.14212838090117,0.2893283910345483,1.3639770854469668,-0.3410980687462797,2.0,0.4950699222414526,0.4948140371216892,0.31271492936105477,-0.6658943286950013,0.4409063910318835,-0.1200078078058038,0.5897325015841662
10.5,-3.0092121543270776,1.5888053361060006,1.0715688481196572,-0.15924031636334257,-0.33663897468741605,-0.05131883056956135,-0.1916487037491808,-0.4736899631309147,0.8595861211365128,-1.8018981257178133,-1.9145895135625108,4.142079586492744,0.28936879217114253,1.3639531751025589,-0.34109736217363873,2.0,0.4950597089328574,0.4948222662813602,0.31270272264825866,-0.665904250247351,0.44090304261287205,-0.12000493868140769,0.5897243858017885
10.600000000000001,-2.8634143081139096,1.5037173249912783,1.4569762794616248,-0.16784064708698,-0.3370881333660737,-0.05230158126088087,-0.19141344588281384,-0.47308388303872523,0.8599720964487424,-1.801865577697754,-1.9145838088449572,4.142106202993498,0.2893529276914442,1.3639197259915135,-0.34107608379989796,2.0,0.49507062068551655,0.4948217120931835,0.3127010422373675,-0.6659058002058958,0.44090902409515065,-0.12000703557987842,0.5897177368325774
10.700000000000001,-2.9125356778297977,1.2330854097471495,1.4842169146845765,-0.15621645330786757,-0.3469996320790402,-0.05539561740352393,-0.19110861656235723,-0.47229913467995693,0.8604709209973749,-1.8018770217895508,-1.9145894753477197,4.142095823816574,0.28934399663891597,1.363932294401446,-0.34111339250673467,2.0,0.4950709632190213,0.49482042594651643,0.31272506450661997,-0.6658884419583129,0.4409098499443948,-0.11999953092221477,0.5897382467390002
10.8,-3.2014627911240954,1.4405054142886728,1.5190963075833568,-0.14555583647521078,-0.33928921673983276,-0.058007413558601534,-0.1906359862651805,-0.47108345225443493,0.8612419291928538,-1.8018698568667395,-1.9145721789367827,4.142083313000405,0.2893503824178926,1.3639582137940294,-0.3410907035844991,2.0,0.49507415487330475,0.49480870496799956,0.31271915635038017,-0.6658868153341602,0.440914086737311,-0.12000742311898885,0.5897353098442324
10.9,-2.9540470246178576,1.2108466142066814,1.4663717219786057,-0.14793997179663268,-0.3467407309270592,-0.05175401960677181,-0.19037925293040528,-0.47043606971229324,0.8616526458922241,-1.8018848771612586,-1.9145656260307533,4.142080863655509,0.2893489179048435,1.363964630730536,-0.34109313936891367,2.0,0.49507556135506986,0.49480565858185604,0.3126978103056007,-0.6658987579636859,0.4409132569634343,-0.12002015206169132,0.5897198547407112
11.0,-3.1241792810186073,1.1470986492033644,1.3872877112635045,-0.14147066449213255,-0.3450660275956101,-0.05785861220563039,-0.19018199457308912,-0.46994524158563783,0.8619641100205004,-1.801850377511818,-1.9145581916631587,4.142095639736562,0.28936350232330205,1.3639492988586426,-0.34105686498393745,2.0,0.4950716434295557,0.4948147151585928,0.3127064202874524,-0.6658909906166325,0.4409085842370176,-0.12001069412557369,0.5897340436647749
11.100000000000001,-3.188787247432918,1.2120384381870493,1.4047850229620014,-0.13814888754603363,-0.3452191496982454,-0.05768976621082497,-0.1901883047407602,-0.4699661623503302,0.8619513845736576,-1.8018522262573242,-1.9146095714964808,4.142051775609986,0.2893526340822209,1.3639572718832318,-0.34109376335060526,2.0,0.4950788836150366,0.4948081200479837,0.31272085822741796,-0.6658761544411129,0.4409198257704527,-0.12000948175706258,0.5897426374933987
11.200000000000001,-3.0823394783031324,1.1304892742813206,1.3825297653119446,-0.13381923933857187,-0.34880001879279426,-0.05934274987500313,-0.1901732996342924,-0.4699396762033426,0.8619690497474358,-1.8018805847699442,-1.9145775201475255,4.142103672027588,0.2893602543004555,1.3639209403460226,-0.3410969735246442,2.0,0.49507639820884375,0.49480610355052596,0.312722021883062,-0.6658817892689541,0.440913932744945,-0.12000688483925974,0.5897412095339268
11.3,-3.2627224363585405,1.1735488957932225,1.2034956278124544,-0.1308543862046043,-0.34693629287265765,-0.057386595479441374,-0.1899308542642546,-0.46935883332578643,0.862338906694553,-1.8018689949484648,-1.914601853380052,4.142069052307022,0.2893724968670283,1.3639362348633877,-0.3411088672193787,2.0,0.4950689323799799,0.49480824974771076,0.3127206499495259,-0.6658837166162839,0.4409100034910924,-0.1200073860937722,0.5897418689983862
11.4,-3.406914427263486,0.9567178383066305,1.2927236233040036,-0.1349926917823308,-0.34369147759628915,-0.061040698857140835,-0.1897161541142548,-0.46874972056520214,0.8627173082995588,-1.8018793303701488,-1.9145417181990994,4.1420721536878995,0.28937625311397247,1.3639175898516154,-0.3411085510171206,2.0,0.495077888099814,0.4948017933847122,0.3127234157424252,-0.6658748351236566,0.4409185337823719,-0.12001312072039569,0.5897443525555781
11.5,-3.1653621434722687,1.0693847263299732,1.323231043545339,-0.1333158050526262,-0.3498554995155158,-0.057485713358374116,-0.1896016373847444,-0.46840527847559926,0.8629296549912552,-1.8018368704417687,-1.9145895011430283,4.142060236653384,0.2893678491377033,1.3639492988586426,-0.3410614604492985,2.0,0.4950916182777858,0.4947962890556602,0.31270342922734035,-0.6658805703177082,0.44093244626971917,-0.1200214303428756,0.5897257838677353
11.600000000000001,-2.8362658026484406,1.2370525401604842,1.53477292734917,-0.13994699934257804,-0.3530239235184944,-0.056255467807738185,-0.18977604284019522,-0.46892986252694835,0.8626063417807324,-1.8018688417843658,-1.9145929559694392,4.142072706114912,0.2893644721341117,1.3639524351869188,-0.3410742465888734,2.0,0.495075019256914,0.49480590229968574,0.31271657445112216,-0.665887292493014,0.4409195373419853,-0.12000613686259101,0.5897309576423555
11.700000000000001,-2.9929329476848903,1.2637801822885242,1.6613423634581557,-0.15029158261778625,-0.34720277212454154,-0.053087159481469096,-0.18982780079396794,-0.46906758524600656,0.8625201484624152,-1.8018692445795235,-1.9145881284105097,4.142068386077881,0.2893495708693183,1.3639283919314298,-0.3411004585818633,2.0,0.4950879077719388,0.49480098330770694,0.3126839977027514,-0.6659016311697639,0.4409250858701559,-0.12001193888430411,0.5897094375886093
11.8,-3.0994320119970316,1.273949456211484,1.712055433952,-0.14808427077163677,-0.3442498969762747,-0.051289262825235785,-0.18987542809832628,-0.46913937836112773,0.8624706108379131,-1.8018770217895508,-1.9145922688225643,4.142080783843994,0.28935979478070595,1.3639534515003826,-0.3410728272142321,2.0,0.4950906026973909,0.4947929372951708,0.31269924002464167,-0.6658849601455021,0.4409336145308924,-0.12001125865440815,0.5897220236899166
11.9,-2.954991679434633,1.1113910077223526,1.4900190518151935,-0.14611692349599253,-0.3468522989016454,-0.055662785029446944,-0.18989873624339418,-0.46915954342177557,0.8624544951981966,-1.8018476970787534,-1.9145953759250172,4.142087678650774,0.2893518451200121,1.3639392667207382,-0.3410675065962647,2.0,0.49508532889181406,0.4947939580880639,0.31270239995619753,-0.6658824073510206,0.44093059151584024,-0.12001684071171714,0.5897260304509877
12.0,-2.9414967596799997,0.7545798707304266,1.5410862649180013,-0.15283569023778948,-0.3461810100907509,-0.05636474570960938,-0.18976910586849827,-0.4688708106814835,0.8626400180269636,-1.801861116715619,-1.914592389605798,4.142092227935791,0.2893635051881187,1.3639541791506646,-0.3410703155912791,2.354483420908688,0.4950788148366212,0.49480030891949794,0.31269725785702107,-0.6658889367837131,0.44092513642666387,-0.12001828531130196,0.5897224424482412
12.100000000000001,-2.6913382483355637,1.4221876385115524,1.786744478964259,-0.1536834593402171,-0.33137985320768587,-0.055557408159624726,-0.1896826989726446,-0.46869683024070513,0.8627535744434044,-1.8019776851471927,-1.9144550977236512,4.14207766682824,0.28934897807044657,1.363951163274419,-0.34111076601016216,3.0,0.4950748554325597,0.4948043088351185,0.31273277379420567,-0.6658798151983731,0.44091031783269913,-0.12002176708008416,0.5897431125219037
12.200000000000001,-3.342951269867313,1.3938060729635127,2.831746842942691,-0.16134442661633944,-0.3476829314822879,-0.07355769390805421,-0.18961473008244822,-0.46857180012957417,0.8628364318706152,-1.8028676528597503,-1.913443100616236,4.142153263092041,0.28946287614501925,1.3637744645133059,-0.34106581469688674,3.0,0.49503623404104063,0.49475700254383026,0.3127419628652026,-0.6658962003328162,0.4409014734028178,-0.12002517717442575,0.5897305299692309
12.3,-3.4728680233501246,1.3594641580721678,3.6098198656912492,-0.15587104975384639,-0.36114576583209385,-0.10264211664158127,-0.18964571531320634,-0.4685080516456769,0.8628642443463022,-1.8041981278059127,-1.9123025375868452,4.142327939279933,0.28949041763789213,1.3635640144348145,-0.3409702549251646,3.0,0.4948695940058304,0.49453838194131494,0.3128622259292044,-0.6658620543518113,0.4409146260072131,-0.12004348579720032,0.5897555244887175
12.4,-3.226756994188697,0.7994894747384582,3.7530156253338833,-0.1367438894324846,-0.3679277939569338,-0.1031372607032715,-0.18971248128012283,-0.4685072787203958,0.8628499834568351,-1.8055444500970503,-1.9110821272358292,4.142651857267168,0.28957919016843303,1.3633484840393066,-0.34094506898988897,3.0,0.4945112377129488,0.49413792488825053,0.31307017704434525,-0.6658193611882308,0.4409331485680291,-0.12004563455810321,0.5897894390240663
12.5,-3.7681200197647313,0.5249560423203526,4.0369501470516065,-0.12311435302025625,-0.4036675381954333,-0.12785149140393703,-0.18973857969575011,-0.4686950522058904,0.8627422559398353,-1.8068666458129883,-1.9099984296087689,4.142840402862172,0.2896806436726074,1.3631425710960672,-0.3408539298087283,3.0,0.4941984534135465,0.49386233832387777,0.3131361698020359,-0.6658506554745354,0.44093219225413666,-0.12003408158918785,0.5897571751959728
12.600000000000001,-3.6675614594407255,0.6582869892242426,4.087103991624797,-0.13000259190017238,-0.41748648858290127,-0.15250182091597825,-0.18920016076083493,-0.46743373071922867,0.8635423413855626,-1.808110744662985,-1.9089736579204242,4.14305936387372,0.28972239943503064,1.362994265825566,-0.34082538286318,3.0,0.49381765555477714,0.49351084758039504,0.3132180196202108,-0.6658879104753948,0.4409252891369865,-0.1200344415230361,0.5897201988489373
12.700000000000001,-3.5292999567144894,0.6021217657461604,5.021912366213763,-0.1260795718505827,-0.4179972193460331,-0.17172481850293853,-0.18835322673771038,-0.465391670056711,0.8648308076100022,-1.8093938827514648,-1.9076955954389512,4.143280041860905,0.2898006439000589,1.3627786642312243,-0.34074145952333623,3.0,0.49354906905809326,0.4932528967560988,0.31326947096970414,-0.6659169709881981,0.4409301540446814,-0.12003575753395268,0.5896834777380888
12.8,-3.7047114311667255,1.1088728796138896,5.515902969471356,-0.12776131951808192,-0.4308049225754566,-0.19227077433550982,-0.1874675284051196,-0.46331702971118577,0.8661353363775927,-1.8106844340738562,-1.906307703193472,4.143519878387451,0.2898540613769428,1.3626148547442898,-0.34069498322753267,3.0,0.4931159363939546,0.4928512828030946,0.313473620361615,-0.6659096734395977,0.44091232856042195,-0.1200176418398632,0.589708734029091
12.9,-4.008553423789566,0.8898800772934474,5.337656710938405,-0.11854813027692036,-0.46607550248342766,-0.2154344373561411,-0.18704242625286624,-0.46226561082375756,0.8667903776635809,-1.8119440078735352,-1.9050886382951564,4.143718153296983,0.2899450797920125,1.3624005317687988,-0.3406392822046005,3.0,0.4927268215326501,0.49246530146953754,0.3137520223271372,-0.6658624385180472,0.44088820696177244,-0.12000320879737712,0.5897830379140845
13.0,-4.49134950461889,1.0347936733252914,5.433980246059399,-0.1095113467210162,-0.47062905785279074,-0.2352628767085889,-0.18733851260614878,-0.4629911913908,0.8663386342077783,-1.8131379199434081,-1.904095438618565,4.143946063489519,0.29003361048704296,1.362220287322998,-0.34057802097693973,3.0,0.49246717927597683,0.4921942969437761,0.3138488114281225,-0.6658650948487665,0.4408957422004981,-0.12000216114926521,0.5897746190630967
13.100000000000001,-4.105182849321462,1.0131146042230017,5.688376928914656,-0.1256589867199872,-0.4644556274187249,-0.24884645640331973,-0.18765721457548154,-0.46386917083144774,0.8658002519088406,-1.814436912536621,-1.9030117498258654,4.144172825192337,0.2901009539258408,1.361997544388566,-0.34050161043276006,3.0,0.4920827989418247,0.4918459041055894,0.3139225333054108,-0.6659034571243204,0.44090094063917207,-0.11999207635988757,0.5897294701337342
13.200000000000001,-3.9586417519823254,1.1526892185059459,5.828630418853706,-0.14711398024548558,-0.46167687605498414,-0.2593206195212101,-0.18752921488796662,-0.46350670596029314,0.866021938163827,-1.81570586208236,-1.9016933888125787,4.144346714019775,0.29012925285882246,1.361776452833756,-0.3404234595913372,3.0,0.4917315847057186,0.49149876132475373,0.3140013748606623,-0.6659251809207645,0.44091469681455786,-0.11999710918717138,0.5896936300616582
13.3,-4.03764445844683,1.494137479867099,6.025210957338927,-0.1687260176075797,-0.4625307816929693,-0.27286459889151726,-0.18718492894792557,-0.4626184805979113,0.8665712120780813,-1.817060674561005,-1.9003230003350247,4.144538402557373,0.29021118598200346,1.3615965843200684,-0.34039562820048735,3.0,0.4914773428608811,0.49121574204127383,0.31410461754515573,-0.6659229434565914,0.44092389073321947,-0.1200059514738008,0.5896874829684423
13.4,-4.2709695217947905,1.2287016840805784,6.23446371995009,-0.16327752573840618,-0.507615401334539,-0.2906432306367662,-0.18698341693616727,-0.4620436453698591,0.866921430002156,-1.818159981076971,-1.8991911369746077,4.1447538949574305,0.2902259362573898,1.3613745873285477,-0.3402980009662073,3.0,0.49105689921208523,0.49077432348974936,0.3143822174546386,-0.6658781112508927,0.4409056983665254,-0.12000676895414747,0.589751542185399
13.5,-4.443265635727559,1.5139252177752207,6.357542069159842,-0.16717064095481687,-0.49855748918257264,-0.29612675686399575,-0.18690918594154637,-0.4616998468634002,0.8671206408081543,-1.8193235397338867,-1.8981637985400288,4.1449586337570965,0.29031579076733394,1.3611591314244555,-0.340245833950585,3.0,0.49072949291734813,0.4904204945513782,0.31461275319219784,-0.665821886681452,0.4409129681655525,-0.12002643759360393,0.5898055815249488
13.600000000000001,-4.270420065651602,1.2053300445982127,6.445407821528803,-0.1817775831245279,-0.49299688466813474,-0.2974505402801988,-0.1869458542798189,-0.4618154604760113,0.867051162778617,-1.8207291366979164,-1.8969945064890141,4.145148247538127,0.290394522512596,1.3609351814370523,-0.3401833067573653,3.0,0.4905025184585033,0.49020282905406104,0.31464870238918313,-0.6658479678433432,0.44092417933821715,-0.1200344707040723,0.5897661211332875
13.700000000000001,-4.023179424978863,1.462757852426845,6.448014060922845,-0.1995379798516531,-0.4889634931615521,-0.28128087052787965,-0.18698745056713892,-0.46192662102348164,0.8669829729192343,-1.8221252824751673,-1.8957111987056572,4.145391638755212,0.290472269555385,1.3607340621010393,-0.34014310508995177,3.0,0.49006463092876923,0.4897759427226324,0.3147257165794052,-0.6658992731955303,0.4409363145743561,-0.12001699819150094,0.5897026747373209
13.8,-4.544747433023755,1.4240003985707492,6.534568972247762,-0.2003841656784367,-0.5179800377284421,-0.28915942240556947,-0.18703290296608577,-0.46203429705516275,0.8669157910507749,-1.8232327611063943,-1.8944465260499241,4.145587306379737,0.29051429295082953,1.360538124041216,-0.34005862871278936,3.0,0.4897025494428812,0.48939640090899494,0.31485214549648044,-0.6659046313761504,0.4409433032269209,-0.12001963904645935,0.5896908609553673
13.9,-4.955054789584215,1.6477013959060467,6.591849494739758,-0.18628316204534037,-0.5450312005706605,-0.2901869167910218,-0.186850994926838,-0.46156869029454894,0.8672023806424513,-1.8243327482577258,-1.8933434479047102,4.145830911276559,0.29052756067883867,1.3603301748329948,-0.33999452251824863,3.0,0.4894744549530327,0.4891691196607884,0.3149947983439041,-0.6658794777897217,0.4409331112481359,-0.12002909723693972,0.5897249598584172
14.0,-4.777426912222236,1.3556907259241164,6.2547637754805985,-0.17482954978177234,-0.5570806922709834,-0.2888914072736804,-0.1864827039963267,-0.4606331244452389,0.8677789808802637,-1.8257078792444994,-1.8921578822796283,4.146020190626774,0.2905833630548078,1.3601072414972708,-0.33995606162949027,3.0,0.4890887556375522,0.4888134647261661,0.31521681248292643,-0.6658545861271772,0.44091466395316,-0.12003115008384828,0.5897664387314916
14.100000000000001,-4.922747052772238,0.9970609153733369,6.388482098576324,-0.15041646396991043,-0.5567417813951339,-0.28515036197636395,-0.1858786988413052,-0.45915649620615273,0.8686876401906212,-1.8271124500404483,-1.8909959268776804,4.146242624554475,0.2906702934611969,1.359900477545182,-0.33988239966220385,3.0,0.4886972633930742,0.48838669303300536,0.3153585756709506,-0.6658603557578657,0.4409365078557465,-0.12003995410844548,0.5897418012042474
14.200000000000001,-4.801903660767653,1.0173055868422696,6.3570652868147315,-0.15973103450646275,-0.5509180763933126,-0.2781512212092421,-0.18507054416247792,-0.45721125972141846,0.8698838922488338,-1.828336668738185,-1.8897985247602587,4.146456241607666,0.2906977556916476,1.3597018340921874,-0.33978803280580555,3.0,0.48833089919537,0.4880333356637741,0.3154280076541226,-0.6658958602270533,0.44094231243083526,-0.12002441671866654,0.5897005340271999
14.3,-5.0082805052916255,1.188518381228411,6.50693247332037,-0.16055444477807596,-0.5526200718028662,-0.2812850391490462,-0.18424256092587818,-0.45521522742803944,0.8711099705626794,-1.8293722984673682,-1.8886700398335405,4.146682020694466,0.2906972940408207,1.3594789672739505,-0.33975156235636866,3.0,0.4880095931671592,0.48773974423685235,0.31556272940921853,-0.6659011410059112,0.44093474324751797,-0.1200086465290487,0.5897034401820433
14.4,-4.85506444724756,0.8586354999320002,6.598359056138679,-0.17016480998998978,-0.5647737480822358,-0.2776869658301308,-0.1826928501519374,-0.45137030958780666,0.8734216764987202,-1.8306114300518666,-1.8874535057885333,4.146931965207867,0.29075724142133225,1.359322230959125,-0.3396871725665491,3.0,0.48778615297375383,0.4875206001189857,0.31569958563444955,-0.665881656294713,0.44092865657975,-0.12000779806648021,0.589730165431803
14.5,-4.962418799562871,0.597454865401839,6.114899289956699,-0.10535866192359476,-0.5644151133202824,-0.27909272920840805,-0.18117150143489708,-0.4475949110596027,0.8756915442240257,-1.8320254147586843,-1.8860861263670863,4.147119093602663,0.29080227786411833,1.3590878226997898,-0.33964433799256716,3.0,0.48744786844563764,0.4871748174335605,0.315859627057232,-0.6658719267078208,0.44092122086585894,-0.120015728360621,0.5897450967652422
14.600000000000001,-4.858584500987315,0.5768816123744759,6.2554719535420045,-0.11745567999833088,-0.5593932699352744,-0.276470967382946,-0.18130149642660193,-0.4478681862194823,0.8755249026236845,-1.833329948863389,-1.8849359951415003,4.147336544754597,0.2908218424711208,1.3589266447068427,-0.339571762536042,3.0,0.48702903524797936,0.48674338992267896,0.3160648476919128,-0.6658528757963851,0.4409247314980772,-0.12001104828826738,0.5897649338811046
14.700000000000001,-4.6148604736777585,0.7315851776345959,6.326288715860324,-0.12409675075849609,-0.5587782031270542,-0.27500356680515015,-0.18125586747686995,-0.4478318173910146,0.8755529519821547,-1.834473203151882,-1.8839119244183535,4.14756458819256,0.29086013541578465,1.3587034626090075,-0.33947398682135116,3.0,0.4866181038883561,0.48633984535925956,0.3161699210725907,-0.6658915796177752,0.4409243718381275,-0.12001251742851127,0.5897212037681606
14.8,-4.535911662732694,0.6477379161985942,6.5139421801372395,-0.14613336846202526,-0.5519004476430324,-0.27326665269732625,-0.18106745433589946,-0.44741804277601527,0.8758030313290323,-1.8356795248852171,-1.8827646363489556,4.147787570953369,0.29092368243718414,1.3584996088965926,-0.33940675135799886,3.0,0.4863399092328478,0.4860833481282366,0.3162208647241605,-0.6659206781977262,0.4409317649342239,-0.12000842577804577,0.5896836497334361
14.9,-4.629539060073134,1.1995424946503073,6.857776496644938,-0.17103627997552764,-0.5447452822459474,-0.28021540815082174,-0.18073628015064888,-0.44662692355629996,0.8762751046707047,-1.836883252844782,-1.881348430580658,4.148010575857333,0.29090308156510647,1.3582700134183678,-0.33934020769651096,3.0,0.4859583383800616,0.485721720915772,0.3163752522259344,-0.6659126429671871,0.4409293089853983,-0.11999933863746319,0.5896964092994686
15.0,-4.68533720119916,1.4896219522857304,6.828397669156393,-0.1887698784416062,-0.539004191239574,-0.27370499387929126,-0.18045842099427148,-0.44594321728402186,0.8766806933788526,-1.8381737225869206,-1.880118730553155,4.148203132893287,0.2908908563801269,1.3580664061725227,-0.33933176066417825,3.0,0.48560189302060436,0.4853615809676848,0.316626425989048,-0.6658775645218298,0.4409051821793488,-0.11999924785022378,0.5897540757885885
15.100000000000001,-4.569808858536734,1.8349098179268861,6.372457517560252,-0.20334989341802037,-0.5414672287370094,-0.27511461352366867,-0.18023542812704585,-0.4453700492587877,0.8770178630088494,-1.8385825878515487,-1.8797138353235585,4.14828685052996,0.29087610550017473,1.357991949358608,-0.3392992500023748,3.0,0.48528565323595485,0.4850235761870534,0.31678637790761704,-0.6658728373541847,0.44090541210846645,-0.12000628622308593,0.5897578090320579
15.200000000000001,-4.762998827721997,1.2121130284575496,6.154113187573836,-0.1846233093853805,-0.5653132160565091,-0.27453880601094605,-0.1800461516638246,-0.44489331278297617,0.8772988190455787,-1.83855736178679,-1.8797007999815882,4.148286171808187,0.2908589911293197,1.3580073481914812,-0.33928836588962863,3.0,0.485158343316249,0.4848952569957096,0.31683838625095817,-0.6658753364381369,0.44090827763743917,-0.12000816331613139,0.5897524631331972
15.3,-5.003273053295084,1.2199506711647703,5.939035106553019,-0.179476235735367,-0.5715209474849657,-0.27623239080974943,-0.179892566928742,-0.44451865743792623,0.8775202681346412,-1.838551094424922,-1.8797127209105433,4.148279279501444,0.2908799785634555,1.3579791212194636,-0.3393037954913538,3.0,0.4851257496485605,0.4848828237314903,0.3168728241502106,-0.6658642116575053,0.4409044621406878,-0.12000123976840071,0.5897692848497679
15.4,-4.84096397668804,1.0851459742055496,5.9515454503866945,-0.18189792335447388,-0.5743996749625596,-0.2747971575318163,-0.1799128968702157,-0.444523169155973,0.8775138182256443,-1.8385789522653022,-1.87968865346149,4.148305219663496,0.2908750225320655,1.3579676571024613,-0.33929988257224747,3.0,0.485129751298138,0.4848855336190105,0.31687937908729,-0.6658617095574184,0.4409098679707468,-0.12000294970802017,0.5897677204905886
15.5,-4.626362413498082,1.1398185549685413,5.898746965326042,-0.1733255531933525,-0.5771997390709784,-0.27441742091019494,-0.1797683721827882,-0.44416064715528614,0.8777265917611438,-1.8386098801959456,-1.8796888790526332,4.14829337084632,0.2908587839586244,1.357991310947582,-0.3392638090663972,3.0,0.4851279916402195,0.4848818918051967,0.3168675398170142,-0.6658700448914819,0.4409149428189221,-0.12001033199401365,0.589753013328367
15.600000000000001,-4.795074666526172,1.1507363131273125,5.762760048138709,-0.1735902640662357,-0.5715630135456846,-0.2745170127823578,-0.17943440902493898,-0.4433765492009148,0.8781911999781246,-1.8385905865833387,-1.8797168107562725,4.148285277391899,0.29089444796812375,1.3580035428732389,-0.3392922231706312,3.0,0.4851173899334067,0.48488025609313945,0.31685480712651737,-0.6658803163517568,0.4409089711358245,-0.12001034386469403,0.5897458781820448
15.700000000000001,-4.842630800277282,1.3226882418656738,5.797907653896608,-0.17102801282240754,-0.5734661581036088,-0.27482334395630786,-0.17922441250965582,-0.44288715247264193,0.8784813920042855,-1.8385944021555247,-1.879668787037564,4.1482913374058,0.2908908563801269,1.3579868138257867,-0.33928071274448585,3.0,0.48511956248154253,0.48488107898043786,0.3168730952680464,-0.6658635344201304,0.4409123957968457,-0.12001147477900354,0.5897620356411443
15.8,-4.713636871831065,1.2964055936343222,5.9387274957768215,-0.1740975118557683,-0.5738566354836071,-0.2723810702390718,-0.17915843941507922,-0.44274013719304367,0.8785689487415617,-1.8385939802971247,-1.8797288627270266,4.148308607748195,0.2908663208190723,1.3579717388903039,-0.339291503695584,3.0,0.4851174466943669,0.4848817864250372,0.3168733670554103,-0.665864560917599,0.4409167719250362,-0.12000866277102626,0.5897581772295563
15.9,-4.539487700079344,1.060848613908071,5.745898835643624,-0.17948166545947966,-0.5763233288663735,-0.2688309005301387,-0.1791069857840797,-0.44261261729703555,0.8786436977951531,-1.83859798824448,-1.8797158035607464,4.148305431883956,0.2908708449962604,1.3579754829406738,-0.33930747863947275,3.0,0.4851038288295187,0.48489374180433975,0.3168616491526123,-0.6658876535032399,0.4408974499918469,-0.11999921400771413,0.589748471926945
16.0,-4.7701100637006695,1.1167666131434777,5.983002198583547,-0.17127847143286087,-0.5724333490649601,-0.27287480645529144,-0.17907292848715853,-0.442508455578423,0.8787031014647387,-1.8385728127655105,-1.8797067532794618,4.148277759552002,0.29086495071228724,1.3579858168968575,-0.3392819380660682,3.3959481440120416,0.48512914046716665,0.48488031749918536,0.31685448197205307,-0.6658738048843537,0.4409286933348877,-0.12000351538568418,0.5897398745700513
16.1,-4.75188173319184,1.179610220766623,5.731169481725066,-0.17154946208832922,-0.5729513701158158,-0.27430140486391325,-0.17895748107327858,-0.44219063479138865,0.8788865316628123,-1.8385954227343912,-1.8796961838410604,4.148289203643799,0.29085461675610347,1.3579754829406738,-0.33931124637554955,4.0,0.485112238318126,0.48488607396168326,0.3168580075698097,-0.6658808933522858,0.4409073849843514,-0.12000503165330478,0.5897474935194823
16.2,-4.899577126016378,1.523702191216285,5.471885612518006,-0.1656182182225236,-0.565563755334108,-0.2676998585853603,-0.17925484877553247,-0.4428916347568032,0.8784706403977224,-1.838573637155386,-1.8797329913804044,4.148291030101287,0.2908845863872007,1.3579841664632162,-0.33927517548058655,4.0,0.48512410430792824,0.48487093413762644,0.3168657142162356,-0.6658669898801255,0.44091950727469137,-0.12000752873702683,0.5897536205391671
16.3,-4.682553540183242,1.1693094484319435,5.728829908450907,-0.17269530659208449,-0.5739676874403787,-0.2721177262456661,-0.1802301156752082,-0.44528656369590086,0.8770610033679614,-1.8385860055160839,-1.8797089055377911,4.148285390297506,0.29083905408819377,1.3580109235317503,-0.33927566344999277,4.0,0.4851220873638229,0.4848729571646191,0.3168464830829984,-0.6658797089846986,0.44093201512920344,-0.11999368403314248,0.5897327250447506
16.400000000000002,-4.960415126808358,1.2824830070324447,5.540113537073712,-0.17028133262708167,-0.5660596177109243,-0.26562353757938667,-0.18020307979310535,-0.4452312329185238,0.8770951438242047,-1.8386450089036248,-1.8796793285497955,4.148277759552002,0.29086701452221675,1.3579553874818104,-0.3393047320911155,4.0,0.48512103422496244,0.48487382807120166,0.31682978375656395,-0.6658882128560897,0.44092726631979373,-0.11999512169819976,0.5897263810986506
16.5,-4.901659704669861,1.2209959683784404,5.48298540743716,-0.1693599589446224,-0.5659100832666648,-0.2698148626227101,-0.18009031848277818,-0.4449663351647058,0.8772527683667926,-1.8385917365052509,-1.8797209302575562,4.148294178246028,0.2908708745674367,1.3579793429858937,-0.33927995363344365,4.0,0.48512361320383324,0.48487396057972865,0.3168402357487521,-0.6658804618645596,0.44091860773676056,-0.12000558946209668,0.5897394766813326
16.6,-4.803028855685352,1.405222240259378,5.357378491826801,-0.16480434454453732,-0.568012403763745,-0.26655805068295046,-0.18007874056974027,-0.4449854757569831,0.8772454457172747,-1.8386144638061523,-1.8797007999815882,4.1483174528657125,0.29087075601937823,1.3579806855199381,-0.3392809378783882,4.0,0.4851209189844383,0.48487253410854236,0.3168534596882351,-0.6658734135444049,0.44091294718437746,-0.12000855284425742,0.5897510639109824
16.7,-4.534278833947256,1.1465162653132206,5.531513843281523,-0.1743212042370836,-0.5716524158141345,-0.2633503186593883,-0.18014317579867228,-0.44515073635676033,0.8771483163474859,-1.8385896682739258,-1.8797183382170255,4.148266315460205,0.29086281210723486,1.357964038848877,-0.33928415604842554,4.0,0.48512259357305165,0.4848752312613945,0.3168581191306813,-0.665878119978544,0.4409066075347182,-0.12000696301774405,0.5897508131349407
16.8,-4.861455297337654,1.3391027675360463,5.3722201881406,-0.1687502957436534,-0.5655371215376613,-0.2692630674569964,-0.1803162230176284,-0.4455106790453499,0.8769300174237465,-1.8386045682338277,-1.879718131594548,4.148301601409912,0.2908908563801269,1.357999324798584,-0.33931821861409744,4.0,0.4851318563986056,0.4848669751929606,0.3168616332069919,-0.6658681437333516,0.4409168179715155,-0.1200101083593712,0.5897538034489866
16.900000000000002,-4.8249634039694484,1.5559797191504927,5.321258365912922,-0.16399291981206435,-0.5667521621270218,-0.2684020929313337,-0.1802353111494426,-0.44531081494465785,0.8770481398721344,-1.8385749665804014,-1.879702452393164,4.148292732712337,0.29085461675610347,1.3579946673770524,-0.33929700882108843,4.0,0.48512486764056967,0.4848680329607959,0.3168431458165125,-0.6658806460516952,0.4409212611482586,-0.1200110302293923,0.589736177713803
17.0,-4.783815495664439,1.2896771461498653,5.589209501012417,-0.1673889690368302,-0.5664694503180847,-0.26815594334433296,-0.1801834175121433,-0.445175431025884,0.8771275571903546,-1.8386210009253978,-1.8796975033960341,4.148280924274133,0.2908759838393538,1.3579944738778953,-0.33927995363344365,4.0,0.4851183091597238,0.48487978840187,0.3168580136694553,-0.6658800203408543,0.44091064139478586,-0.12001317273889985,0.5897443880062323
17.1,-4.841363438550352,1.2245871818552945,5.370342524426118,-0.16953365317390054,-0.5652875914160894,-0.26446304290364675,-0.1802580273643338,-0.44531984068232255,0.8770389117130198,-1.8386228601484156,-1.8796943235138293,4.148289203643799,0.29088120517327054,1.357992975320389,-0.33927677889434615,4.0,0.4851227043193971,0.48487590235389744,0.31683898686654954,-0.6658851903693155,0.44091972882786834,-0.12001270867382173,0.5897318507033111
17.2,-4.590194043549815,1.008614491723911,5.420860778409924,-0.1757273016825699,-0.5679328593497076,-0.2665414848456208,-0.1801789188498254,-0.4451260685253119,0.8771534023990689,-1.8385928124521935,-1.8796888790526332,4.148280454561946,0.2908764926942243,1.357999324798584,-0.3393251945923164,4.0,0.4851349964290028,0.4848732343648371,0.31681727916904523,-0.6658882698715487,0.44093257655933554,-0.12001247559433056,0.5897188149261827
17.3,-4.716268927351084,1.3342736097979948,5.403725461973253,-0.16832481126765053,-0.5667668260236056,-0.26368906517194746,-0.18000406928897172,-0.4447593847500953,0.8773753133088806,-1.8386221046962408,-1.8796982865309013,4.148301601409912,0.29087941228833003,1.357999324798584,-0.3393154463949596,4.0,0.4851294680509168,0.48487677588781103,0.31683225964235595,-0.6658891549408892,0.4409185593987067,-0.12001141026169748,0.5897285127216392
17.400000000000002,-4.414164582565573,1.2466662414635732,5.4573280913062785,-0.18386136989832366,-0.5360449354027756,-0.25999085036426084,-0.18021699522011045,-0.4453203248937614,0.8770470540887036,-1.8385803698450338,-1.8797015057917543,4.14830086736734,0.2908779442031845,1.3579762169832466,-0.3393037954913538,4.0,0.48512556044980915,0.4848784442985469,0.31684689626044305,-0.6658840720173016,0.4409088348078918,-0.12001100342074858,0.5897416053492834
17.5,-2.071770618381795,2.0476667916442812,5.7706143197648885,-0.22446286746261535,-0.3303191357074571,-0.21329017133499517,-0.1801182769340969,-0.4450451116398103,0.8772069804928138,-1.8386079561629105,-1.8797178630444549,4.14822282020398,0.29084680071255803,1.3579438250392182,-0.3392583088480093,4.0,0.48512482406563684,0.48488217631935665,0.3168522479989486,-0.6658774088306605,0.4409099257789883,-0.12000645176089134,0.5897492393333741
17.6,-1.6026209373403353,2.413767407489078,5.354360617943312,-0.22833866085493854,-0.21171773097226104,-0.19590938114847115,-0.17990175652836488,-0.444447649866352,0.8775539777751004,-1.8386057388438248,-1.8797155533370737,4.148277759552002,0.29085325719136884,1.3579507017066565,-0.3393023792780886,4.0,0.48512813006579086,0.48487453563172905,0.31682759732082627,-0.6658878724627697,0.4409285529114063,-0.1200145254360295,0.5897218549611537
17.7,-1.43768202165612,2.3879903358742633,5.17275314161721,-0.22771877790798897,-0.1896519367995056,-0.1960716717908793,-0.17957080104323048,-0.44352977107952535,0.8780857263552998,-1.8386323758857455,-1.879703391702422,4.148268803512205,0.2908317285725097,1.357926057509503,-0.3392986120496864,4.0,0.4851406083178297,0.48486215780073416,0.3168198834397805,-0.6658873658086178,0.44094015306264905,-0.12003021115309356,0.5897105611095086
