xiamingqian9007/apple-picking-rnn/final_data/grasper_20191127_123812_noimg.csv
,/manipulator_wrench.fx,/manipulator_wrench.fy,/manipulator_wrench.fz,/manipulator_wrench.tx,/manipulator_wrench.ty,/manipulator_wrench.tz,/ground_truth.x,/ground_truth.y,/ground_truth.z,/joint_states.elbow_joint,/joint_states.shoulder_lift_joint,/joint_states.shoulder_pan_joint,/joint_states.wrist_1_joint,/joint_states.wrist_2_joint,/joint_states.wrist_3_joint,/mode./mode,/manipulator_pose.x,/manipulator_pose.y,/manipulator_pose.z,/manipulator_pose.rx,/manipulator_pose.ry,/manipulator_pose.rz,/manipulator_pose.rw
0.2,0.3834109252592437,0.27608884609302864,0.10368241192341271,-0.015464969129436333,0.015913621021965845,0.016680367811461507,-0.0793672310419569,0.15482928155917808,0.9847480526653082,-1.9281243974249178,-2.0017667237411603,4.171887115340963,0.934288564252882,1.3301520347595215,-1.3046209475834454,1.0,0.4570493228156742,0.4587559271202287,0.3183815968385692,-0.6480601837404424,0.0977193801864536,-0.44735239639399377,0.6085595734411141
0.30000000000000004,0.13948104983089998,0.18701085433221487,0.1824645152387973,-0.011285402179916778,0.008433836871069604,-0.0050806777252763525,-0.0796712018359791,0.15522943706466905,0.9846602946243244,-1.9239136876721321,-2.0038481255396907,4.171075437584507,0.9319356678685422,1.3308123747564355,-1.304463883316439,1.0,0.4577306010721021,0.45933759856961837,0.3186117631496946,-0.6479324345907291,0.09775682343395574,-0.44744284939097556,0.6086230855022817
0.4,-0.0011972922556954257,0.21662965021638642,0.17590174737293668,-0.006250023778353734,0.009644763142630654,-0.004327359375300014,-0.08008321456516261,0.15583980260112903,0.984530659082002,-1.9195149050596867,-2.00616443068978,4.170450687408447,0.9298146812277859,1.3317486584768468,-1.3043687114769293,1.0,0.45840607393278565,0.45998141240641494,0.31872509630626045,-0.6479880245710635,0.09777367997463711,-0.44745200017135256,0.6085544635111665
0.5,-0.30282298023717275,-0.1396130264865456,0.03868153003584145,-0.009747058633125466,0.0078772739420674,-0.00568593430934668,-0.07982237422079265,0.1558056266254281,0.9845572231925894,-1.9150090929609618,-2.008498307375542,4.1696953773498535,0.9274681543802873,1.332574202861636,-1.3042022276640415,1.0,0.4596157731578255,0.4613831198306861,0.3189654442711677,-0.6480122403753886,0.0976868618000144,-0.44733571602998,0.6086281052656702
0.6000000000000001,-0.19135571860133938,0.40338065299404513,0.08292962172019622,-0.011486282644734242,0.01153766808165494,-0.006883876642976119,-0.07962895889518895,0.1558337100506023,0.9845684556913805,-1.910602026388304,-2.010618227507273,4.168916742806379,0.9253072486180904,1.3332231247448647,-1.3040943984161502,1.0,0.46017655522221845,0.46204444517709636,0.31903304410855937,-0.6480691469158814,0.09764388624239559,-0.4472750497774567,0.6086189958765481
0.7000000000000001,0.014741203345528392,0.16853253623893516,0.10624543187151772,-0.003481933816018211,0.008989442599402889,0.0015734811598543674,-0.07993169688443928,0.15627210459025045,0.984474450710958,-1.9064139075901196,-2.0128602259658464,4.168197577932607,0.9232946530322159,1.3338581126669178,-1.3039866855126365,1.0,0.4612361229293378,0.4630534178485914,0.3192967591513764,-0.6480333556017852,0.09767750214546866,-0.4473117389510097,0.6086247479348305
0.8,-0.04557405632956743,0.3625949283523087,0.15791446725076255,-0.0038619699702986694,0.005855626173648447,-0.003591149333104537,-0.07994026020205253,0.1560259602451779,0.9845127865111521,-1.9023973390753441,-2.014918167382349,4.1674294817688065,0.9211268547080315,1.3345537456725134,-1.3039263374529333,1.0,0.46266166140459497,0.4644412556538682,0.3195242249835146,-0.648032178874051,0.09771352758925786,-0.4473466651247465,0.6085945471917913
0.9,-0.03620630505255914,0.3885633974606779,0.26384539692789716,0.0003989937017041655,0.006024998174345866,-0.0059274006460531175,-0.07985542336932272,0.15578894287145598,0.984557185384799,-1.8984860933829562,-2.016932171930247,4.166710376739502,0.9192674543978818,1.335417304922816,-1.3038073902310303,1.0,0.4632706118237633,0.4649643152851718,0.319627989463125,-0.6480670473740187,0.09773990019503505,-0.4473822966886908,0.6085269875916254
1.0,0.1372411404158107,0.08528871480894344,0.15517249258212826,-0.010149798788354899,0.0020887368528937026,-0.0037827009301089143,-0.07970720546017429,0.155558119034538,0.984605698642849,-1.8947298341885324,-2.0187887493321512,4.166076334000489,0.9172786724412177,1.3360278791293387,-1.3036898047422871,1.0,0.46451448878151474,0.46615930511064435,0.3198863726738517,-0.6480497827206172,0.09769723353282758,-0.4473635914348654,0.6085659756626982
1.1,-0.09656558716185687,0.4861864993750694,0.2461890493392776,-0.007173707615950218,0.008237198564165051,-0.005839492576368481,-0.07968740090883263,0.15552007178699254,0.984613333789735,-1.8908922116364384,-2.0207795671386943,4.165526068216093,0.9154888965809003,1.3365325927734375,-1.3036154016801977,1.0,0.4650104768645443,0.46668313257900296,0.32002559022388044,-0.6480563236407735,0.0976894561362601,-0.4473416451054908,0.6085763913456718
1.2000000000000002,-0.021172125837284783,0.4351228286926586,0.13286500904393203,-0.007702022980520286,0.010010275289748755,-0.0022407642781486414,-0.07974956393334157,0.15560482897203867,0.9845949126386906,-1.887341094467076,-2.022596639401763,4.164938079446677,0.9136823146455033,1.3370837325372338,-1.3035085836993616,1.0,0.465820323924068,0.4675138882441126,0.3201445498969327,-0.648057776186966,0.09770983873335609,-0.44735643348715437,0.6085607016197802
1.3,0.1858710068568503,0.21542014563106043,0.16383541657590944,-0.008187169453220912,0.00827494557419362,0.0019107104754400397,-0.07966344233449385,0.15546269948676525,0.984624330079936,-1.8839893544602972,-2.0242464032750367,4.1644463539123535,0.9119356900023037,1.337611756400666,-1.3034661933709841,1.0,0.46699157623610676,0.4687567533326187,0.32037408378015103,-0.6480558116688586,0.09769993055807269,-0.44735087469424933,0.6085684706271387
1.4000000000000001,-0.22525324739895278,0.44061274532643957,-0.0011608258759906176,0.006273544549684543,0.009605419332010812,-0.000806170432833239,-0.07953639736728868,0.15524924014140953,0.9846682591438247,-1.8804074478411803,-2.0261590335911053,4.163870612342027,0.9102645975169098,1.3381998145988907,-1.3033764318915462,1.0,0.4674444732605003,0.4692165991601868,0.3205202905080252,-0.6480401450579741,0.09770603260767602,-0.4473620029490392,0.6085759935314008
1.5,-0.22188092330007098,0.23353662196612385,0.022206766143126222,-0.006832614756689979,0.00877281731354302,-0.004481549693081418,-0.07938353112359937,0.15499394055112958,0.9847208388074276,-1.8772309020508167,-2.0279296333035033,4.163330259711244,0.908657808478929,1.3388597150874693,-1.3032582254782188,1.0,0.46848261732616986,0.4702868821910749,0.3206077716983522,-0.648097248103596,0.09769577638998286,-0.447326482204458,0.6085429406333537
1.6,0.19718476356979237,0.23080569034696047,0.0006986747172290642,-0.012308333963146123,0.008686541560881635,-0.00289343101288337,-0.07943955954128726,0.15518327345277122,0.984686481826372,-1.8740032552728532,-2.0292140330823227,4.162710488533648,0.9070156865155244,1.3393849446105432,-1.3031858645146954,1.0,0.4689348684592995,0.4707407579485088,0.3205146507910014,-0.6482081805129224,0.09767629222558113,-0.44727001226625385,0.6084694181144478
1.7000000000000002,0.08188928129820655,0.29183353419238495,0.006628995382678992,-0.013763176151476349,0.012240381457749083,-0.0008771869644283519,-0.0794954241933077,0.15536548081744947,0.984653261108258,-1.8709199370029994,-2.030796604948106,4.162287804674421,0.9054820254649484,1.339793434753418,-1.3031261602984827,1.0,0.46953613160753677,0.47131950649855664,0.32086473817372774,-0.6480980094767448,0.09766285462660274,-0.44731127400358295,0.6085585929783225
1.8,0.06361808419989051,0.48668789115493466,0.040332788125356435,-0.010624999997326679,0.012724707355291466,-0.0035131170444254226,-0.07954555449327012,0.15529818327560416,0.98465982731154,-1.8679184955809958,-2.0325923048435977,4.1616689042811155,0.9038796868217938,1.3402810751904553,-1.3030411431403177,1.0,0.47044181198695656,0.47219035199740256,0.3211032726950828,-0.648052487369019,0.097688176156855,-0.44734209533647,0.6085803509759016
1.9000000000000001,0.4069958852900357,0.10749064154299531,0.07391086681862694,-0.012651742228131493,0.012264184571199512,-0.005892590001466626,-0.07964895417497563,0.1553111731595929,0.984649413402009,-1.8650067405929731,-2.033898575440253,4.1612096837774635,0.9025910148585181,1.3406812591323687,-1.3029826323138636,1.0,0.4712657272204312,0.4729524155792395,0.3211088402172003,-0.6481496507531617,0.0977296510750029,-0.4473384923063699,0.6084728579241448
2.0,0.16327469597852945,0.06127779471793793,-0.023975561353478475,-0.020411396427681333,0.007294352513211967,-0.007253999059165806,-0.07980472743908619,0.15540683828856694,0.984621704906758,-1.8621627048174667,-2.035073929833222,4.160816110208308,0.9010564346503641,1.3410530179022349,-1.3029108516287693,1.0,0.4718236061863072,0.47345792105336476,0.3213073713530206,-0.6480686602841331,0.09776779769394604,-0.4473815319656206,0.6085213506095729
2.1,0.026134939786264716,0.2455949873629914,0.21589728667472916,-0.013127838410457136,0.014629142372485133,-0.003840441958415142,-0.08020575804651987,0.15620079213857688,0.9844630654879547,-1.8594931975532636,-2.036583766939557,4.160406589508057,0.8997924258211226,1.341521156843602,-1.3028854241044407,1.0,0.4726908394880726,0.4743816021557863,0.3216616896259755,-0.6479994414112195,0.09776023369871843,-0.4473964611198487,0.6085852998679439
2.2,0.3199622228940132,0.37928623359993385,0.15949842850696963,-0.008306318632355085,0.012467833980123598,-0.0007253038262380229,-0.0806032662005786,0.1569886929431722,0.9843056738494033,-1.8568607305830929,-2.0380939224153174,4.160033442257948,0.8984678645843565,1.3420011345741916,-1.3027797911084795,1.0,0.4729744521790927,0.474657802380845,0.32166637161687117,-0.6480060360554198,0.09776282533026188,-0.4473951713669839,0.6085788098978586
2.3000000000000003,0.05355196108627336,0.2447050312588994,0.11664153433734198,-0.017353692460118884,0.013626356551844188,-0.0078093241800262555,-0.08026514130068899,0.1565124690567972,0.9844088700170345,-1.854294776916504,-2.039253428587063,4.159625576081896,0.8970776343692897,1.3424545165103317,-1.3027088676353735,1.0,0.47390005633197174,0.475629723414795,0.3217237657622,-0.6480850874525995,0.09771034439431822,-0.4473440020587392,0.6085406739421542
2.4000000000000004,0.28630332160517513,0.01305567723783324,0.06633342148273878,-0.022690588925833397,0.010830994218270083,-0.0059182277068322645,-0.07992701640079936,0.1560362451704222,0.9845120661846657,-1.8519525527954102,-2.0403837411920183,4.1592690927905895,0.8959651671266601,1.342827583086651,-1.30265981355776,1.0,0.4741516162098626,0.47591858382924435,0.32184238276619975,-0.6480606174854859,0.09768795615453531,-0.4473384952947775,0.6085743750061159
2.5,0.1656303913400686,0.32671595643894236,0.01111665470958317,-0.011535417076289804,0.01136390888290332,-0.0059714967845041975,-0.07969051724442255,0.15566407838031493,0.9845902938206786,-1.8493056939959456,-2.041736768033055,4.158933162689209,0.8946702365943343,1.3431170888284296,-1.3026018197363478,1.0,0.474627144537796,0.4764173105176256,0.3219766221166798,-0.6480343338754673,0.09768614708121154,-0.4473270967336166,0.6086110312135996
2.6,0.03246298330256484,0.2667254812402985,-0.04604308513098591,-0.020750670776366074,0.011592585113570227,-0.008118654375730568,-0.07955632277244969,0.15539666387073897,0.9846433861153996,-1.8471922615459193,-2.04292603542333,4.158596454163971,0.8934959786227369,1.343451976776123,-1.302576431108769,1.0,0.47545824945842613,0.47727497488567044,0.32210614962719686,-0.6480593210024526,0.09770187455229709,-0.44731314773955727,0.6085921524552682
2.7,-0.05811753883797101,0.32479614886904534,0.12746346715008727,-0.018771099681532948,0.01680570850016859,-0.011464815071442569,-0.07961422410204246,0.15548383271642585,0.9846248739364354,-1.8447853725501684,-2.044123126459786,4.158213368216969,0.8924769158093032,1.3437995910644531,-1.302516285573141,1.0,0.47574142510701417,0.47754135665550684,0.32209096563201783,-0.6481186286608434,0.09769468736657659,-0.4473124683885966,0.6085306457913484
2.8000000000000003,-0.07239591997449477,0.2706201581554459,0.061047106612201474,-0.018363427771963814,0.017875829336623877,-0.010356915508833617,-0.07987197052231096,0.15593988907660855,0.9845318687054637,-1.842585039915695,-2.045165129346459,4.1578545570373535,0.8913403709830943,1.3441460249021455,-1.3024680056701299,1.0,0.4764610309175781,0.4782750355135478,0.3222858644432175,-0.6480516961376563,0.09770091453249725,-0.4473258558721514,0.6085910852952642
2.9000000000000004,-0.005357524267106159,0.161279607650429,0.20274902550738583,-0.016619514242521158,0.012258725630717345,-0.014689172214125128,-0.08008854424018802,0.1563428644532211,0.9844504342554904,-1.8404838932187935,-2.046208286039497,4.157578238217455,0.8901318759302496,1.3444585823699047,-1.3024681273729772,1.0,0.47675901758704203,0.4785293845434143,0.3223467694012774,-0.6480638149911523,0.09770664468466364,-0.4473494446536442,0.6085599211677144
3.0,0.1391820665586008,-0.060513553277583454,0.009607413435055223,-0.025042493467472178,0.010642136757533822,-0.012557311855230105,-0.08026073263579186,0.15668861704809978,0.984381473430364,-1.838376626707071,-2.047299714269497,4.157207111640202,0.8892320434666819,1.34477128955471,-1.3023490113687728,1.0,0.4772245065990576,0.4790501565808183,0.3224331997589892,-0.6480912350002286,0.09769871805488663,-0.44732203527694847,0.6085521410380533
3.1,-0.16475636050299136,0.3961777235713671,0.18790756393798802,-0.015305535037146703,0.020255920500384356,-0.012097174423181553,-0.08003189617837121,0.15623167996195014,0.9844726509756747,-1.8363694101697305,-2.0483360553418546,4.156871318817139,0.8882133203693847,1.3450706048552936,-1.3023127183787397,1.0,0.4778871405507655,0.47968293702659914,0.32257421660780466,-0.6480459288529519,0.09772040799103822,-0.4473386023319671,0.6085847277272591
3.2,-0.029771173392840633,0.5510854659939339,0.013008565120595061,-0.01408222964597557,0.017721757021539535,-0.013033395689246002,-0.07979057786274955,0.15573670121965733,0.9845706600340373,-1.8344390911665414,-2.0492256561111897,4.156560613067741,0.8871582690183492,1.3453826904296875,-1.302288117594099,1.0,0.4781461820029682,0.47994343578234006,0.3226172887537846,-0.6480557271228781,0.09771280273573422,-0.4473291362072992,0.6085824731495291
3.3000000000000003,-0.09737292526933783,0.4010379673437402,0.09607727152585184,-0.017705534734005084,0.020307736485017228,-0.012674840944113298,-0.07954918921778756,0.15522618071695937,0.9846708758415178,-1.8326169730190291,-2.0501763911202517,4.156236525616014,0.8862759750408048,1.3457177399631486,-1.3022524423814654,1.0,0.47858723173290796,0.48034247449268863,0.32274192752521147,-0.648065783555897,0.09772464911097514,-0.44733924982928064,0.6085624279417806
3.4000000000000004,0.1137004895175735,0.3207030566704278,0.18341508843744875,-0.028376723201892218,0.011495731407727071,-0.019816147189770546,-0.07976315505165209,0.1556810861037126,0.9845816698686467,-1.8305601345494462,-2.051191592552031,4.155986004815313,0.885375227790929,1.3459478434670735,-1.3021939436541956,1.0,0.4792054869922221,0.48093491013611317,0.3228894574284211,-0.6480289599956424,0.09771407378157967,-0.4473591851621076,0.6085886839591004
3.5,0.2365164120847787,-0.03615039864568359,0.09284728750606276,-0.029960245161819877,0.008831631426286348,-0.010144464773602011,-0.08044493360509192,0.1570138323486178,0.9843136607597456,-1.8289076237704536,-2.052175738356814,4.155744435579709,0.8844789201292417,1.3462224006652832,-1.3021577040301722,1.0,0.4794336197605411,0.4811957729249409,0.3229235400093222,-0.6480255784986969,0.09770129138655162,-0.44734180895941117,0.6086071090857805
3.6,0.1608693865055582,0.05645588780380428,0.13691581630117058,-0.028352276568056063,0.010811171399046717,-0.016759882797110427,-0.0810271133656199,0.1580822657041672,0.9840957518436305,-1.8273844138650333,-2.052898199883932,4.1554692596884335,0.8835455033994571,1.3464969284057617,-1.3021115506811372,1.0,0.4798220685673339,0.48157842654044475,0.32292883731866107,-0.6480748634334146,0.09770894407335959,-0.4473358532385359,0.6085577770772314
3.7,0.19540515127063005,0.032723182035597986,0.16607172806960557,-0.022122348785240338,0.010430304232223166,-0.01655561630240645,-0.08080374212466578,0.15759773713206482,0.9841919015673474,-1.8254545191588973,-2.0536985903921217,4.1552414894104,0.8827897745319824,1.3466897010803223,-1.3020861784564417,1.0,0.48038075400347036,0.48210742493943054,0.3230124971908031,-0.6481324118229757,0.09771004550466772,-0.4473395261329797,0.6084936089320331
3.8000000000000003,0.178703614996402,-0.11028377158442038,0.12097430482605759,-0.028723803598168576,0.007797492571215358,-0.015032329677325821,-0.08076218078637676,0.15753425108204744,0.9842054804046204,-1.8238743280297427,-2.054488886254252,4.1550117343222555,0.8820583139823904,1.3469300270080566,-1.3020623365985315,1.0,0.4805713674446767,0.4823215509873331,0.3231317590680761,-0.6480571327899273,0.0977015291863845,-0.44735099501518366,0.6085667186871673
3.9000000000000004,-0.05191055414559742,0.21709107876564493,0.11883966884168047,-0.022900749172949236,0.013271456219814333,-0.0123970642345338,-0.08065352499288,0.15732556832323677,0.9842477018456434,-1.8224813087431389,-2.0552927003952295,4.154787167863026,0.8812060940651965,1.3471490447626173,-1.302015710821421,1.0,0.4810921956288338,0.4828270942381864,0.32331129089213717,-0.6479917557562642,0.0977335371370164,-0.44737738222038836,0.6086117958668182
4.0,0.06890115683557638,0.03746560474969496,0.2152238261082458,-0.026636429666764955,0.017423105145936976,-0.01506062348529264,-0.08040188607317204,0.15684784819043235,0.9843445920610452,-1.8208171776075404,-2.0561850788697273,4.154547507048659,0.8803695062518887,1.3473615073956517,-1.30199229837446,1.0,0.4813121994889792,0.48307872752185915,0.323257151122597,-0.6480741807103069,0.09770630841457627,-0.44734989952030485,0.6085486019964497
4.1000000000000005,0.03948342082015545,0.16340639896187678,-0.011403419869924797,-0.024880848688777484,0.013995629127280447,-0.01885716967362195,-0.08004372126901234,0.156195941430421,0.9844771229911068,-1.8191019863552518,-2.057080408135885,4.154305934906006,0.8796304030499809,1.347587192500079,-1.3019426504718226,1.0,0.4816470175997108,0.48342909235313286,0.32331001196231696,-0.6480938040619125,0.09769413127274888,-0.44733289263149534,0.6085421604304516
4.2,0.19618734867129578,0.43459310459669837,0.06356320239199484,-0.017099251726726817,0.015482533214862239,-0.014425857921393689,-0.07967384095833595,0.15542217535625502,0.9846298718459737,-1.8175961507138116,-2.0578849826506445,4.154123598919816,0.878849226219477,1.3477713179839976,-1.3019395641055673,1.0,0.48217456472480796,0.48394582793915464,0.3234176129124292,-0.6480445332637693,0.09771935031362763,-0.44736727580696056,0.6085653062887212
4.3,-0.020084889644058107,0.43595195445709334,0.04680730136363024,-0.018734651415480825,0.0179828203686292,-0.0097016703769029,-0.07970807430402851,0.15541763353573215,0.9846276879123605,-1.8162075275799026,-2.0586109081906754,4.153838682622903,0.8779873202986405,1.3480210304260254,-1.3018931618084078,1.0,0.48237112130417875,0.4841179610682677,0.3233625349351289,-0.6481048532049302,0.09771941836036473,-0.44736603005831993,0.6085019717941648
4.4,-0.0003116385191940102,0.5520490129723046,0.02614271189926297,-0.01899305094786518,0.016230027151237173,-0.0086421181444924,-0.07936862353101302,0.1548092069193239,0.9847508757648343,-1.8144600278429324,-2.0593024363431285,4.153661467832572,0.877223036214907,1.348267002967413,-1.3018481279192788,1.0,0.4826546050992561,0.48440453492648894,0.3234539814191875,-0.6481075314217872,0.09772023171575767,-0.4473512055031177,0.6085098873171113
4.5,0.19641568501788853,0.378117025027333,0.06344821738389178,-0.015016503952118555,0.010966938627711108,-0.01629588379875928,-0.07927352038640705,0.15466287354123434,0.9847815592177127,-1.812841024234512,-2.0600106274325354,4.153467373930107,0.8763865078818521,1.348519035789984,-1.3018294994394397,1.0,0.483154864409148,0.48493903511656583,0.32370253509776276,-0.6480317251696041,0.09772006959236763,-0.4473607375007643,0.6085836357603954
4.6000000000000005,0.20160427729557978,0.04295721442273209,0.14922454292356707,-0.02434968578518983,0.011180141097785899,-0.013749748560761495,-0.07963499716935571,0.1553799923629813,0.9846393919973898,-1.8113238592708811,-2.060840381325295,4.153223290162928,0.8756615280002154,1.3487250945147347,-1.3017477362710959,1.0,0.48339135624982776,0.48518147963200225,0.32376443473760474,-0.648031304478299,0.09772236762284948,-0.4473564753704669,0.6085868477271354
4.7,0.11611477316357327,0.22452503733718743,0.14386150581448262,-0.02470348762243988,0.011225022373593085,-0.01609833189417435,-0.07989487324467333,0.15591817340659136,0.984533552594447,-1.809680559151791,-2.0617879806042274,4.153011153680593,0.8748949218589884,1.3489696278745829,-1.301762739336829,1.0,0.48369480274649773,0.4854976126095447,0.32379987140931316,-0.6480353844485377,0.09773599549041367,-0.44733923431943867,0.6085929880689002
4.800000000000001,0.14314432284935089,0.2929009271478893,4.6339765568621794e-05,-0.023487406846976793,0.016149563785706332,-0.013171632672912355,-0.07995663848713408,0.1561074443581083,0.9844985486642568,-1.8080996299507381,-2.0627054488298993,4.152721128897329,0.874030476640981,1.3492725207050005,-1.301739517842428,1.0,0.48420028674069954,0.48602306722447,0.32384480077238487,-0.6480597115504171,0.09770181012955935,-0.44733368320723527,0.608576652880183
4.9,0.20157827330199066,0.3842190609321341,0.18487824884945836,-0.019588271964420274,0.016586598573865508,-0.01881778598529412,-0.07996886783883445,0.15617645018350773,0.9844866151800075,-1.806574821472168,-2.0634896648227232,4.1525444984436035,0.8731610539086118,1.349452194769055,-1.301663840434331,1.0,0.48443089003673456,0.48628207865035916,0.32380597461459987,-0.6481183048101177,0.09767710485621184,-0.4473065039866018,0.6085381973617203
5.0,-0.03766362453480687,0.49670764685176666,0.005988342491591664,-0.02281362485594309,0.014904981177413026,-0.012926205458344973,-0.07990076597848329,0.15606711889796637,0.9845094156171545,-1.8048765450389985,-2.064164910957456,4.152328648773057,0.8724429408475635,1.3496634437117685,-1.3016315950825548,1.0,0.4848978606650633,0.4867636397963389,0.32388461074786157,-0.6481379331238096,0.09768344105558902,-0.4472998523793525,0.6085211640123496
5.1000000000000005,0.2424074585358624,0.03103496455993214,0.011305330368944278,-0.02916107090150787,0.018633024031535255,-0.016076653836285208,-0.07968287657835686,0.15562985912687807,0.9845962430917883,-1.8033614662537785,-2.064906673920735,4.152083892672275,0.8716861444660644,1.3499060995193772,-1.3016063484683145,1.0,0.48510907826306837,0.48695190522826565,0.3240190569080655,-0.6480721030704553,0.09769110721685094,-0.4473261403578823,0.6085707197566304
5.2,0.28462070983408394,0.12487109752822012,-0.0011065602114539372,-0.03090993536740959,0.015032239113954942,-0.01765606450540364,-0.07960295446254131,0.1554454805922166,0.9846319093574227,-1.8018328901716267,-2.0656323305096445,4.151813603835777,0.87083546697583,1.3500872418618264,-1.301615426137335,1.0,0.4854471361782473,0.4872771450460668,0.3241170401817907,-0.648051780748906,0.0976906379392634,-0.4473391026828902,0.6085829080232688
5.300000000000001,0.19669190029088443,0.48372707165787177,-0.1185360187654863,-0.022956433268070765,0.011109654107563264,-0.020860270796234693,-0.0798311625220581,0.15582587609154203,0.9845533143880265,-1.8000266697500027,-2.066455244828654,4.151608943939209,0.8700332261177078,1.3503261076115693,-1.3015363852130335,1.0,0.4859350843058407,0.48773153950712245,0.32426025088896554,-0.648048788115747,0.0977087318918199,-0.4473439258030632,0.6085796447309982
5.4,0.2323369654076447,0.1996016078028005,-0.11010319251607006,-0.02197956139497945,0.012488085940794326,-0.016221432926526995,-0.0798623508337109,0.15588271349114013,0.9845418140740241,-1.798478956398057,-2.0673743519907095,4.151336256640716,0.8691999957956572,1.3505706369197756,-1.3014791898287463,1.0,0.4861522060406086,0.487950183869356,0.32437011028484825,-0.647991718090946,0.09772686553657851,-0.44736184157481007,0.6086243305527098
5.5,0.23764928649377212,0.1507463960432578,0.08481196865130977,-0.027680781512274273,0.015561058654473384,-0.014571566831914512,-0.07984450074030443,0.15585901696798857,0.9845470136843906,-1.7970338436754905,-2.068293164775334,4.151139617819775,0.8684691887530791,1.3507647392004372,-1.3015016944562472,1.0,0.4864914937872808,0.48832096119661783,0.3243846396833661,-0.6480258627935713,0.09771921975081463,-0.44734476525271977,0.6086017550442395
5.6000000000000005,0.08508149996599455,0.31968210686305865,0.055206473707876756,-0.024421350786558268,0.017146206154116814,-0.019112736876221004,-0.07969963001225687,0.15554603021700644,0.9846081902449897,-1.7954018069742772,-2.0690893458544286,4.150938717005578,0.8676978784748535,1.351006823207011,-1.3014394257662358,1.0,0.4870141139459672,0.4887956516796139,0.3243348324165872,-0.6481041790548725,0.09772780225334346,-0.44734473878493036,0.6085169960155455
5.7,0.16397342752089478,0.17536983495733116,0.1114920229540228,-0.02557684580507344,0.01603021816037095,-0.015028565657678246,-0.07961938415459198,0.15536419378484873,0.9846433935142576,-1.7935925711708771,-2.0698195829990302,4.150697266245101,0.8668128753646382,1.3512086768454987,-1.3013709293745468,1.0,0.4872509497993525,0.4890777112271517,0.3243765533150173,-0.6481087539546971,0.0977097536001628,-0.4473241844800418,0.6085301316105481
5.800000000000001,0.1855868122115016,0.24475208467097687,0.1590881287006739,-0.027891662888425033,0.017085406399107363,-0.018125897517774762,-0.0798284861764618,0.15579615988582574,0.9845581476216027,-1.7921674716472626,-2.0705027408399523,4.1504810041189195,0.8659973487206917,1.3514136670529842,-1.301371395831005,1.0,0.48770759674164926,0.4895607316464042,0.32459365373836774,-0.6480432589028458,0.09770800813396502,-0.4473469753566406,0.6085834070826587
5.9,0.33156011197189417,0.006001826768032348,0.10890793785884102,-0.03249342370017008,0.009552173909195374,-0.015587042912622969,-0.08010946859867413,0.15633660645260292,0.9844496010723445,-1.7906957693099976,-2.0712486706175746,4.150249781767528,0.8652811796216786,1.3516649921735129,-1.3013284981198074,1.0,0.4879012343542254,0.4897446322169131,0.32465496277836314,-0.6480416085086869,0.09771095753299516,-0.44734331543097083,0.6085873812023103
6.0,0.18379258148655614,0.23588746519112042,0.10678072367300608,-0.03006427066599121,0.012967425532138529,-0.01549252849056988,-0.08060029426707602,0.1571937442590392,0.9842730320107368,-1.7888811466305754,-2.072187488859287,4.150023262532863,0.8644662789309213,1.3518869471228983,-1.3013072121387337,1.0,0.48822970655368164,0.4900258987502634,0.32470610285812823,-0.6480473607470303,0.09773191770579887,-0.44734886017242703,0.6085738145802742
6.1000000000000005,0.03215677826750574,0.20286888709965198,0.12241983008270178,-0.022150371414797282,0.016869348294871103,-0.022635315124470434,-0.0809470358420966,0.15784554980713103,0.9841403732480158,-1.7872282052349175,-2.0730552552354125,4.149774422730385,0.863616076095189,1.3520522117614746,-1.301291344505786,1.0,0.4887021381488306,0.4904985653611695,0.3247975116046672,-0.6480321100525556,0.09772451544968898,-0.4473610898558635,0.6085822530307058
6.2,0.1450110345936305,0.33722751151958,0.08244002440866091,-0.024942815255976785,0.016440972587775268,-0.017709643860135318,-0.08037993544515026,0.15677779196877992,0.9843565240420962,-1.7859023044600981,-2.0738365290549994,4.14953503475229,0.862809343928955,1.3522909390453224,-1.3012147537828769,1.0,0.488971576290002,0.4907692842838939,0.3248231300745433,-0.6480441354069169,0.09772411201232765,-0.4473650373478035,0.6085666108610477
6.300000000000001,0.14453867800552522,0.022923482204983858,-0.01202034052338874,-0.029790329917451536,0.019610684955787563,-0.01647795107472309,-0.07980478607170578,0.15569353089759952,0.9845762647816483,-1.7841436349301572,-2.0746511430447123,4.149333952087863,0.8620583236352262,1.3525318622943023,-1.30121356645693,1.0,0.4894725384258092,0.49128750116557185,0.3248195390126539,-0.6481323236364549,0.09771424904732759,-0.44731679528414925,0.6085097380054365
6.4,0.2535441296326486,-0.06284437003690695,0.07541607749931423,-0.03350898260902128,0.01700968848470158,-0.01925984939374008,-0.0801888295047834,0.15643489846611452,0.9844273379077576,-1.7824946386371543,-2.0754701328216454,4.149130482587986,0.8612891870686035,1.3527614981828335,-1.3011716504720052,1.0,0.48968515568804977,0.49150190578079966,0.32486436849448463,-0.6481233534540004,0.09770379673935357,-0.44732359420729617,0.6085159725723904
6.5,0.0014258251081118445,0.40665146447950823,-0.184545975147252,-0.02244721131963531,0.016927499264008494,-0.013320158216601964,-0.08041085256243917,0.15688288063619066,0.9843382153911696,-1.7809331283239238,-2.0761983093308767,4.148922694470832,0.8603854672341319,1.353008157566085,-1.3011437661620466,1.0,0.49012673148927394,0.4919525966875902,0.3250426179789844,-0.6480427260595314,0.0977216397428524,-0.44734828274420557,0.6085808247497696
6.6000000000000005,0.16327150870739243,0.36410465083293875,0.04256267840008029,-0.02466616632201283,0.01574625520389009,-0.016753052212091734,-0.08006535224441551,0.15630319532146084,0.9844585749884719,-1.7793699182259506,-2.077037040981611,4.148685411221657,0.8595202524530237,1.353192231982635,-1.3011283633532096,1.0,0.49028083120648946,0.4921406124969705,0.32509663674188927,-0.6480480180736246,0.09770348671281713,-0.44733641510095656,0.6085868275600698
6.7,0.08057040076528899,0.02852568808292944,-0.023797634079830512,-0.03140514420536657,0.016826993399631566,-0.020252783595966075,-0.08016310535562661,0.1564627903073706,0.9844252661965759,-1.7776976531915465,-2.077831473846242,4.14850378036499,0.85881016894512,1.3533945573707258,-1.301059342766088,1.0,0.49070064662100304,0.4925266253149832,0.3251296667436332,-0.6481069349639506,0.09771237456621627,-0.447325248885689,0.608530865624433
6.800000000000001,0.04605712564186217,0.11043904649518953,0.02138866800771964,-0.028664241929398572,0.019383692154218535,-0.020578075382101203,-0.08033309476269831,0.15673028378789725,0.9843688857401516,-1.7761269140659204,-2.0786388618041,4.148255171761962,0.8580506779987809,1.3536320577209482,-1.3010581175433558,1.0,0.4910645677599728,0.49287580405809267,0.32524012044541506,-0.6480689507353024,0.09770904262451693,-0.4473448689265275,0.6085574305908628
6.9,0.10221550533829703,0.35913907118959787,-0.03723654163117947,-0.030212567408783097,0.01624248027507562,-0.019629628317708973,-0.0800865554067938,0.15625359500888963,0.9844646614118882,-1.7744712612850915,-2.079503130025396,4.148070777906425,0.857159789923588,1.3538145630648424,-1.301021383922716,1.0,0.4915425648654687,0.4933548458206034,0.3253101522922466,-0.6480811378999761,0.09771484970191699,-0.44734904126392694,0.6085404523334907
7.0,-0.1106974786712085,0.044020508687141864,0.07928678813097492,-0.022157823303239566,0.011966850191024425,-0.016348124502896282,-0.07984770052191743,0.15580446809238835,0.9845553675189815,-1.7736096649823248,-2.079908387295399,4.147976194303678,0.856786428755743,1.353915664607519,-1.3009787316425407,1.0,0.491758875914338,0.4936014766921095,0.3253782478004162,-0.6480622091979036,0.09772130404781845,-0.44734089243839814,0.6085655640086317
7.1000000000000005,0.3718310587880916,0.22536072527264833,-0.009865624586626095,-0.021821147855485015,0.021138887268081306,-0.016376848488261146,-0.07964078718038665,0.15546990578582612,0.9846250012948498,-1.773639336174882,-2.079871953862568,4.147965908050537,0.8567522155652627,1.3539636952436487,-1.3009971624251297,1.0,0.49201236837211293,0.4938768437644849,0.32544120682952504,-0.6480438193725501,0.09770842791164291,-0.4473412454589444,0.6085869546739506
7.2,0.36946955468619375,0.13208880262661926,0.1288245093887128,-0.029214952163253084,0.013898934369994148,-0.017080421350503507,-0.07974548859746473,0.15569231174653012,0.9845813280423663,-1.7736184690027093,-2.0799180096919523,4.1479451989244165,0.8567535120197753,1.353922175308862,-1.3009876575406811,1.0,0.49200124936748924,0.49388996793401924,0.3254552218368531,-0.648050965223174,0.09771225907711942,-0.4473287885077135,0.6085878867276115
7.300000000000001,0.21643406136928547,0.2712931704762303,0.029725001764053766,-0.02517841052746443,0.016336983381809007,-0.013843888540220452,-0.07998416559333395,0.15614168866862044,0.9844908706021489,-1.7736333426573032,-2.0799050296931827,4.147958010580772,0.8567261235398338,1.3539090156555176,-1.3009714045277685,1.0,0.4920135597840397,0.49388275777295143,0.325444011782885,-0.6480566728087482,0.09770071826890016,-0.44733747232377824,0.608577278850245
7.4,0.31855860866375074,0.07292064844558524,0.09996475986389153,-0.02902108435307418,0.01486141957594235,-0.01628768716931921,-0.0801760608697026,0.15644945543497757,0.9844263884348743,-1.7736340709173535,-2.0799108944334925,4.147943745524913,0.8567282863910372,1.3539369029316923,-1.300989928477407,1.0,0.4920174779615855,0.49388129928103613,0.32541135768040197,-0.6480825105592439,0.09771832554537942,-0.44733167495964754,0.6085511982878935
7.5,0.18545151352639305,0.32345593420743746,-0.07337183339764955,-0.023862583080574214,0.019977203581108632,-0.013769131375782794,-0.08011762701506667,0.15628847973576657,0.9844566867507334,-1.7736120726700217,-2.0799159957133995,4.1479339402786115,0.8567182260700683,1.353932569655761,-1.3010104338275355,1.0,0.49202152133698646,0.4938839420423602,0.3253973723206581,-0.6480912229806258,0.09771195125446826,-0.4473408166791151,0.6085362232524726
7.6000000000000005,0.23693512092595387,0.23288289882777014,0.04992583850756807,-0.024511692021019948,0.01681881678618023,-0.012034630559291042,-0.07992229723732461,0.15588690773107292,0.9845362543620999,-1.773599886482479,-2.0798984966673792,4.1479444972386394,0.8567471326071708,1.3539328575134277,-1.3010035775777729,1.0,0.49203597394801,0.49386450827463935,0.32540792782696465,-0.6480837813417624,0.09772250481539493,-0.44735009357277494,0.6085356342851235
7.7,0.12315276423132468,0.20356896589214465,0.12196030294985272,-0.02431407200599529,0.017168479121204092,-0.013147042243150399,-0.07965911671344529,0.15544091467647816,0.9846280601273667,-1.7736294901371001,-2.0799147818484247,4.147959081530571,0.8567250525900344,1.353919729590416,-1.3010038698660296,1.0,0.49202610383488926,0.49388338620351707,0.32540452439066286,-0.6480786590941829,0.0977116755034464,-0.4473357469606618,0.6085533744776557
7.800000000000001,0.04493791402500871,0.06776389911923017,0.022966452050754385,-0.0283984759753378,0.020707853868895176,-0.017986985224070356,-0.07924228377405061,0.15466136550074658,0.9847841396327326,-1.7736221788654862,-2.0799347362914027,4.1479426386815925,0.856711717088822,1.3539203402418,-1.301021758413818,1.0,0.4920139541498742,0.49388669502660526,0.3254104077768738,-0.6480805926170106,0.0977251907594972,-0.44733548858620154,0.6085493350711584
7.9,0.26527674965150383,-0.10251643822554153,0.1731144068075435,-0.03383402515939932,0.014574828543306894,-0.012744503386866078,-0.07879006979641587,0.15378976822831047,0.9849572474975502,-1.773605404565527,-2.0798995503758753,4.147953510284424,0.8567182260700683,1.3539203175647951,-1.3010104338275355,1.1211502869641656,0.4920210471043867,0.4938916413207094,0.3254081164279652,-0.6480884228003654,0.09771866276016203,-0.4473328890828102,0.6085439552943788
8.0,0.10626578209211321,0.06421039846410867,0.045942944530893925,-0.02837931786485963,0.01922388388944662,-0.017408266390012406,-0.07908042854663508,0.1543680077262126,0.9848434427123475,-1.773615837097168,-2.079926642209531,4.147954618163536,0.8567420679279785,1.3539090156555176,-1.3010125643642887,2.0,0.4920194270756041,0.49389779899804553,0.32539860711536095,-0.6480916018900733,0.09771408825097735,-0.4473254039604927,0.6085468063250526
8.1,0.07584117924733483,0.10464457279855366,0.05915721503264455,-0.025535243519891025,0.020361887854234213,-0.015893062081172464,-0.07946439590238592,0.15509407803982084,0.9846981612764807,-1.7736259220350847,-2.079958578149313,4.147920373349528,0.856687401963369,1.3539296769715072,-1.3009789690702926,2.0,0.49201664648871357,0.49388273230396723,0.32545290457518355,-0.6480459812230144,0.09771736507222761,-0.4473463986994036,0.6085794297827654
8.200000000000001,0.5596066508007485,0.09017298652708272,-0.06420067316638255,-0.033009810084958395,0.014334831067533246,-0.019111820397190366,-0.07991644872052407,0.1559276719019884,0.984529985553249,-1.773615837097168,-2.0799124827495548,4.147961123338214,0.8567351092800707,1.3539480836210078,-1.3010104338275355,2.0,0.4920212403875364,0.4938934333019,0.32542541930209656,-0.6480656429056333,0.09771706146352369,-0.44734681890234496,0.6085582322195587
8.3,0.3457189115653839,0.13448785940266827,0.27163822456290654,-0.024919291849389322,0.007539594254886511,-0.009826307071385904,-0.07990277753199859,0.15589464831809802,0.9845363834330947,-1.7736219436676512,-2.0799114339351408,4.147933194280091,0.8567052888023069,1.3539028057669922,-1.3009756873794767,2.0,0.4920222249906784,0.49388497558883454,0.3254161195652022,-0.648077281008491,0.09771601055757675,-0.44734341607609657,0.6085485085140878
8.4,0.12659765074853027,0.3487596480333872,0.14819108113677346,-0.02298136078376725,0.015525501597000274,-0.011371161153612514,-0.07953759249872934,0.1552075291195792,0.9846745439825269,-1.773615837097168,-2.079947325162174,4.147942066192627,0.8567481105859487,1.353921604526289,-1.3010034714503336,2.0,0.492022772100095,0.4938822530475346,0.32540751416042496,-0.6480774611927272,0.0977222473882215,-0.4473425592088966,0.6085479450132253
8.5,0.0731396999604704,0.2013078421490118,-0.00369848434847473,-0.0342314222909982,0.014751178731763712,-0.010261053433527468,-0.0797861095259776,0.15568660758423408,0.9845783171973091,-1.7736268249829439,-2.0799223385252894,4.147967089827864,0.8566888043921617,1.3539090156555176,-1.3009951039255219,2.0,0.49201483573868987,0.49388776866031653,0.3254199975511804,-0.6480699338306527,0.09771114158592839,-0.44732423709917096,0.6085712124134307
8.6,0.24939664676332068,0.2164036805313952,0.06037045767054329,-0.03818604203682225,0.011194174667010589,-0.010954936175232192,-0.08046696455492353,0.1569846578274357,0.9843174330967619,-1.7736081152988146,-2.079942635450382,4.147957864510586,0.8567498227059855,1.3539136586436238,-1.301002390287584,2.0,0.49202274652440575,0.4938780077323589,0.32541787188291127,-0.64807633574591,0.09772145473896139,-0.44733482649816003,0.6085549550629891
8.700000000000001,0.18422170410043104,0.07683725631192735,0.07868188893000988,-0.037748282395259854,0.011719317238379134,-0.012256073390297533,-0.07990605624006135,0.15587079660089231,0.9845401545299579,-1.773604393005371,-2.079966115034202,4.14793062210083,0.8567332998398466,1.3539090156555176,-1.300980286287979,2.0,0.4920233822243896,0.49387749493776056,0.3254240422388538,-0.6480683171241356,0.0977339073990597,-0.4473404941560793,0.6085573284191045
8.8,0.2008250115256601,0.09032740884276452,0.1285725124136441,-0.03674877802592414,0.009346561217732415,-0.009465157116251526,-0.07984479577263312,0.15574893658877473,0.9845644051871413,-1.7736042330221713,-2.0799466572203578,4.147941906209427,0.8567127573309028,1.353914967897808,-1.3009864253204588,2.0,0.4920365029714321,0.49387845580786066,0.32540237372842973,-0.6480739425823479,0.09772387819870414,-0.4473501092156881,0.6085458802426392
8.9,0.15251003639845664,0.19503377771054967,0.26287937540854445,-0.03254899875239396,0.011804322916889456,-0.008889466913870948,-0.07963664969766612,0.15535369736164828,0.9846435667462675,-1.7736202895841764,-2.0798984966673792,4.14793062210083,0.8567264916551217,1.3539134669195925,-1.3010223547564905,2.0,0.49203507037817673,0.4938797869093917,0.325399586661301,-0.648084039196519,0.09772562631793047,-0.44733795576894647,0.6085437810280813
9.0,0.09852748852943388,0.15137025646112778,0.08900279222227336,-0.03383281885662754,0.014453998603531882,-0.008567968250082273,-0.07931135060965229,0.15474152678352474,0.9847663448854919,-1.7736167206268296,-2.079950375576439,4.147934629480464,0.8567025867850319,1.3539253506566102,-1.3010063325410985,2.0,0.49202817807483734,0.4938693083170638,0.3254172763968475,-0.6480760903484039,0.0977175654846672,-0.4473486796464654,0.6085456575582817
9.1,0.16246303248561747,-0.11681776909158981,-0.0799917484808939,-0.04685628499736466,0.012599420572015296,-0.009158414990903356,-0.07962094713534858,0.155362808664874,0.9846434146862498,-1.773615837097168,-2.079948842062167,4.147946739514457,0.8567306238361816,1.3539119809726967,-1.3010077506257716,2.0,0.49202155434196754,0.49389120660804303,0.3254060812947286,-0.6480859092993176,0.09771804083034114,-0.44732391693639484,0.6085533271625732
9.200000000000001,0.4814087905995418,-0.03761998894275709,0.0389459963754495,-0.04923469670902014,0.003551496971252,-0.003532459495023188,-0.07930291242221867,0.15476909700024694,0.984761648953567,-1.77361464012178,-2.0799334010414743,4.147965908050537,0.8567125863559348,1.353914655369651,-1.3009985128985804,2.0,0.492027012795801,0.4938811036543697,0.32542375646667765,-0.6480750973449625,0.0977196589870137,-0.44734435766065317,0.6085495560083471
9.3,0.04373556786161527,0.4158550761761429,-0.13970177051515287,-0.07288230352313453,0.0017592308893571917,-0.0035229910144007,-0.0783858591403719,0.1530156968072078,0.9851100704425306,-1.7736238333706906,-2.0799347362914027,4.147974392425449,0.8567394933285039,1.3539239880211054,-1.3009998001983176,2.0,0.49202375906396634,0.49388555236259035,0.32540504076613214,-0.6480832479027165,0.09771354150900159,-0.44734029826153454,0.6085448423451766
9.4,0.1443441718120792,1.5144058050877924,-0.24643221940473453,-0.13317986145487587,0.0024637364207504946,-0.00816739532935453,-0.07892550582518838,0.15403909303886612,0.9849074605229643,-1.7736291885375977,-2.079923906460781,4.147976737881159,0.856705828303955,1.3539198454861392,-1.300965765372276,2.0,0.4920223655316247,0.4938854158308196,0.3254325175497793,-0.6480712430068909,0.09771906332792027,-0.4473418444695448,0.6085556037342876
9.5,0.16127591245519957,2.3404087348961475,-0.13719009258849407,-0.21517422269399789,0.004862138720450848,-0.008518634416711399,-0.07917888745259773,0.154510332371523,0.9848132378232108,-1.7735979713424173,-2.079948769609487,4.147938993645482,0.8567011202048388,1.3538851737976074,-1.3010034171684932,2.0,0.4920213008354771,0.493888076210158,0.325408536895763,-0.6480795149800209,0.09773092547996393,-0.44733244275274786,0.6085518006948547
9.600000000000001,0.32185978328531123,2.9558094218884197,0.1142912446750827,-0.2901606178809814,-0.00970833776347743,-0.003991442753721988,-0.07930794060619883,0.1547515907245807,0.9847650459483894,-1.7736275680179823,-2.0799795262221954,4.147929117332616,0.8567262252829397,1.35390612187049,-1.3010075400425078,2.0,0.49202196460352204,0.4938913739915205,0.32538131480007176,-0.6481001053274489,0.09772638510230389,-0.4473305591152321,0.6085319860213099
9.700000000000001,-0.0030372081492637815,3.0992787802770936,-0.2232293294213485,-0.29583721115109635,-0.0344790083643786,-0.004431229607770582,-0.07930572470104301,0.15475032736651445,0.984765422935486,-1.7736322059791918,-2.0799673559099405,4.147956478545556,0.8567134484542109,1.3539297143451006,-1.3010207831723268,2.0,0.4920260751484372,0.49390132172432244,0.3253761342187253,-0.6481036872304466,0.09771547450468515,-0.44733406947631726,0.6085273427927302
9.8,-0.3834567663404326,2.394995389868629,-0.0531833482265767,-0.19197476846483766,-0.03264975261576101,-0.006416044008441303,-0.07933610296938091,0.15480195899385704,0.9847548589766456,-1.7736070943659001,-2.0799572794182892,4.147918224334717,0.8567620655420587,1.353910366335782,-1.301044897883377,2.0,0.4920207450011542,0.49389842875782614,0.325383742808815,-0.6480947815750672,0.09770119373079014,-0.4473326137296184,0.6085401905647421
9.9,-0.33096531050288147,1.3905232564253376,-0.08442302071206743,-0.12703502338627637,-0.01579100410502185,-0.014309755131364144,-0.07936747595417193,0.15485520488248108,0.9847439611195108,-1.7735958321430798,-2.079982420007223,4.1479450695566955,0.8567420679279785,1.3539739264261124,-1.3010000145806144,2.0,0.4920387516292058,0.4938748512724701,0.3254281634094454,-0.6480411016152147,0.09772459446892182,-0.4473566019190378,0.6085759648332124
10.0,-0.19460220055892946,1.5350947809744924,0.11852399423651809,-0.12968489471056813,-0.013569613937967547,-0.011188811689435548,-0.07908023134104177,0.15439620956946307,0.9848390488425446,-1.773580988583235,-2.079926114395535,4.147956093774592,0.8567523196396978,1.3539000556888823,-1.301019870631329,2.0,0.4920151372025848,0.4938930114836019,0.32541508901582267,-0.6480697176485033,0.09769692460398445,-0.4473369380569013,0.6085643892307445
10.100000000000001,-0.0348300265520419,1.1595790878520524,0.48571753326589306,-0.15873837503470078,-0.012698026437229892,-0.007121884872876654,-0.07913121524313778,0.15449294456872623,0.9848196522603547,-1.7736261657521695,-2.079948110482583,4.147944972717077,0.8567102462211194,1.3539299509889775,-1.3010523044944553,2.0,0.49201671491959864,0.49389666015673045,0.32539003835864383,-0.6480841423633715,0.09771100197349294,-0.44732077897035566,0.608558645663525
10.200000000000001,-0.19174913186992462,1.7836993645597716,0.5219751433806477,-0.16530098045793612,-0.013493360344171524,-0.009630275532238946,-0.07961422066235785,0.15529892242441687,0.9846541224070262,-1.7736245349118427,-2.0799601089472586,4.147953510284424,0.8567335629682374,1.353905954059626,-1.3009642809096609,2.0,0.49203725169362017,0.4938707369158489,0.3254407770505736,-0.6480551882536773,0.09772371473545102,-0.4473570343868902,0.6085607877117634
10.3,-0.11224050519134787,1.8355487719298178,0.7890844251445709,-0.1914558172713277,-0.019531022274846946,-0.00646694212211971,-0.07964031081610702,0.15537455006655157,0.9846401218875837,-1.7735626791893766,-2.079967514128355,4.147943498968585,0.856705828303955,1.3539184284717178,-1.3009880844445818,2.0,0.4920324163949509,0.49388907922755837,0.32540864177746237,-0.6480801094658111,0.09772056390966086,-0.44734612113287114,0.608542776648721
10.4,-0.0746869620163376,2.2158920227244514,1.1378857934817053,-0.20711309352617252,-0.017413987443128144,-0.0068168570181374195,-0.07959630823448062,0.1553451372266039,0.984648318218665,-1.7735826522234353,-2.079948125850305,4.147961560905893,0.8567306238361816,1.3539516610354687,-1.3010074965676406,2.0,0.492028355704182,0.4939003964979569,0.32540933421673635,-0.6480797113175846,0.09771565415211445,-0.44733224482526746,0.6085541894126829
10.5,-0.09317268440916152,2.265095829386273,1.3121252211361585,-0.21527656602824316,-0.01726114856819353,-0.0035208870190289094,-0.0798214926614466,0.15579622720998343,0.9845583279268926,-1.7736030207063789,-2.0799752154375137,4.147929135443588,0.8567044560049628,1.3539199267643893,-1.3009851624915083,2.0,0.49201039029340576,0.49392015925668853,0.32538621545735147,-0.6481013979368863,0.09771388657334935,-0.44730795543206675,0.6085492316733041
10.600000000000001,0.021288214500065704,2.42849944257284,1.4354611904574226,-0.22839868999450638,-0.020134537409582022,-0.002818333609684038,-0.08051678618712217,0.15705829923137085,0.984301489971054,-1.7735757927925895,-2.079948149292866,4.147953510284424,0.8567360996379458,1.3538960198083123,-1.3010327836129374,2.0,0.4920228119624669,0.49389617380989803,0.32541478067918905,-0.648079494043827,0.09770975465281437,-0.4473483104624304,0.608543558319364
10.700000000000001,-0.052193041264330525,2.7273663324517705,1.4716378842242777,-0.25115218407911727,-0.01919841790851786,-0.003826599167618868,-0.08032050812444717,0.15669438585015646,0.9843754755322759,-1.7736488974943794,-2.079955266454717,4.147940476579221,0.8567322134495876,1.3539107377367074,-1.3009882478169232,2.0,0.4920325714882678,0.49390237690231586,0.32540448299686087,-0.6480772948855356,0.09772176044404363,-0.4473376006164817,0.6085518453379735
10.8,0.46824672024207425,2.96279313758493,1.8834618224396127,-0.2808544054448448,-0.014512071031863697,-0.006820377427927695,-0.08002034982781253,0.15614102302231975,0.9844880065393156,-1.773596238461016,-2.0799620047612315,4.147973097366534,0.856720007908266,1.353938402055704,-1.3010376300846045,2.0,0.4920337072710116,0.4938918020894686,0.325421294186593,-0.6480680399004123,0.09772013263398345,-0.4473375275264746,0.6085620163994256
10.9,0.5710757514630016,3.517438754261593,2.245008841607511,-0.32268437536324346,-0.0014711782002654276,-0.004350400009055329,-0.07991065838591593,0.1558928824451217,0.98453627005451,-1.7735868076611592,-2.0799486773691784,4.147963807095763,0.8566860267436864,1.3539214134216309,-1.301000533047401,2.0,0.492029970861277,0.4938815358390289,0.3254166192852846,-0.6480720622054453,0.0977149032119472,-0.4473466712088695,0.6085518512315977
11.0,0.71919539519487,3.708592534164172,2.5262869910126318,-0.3651451400844073,0.009362951557417315,-0.007319167592133185,-0.07983552089260058,0.15571350989583788,0.9845707609665352,-1.773604393005371,-2.0799431448543744,4.147918224334717,0.856723599104215,1.3539196228036785,-1.3010512305512316,2.0,0.4920348132866841,0.49388348497120005,0.32539970163869814,-0.6480772718425678,0.09772439608333906,-0.4473529807907632,0.608540140589641
11.100000000000001,0.6628815622451363,3.8623542881212662,2.7614524042639017,-0.3704566549809465,0.013981813598639873,-0.012731079594569622,-0.07977650766034265,0.1555822703064248,0.9845962939500352,-1.7736354598329207,-2.0799381394469774,4.147927082819032,0.8567182260700683,1.3539214134216309,-1.3009985128985804,2.0,0.4920326207718995,0.4938696938549959,0.3254076417719353,-0.6480773118727139,0.09772893311497885,-0.4473481339514424,0.6085429323541663
11.200000000000001,0.35158521538178245,4.165379419122506,2.6556766390199247,-0.35956408120719074,0.019768429006760152,-0.011223090568406136,-0.07961651439729939,0.15525744273744893,0.9846604730438393,-1.7736211923606122,-2.079952734789208,4.147972462456545,0.8567286247919352,1.353903326068047,-1.3010104338275355,2.0,0.4920477299041399,0.4938797639214925,0.3254040395182639,-0.6480830176012183,0.09773974764937622,-0.44735852914898827,0.6085274771314677
11.3,0.5487566525117189,3.828703396122738,2.642417445156454,-0.3646088849275589,0.01505872891720109,-0.008006793765318824,-0.07980214451989585,0.15560375329618725,0.9845904231849889,-1.7736028783781885,-2.0799271348447013,4.14794358081981,0.8567389124546814,1.3539121711288147,-1.3010135893008326,2.0,0.49203276394378775,0.4938859588238303,0.32539123289582556,-0.6480969492602628,0.09772638145336662,-0.44734451919243345,0.6085250856588096
11.4,0.598388704370318,3.8324965555848656,2.646593540983019,-0.3562934490629247,0.013925506242708626,-0.004745082728368377,-0.08026717753945724,0.15651773856947654,0.9844080752296576,-1.773574926617264,-2.0799240995666275,4.147948498089846,0.8567075893452932,1.3539312319368078,-1.301003660591619,2.0,0.49204767384592235,0.493865172609409,0.3254019961448327,-0.6480797482427949,0.09773067223027104,-0.447355928298791,0.608534328562409
11.5,0.5521316346695107,4.094609295467207,2.574401878228384,-0.3503283891453785,0.014452146647249631,-0.010143560290315875,-0.08003880212472259,0.1561336489055142,0.9844876280928058,-1.7736029401367803,-2.0799466572203578,4.147933527838012,0.856722705748223,1.3539298307038639,-1.3009985128985804,2.0,0.4920353882903895,0.4938777779222142,0.3254204805117107,-0.648074823907795,0.09771759011633112,-0.4473473616634627,0.6085479711670037
11.600000000000001,0.43052298043531734,3.681252090492851,2.432646674090561,-0.35817564080847825,0.014386817621756127,-0.00926733891946173,-0.07996775633291994,0.15603994461254958,0.9845082924602717,-1.7735929489135742,-2.0799531724835782,4.147964058743838,0.8567287745294829,1.3539434059728424,-1.3010050992889817,2.0,0.492021546983449,0.4939008078282397,0.32542645991663527,-0.6480688520571244,0.09770483576224676,-0.44734701057498377,0.6085566367986297
11.700000000000001,0.4491741513065113,3.8334784027404964,2.3847598526765132,-0.35262774366776295,0.017106911308114467,-0.006134867916404837,-0.08020557688277541,0.15651631902148236,0.9844133481210737,-1.77358550047623,-2.079925290026832,4.147936071026755,0.856721177571611,1.353920594623108,-1.301007595845283,2.0,0.4920105219791487,0.49389762921232633,0.3254427388936605,-0.6480564577363104,0.09770928137691025,-0.4473438408859471,0.6085714517954998
11.8,0.6896479636108133,3.56387997168971,2.712235843577209,-0.36048675264363,0.00036673118500022035,-0.0023430044188706813,-0.08020269343841423,0.15650528169330244,0.9844153675093198,-1.7735897090141057,-2.079964713543503,4.147950733227736,0.8567240116048336,1.3539576530456543,-1.3009923775043906,2.0,0.49201564166311695,0.4938996647258988,0.3254076774517233,-0.6480769451443432,0.097697558812632,-0.4473410108959083,0.6085535967727539
11.9,0.563830370216646,3.62583267404892,2.873218051151641,-0.37946451633721756,0.024267041661122892,-0.01211083717614321,-0.08026145559743723,0.15660620665179817,0.9843944530715346,-1.7735776475422564,-2.079952403368167,4.147953510284424,0.8567203384951972,1.3539275882027768,-1.301008402649527,2.1003693795755978,0.4920191342486078,0.49389505561361796,0.3254145838932637,-0.6480734741385257,0.09770506571813445,-0.44734915404021436,0.608550101988769
12.0,0.7017843635322346,4.159177202627281,2.827567463959638,-0.375842728296919,0.03327103345936535,-0.010499330738777976,-0.0805584662274489,0.15716212967035906,0.9842816144549071,-1.773600064351887,-2.079949869446723,4.147953510284424,0.8567489682660961,1.3539195327225797,-1.3009985128985804,3.0,0.4920200525656264,0.4938964664052865,0.32540630656225916,-0.648081818832222,0.09771134294771736,-0.44733942261504056,0.6085473609612605
12.100000000000001,1.1538115505084638,3.7492565933636897,3.3985233294513857,-0.37885155428683154,0.04302346008078855,-0.005513890300544077,-0.08076685748844951,0.1575265934671448,0.9842062827095596,-1.774569582122951,-2.0794369044674084,4.148058540491926,0.8572113387079988,1.353849978525909,-1.301010116822536,3.0,0.492018410899905,0.4938851899922823,0.3254119428781805,-0.6480774753986724,0.09770225395513403,-0.44734953226788365,0.6085460142279098
12.200000000000001,0.987536145855751,3.559720040571646,3.1366564066683473,-0.35877936060413845,0.05650311234612255,-0.006692366324987112,-0.08081787819710883,0.1576014624850769,0.9841900908783119,-1.7762235262359243,-2.0786070371555763,4.148282158948806,0.8579913812824707,1.353606280714507,-1.3009985128985804,3.0,0.49179041396836476,0.49358741941607337,0.325398127006801,-0.6480456194857203,0.09773204650551648,-0.447356449673253,0.6085700691678444
12.3,1.0292478738453494,3.3758943281617197,3.2359589869044605,-0.34942353345553684,0.06743653755570807,0.014112452113421547,-0.08055701389936037,0.15711743108101717,0.9842888788803253,-1.7778076792580741,-2.077804880713116,4.148499133409772,0.8588005406430839,1.3533341747556413,-1.3011086622821253,3.0,0.49160837335469476,0.4934196007026074,0.32535998997764887,-0.6480490098106659,0.09773715183576877,-0.44734431049911105,0.6085745623163379
12.4,0.9240572957981807,3.217345130705613,3.1264121422462403,-0.33615799327297574,0.07114184842554575,0.02528734355412055,-0.08066272981088025,0.15717845423683907,0.9842705134340164,-1.7794678701436983,-2.0770082222982236,4.148698329925537,0.8597087799629772,1.3531041145324707,-1.3011181990252894,3.0,0.4911125433486435,0.49291285715171695,0.3252447213622633,-0.6480664225060084,0.09773762581852101,-0.44737956741839885,0.6085300248764631
12.5,1.2080737740294643,3.062016057529241,3.306328899019323,-0.33486730606633786,0.07344209872745164,0.02796865906312393,-0.08064462001683424,0.15714875546561435,0.9842767422409897,-1.7810651513462143,-2.0761946230001374,4.148986339569092,0.8604743544470329,1.3528927972701874,-1.3011341320291898,3.0,0.4908625505592859,0.4926778533077507,0.32516840752968096,-0.6480638062576832,0.09774176443516205,-0.44736649080002133,0.608541759794001
12.600000000000001,1.1712385112544754,3.250707152984557,3.2138137338073864,-0.32159805892345256,0.07935892672739374,0.04300160400328722,-0.08054090788380758,0.15700885244640042,0.9843075387157281,-1.7826108740288817,-2.0754393948262813,4.149203957081301,0.8612367349812011,1.3526507418893687,-1.3011440477261815,3.0,0.49052962369447356,0.4923545159904952,0.3250919659707405,-0.6480782991427063,0.09774413468614927,-0.44734602512051486,0.6085409896823948
12.700000000000001,1.147817362568534,3.3231064627617344,3.1538890975855396,-0.31748893373028203,0.08119967337470393,0.0645478096326546,-0.08035911283174293,0.15672988679785343,0.9843668256616956,-1.7842987697878898,-2.0745921901256144,4.149429798126221,0.8620072689308627,1.3524386395065606,-1.3012140432940882,3.0,0.4900042070631107,0.4918838201870327,0.32496088090062747,-0.648102492315486,0.09772222899133091,-0.447326823695068,0.6085328571394504
12.8,1.1925317721168764,3.092415064861536,3.302188662431338,-0.3227834594327056,0.08331674666219402,0.07534708667575706,-0.08016438768061639,0.15640777738410327,0.984433946150646,-1.7859943106723815,-2.073768837513923,4.149658918009894,0.8629225201076243,1.3522607553717845,-1.301241554556456,3.0,0.4897907289675073,0.491668940775594,0.3249210834031862,-0.64811632489001,0.09772028162547312,-0.4473173358851553,0.6085254119481882
12.9,1.064383788990435,2.9451686381675333,3.4611111631414633,-0.3386183635964672,0.0855444826017482,0.08180783280578525,-0.07993057787543825,0.1559552544963824,0.9845247456010658,-1.7873807065106324,-2.0728892918626665,4.149874374606337,0.8636924463459472,1.3520407206285996,-1.3012393403693214,3.0,0.4894747683752826,0.4913279926157601,0.3248423742461784,-0.6481168826925618,0.09771210076518924,-0.44732631056251104,0.6085195342891315
13.0,1.2664023137543845,2.90096237917914,3.4198841832073708,-0.33809537295656983,0.08784687721835217,0.09404965736120334,-0.07988956926384819,0.15592310083086425,0.9845332067590754,-1.7889810632963712,-2.0720826727202923,4.1501422358444575,0.8644807732670814,1.351831551255851,-1.3013314603336306,3.0,0.48892930459214434,0.4908317098798934,0.32490972370163335,-0.647998394016355,0.09771215389196782,-0.44734198554782423,0.6086341793722625
13.100000000000001,1.3413376756673585,2.6933471571737133,3.4632676175849353,-0.31936584954009456,0.0900861223403832,0.1190879994102855,-0.07989768169836052,0.15599688403830198,0.9845208630616032,-1.790750410991688,-2.0713168841498497,4.150328159332275,0.8652450963181345,1.3516267366462016,-1.301350520998951,3.0,0.48872883380876225,0.4906021702138171,0.3248785188940331,-0.6479925608715383,0.0977122218491871,-0.44735797842044034,0.6086286239571863
13.200000000000001,1.298819494636054,2.956966828774111,3.3129002505320235,-0.3056932147325197,0.09518289377060787,0.12177349958756097,-0.07984528497313766,0.15593489633419536,0.9845349318075264,-1.7923192640801036,-2.0706407789745014,4.150542674327569,0.8661253535735238,1.3513833186725752,-1.3014047781573694,3.0,0.4882443128619809,0.490135047103437,0.32461786440503626,-0.6481257843536258,0.09767959294866474,-0.4472959836188531,0.6085375648354203
13.3,0.983339408890923,2.8387792900400326,3.4717147512585376,-0.3121942187769913,0.09651831411918,0.1305957752029191,-0.0798482705541251,0.15595935778528303,0.9845307848919409,-1.7937773519383247,-2.069851682840465,4.150736331939697,0.8669149118610839,1.3511895977350663,-1.3013976099927775,3.0,0.4880458983030499,0.4899343948799926,0.32453599411375766,-0.6481411915293096,0.09768686097211635,-0.44729603323699585,0.6085199517574011
13.4,1.2290213226858056,2.5742337287841424,3.490917867570077,-0.3065201903771861,0.09676669424704505,0.13945759742203673,-0.08006216642658191,0.1563130402054303,0.9844572679782286,-1.7954852170390818,-2.0688962396463118,4.1509424653329985,0.8676931101032714,1.3509258956293542,-1.3014605948693239,3.0,0.4877641149879873,0.48962315339524404,0.32451837634681524,-0.6480861362417569,0.09770772265524602,-0.4473317876576735,0.6085489566959641
13.5,1.1377279922054306,2.7051611865690672,3.6149475877597803,-0.3054606333906741,0.10102608134152545,0.15006919255812282,-0.0803039471976146,0.15672747397837017,0.9843716318445987,-1.7972135543823242,-2.0680412322816113,4.151160088207958,0.8684040879235322,1.3507237329682142,-1.301452938710348,3.0,0.4871877945973106,0.4890443816665633,0.3244228089135047,-0.648110047511236,0.09769941184569406,-0.4473159684302715,0.6085364538195533
13.600000000000001,1.0435637915275922,3.186981667626547,3.781170676491788,-0.33587867813754335,0.09743610239262376,0.16735271830916293,-0.08065783174919776,0.15738614232519835,0.9842372736269926,-1.7986441868031577,-2.0672053989061765,4.151400013672526,0.8692773143256023,1.3504848284909796,-1.3015179019509486,3.0,0.4869985240702126,0.4888074627350916,0.32434208544368737,-0.6481406093795197,0.09771329165697228,-0.44732000597579863,0.6084987061288759
13.700000000000001,1.1466630390709442,2.9529693616993336,3.7202626788437536,-0.31862097008940415,0.09886350580039135,0.17073138029066834,-0.0810117163007809,0.15804481067202653,0.9841029154093864,-1.800182943131137,-2.0664221249022425,4.151633302627071,0.8701326889902264,1.350288170797949,-1.3015390259206505,3.0,0.4866646757461864,0.4884842274023523,0.32439646488588253,-0.648051663628706,0.09771008606254765,-0.44735216377326203,0.608570309756479
13.8,1.3412727998675233,2.5416745772575675,3.651634214610982,-0.3002885579447882,0.10187105710698038,0.18155462930873828,-0.0807324780638952,0.1574820266542259,0.9842158178706191,-1.8019864572857653,-2.0657003946503916,4.151840962429585,0.870857859031607,1.349978612343775,-1.3015607039081019,3.0,0.48622651398844907,0.4880395190839793,0.32431244509468166,-0.648032488384023,0.09772219431043686,-0.44736246002259916,0.6085812156980304
13.9,1.4327642168077805,2.2887294793758537,3.7913441286789262,-0.29157566324813927,0.10378594155630809,0.1876283965359776,-0.0801758421645573,0.15637907274483454,0.9844374331311987,-1.8035074092203534,-2.065031667748922,4.152083130177297,0.8716697710106815,1.349779581310064,-1.3016124124240211,3.0,0.485939486076208,0.48776321038260284,0.32418362766318287,-0.6480878800553431,0.09772596100860617,-0.44733483923110035,0.6085419277916695
14.0,1.1920413731709865,2.422908851479181,3.760601963322913,-0.3010981488333463,0.10962947118220155,0.1968431169375912,-0.07964200384544629,0.155297422557901,0.984651857188923,-1.8050761979415806,-2.0642320855523213,4.1523308753967285,0.8724483164790764,1.3495613269635194,-1.3016394945557033,3.0,0.4855324155397516,0.48735253815952795,0.3239704121149574,-0.6481765627192109,0.09773118467831983,-0.44731910873282926,0.6084581941640266
14.100000000000001,1.148801303249071,2.5035541542821313,3.67332698081264,-0.30690780051107847,0.10669465550336045,0.20350890020107357,-0.08011084634555617,0.15618029316271495,0.9844739486767325,-1.8067100384370274,-2.063271389748907,4.15255573774733,0.8733182493082192,1.3493408196422358,-1.3016822013457479,3.0,0.48529640539718377,0.4871093128391427,0.3239267196763243,-0.6481731281988116,0.09772930200172017,-0.44731995361902965,0.6084615341215028
14.200000000000001,1.2059820132568733,2.7477046656951014,3.8570160763206567,-0.3059188800588694,0.1045125991259147,0.2148168892339287,-0.08051465894811118,0.15697775689094248,0.9843146475839866,-1.8083019035568566,-2.0623767463087295,4.152764453131283,0.8740603277279193,1.3490821009597096,-1.3017304938886496,3.0,0.48496529206289785,0.48677607781878546,0.3239337472197474,-0.6481192036058266,0.09772938813248594,-0.4473334495819092,0.6085090381397373
14.3,1.0774939441322096,2.6659964825297124,3.905944254054933,-0.3197966424640231,0.10903555871382616,0.21491439633811782,-0.08062131403175385,0.15721294138137054,0.9842684046263435,-1.8098656314724995,-2.061446805993551,4.153013706207275,0.8748075205036621,1.348911760606938,-1.3017399946795862,3.0,0.48435363172453805,0.48614914661127584,0.3239586403159784,-0.6480379467415797,0.09774334637852518,-0.44735032557506954,0.6085809264424616
14.4,1.215572540428804,2.5643960713914122,3.8906486435578347,-0.29819960403662504,0.10831037116886895,0.2265613753438401,-0.08065557126321435,0.15729760149528862,0.9842520687641896,-1.8114557266235352,-2.0607833763985464,4.153217792510986,0.8755960279960362,1.3486710190130795,-1.3017801085412986,3.0,0.4841800626579247,0.4859811862986337,0.32395283686988163,-0.6480414302747244,0.09774032071574038,-0.44735268803302375,0.6085759663866968
14.5,1.052897005171286,2.6119165650385523,4.010905294314353,-0.28292044156543483,0.11450256980933401,0.22414327458404312,-0.08069397132313384,0.15739274224522154,0.9842337119341228,-1.8130297142514404,-2.060071593308205,4.153453189120139,0.8765036821067139,1.3484463262078779,-1.301816259982722,3.0,0.4837358889491623,0.48554486306349603,0.3237802157029346,-0.648083797095715,0.09771780130357557,-0.44733789706040417,0.6085453385771438
14.600000000000001,1.1616887066864576,2.5233844075510823,4.0364528156607316,-0.26832575086384297,0.12502203768930498,0.2149649457066378,-0.08075760519360843,0.15755172015044927,0.9842030454653742,-1.8146406421734596,-2.0593661965314682,4.153701999937962,0.8773109155842285,1.3482567175450573,-1.301859203969137,3.0,0.48352353703427053,0.48535049479224973,0.32374213680500413,-0.6480545637277775,0.0977058309486297,-0.4473386485455495,0.6085778393498068
14.700000000000001,1.182268842214392,2.280982131486232,4.146449440215027,-0.26619604149036136,0.12913176850056027,0.21066664410852773,-0.08079028050509131,0.15765063788402944,0.9841845238667765,-1.8162784189945165,-2.0585531387602023,4.153937612935668,0.8780676754778394,1.3480145009440587,-1.3018908214598266,3.0,0.4832121723298632,0.485047043394824,0.32362805918422954,-0.6480770439095976,0.09770411695943962,-0.44733684807276924,0.6085554987368808
14.8,1.3103482416558196,2.555366712855481,4.185620984241386,-0.2719114858695363,0.12290418199860771,0.2203310831633634,-0.08061915929570518,0.15735418663328973,0.9842459505074939,-1.8177964468715953,-2.0576805112135896,4.154188632965088,0.8788153438465715,1.347782860807821,-1.3019471909671436,3.0,0.4826829632650572,0.48450670798517537,0.32345880408087446,-0.6481196448045872,0.09771747457758634,-0.4473057396365502,0.608530850876727
14.9,1.2199040431304713,2.836886975089424,4.1641909874191105,-0.29679612818817414,0.11388064150150586,0.2102230454870293,-0.08050854583816051,0.1571718728362974,0.9842841341944899,-1.8192155104417067,-2.0567810406713796,4.1544277411240795,0.8796099602666578,1.3475448882763204,-1.3019553984564887,3.0,0.482421280754325,0.4842657261525571,0.3234566195378184,-0.6481156679285804,0.09768137789764544,-0.4473198409555687,0.6085305163136784
15.0,1.1374341459612727,2.660897014097693,4.123148306902797,-0.28928265766708083,0.11672085797902174,0.20695137461076565,-0.08082825716060794,0.15780129263009143,0.9841570164342804,-1.8209946439427003,-2.0558589990854337,4.154678210132227,0.8804444201992689,1.3472730237975108,-1.3019813119998136,3.0,0.4821089142132805,0.4839794019739243,0.32352417910412273,-0.6480298568319514,0.09767951550645473,-0.4473451469284584,0.6086035954743784
15.100000000000001,0.9779246020033654,2.2821772116264016,3.9062912162292505,-0.26988887270072714,0.12357012294155835,0.20393488679760824,-0.08109166325690756,0.1583131614400759,0.98405337955817,-1.8222303944684457,-2.0553268598150596,4.154803967406784,0.8810171639035502,1.3471257447505343,-1.302040827090758,3.0,0.4817831423817104,0.4836428585332245,0.323517890699264,-0.6479927843345259,0.09769297498573024,-0.44735532868588757,0.60863342332242
15.200000000000001,0.8421872957370231,2.174970702514284,3.6142926350367977,-0.2610463498331317,0.12358589339980638,0.20431328451096334,-0.08091891442835493,0.15791444975838137,0.9841316317168852,-1.8221720514775461,-2.055378283842961,4.154803460423873,0.8810300043366291,1.3471378003668957,-1.3020176220190973,3.0,0.48149980509290985,0.483322916967326,0.3234346604169386,-0.6480183341317354,0.09770946233189784,-0.4473503176352395,0.6086072567030334
15.3,1.2456207911555621,2.2642599434112984,3.7764624652175836,-0.2818576516362319,0.12558191246689196,0.20232827682769441,-0.08097324898449855,0.15800673830238668,0.9841123302836167,-1.822182990303283,-2.055354637583439,4.154827497880171,0.8809844690510253,1.347120761871338,-1.302019324377384,3.0,0.48140116192236854,0.48321594910754456,0.3233310377385512,-0.6480735628746757,0.09771637373354089,-0.44733834000592176,0.6085561411801189
15.4,1.1512622973988647,2.372394830357107,3.713706800751169,-0.2763525387392112,0.12308957198040638,0.20024475011109136,-0.08117457588168796,0.15841110908590506,0.9840307925696198,-1.8222177369124533,-2.0553475940787456,4.154849135133829,0.8809959131428222,1.347144603729248,-1.3019907501459478,3.0,0.4813828070255088,0.4832288201536376,0.3233296233303844,-0.6480685843592808,0.09770354565826624,-0.4473308422615024,0.6085690139121245
15.5,1.2656889912776395,2.4787355685499244,3.697267043197984,-0.27746300793919876,0.12329490149593031,0.1936202714053162,-0.08131539822293272,0.15862247503064753,0.9839851044416691,-1.8221990782308886,-2.055349966088766,4.154832755268233,0.8809825206645305,1.347139855876597,-1.3020146015853837,3.0,0.48139251180455,0.48322006123709393,0.32331215519090944,-0.6480898359490311,0.09770767767071109,-0.44733310217686023,0.608544057534523
15.600000000000001,1.276143523693123,2.255574988003834,3.8744315682925388,-0.27952322853855593,0.12165496762127194,0.20180547345691513,-0.08123016280484771,0.15842898265983577,0.9840231997000651,-1.8221733635156272,-2.055385728875631,4.154822826385498,0.8809555308401046,1.3471392265526565,-1.302024453561578,3.0,0.48139550933442377,0.48320691212364075,0.3233382245253722,-0.6480626411993782,0.09770881310936488,-0.4473471662894796,0.6085624978054581
15.700000000000001,1.4114524896637421,2.3278849712788134,3.9585507266767572,-0.2803737656860456,0.12150959803352003,0.19977115662942269,-0.08097814568585686,0.15793679247526965,0.9841231089644215,-1.8222118150014908,-2.055385728875631,4.1548525751110175,0.8809844690510253,1.347152932189763,-1.3020265738116663,3.0,0.4813939653130037,0.48321325905412416,0.32334055674094775,-0.648066092985867,0.09772175231615159,-0.4473434928225111,0.60855944465241
15.8,1.1814337478187475,2.8059402360130585,3.8260877974223706,-0.2685234337372605,0.12544500970798445,0.19729028104478663,-0.08078347282553208,0.15757548081833922,0.9841970950585737,-1.8221745949963253,-2.055373807946676,4.154854330186551,0.8809752981542543,1.347144603729248,-1.3020218379886959,3.0,0.4814067250403168,0.48320177868654546,0.32336326418520184,-0.6480403114741419,0.09771903168507101,-0.4473578790939141,0.6085767606174461
15.9,1.0706268032292743,2.633132434595237,3.7541500337696676,-0.2712771807833253,0.12719612404452962,0.19518483992601854,-0.08063277679982,0.15731453881476337,0.9842512008892922,-1.8221673965454102,-2.0553664641535843,4.154842091107545,0.8809775118045131,1.347156047821045,-1.3020192300185744,3.0,0.48140041145803386,0.4832131520371427,0.3233403250721757,-0.648059971721612,0.09771741234119036,-0.44734045587209065,0.6085688924991773
16.0,0.9564509666286221,2.5911833606163706,3.7043040195787356,-0.270993722107245,0.12668486025409606,0.19216430472997761,-0.08036940232003525,0.15682230391992855,0.9843511601341681,-1.8221700886075278,-2.0553690978983936,4.154827917125863,0.8809867765328405,1.3471537403392297,-1.3019861009765186,3.1258895568863942,0.4814003715492262,0.4832053463046479,0.3233538340306856,-0.6480572098897616,0.0977213372671471,-0.447341321244295,0.6085705671982723
16.1,1.2945747649449069,2.5514493221373993,3.7800521971179744,-0.27280972601749587,0.12020394985168627,0.1925028962727314,-0.08002885216023498,0.1561696985555123,0.9844828100392027,-1.8221657034295984,-2.0553664947146872,4.154812963873141,0.8809730249592285,1.347142068475492,-1.3020219661147001,4.0,0.4813988675009484,0.48320684582386214,0.3233505093200622,-0.648055104997489,0.09771083544936046,-0.44734609921489416,0.6085709827453983
16.2,1.150610472669085,2.778086837253338,3.7535774737713195,-0.26850532342827693,0.12050628149467044,0.19928288458449928,-0.07991416473942217,0.15594309216746685,0.9845280320021946,-1.8221921920776367,-2.0553583349439664,4.154842328299121,0.8809662064299155,1.3471504685842446,-1.301999942335356,4.0,0.48140992912298436,0.4832062881270212,0.32330898517826506,-0.6480874259560951,0.09770332908389509,-0.44734494260678637,0.6085386184357227
16.3,0.9875557301619304,2.595797084679172,3.7669104681267505,-0.27081684286111835,0.1208568845213191,0.19327208153362221,-0.080046884215202,0.1562116047347011,0.9844746168256412,-1.8221582770813864,-2.055357044043194,4.154844343615635,0.8809753495870015,1.347156047821045,-1.3020217308371391,4.0,0.4814011953534406,0.48322310436415294,0.32332234446535474,-0.6480728433481733,0.09770838305399962,-0.44733960699067726,0.6085572591079765
16.400000000000002,1.8686825764217243,2.6408964971730677,2.867814152024704,-0.26390473321541563,0.17083315717110162,0.19513088829608227,-0.08026909391180166,0.15665785013819958,0.9843856841049063,-1.8221490324333531,-2.0553714516594175,4.154803697102105,0.8810083109089355,1.3471230239071064,-1.3020218612371488,4.0,0.481385800539144,0.48321526042430185,0.32331892841873955,-0.6480852657769176,0.09770023191571264,-0.44732980485268103,0.6085525438751698
16.5,1.7278465489063257,0.7809771052461383,2.1367855792223693,-0.14178109675067208,0.15566411428924,0.20250100082994377,-0.08025673646181203,0.15661035446062932,0.9843942432713111,-1.8221583885440689,-2.055355041277215,4.154807992528929,0.8809985522408158,1.347144603729248,-1.3020496486274085,4.0,0.48139284769063917,0.4832146510130922,0.32333373706319984,-0.648071754021647,0.09769826429309095,-0.44734648261547205,0.6085549895325717
16.6,1.2451292331003145,-0.528701919427745,1.6409322006277012,-0.031182635076601475,0.11822132343210912,0.20628402528325973,-0.08008871237803586,0.15629085046395025,0.9844586750611413,-1.8221790908445796,-2.055362862615057,4.154836432905082,0.8809818078630606,1.347173563256321,-1.301995928693964,4.0,0.4814034982134628,0.48319289892292383,0.3233634290683935,-0.6480349993522218,0.09773016094590443,-0.44735527620199167,0.6085825433828131
16.7,0.3187175740236604,-0.4347401387212534,0.8679419475881784,-0.03559633359898062,0.07867484814567186,0.19820840353432403,-0.07987868607265773,0.15594667305549717,0.9845303599508962,-1.822139073201488,-2.0553580811138263,4.154843014575669,0.8809596207585739,1.3471884815411734,-1.3020184587866062,4.0,0.48138932343359786,0.48320889582229964,0.32337277217397814,-0.6480370341510228,0.09770641495907322,-0.4473419380195952,0.6085939938361734
16.8,-0.16633331099978618,-0.22953624934107325,0.40883151170415366,-0.06001734761634059,0.01975139267896165,0.20028898452075544,-0.08035189751061535,0.1568592307332259,0.9843465809369072,-1.8221753902736897,-2.0553576935582134,4.154827978031796,0.8809959131428222,1.347165766731083,-1.3019933868479503,4.0,0.48140114938800554,0.48321966276703626,0.32331423578239643,-0.6480878152461982,0.09769690900031947,-0.4473175010943677,0.6085594062340041
16.900000000000002,-0.15369819856101197,-0.20460194029739132,0.39636828299123256,-0.0572999929675484,0.025260507085834646,0.20057851969104606,-0.08027960520559319,0.15673401434135528,0.9843722102437479,-1.822188213187609,-2.055385728875631,4.154843000403455,0.8809807364501407,1.3471523152201603,-1.3020110213079803,4.0,0.4813970889613159,0.48322362150993126,0.3233076817374247,-0.6480950134579753,0.09770175486488458,-0.447322257593655,0.6085474660932746
17.0,0.0035608578104288913,-0.469330122028039,0.3759276423698088,-0.060174404880762096,0.025921795940794794,0.1969268649628205,-0.0796308733526327,0.1555123527419949,0.9846190947821345,-1.8221896174971755,-2.0553538414537793,4.1548324350227785,0.8809475127537939,1.3471534732405837,-1.3020146528827112,4.0,0.4813912054817152,0.4832218715967341,0.3233276554037255,-0.6480783845559266,0.09769603564704438,-0.44732364657802715,0.6085650723647952
17.1,-0.026881281988877737,-0.3471983889125644,0.3800830729080862,-0.058214155227522886,0.025021322516704695,0.19368160796725906,-0.07940434186987286,0.1550258496582154,0.9847141343485405,-1.8222004233936366,-2.055349966088766,4.154806312961385,0.8809733298316541,1.347119503324596,-1.3020265738116663,4.0,0.48139203563357097,0.4832122745229999,0.3233605255907564,-0.6480401448480313,0.09771426486684373,-0.44734048814858507,0.6085904869202777
17.2,-0.016999956801721818,-0.2266111323269716,0.41325860828828415,-0.05128091182847517,0.023584690458806318,0.19311607975078537,-0.07967740536031076,0.15553774130509926,0.9846111516874971,-1.8221703042137363,-2.055336508760592,4.154790032722928,0.8809819767638887,1.3471419037515167,-1.302028110210885,4.0,0.4813851093648949,0.4832362352835522,0.3233424439342914,-0.6480645120161859,0.09770642067709515,-0.44732574301030137,0.6085766371328882
17.3,0.12339006250901943,-0.14375407555243463,0.4490853296204098,-0.05028902270011844,0.025423890247437055,0.19379444392331185,-0.07996952228840433,0.15608781327007074,0.9845006020850489,-1.8221729736127399,-2.055380366310891,4.154832435617946,0.8809879765470068,1.3471418151955832,-1.3019803755787414,4.0,0.48139294338858074,0.48321486480930936,0.32334250074774407,-0.6480696154962452,0.09770551893022128,-0.4473369488221775,0.6085631103341624
17.400000000000002,0.11262015251073448,0.10547109322399131,0.48418388303269433,-0.043161652589983224,0.02373692074616509,0.192641976831227,-0.07944861758550822,0.1551054468680514,0.9846979964724801,-1.8221593319416278,-2.055339669913664,4.154833534407604,0.8809778342306336,1.347174214357551,-1.3020179023904175,4.0,0.48139481837312914,0.48322764757311,0.3233172423420104,-0.6480759342860649,0.0977116847989112,-0.4473279157396487,0.6085620312285548
17.5,0.21818096903406492,-0.3035475204015069,0.3436705946007324,-0.051074126281941135,0.024676684040354994,0.189326901714725,-0.07978997136926338,0.1557384631202164,0.9845703225442585,-1.8222062139159598,-2.0553803585703685,4.154798984527588,0.8809730249592285,1.3471233396178641,-1.302030439282727,4.0,0.48138876443504475,0.4832214722962831,0.3233393066516492,-0.6480600836123531,0.09770026084144906,-0.4473400592791011,0.6085718186245836
17.6,-0.024785528550604594,-0.12491112235800615,0.37387057805968016,-0.04063374217246449,0.028030594607084465,0.1898062298920815,-0.08003160713160513,0.15617798478852293,0.9844812709247708,-1.8221726931040954,-2.055389700908128,4.154825582002937,0.8809844690510253,1.3471499029935536,-1.3020080312180617,4.0,0.48141177901300647,0.4832051666493288,0.32334401133469265,-0.6480617822872671,0.0977163133597764,-0.4473461864550959,0.6085629284684596
17.7,-0.03994260680062316,-0.24238000672961846,0.34522031089143834,-0.0428248025497427,0.033952529729929196,0.18715026217678576,-0.08008399809005429,0.15625447662064423,0.9844648721762304,-1.8221858563551263,-2.055394989195583,4.154827135900241,0.8810029896909288,1.3471392825112414,-1.3020292344206696,4.0,0.48141005699734574,0.4832120214675359,0.323341595977941,-0.6480620803439666,0.09771859890831962,-0.4473566682414892,0.6085545389096363
17.8,0.36825236618347174,-0.3812449748522421,0.4190492001228271,-0.0436595074582543,0.021864491698776602,0.18682312374058105,-0.08014977512948156,0.15639278771787554,0.9844375465815292,-1.8221950087483605,-2.0553528040562243,4.154816331591698,0.8809663031280318,1.3471502796641646,-1.3020265738116663,4.0,0.481401033005083,0.4832204854679027,0.32332908081662615,-0.6480786766470443,0.09770350069532063,-0.44734126466797225,0.6085506123179522
17.900000000000002,0.11607883546350808,-0.30066914573223963,0.3298674697450379,-0.04361967607688645,0.02512806264168291,0.1882047378079997,-0.08023304412786644,0.15661187974343552,0.9843959425774195,-1.822194961695006,-2.055376692964769,4.154796080089347,0.8809873734892668,1.347144603729248,-1.3020146528827112,4.0,0.481387101365198,0.4832207989350975,0.3233215009968479,-0.6480831762612977,0.09769468261520758,-0.4473308215904271,0.6085549126340326
