xiamingqian9007/apple-picking-rnn/final_data/grasper_20191127_123231_noimg.csv
,/manipulator_wrench.fx,/manipulator_wrench.fy,/manipulator_wrench.fz,/manipulator_wrench.tx,/manipulator_wrench.ty,/manipulator_wrench.tz,/ground_truth.x,/ground_truth.y,/ground_truth.z,/joint_states.elbow_joint,/joint_states.shoulder_lift_joint,/joint_states.shoulder_pan_joint,/joint_states.wrist_1_joint,/joint_states.wrist_2_joint,/joint_states.wrist_3_joint,/mode./mode,/manipulator_pose.x,/manipulator_pose.y,/manipulator_pose.z,/manipulator_pose.rx,/manipulator_pose.ry,/manipulator_pose.rz,/manipulator_pose.rw
0.2,-0.5316650825764079,0.3454247189400391,-0.2046871723641309,0.0008617879798809779,0.033734344123139144,-0.016578153605805855,-0.0961684154585111,-0.13912888189215902,0.9855936216968338,-1.9022939120546245,-1.7573506194093926,4.1875187718572215,0.2640841305425072,1.3367934226989746,-0.0074168519422374785,1.0,0.4488760911232923,0.4663689244307578,0.3561507980791936,-0.581418419467651,0.5330898542879595,-0.014882593581307805,0.614447993867076
0.30000000000000004,-0.4955205227939443,0.06936790278481891,-0.23890601637438313,0.0007695310867934261,0.030755999325036736,0.032649047209957476,-0.09622432058628654,-0.1391426171960455,0.9855862086844193,-1.900381427690684,-1.7593622127267374,4.187062353642813,0.2642429815108693,1.3371697609954736,-0.007512452422359466,1.0,0.44887964573483774,0.46635534655037864,0.3561621440173684,-0.5814062018212476,0.5330881624364442,-0.014881695933659298,0.6144610440703823
0.4,-0.22686422296264633,0.02131638224676424,0.02217790339874736,-0.009659383091832615,0.02481661847613705,0.09974827982463438,-0.096379399187235,-0.13921710473420426,0.9855604299582276,-1.8968722424568456,-1.7630330668457423,4.186235286031585,0.2644810885481868,1.3378547632611706,-0.007728755905097008,1.0,0.44956058260405546,0.4670279185697584,0.3559833284224435,-0.5813620863439771,0.5330878580387394,-0.014920208699573067,0.614502113540554
0.5,-0.16416518059196258,0.0012636692369852928,0.037660560660703314,-0.010558084963966104,0.03295365776333067,0.15986030363471257,-0.09580662029398737,-0.1384771389027347,0.9857204732531107,-1.8933848655065888,-1.7667417573934063,4.185481548309326,0.26474769434278167,1.3387692698974718,-0.007965871728533585,1.0,0.4502175586407917,0.4676635312242248,0.35577436435908605,-0.5813364833607899,0.5330993086257878,-0.014950338040041507,0.614515669164673
0.6000000000000001,-0.2800302300721166,-0.04994362585319201,0.055329274033619584,0.002994212809129973,0.03000955968238762,0.17255920841720346,-0.09551712974756531,-0.13821325486421415,0.9857857611196784,-1.8900831028207496,-1.7703121028054383,4.184736146747289,0.2650098964378448,1.3395556276515739,-0.008112871286651328,1.0,0.45121948864102474,0.4687388102088581,0.35530320631305656,-0.581376905607067,0.5331254098130191,-0.014905162173114418,0.6144558789523011
0.7000000000000001,-0.09136370672745969,-0.051926474231357225,0.13377300935239433,0.0032835604996107005,0.0287657027759499,0.16798999728867772,-0.0958114210566373,-0.13869200544427443,0.9856898684922702,-1.8866521588126763,-1.7739604964652598,4.184081026266124,0.26519982397045894,1.340156011180137,-0.00832540193666631,1.0,0.45220205000004854,0.46976468949904365,0.3549564648960628,-0.5814097880027951,0.5330815646495646,-0.01487246700732803,0.6144635982468228
0.8,-0.15140093743516286,0.19415804694530872,0.0857242284280104,0.000994152464248154,0.028796168476768722,0.1482870447486175,-0.09570404682201275,-0.1385803864455191,0.9857159589741038,-1.8836308111716697,-1.777290479674456,4.183421611785889,0.26537917079023843,1.3407776782505367,-0.008495126660890017,1.0,0.45356823868339174,0.4712404190623779,0.35440927735965844,-0.5814188338062708,0.5330912502679045,-0.014890886163402377,0.6144461897452269
0.9,-0.35965152046540455,-0.22405562733283144,-0.031243624265026304,0.0035365566738043757,0.027901991326308554,0.14615965738734857,-0.09542405512029656,-0.13821732281116877,0.9857941343167567,-1.8803938145210322,-1.7805039425453597,4.182715665941954,0.2655577844012785,1.341366010774423,-0.008649174367086232,1.0,0.4540320522971801,0.4717299934801067,0.35423386447736505,-0.5814112058305302,0.5331015642577469,-0.014892561418749495,0.6144444185888753
1.0,-0.12326117796215647,0.04082058464650923,0.010423209419453641,0.004883291473681033,0.02709560333679651,0.1496655218912195,-0.0958676293611112,-0.13876221527880037,0.9856743588597348,-1.8775712668526496,-1.7835777758173117,4.182068976223085,0.26569916415895783,1.3421249950292637,-0.008806027613294357,1.0,0.4549646331362309,0.4726744981150678,0.35390192784908,-0.5813926754913598,0.5331156380804764,-0.014923438509945175,0.6144489924331271
1.1,-0.1699076381539906,0.15270463028980766,0.14831044609533517,0.013641941935850882,0.02174110822487811,0.15209750584229967,-0.09619232113907478,-0.13915793140229624,0.9855871318778826,-1.8744919627722407,-1.7864327168266692,4.181433951501186,0.26582598197771307,1.34278318065314,-0.008985243058963236,1.0,0.45620385932954216,0.47397400706055154,0.3533547487762546,-0.5814687378284693,0.5331065094351559,-0.014878524828691347,0.6143860236243603
1.2000000000000002,-0.012216613774517604,0.39007413331637086,0.17155261622586643,0.007222264818583641,0.029131189482560875,0.15110046880653671,-0.09579671224896343,-0.138649798314016,0.9856971138690552,-1.871757121780633,-1.7893660091753514,4.180845686729674,0.26588423748679485,1.3432844243119246,-0.00914031664003545,1.0,0.4566646980790771,0.4744731175943173,0.3532949715286673,-0.5814406914141156,0.5330563378893928,-0.014841794375858143,0.6144569831514082
1.3,-0.10486840462546168,0.32897288397908653,0.05721645831940872,0.007856940447538934,0.02787291788758334,0.14827974218458922,-0.09547172928686129,-0.13822549038637133,0.985788443827385,-1.8690374750062508,-1.7920961796285284,4.180212952383192,0.2660265731441009,1.3438211042561679,-0.009319250387491373,1.0,0.45772105116719913,0.475488270348692,0.35294444115721346,-0.5813918647537321,0.5330967877356433,-0.014903559546804217,0.6144665966649052
1.4000000000000001,-0.2188473113252574,0.13948018895160336,0.021688148319309992,9.582379731661664e-05,0.031566364593923306,0.14515935778655237,-0.09561211999931492,-0.1383535295092335,0.9857568704086315,-1.866297424784649,-1.7949169459390972,4.179669366021616,0.26607405641867776,1.34431531115013,-0.009428571785355205,1.0,0.45825377654860383,0.47602861815788555,0.3527575721535626,-0.5813933767456648,0.5330968484652706,-0.014902490724348022,0.614465139290164
1.5,-0.12667458726721142,0.19936296945156273,0.06559602368213324,0.005222221223278826,0.032327423476184294,0.14643731389010342,-0.09557684128225959,-0.13829529356015374,0.9857684491148042,-1.863805539073387,-1.797508610822752,4.179214053415256,0.26619355260815425,1.3447978548919581,-0.009583182459687952,1.0,0.4590652955604316,0.4768354041171577,0.3524970080486819,-0.5813537234429758,0.5331041999409157,-0.014929562207069707,0.6144956211533568
1.6,-0.16105606089465765,0.3790839345351964,0.11780816344393494,0.01356887866633736,0.027038463329294656,0.14055469582899746,-0.09543532425198191,-0.13812440540121712,0.9858061246152622,-1.8611270490116505,-1.8001410444469084,4.178686803926618,0.2662883366088502,1.34533699109657,-0.009738193402352253,1.0,0.46002486597517933,0.47786316739727674,0.35209291020755296,-0.5813842383108553,0.5331119513817408,-0.014904038469627732,0.614460645098573
1.7000000000000002,-0.06726694603768238,0.4270084483488307,0.03519851062576071,0.015537591776654251,0.03532106222775477,0.14263397923698865,-0.09545261293881174,-0.13819012680624554,0.98579523848499,-1.85888862958248,-1.8025350344834317,4.178219358419527,0.2662903087797115,1.3459119814172165,-0.009857541512348158,1.0,0.46050026176378883,0.47833283189666265,0.35198268196490423,-0.5813530233882244,0.533108438435301,-0.014906915571251253,0.6144931561332453
1.8,0.008368646246711837,-0.0005716033146435911,0.10215747361125431,0.004807552413056445,0.02311417537618862,0.14016965642634677,-0.09556979057585731,-0.13839942508799677,0.9857545386058465,-1.8563877619720999,-1.8050789567388974,4.177740573883057,0.26632783328132675,1.3463549613952637,-0.009955231343404591,1.0,0.46135152457275497,0.47926503294599027,0.3515463894858002,-0.5814320088854515,0.533101598045681,-0.014891179005894283,0.6144247374515315
1.9000000000000001,-0.0021159416717517233,0.12449107184902311,-0.007666657525000453,0.011599139385853188,0.022615319526779615,0.134812266376082,-0.0956627948296874,-0.1385175023351957,0.9857289221255205,-1.854174763539334,-1.8072160342644885,4.177261829376221,0.2664441018342667,1.3467499922803117,-0.010074440632955373,1.0,0.4617584404588677,0.47975441040042255,0.3513154778001098,-0.581477534016881,0.5331090099888166,-0.0148734955750077,0.6143756505850236
2.0,-0.037164885226887136,0.19080460682013164,-0.04955849490258668,0.0020666541381488095,0.032300760995523536,0.14303549317683137,-0.09574951491380312,-0.13862538757860343,0.9857053475878054,-1.8519867047230545,-1.809798396773904,4.176840933121157,0.26644268532725696,1.347159251561784,-0.010194642691191604,1.0,0.46241226155461546,0.48038866204415276,0.3512324091745364,-0.5814033667738128,0.5330789719765499,-0.014886178577896063,0.6144715912292834
2.1,-0.2490789367161564,0.1612143635719491,0.1596416494500814,0.01631593534148668,0.027681581642993083,0.13619159994269647,-0.0957610902752681,-0.1386113990768778,0.9857061901518109,-1.8496367985290656,-1.8116253847470125,4.176422016292957,0.26648982311216546,1.3475417285299334,-0.010301254016064488,1.0,0.4633696713970481,0.4813947049461363,0.3506799827817641,-0.5814850902835644,0.5331441544950933,-0.014905414097833013,0.6143372273728817
2.2,-0.15382096739446893,0.5389638450480754,0.011313313572323347,0.014791225203587853,0.033818829661955485,0.13983715453150053,-0.09577848657950928,-0.13860234178680092,0.9857057730731766,-1.8477804623395937,-1.8137541180427827,4.176038126028888,0.2664918801101841,1.3479143914615932,-0.010422531758443654,1.0,0.46369012023163,0.48172514790594034,0.3507660076930088,-0.5813928595077056,0.5330898848760307,-0.014893661505256001,0.6144718841438405
2.3000000000000003,-0.11052627732612143,0.518489864274702,0.04636497561191044,0.012635640485698617,0.03230825489651759,0.1413364307660908,-0.09587555752720993,-0.13866078087060035,0.9856881145300447,-1.8455992007685162,-1.8160334632148003,4.175619602203369,0.26648062801645583,1.348285668481577,-0.010482136403219044,1.0,0.4642288242032445,0.4822623264853946,0.35052232873935796,-0.581405669462969,0.5331146790247022,-0.014912041083404493,0.6144378060922298
2.4000000000000004,-0.12715195994234155,0.2471875596393171,0.0317960283821687,0.014325943533694166,0.0356969974600554,0.1409236254028869,-0.09583553957344065,-0.1386208147010166,0.985697620676543,-1.8435648969126113,-1.8176441559861407,4.175259113311768,0.2665274288889023,1.3487305754780148,-0.010577696657442036,1.0,0.4651287152234581,0.4831941529921279,0.3501995140617914,-0.5814078247210799,0.5331147323531066,-0.014920278281835059,0.6144355204552958
2.5,-0.07261783580819221,0.035333807907885734,-0.005709661403077992,0.00761629567649761,0.0335272719723916,0.1342479729851683,-0.09568281669257812,-0.13849968136518193,0.9857294924868234,-1.8417291641235352,-1.819653730063959,4.174803083509752,0.2665036846963244,1.349113283648413,-0.0106740128761548,1.0,0.46539194933282,0.48348633828849225,0.35020549465783146,-0.5813749877690849,0.5330679047990338,-0.014896799570057274,0.6145077850053929
2.6,-0.03740123351710807,0.24059221499756106,-0.07399575062186778,0.004299636409084579,0.030749442718849485,0.14252717509946128,-0.09542919200556849,-0.13829844487488197,0.9857823334435535,-1.8397910983219394,-1.8216695365388151,4.174457173006999,0.26652829229321284,1.3494851085775215,-0.010781590138570607,1.0,0.4661444131542889,0.48426228762228823,0.3498214736078365,-0.581433440115403,0.5330914861152827,-0.01487481705524302,0.6144325528197059
2.7,0.05642203680617887,0.047579626559833776,-0.03889477777184563,0.0054954286232160015,0.02884892167330743,0.14155563627073856,-0.09538632603568149,-0.13820295837468483,0.9857998709571125,-1.8380720768181968,-1.823194008043025,4.174112060128878,0.26651484151249305,1.3498190656701528,-0.01090026375123488,1.0,0.4664696398534146,0.48460309925275125,0.34963075099155144,-0.5814545849914171,0.5331195339808732,-0.014881141159482868,0.6143880530399881
2.8000000000000003,-0.22206869016289407,0.3018660206548004,0.06406829442946431,0.006345103245110702,0.03448771264957535,0.1366673159814594,-0.09545581720204502,-0.13825655252969718,0.985785614559139,-1.8362220482072835,-1.8250449398062387,4.1737935081338335,0.26652829229321284,1.350100729414707,-0.010978431540515804,1.0,0.4671542301524006,0.4852715020951386,0.349544451288863,-0.581375152825778,0.5330925310815612,-0.014876857934720364,0.6144867484981658
2.9000000000000004,-0.009144079673210403,0.1646278693399016,-0.08767398870983041,0.006416758827155467,0.030703385398142657,0.13764366788165514,-0.09562576859811597,-0.13844369442200813,0.9857428954106123,-1.834592952568289,-1.8267498792828945,4.173474805552829,0.2664930232305627,1.3504189997528162,-0.01101000358087833,1.0,0.4674455216290353,0.48559254486590037,0.3494016978492377,-0.5813868999548243,0.5330924337908898,-0.014880114434712344,0.6144756397044839
3.0,-0.08385951880387355,0.3132883148621401,-0.13526657171675677,0.011511419176034892,0.033485314978002924,0.1395522273328669,-0.09561910540029671,-0.13843099850581903,0.9857453247305508,-1.8329865746053786,-1.8282929629735543,4.1731671001689,0.26652733861889644,1.3507040416032492,-0.011115202336125174,1.0,0.46793245526074817,0.4861201093199509,0.34917532485280683,-0.581411652262328,0.5330937863209649,-0.014887599754663968,0.6144508645718647
3.1,0.043106107871761515,-0.06418360168785053,-0.1738336447407594,0.0032011894413002777,0.03295677294566782,0.14296273019128183,-0.09545971602492141,-0.1382089534595715,0.9857918542784622,-1.8312387466430664,-1.829871836661533,4.172826949202092,0.2665061489311216,1.3509726524353027,-0.011197038406153017,1.0,0.4685354772576098,0.48672128108267637,0.3489978737616253,-0.5813838154912527,0.5331082341008797,-0.014885185883084042,0.6144647272707363
3.2,-0.10012507560536774,0.11449029746041092,-0.2196218003047362,0.006182116180674421,0.032381338434058694,0.14155696874563045,-0.0951462225424835,-0.137775670488901,0.9858828819364015,-1.829697907891072,-1.831449118129919,4.172519218928377,0.2664920526691894,1.3512651665915905,-0.011287428398415315,1.0,0.46878794497033105,0.48694903118074195,0.3489221773315395,-0.5813690295034034,0.5331093825456161,-0.014910539490502611,0.6144771058291794
3.3000000000000003,-0.16804175390954748,0.07281188679799952,-0.09097788421222043,0.010851045392319297,0.031898043564405044,0.13494398846530972,-0.09552360032443102,-0.13814114263593996,0.985795169213474,-1.8283340267545711,-1.832855482957219,4.172208786560612,0.2664968871051375,1.3514934116195165,-0.011338112109649627,1.0,0.46946611614353406,0.48760494365294227,0.34871696362905746,-0.5813410647670733,0.5331135271960262,-0.01494116565695878,0.6144992230303539
3.4000000000000004,-0.03982850458968451,0.24455497941239765,-0.0326173293622765,0.006354143642587997,0.03358613188702301,0.13380904985512376,-0.0955556884275346,-0.13816758852576225,0.9857883675854437,-1.826939582824707,-1.8344102257513546,4.171999454498291,0.26645581304516597,1.3517949091969688,-0.011426165293212455,1.0,0.46969476673469235,0.48784918456456894,0.34858137602483413,-0.5813685711123489,0.5331306120320665,-0.014937045200925843,0.6144584768051995
3.5,-0.2069489320712615,0.17144781258866998,-0.11237068321966814,0.0064742183743300135,0.032204869960937264,0.14033587591408914,-0.09521093112927569,-0.13782282482401917,0.9858700393653457,-1.825269161510244,-1.835745278894969,4.1717247441445915,0.2663732333922323,1.3520212434214787,-0.01148234575483236,1.0,0.47008287281262207,0.48830758925453205,0.3483275390458574,-0.5814228602816611,0.5331483395213624,-0.014929687531345028,0.614391902646611
3.6,-0.22503005607002557,0.21987493657732926,-0.09560817641060519,0.011030242436169208,0.028870543134196867,0.1369838547894497,-0.09510971316125898,-0.13772901515544198,0.9858929174690503,-1.8239686487776248,-1.836975945137783,4.17150104039223,0.2663880688246535,1.3522839807812852,-0.011556092959230912,1.0,0.470637412451041,0.4888733108930211,0.3482862931000054,-0.5813668810108215,0.5331064838093633,-0.014914980328523769,0.614481545651264
3.7,0.05971027063109391,0.1792108698345332,-0.035049793890021,0.006307809493524487,0.030312746641612893,0.1409242173778683,-0.09501758096693155,-0.13764456788245605,0.9859136021445487,-1.8228216171264648,-1.8383050649074009,4.1712722225650705,0.26637085309696024,1.352565469936723,-0.011606266170140739,1.0,0.47082271539339915,0.48907663173465654,0.34823692486332514,-0.5813570859136006,0.5330934792483448,-0.014906999961880383,0.6145022883546309
3.8000000000000003,0.19844850434718753,-0.00041435879589393765,-0.03568388658880298,0.0005762694903206382,0.03143057633680759,0.13832201819217307,-0.09482157696381105,-0.13750653641137162,0.9859517171059954,-1.8214821285631784,-1.83983143633496,4.171040186177754,0.26636044561352534,1.352803691673817,-0.011697426551748652,1.0,0.47117486897626043,0.48950242727656096,0.34802878767719797,-0.5813926095700888,0.533093310817682,-0.014874026344663288,0.614469624016536
3.9000000000000004,-0.4306247856326872,0.5367794850605417,-0.2852439624222839,0.019540623421603908,0.04127053368925546,0.1298104442824542,-0.09472338942114304,-0.1374523743199695,0.9859687229112009,-1.8200378218158693,-1.8409171561044253,4.170803496972478,0.26635943951341234,1.3530335151737798,-0.011772402834763065,1.0,0.471714161797388,0.4900887068888504,0.3476496707525845,-0.5814823384492964,0.5331333298978477,-0.014900701376920691,0.6143493401331582
4.0,-0.0016079413534367815,0.21251052330873488,-0.0519134408266384,0.013958281576527053,0.03303587649564549,0.13656917188909728,-0.09475170361444328,-0.13750472258804367,0.9859587038006918,-1.8188422395007924,-1.8419512586279,4.17058261185176,0.26630036413159175,1.3532399001476694,-0.011797558582234094,1.0,0.47191385149623744,0.4903029174792593,0.34764687987521126,-0.5814485186911821,0.5331128096276898,-0.014876046872133834,0.6143997522396627
4.1000000000000005,-0.2785604970668511,0.3735028594923888,-0.02988190834746496,0.013526763112881207,0.03770037512444595,0.13779359603611208,-0.09483172784492463,-0.1375559850023504,0.9859438569363113,-1.8177528931895621,-1.8430224397848889,4.17036963135371,0.2662302046213041,1.3534669876098633,-0.011848277992549462,1.0,0.47236953890418487,0.490718464977547,0.34768750415785327,-0.5813530385274953,0.5330742741718466,-0.014881919974779107,0.6145233854532078
4.2,-0.035444215570485556,0.17158718973251028,-0.15486989742544396,0.007536813796588013,0.03521383063254685,0.13923335221541056,-0.09493362957199235,-0.1376417133406873,0.9859220804414396,-1.816570326730279,-1.8444599994809525,4.17015368183374,0.266192099722751,1.3536700130900148,-0.011920840458299034,1.0,0.47255970716482565,0.4909241278540526,0.3476157639636006,-0.5813612546787817,0.5330755981103549,-0.014872854403952031,0.6145146836809343
4.3,0.08263383194586182,0.236699498648745,-0.15636901212750187,0.00262608780697689,0.034263271432636994,0.14056522339180336,-0.09506117859531413,-0.13777545459481344,0.9858911156515083,-1.8151081749055147,-1.8458254823988884,4.1698899269104,0.26616936704919325,1.3538864711729746,-0.011969157474200945,1.0,0.47285791876597183,0.49123714409617253,0.34736911586494235,-0.5814149513961563,0.5331117808827972,-0.014893358717499673,0.6144319907386735
4.4,-0.2545121098858735,0.07739063060348939,-0.2503237239425381,0.005293267888211493,0.04050191240054874,0.13940587031148458,-0.0953207426630667,-0.13807934237279598,0.9858234467898908,-1.813861596382691,-1.8468567849167086,4.169699192047119,0.2661092426368806,1.3540789114445595,-0.012075011711896854,1.0,0.4734160978739948,0.4918329267687493,0.3471206399001313,-0.5814423853101343,0.5331170174860164,-0.014901200575818714,0.6144012959402633
4.5,-0.14079072449445307,0.22957388547962765,-0.2268959168724332,0.012455848177409861,0.03277364932073703,0.13127411604645986,-0.09559346626436724,-0.13840019070931497,0.98575211919025,-1.8126516342163086,-1.8478575432271265,4.169458866119385,0.26611263295057386,1.3542984584704074,-0.012047664123256975,1.0,0.473575410137593,0.4919969482660057,0.3471250068754553,-0.5814048557340171,0.5330980675885564,-0.014886731982958475,0.6144536022134796
4.6000000000000005,-0.11624321985039579,0.13509692076948315,-0.20155380640556952,0.004313855406567436,0.03374121185960978,0.14137349868876212,-0.09513942591624158,-0.13788009323919917,0.9858687495689011,-1.8114982692754729,-1.8490292445551348,4.169243918238459,0.26603590738750577,1.3545103073120117,-0.012144059145060912,1.0,0.4740341925748391,0.4924375425973566,0.3471051197282353,-0.5813474660299398,0.5330724225210294,-0.01488898871756172,0.6145300921054211
4.7,-0.036128955577311855,0.10214259449462497,-0.3170542594116901,-0.0019188431636127216,0.03694735574676342,0.13869257064208101,-0.09491684769480112,-0.13761819709003015,0.9859269330013052,-1.8102093359051035,-1.8503569411182275,4.169007557858568,0.26602475225415034,1.354699550050707,-0.012184637266749761,1.0,0.4742115520116355,0.4926403643067495,0.3470408520542527,-0.5813486253518244,0.5330688532877069,-0.014869253432691156,0.6145325693227555
4.800000000000001,0.030885427597241666,0.11276538770588274,-0.23044656444568576,0.007448494043277083,0.034179936689293665,0.1364011490058463,-0.09519180201341541,-0.1379168002448175,0.9858586767310967,-1.8089721718389966,-1.851608884694342,4.168763462470977,0.2660131057256855,1.3548827171325684,-0.012219925658353512,1.0,0.4745902094752707,0.49304988003756656,0.3467727497811011,-0.5814030962353758,0.5330977808967078,-0.014896075234792935,0.6144552893689857
4.9,-0.11765544663331284,0.10030375177584389,-0.1660361405658579,0.006622077398480401,0.03602748392502391,0.1316804063060252,-0.09542289620509821,-0.13815775076459222,0.9858026609834262,-1.8077179990017354,-1.852782425420417,4.1685709953308105,0.26597706853833003,1.3551340170719266,-0.012291726661614776,1.0,0.4749206909860937,0.49338388649827236,0.34662647919183115,-0.5814138611941609,0.5331098929806345,-0.014910384554855742,0.6144342474585052
5.0,-0.14040221698252758,0.25519453006943715,-0.20834751887563832,0.01110684449455972,0.03536192637199961,0.13768349873933133,-0.09558140708186481,-0.13830329300227492,0.9857669018506876,-1.8065057072819841,-1.85385988141926,4.1683209497960005,0.26590554296459956,1.3553738594055176,-0.012364137293240887,1.0,0.47528823422604716,0.4937473211710302,0.3465057797101736,-0.5813971189434379,0.5331128436546176,-0.014914283761192467,0.6144474348181851
5.1000000000000005,-0.1915850978989396,0.055423180834827834,-0.30386575985559217,0.008041902960618696,0.03633173434556012,0.1384447519203365,-0.09521244929796645,-0.13785422042715162,0.9858652507591185,-1.8050838088989258,-1.8550978908934534,4.168104610443115,0.265869761104248,1.3555541038513184,-0.012433830891744444,1.0,0.4757443689677083,0.4942115301694897,0.34643871212532534,-0.5813632478464829,0.5330866064406087,-0.014900664241957967,0.6145025746831113
5.2,-0.22714055412056414,0.18643601873066293,-0.34467693542259714,0.002870854574503932,0.039833943011979026,0.13943016031097508,-0.09475969577472307,-0.1373106850117114,0.9859849045967326,-1.8039430626574948,-1.8563930133421411,4.16785192489624,0.26580957685020723,1.3558055188792848,-0.012482262442953376,1.0,0.47596454140693967,0.4944032901158245,0.3463818877293944,-0.5813504902854808,0.5330954748311639,-0.014917882144940737,0.6145065328795756
5.300000000000001,-0.43253679368922765,0.04765177232557455,-0.22787972907971532,0.002715314210989684,0.047456998321097774,0.1382329423921081,-0.09453061605279024,-0.1370844572034996,0.9860384257054007,-1.8027371087969366,-1.8576276386838975,4.167649477089631,0.26579682409252925,1.3560094833374023,-0.012534849556524374,1.0,0.4764352777886928,0.49491345873129194,0.34605439743805233,-0.5814197303689265,0.5331243681387856,-0.014917470856087477,0.614415961948909
5.4,-0.054464874799509955,0.18409256742534735,-0.21654601810127852,0.006926406921759238,0.03777113123576254,0.1391192844646315,-0.09458533496362995,-0.13718097957835715,0.9860196394820651,-1.8014847017808284,-1.8587192771303092,4.16741306228925,0.2657065219372892,1.3562498092651367,-0.012582908500818297,1.0,0.47661469595712863,0.4951168091866324,0.3459738491579865,-0.5814271095632927,0.5331232177611938,-0.014914036695428817,0.6144100605119299
5.5,-0.1846659473157597,0.34781472726107304,-0.19557193573536027,0.007630064666770621,0.040693261760870174,0.13768558565755756,-0.09510801178023429,-0.13778843415987213,0.9858847131518879,-1.8000801293972306,-1.8599102995086396,4.1671929359436035,0.26565011420194884,1.3564534187316895,-0.012623138750067256,1.0,0.4770908582050922,0.49560156039099357,0.3458761892270527,-0.5813950089635482,0.5331062299693403,-0.014896913535588146,0.6144555908178115
5.6000000000000005,0.03194123514600125,0.06784734854412244,-0.11893942329109003,0.009490329636201653,0.03700539821657866,0.13791077327798235,-0.09513405616983774,-0.13782167338384135,0.985877622269713,-1.7989136625512612,-1.861071322378643,4.167010392988957,0.26558224737133784,1.3566570281982422,-0.012717402432267572,1.0,0.4773495371903309,0.49584039316890827,0.34584274640780416,-0.5813563550325016,0.5331172491553667,-0.014893078077058294,0.6144826957219618
5.7,-0.3703896421633509,0.25621703874996243,-0.1322723360456164,0.014211494359583833,0.036082718805563865,0.13442149265338843,-0.09506233702089102,-0.13774187664360155,0.9858956961675029,-1.79771404919559,-1.862315491271725,4.166763153468093,0.2655465766858963,1.356907725987369,-0.012769838767683376,1.0,0.47764509524842824,0.49616790014032325,0.3457799601868778,-0.5813503862175677,0.5330854765343704,-0.014889720163200426,0.6145159879012664
5.800000000000001,-0.24049164876840579,0.12450492425776694,-0.09923058567317322,0.0066884152812503,0.04218391365348897,0.1323301872372006,-0.09534277282627887,-0.1380503836623448,0.9858253830992852,-1.796574592590332,-1.8635002961545897,4.166544381198437,0.26548788982402355,1.3570609478941928,-0.0127766188740635,1.0,0.4780857810482211,0.49663772811805407,0.34552759873117794,-0.5813952978529959,0.53310122935863,-0.014899149892998582,0.6144596017829077
5.9,-0.061321820046461306,0.2905173456613384,-0.07622963080837279,0.010675613430849155,0.03848359309030446,0.13708755803474895,-0.09557429991548845,-0.13831389062563915,0.9857661082634754,-1.7951242678606292,-1.8647504447106908,4.166377544403076,0.2654705983875657,1.3572799297850093,-0.012875606766793665,1.0,0.47828448167917087,0.4968200864253104,0.3454072934585671,-0.5814061213540433,0.5331222203481877,-0.014916820336655716,0.6144307191979501
6.0,-0.31140080854952773,0.28474442009209905,-0.1316743760436886,0.014240624398213752,0.0418856589050429,0.13271515658193098,-0.0955409398863867,-0.13830454805854142,0.9857706526776286,-1.7936926897640073,-1.8659960670329094,4.166161288785781,0.2653659917540428,1.3574476600607344,-0.012880363002260127,1.0,0.47875611347702707,0.497357863976828,0.34528805088895126,-0.5813822996455777,0.5331139907197342,-0.014894199710367251,0.6144609486148706
6.1000000000000005,-0.14993316164777692,0.5008503034409765,-0.10308047675662577,0.01837542108790166,0.0342077347451609,0.12903533913105417,-0.09554586961761129,-0.13831559702452983,0.9857686229961203,-1.7926018232988887,-1.867079084052207,4.1659203177232005,0.26528610091079907,1.35764974436111,-0.012971852746844816,1.0,0.47895448357762094,0.4976053295013324,0.3452374483139616,-0.5813805390845337,0.5330897328325627,-0.014883957686868494,0.6144839081097726
6.2,-0.06103944806268308,0.06083098978502316,-0.2306042868244289,0.006286334196219009,0.03462792711559042,0.13278422128972342,-0.09563651517798472,-0.13837229467442747,0.9857518764802484,-1.7915192870344632,-1.8681915769504545,4.165711356851343,0.2652695056859197,1.3578474316354971,-0.013012073146074173,1.0,0.47929662004242995,0.4979111507167024,0.34508589719155236,-0.5813869711453351,0.5331105265930204,-0.014903427408221067,0.6144593103450005
6.300000000000001,-0.2773773204156152,0.2908035675488419,-0.050710946923177264,0.014174546816698145,0.03660461962765144,0.1366734437278593,-0.09570829836180728,-0.13844601635184312,0.9857345543464866,-1.7900961503068857,-1.8694159757844986,4.165515422821045,0.26517407476391597,1.3580603958544504,-0.013103478813576727,1.0,0.4797580865216506,0.4983656011922814,0.34486967267679897,-0.5813997241931685,0.533132293800366,-0.014924163195255545,0.6144278536721697
6.4,0.0739608364804552,0.20693665939602784,-0.04541848217114925,0.0007297347067378255,0.0344173279370219,0.1357158438151407,-0.0957754020055077,-0.13852396149598875,0.9857170894085026,-1.7887067794799805,-1.8708432786839155,4.165335178375244,0.2650700328315949,1.3582734408336097,-0.013137462885035376,1.0,0.4799109585975534,0.4985525991692434,0.3448337293881754,-0.5814107879921042,0.5331181894463334,-0.014923706421132473,0.6144296336233465
6.5,-0.11940432870853199,0.4757631023838151,-0.12740329248821905,0.012927976135503958,0.043392483480860895,0.13892259500545923,-0.09595023866671552,-0.13872178359404716,0.9856722393722177,-1.7874789589220057,-1.871951684199231,4.165133060705466,0.2650071817585449,1.3584367890696707,-0.013160483818830436,1.0,0.4803189960729127,0.4990314046806559,0.34463750475614474,-0.5814176683503899,0.5331267687270121,-0.014905436507647968,0.6144161223138659
6.6000000000000005,0.0008339034175866141,0.4842653729245142,0.1251352254717071,0.0039690539503309885,0.03960521522827352,0.13241440362243806,-0.09595612399978053,-0.13873671579497743,0.9856694967054377,-1.786397175992058,-1.8729736861283348,4.164922335249447,0.2648876971582378,1.3586832220810745,-0.013236064495293215,1.0,0.48078707484214,0.499514207606332,0.34448743866593035,-0.581409409651207,0.5331288646057349,-0.014912493956690455,0.6144219475386818
6.7,-0.23041305181719662,0.3595324755053533,-0.18780407267334032,0.009685257834655795,0.03894882397316806,0.13381503597572722,-0.095457614466292,-0.13820343471370447,0.9857928257045273,-1.7850646429353634,-1.874066505220369,4.164675235748291,0.2648497842661853,1.358885798790869,-0.01331933059463669,1.0,0.4809596503882284,0.4996787977406506,0.3444186147210289,-0.58142823245185,0.5331172281497539,-0.014914946643743252,0.614414172952134
6.800000000000001,-0.16633628027901004,0.29630578381087413,-0.013198278252364538,0.009362589003942304,0.038093295950332215,0.13754358800632155,-0.09531141909701302,-0.13807381265340732,0.9858252149916747,-1.7835712438368592,-1.8753375403457584,4.164484580556743,0.2646942969110306,1.3591384089142227,-0.01336688142738522,1.0,0.4813815063709227,0.5001222863469981,0.34438259440086927,-0.5813914584333013,0.5330894680834789,-0.014884121183287111,0.6144738025464337
6.9,-0.22829201756241757,0.2636425270810875,-0.10185349751820261,0.007193619324050514,0.045092016510008076,0.13294853065096646,-0.0953295722997235,-0.13812183258116134,0.9858167196635824,-1.7823786809609763,-1.876682848999084,4.164254721390502,0.26465643631705865,1.3593155193090638,-0.013434787432415383,1.0,0.4815700648640924,0.5003339115181362,0.34441043598779464,-0.5813519393008584,0.5330658527523989,-0.014865805505799162,0.6145321205007533
7.0,-0.3222221367227699,0.16346374640431865,-0.3591971246549208,0.012115261916866508,0.03253115684758924,0.1263525899158346,-0.0955171460196044,-0.13833437743607427,0.9857687605534043,-1.7812471389770508,-1.877816673847591,4.164028644561768,0.2646303657412295,1.359618673459625,-0.013463364683581508,1.0,0.48200049874143724,0.5007780650250581,0.344098823430686,-0.5814130607686886,0.5331026702220545,-0.014890466643317559,0.6144417545812172
7.1000000000000005,-0.06980915489197209,0.18100932959452148,-0.1024404382018882,-0.008789529977324819,0.0321694858841676,0.13367605264805624,-0.09570691740874063,-0.1385785418247175,0.9857160412435582,-1.780991930639796,-1.8779744470209498,4.163978849516661,0.26462536723420615,1.3596688036307252,-0.013497683108039485,1.0,0.48241719230246294,0.5012155417533087,0.3438785733151043,-0.5814487778824168,0.5331039493878638,-0.014882931501639895,0.6144070281141187
7.2,-0.27907545748124774,0.19718509674443874,-0.12228725919116082,0.011140732431913738,0.04543053345922531,0.13361320735385165,-0.09577403095943028,-0.13867007720356755,0.9856966158001723,-1.7809756569382,-1.8779535258813167,4.16394812285934,0.2646802631798949,1.3596561273934153,-0.013454532717532799,1.0,0.4824680273077993,0.5012488721482465,0.3439120394859217,-0.5814199734869331,0.5330889406704692,-0.014872781647440457,0.6144475536051538
7.300000000000001,-0.3787945295403559,0.50953389415788,-0.15435058805210677,0.015470722274906862,0.04702329171229448,0.1310687632509475,-0.09544906628687949,-0.1382440375229882,0.9857878950810586,-1.7809886154550791,-1.8779997294976383,4.163955837839846,0.2646910325214885,1.3596208986103493,-0.013552001625395388,1.0,0.4824782141058759,0.5012399795047205,0.3439013336360876,-0.581415319855561,0.5330920993841545,-0.014874649984419208,0.6144491713716372
7.4,-0.3285060398636598,0.11761570374451387,-0.07657324048446507,0.006944976642123168,0.039989601596756616,0.13098748281676592,-0.0952049452865589,-0.13793335963995107,0.9858551629278539,-1.7808666928354309,-1.8780384643070585,4.16394567489624,0.2646724420734863,1.3596297587692348,-0.013492275498270262,1.0,0.48249786449732934,0.5012315038572379,0.3439035335638156,-0.5814004479242031,0.5331052882066105,-0.01489121549153534,0.6144513996573425
7.5,-0.10880323691158506,0.4203049757671954,-0.0634013986021273,0.013160651279809372,0.03818009034694369,0.1348813802723344,-0.09525750034578949,-0.13804603070400445,0.985834314816359,-1.7809040454717784,-1.8780642960008782,4.163904983263749,0.2646785721819528,1.3596434593200684,-0.013504965330625942,1.0,0.4824909395293698,0.5012578645956826,0.3439291347310076,-0.5813989044691847,0.5330937541176267,-0.014864717174331068,0.6144635085878855
7.6000000000000005,-0.11947472838873116,0.3268978437099739,-0.2236262214542759,0.008105723849866638,0.03766456984595072,0.13290750940131227,-0.0953031390112517,-0.13809906434194824,0.985822478721037,-1.780869483947754,-1.8780414879155891,4.163959235902045,0.26469286285257476,1.3596388750015551,-0.013500062315626614,1.0,0.4825106999975431,0.5012616984448284,0.3438931895980473,-0.5814187345027875,0.5330915562750479,-0.014890920070405572,0.6144460173985031
7.7,-0.3606238204159924,0.28822575881825574,-0.30111425146119075,0.007155276203843363,0.04474981042423697,0.13333986954526358,-0.09517163877334006,-0.13793035472638643,0.985858789016555,-1.7808889076343166,-1.8780646841417346,4.163912364708477,0.2646935980085645,1.35961188138082,-0.013487056674039884,1.0,0.4825170252048743,0.5012629716589105,0.34390442699727075,-0.5814105324666263,0.5330905582092873,-0.014896190192380997,0.6144545166265255
7.800000000000001,-0.2822913350780033,0.4800151991328961,-0.3493222866394144,0.012831291473921744,0.04277518396853371,0.1286953630967113,-0.09531007239712526,-0.13807221102720843,0.9858255124239104,-1.7808869507905798,-1.8780641626070993,4.163926995396355,0.2646890485233081,1.3596378667655413,-0.013477150593892873,1.0,0.4825173406851386,0.5012551354169271,0.34392693971637417,-0.581395086171823,0.5330951655195718,-0.014884072331598937,0.6144654283731077
7.9,-0.24873925275472866,0.055857947356052234,-0.11969695412105916,0.004369456110238885,0.046825094017477836,0.1306359105894664,-0.09554407343744871,-0.13832468494447725,0.9857675221980366,-1.7808957285141467,-1.8780367960976898,4.1639118379807,0.2646724420734863,1.3596373009248617,-0.013481678825662459,1.0,0.482511928318902,0.5012505193339272,0.3439155637342291,-0.5813954396341877,0.5331038930176769,-0.014888921879697717,0.6144574045670109
8.0,-0.12512043235879006,0.18566457558668786,-0.09817475300073845,0.004401096440444664,0.0378766050594955,0.1347824354917391,-0.09546637118475296,-0.13822576364250297,0.985788924562388,-1.780873589638825,-1.8780695400633753,4.163931980596105,0.26465304876635326,1.3596434593200684,-0.01350276582298368,1.222284367575423,0.48251908938566235,0.501258439114474,0.3438990104972783,-0.5814035279013188,0.5330986912311826,-0.014902905188184075,0.614453925504958
8.1,-0.19041232795640736,0.35831615926577876,-0.22490983999767677,0.009018054197222496,0.03995950712104448,0.1273382008925477,-0.09499506879667793,-0.1376657208828942,0.985912689356359,-1.7808902580621433,-1.8780894134168409,4.163955321165939,0.2646724420734863,1.3596186637878418,-0.013479849176915224,2.0,0.4825235427377621,0.5012527177337359,0.34389017873512034,-0.5814067860209002,0.5331047618143946,-0.014907902209018036,0.6144454544964841
8.200000000000001,-0.3553497297314931,0.32770195822763637,-0.3154125883315963,0.008492272322671218,0.0457462584106561,0.12901384787262363,-0.09482498809796888,-0.1374771325472244,0.985955498241779,-1.7808964353158654,-1.878086644934145,4.163914700618303,0.2646645356321334,1.3596287260650797,-0.01349688813770567,2.0,0.4825321601610974,0.5012489385729826,0.34390150041455664,-0.5813908793763121,0.5331134564213986,-0.014907806099365581,0.6144529642517581
8.3,-0.03894966984519227,0.15222297092777293,-0.1658212083551436,0.0012738578833961355,0.038620908260594056,0.12608624523847942,-0.09492542036742518,-0.13761124236299777,0.9859271283018531,-1.7809115923925105,-1.8780576191344203,4.163892618255847,0.26469120455649287,1.3596114569020534,-0.013469466870946242,2.0,0.48251440181590566,0.5012623634943482,0.3438877266729216,-0.5814201841243714,0.5330956335877945,-0.01490939528453471,0.6144406601736734
8.4,-0.1706449586704787,0.17247989150165088,-0.24634023224187296,0.0031609190292215474,0.03864814481813136,0.13214210103480473,-0.09505747669033408,-0.13775911258585627,0.9858937494884107,-1.7808626080093923,-1.8780710427454264,4.163911831521302,0.26466449224624417,1.359631061553955,-0.01346979781837306,2.0,0.4825145575203337,0.5012588702481721,0.3439088128077588,-0.58140413408184,0.5330917361138184,-0.014907093637971174,0.6144592845087211
8.5,-0.4301801623897461,0.38357837047111754,-0.1140559576985833,0.011614731095834165,0.04112586806906893,0.12653840157419258,-0.09488164437855644,-0.13753967027283776,0.985941237231878,-1.7808765532335171,-1.8780383343661284,4.1638932493248655,0.26466308236711855,1.3596186637878418,-0.013477150593892873,2.0,0.4825212510493047,0.5012514524140806,0.3439185844467777,-0.581387410593721,0.5331061006243349,-0.014888988520929064,0.6144630845714562
8.6,-0.2990776379000875,0.32118871264153626,-0.019701079946512726,0.009680618326632733,0.041395469066239005,0.12821893939554238,-0.09457893690495563,-0.13716885425024292,0.986022061206358,-1.7808809280395508,-1.8780623341946616,4.1639071198380995,0.264679108237572,1.3596294269997382,-0.013464310543212324,2.0,0.4825351037616411,0.5012446906708374,0.3439129103669649,-0.5813959644069499,0.5331057883356327,-0.014912760661774445,0.6144546855414166
8.700000000000001,-0.38970630135028783,0.12289939635312236,-0.27359813782793496,-0.0016956926153724665,0.04317541670626715,0.13010346357355862,-0.09480454267959444,-0.13742822699236507,0.9859642286292747,-1.7808942794799805,-1.8780539393910674,4.1639318297044285,0.2646805733766137,1.359631061553955,-0.013511465955059804,2.0,0.48253949511172745,0.5012339741111672,0.34388922793517473,-0.5813945342821344,0.5331164790465445,-0.014915114052231138,0.6144467061093942
8.8,-0.3932232193075045,0.30569334658305675,-0.23115745943583504,0.009894617885520516,0.04982400035281815,0.12998040389030163,-0.09503426753294214,-0.13769329258359644,0.9859051780770525,-1.7808745628106049,-1.878079790313761,4.16391199279796,0.26469372640565336,1.359607219696045,-0.013514650886470312,2.0,0.4825273679634812,0.5012449071750603,0.3439193000495133,-0.5813728556413995,0.5331181098977191,-0.014882283120159144,0.6144665989877557
8.9,-0.0936452387366857,0.3112341240703289,-0.1946767065667278,0.0008201569092645077,0.04747489669147294,0.1359992438268388,-0.09530043724638758,-0.13800872746951873,0.9858353511020712,-1.7808714864899664,-1.8780695400633753,4.163901400628881,0.2646890358906905,1.3596320393164196,-0.013496521801618649,2.0,0.4825218984379044,0.5012554344362492,0.3438855267859039,-0.581406384795188,0.5331107747220112,-0.01490199166351842,0.614440760561299
9.0,-0.05630320517292085,-0.05914480301081502,-0.25371540600054565,-0.011899715991076655,0.04254260839614656,0.13299039577659869,-0.09540254732063067,-0.13812085390933887,0.9858098110055852,-1.7808741331750815,-1.8780695400633753,4.16392183303833,0.26468127643785755,1.3596154838328927,-0.013458745668119347,2.0,0.4825317867312661,0.501249312535205,0.3438781344472637,-0.5814121408895935,0.5331149286890277,-0.014913723522990882,0.6144314250473785
9.1,-0.17804611387838018,0.25504351631480987,-0.24449035359464033,-0.004143526965648025,0.04584330901899772,0.1320454725126396,-0.09541324024981543,-0.13812924054199152,0.9858076003962046,-1.7808917193543197,-1.8780910960948025,4.163935654389669,0.2646746364669099,1.359626489900989,-0.013476750230411763,2.0,0.4825288580523604,0.5012445194113346,0.3439031704509157,-0.5813941622603707,0.5331172862198166,-0.01490196723050613,0.6144466767717448
9.200000000000001,-0.20853662743703444,0.33035513273487055,-0.33415034748851397,-0.0009929778141041907,0.04952128349940082,0.1368556442565954,-0.09543851091318384,-0.1381624444061071,0.9858005013126901,-1.780885312328106,-1.8781097149479138,4.163914003951624,0.26467198595349006,1.3596554009661854,-0.013509298375667202,2.0,0.4825215580887091,0.5012572106871953,0.3438821548799779,-0.5814035057743734,0.5331146497891358,-0.014896676777725847,0.6144402515090098
9.3,-0.49952476691058495,-0.2261858142015971,0.13635134181723318,-0.002003653798864722,0.06906276315110628,0.12979087827001146,-0.09564690223092075,-0.1384039532143815,0.9857463492081665,-1.780840697047491,-1.8780933819212855,4.163900540796443,0.2646906232736522,1.3596434593200684,-0.013477150593892873,2.0,0.482536780636966,0.5012299474083185,0.34389608376932757,-0.5814003035699019,0.5331134500887549,-0.014914874223979593,0.6144438809770782
9.4,0.045645716429100626,0.1947699602223408,-0.2569104163511823,-0.007107369205391927,0.05158493894490279,0.14045816035117845,-0.09593790678876006,-0.1387385778957202,0.9856710835591419,-1.7808716054797145,-1.8780770411340793,4.16389799118042,0.26467668513740744,1.3596093412280055,-0.013472730735641673,2.0,0.4825302365558951,0.5012490546549832,0.34390172118546947,-0.581396418736332,0.5330984663746484,-0.014913255140705793,0.6144605961741354
9.5,-0.1443956985280676,0.011736486369493426,-0.14280558414515376,-0.007215545306325804,0.053170550064120414,0.1347097089994713,-0.09552773400511712,-0.13826394345715068,0.9857775321629945,-1.7808831483273078,-1.8781037179916245,4.163901955979986,0.26465176993280826,1.359635026353521,-0.013512913380758107,2.0,0.4825217016941561,0.5012431019153037,0.34390130269010644,-0.5813917363150332,0.5331117072010406,-0.014904278122390358,0.6144537566680127
9.600000000000001,-0.24049532194757944,0.2756479811452648,-0.15640745408738305,-0.0067092287322437025,0.05585993306890857,0.14021957524469114,-0.09563074062211895,-0.13840245419083702,0.9857481194765857,-1.7808409140940462,-1.8780807671674766,4.1639453569905145,0.26469763622014625,1.3596260156524316,-0.013522687278079152,2.0,0.4825227201959451,0.5012487198999902,0.34389538207674564,-0.5813995671170736,0.5331126999724901,-0.014901628638108122,0.6144455500270577
9.700000000000001,-0.5876021257476591,0.15290019428703594,-0.22584441837398656,-0.00017567323681443557,0.03464579142630364,0.14184775219265963,-0.09590716242219535,-0.13872754707204168,0.9856756444537704,-1.7809016764781231,-1.8780979189862628,4.163903750506004,0.2646743099628651,1.3596453272094473,-0.013475204875789891,2.0,0.48251341764682343,0.5012748378674784,0.343917659076651,-0.5814024750278812,0.5330781511335025,-0.014901683031227598,0.6144727712912731
9.8,-1.3967120394681403,-0.46267939388084744,-0.2313217718388962,0.02988029213574805,-0.011612829012612444,0.1305908343995068,-0.0959916192818877,-0.1388067583492053,0.9856562752065686,-1.780894234843777,-1.8780558709842028,4.163920993926226,0.26469533025708003,1.359607219696045,-0.013496343099988635,2.0,0.4825256690438243,0.50125075329485,0.34388971171685007,-0.5814136590134508,0.5330976291465965,-0.014923791929960378,0.61444475369662
9.9,-2.312225096778055,-1.147877807227212,-0.1750169103128952,0.07152051741168969,-0.097620243640111,0.12114662470897605,-0.09600539680334755,-0.13880932009366917,0.9856545725264706,-1.7809036833725054,-1.8780857964157833,4.163931236930855,0.2647099382390713,1.3596208740037197,-0.013446933113257798,2.0,0.482524534939756,0.5012564697155949,0.34390922019354575,-0.581388688128704,0.5331041048456953,-0.014906634721612286,0.6144631794940454
10.0,-2.6001140995507126,-1.6373564207777633,-0.20393783976596735,0.11042559292532082,-0.15822784243965055,0.12239322679135012,-0.09577784623414276,-0.13858844403208848,0.9857077405200366,-1.7808555766565786,-1.8780788951596445,4.16392183303833,0.26469799872307326,1.359662169512607,-0.013501469288961232,2.0,0.4825295532521672,0.5012508602105274,0.3439288468827607,-0.5813929510677092,0.5330896862525378,-0.014909803118401123,0.61447157837521
10.100000000000001,-2.9877279918496877,-1.8539578450505867,0.0005789436677345657,0.13998454721518366,-0.20063700418143326,0.1116439848914442,-0.09583048217868519,-0.13868479346629978,0.9856889620694173,-1.7808332443237305,-1.8780814609923304,4.163904659549746,0.2646738313397438,1.359631061553955,-0.013516209723872664,2.0,0.48249536670482684,0.5012782942708932,0.34395074212342225,-0.5813990033961869,0.5330629054121556,-0.014874876515350707,0.6144899313838472
10.200000000000001,-2.9266137144410225,-2.240716250036732,0.06419691492832638,0.15003250304622703,-0.22751608603086146,0.11716366572980136,-0.09634212628208007,-0.1392594833436812,0.9855582128814266,-1.780869816460677,-1.8780695400633753,4.163939295902017,0.2646901346899766,1.359631061553955,-0.013483875955744492,2.0,0.48251456234096046,0.5012615230389975,0.3439254700998036,-0.58138240403568,0.5330953873597926,-0.014878235550801228,0.6144773766057634
10.3,-3.190130221761171,-2.1106459137914775,0.10491633919501131,0.15022144799010742,-0.2447094631636829,0.11860945493414721,-0.09638217507189291,-0.13930939460345126,0.9855472412003592,-1.7808612075128332,-1.8780644665395305,4.163940398431442,0.26468875674817416,1.3596381828552697,-0.013465229664937794,2.0,0.4825411503500316,0.5012325750121667,0.3439324139020013,-0.5813753004620984,0.5330982418634299,-0.014915908153383771,0.6144807077676925
10.4,-3.29598051632381,-1.7789888365466169,0.2497431191106316,0.1615604995159288,-0.24805791655031353,0.11749137140168431,-0.09642222386170575,-0.13935930586322132,0.9855362695192917,-1.7808395402126689,-1.878044341665192,4.16394567489624,0.26469648536437484,1.3596252153713695,-0.01349604939253041,2.0,0.4825061762756854,0.5012643785711619,0.3439175908829402,-0.5813934177566713,0.5330830709277329,-0.014892441940851054,0.6144772969382293
10.5,-3.2638312038148687,-1.750662192187422,-0.05000996595662354,0.14983606138972008,-0.24693593326874555,0.117161370790453,-0.09679732386467833,-0.13975658364393503,0.9854431568449,-1.7808762915597085,-1.8780718016593256,4.163928640650284,0.26467601159107035,1.3596265383620547,-0.013508276900915783,2.0,0.4825240088440785,0.501253407607345,0.3439389193701191,-0.5813781733694486,0.5330966115302683,-0.014896469973701504,0.6144798755751665
10.600000000000001,-2.877161013254528,-1.8265761213924754,-0.3647267127605623,0.1359018273839392,-0.24349763971562743,0.12435862126442701,-0.09691984559747599,-0.13988059368454073,0.9854135863598388,-1.780858039855957,-1.8780595370228537,4.163915190405984,0.264660044307373,1.3596172227365666,-0.013465229664937794,2.0,0.482517186038818,0.5012506541928724,0.34392937128165946,-0.5813914612251269,0.5330906579204263,-0.014908028513288443,0.6144721880918013
10.700000000000001,-2.737427491258196,-1.7274720044585021,-0.3220276818298573,0.1419203306475993,-0.23589527272089594,0.12613103096798559,-0.09676833301923528,-0.13970827144795436,0.9854529346803698,-1.780884294392094,-1.8780506594856894,4.16389799118042,0.2646724420734863,1.3595902134278302,-0.013511070335005993,2.0,0.4825253313214566,0.5012616756725802,0.3439292711280479,-0.5813842636010713,0.5331016492610896,-0.014893652830819091,0.6144698110546204
10.8,-2.8711356725732027,-1.676264631909063,-0.16068216437658547,0.13191636211445829,-0.2427010883899513,0.12061267912968458,-0.09646870842418258,-0.13937659645166117,0.9855291672306629,-1.7808418230944336,-1.8780588711413204,4.16391551002912,0.26465449646790445,1.3596255137144866,-0.013525311146871388,2.0,0.4825205606224741,0.5012652595149671,0.3439151416173235,-0.581393560363136,0.5330993855023636,-0.014910678009080221,0.6144625658464385
10.9,-2.995467505368182,-1.7104887646646216,-0.2831707967427652,0.12752550522234593,-0.2444310881924416,0.12422730530342287,-0.0961650247023015,-0.13904055426710044,0.9856064106224109,-1.780858039855957,-1.8780578538447898,4.163924211985472,0.2646724420734863,1.3596284843612187,-0.013450830666043854,2.0,0.482512706039333,0.5012740162404933,0.34391042152595575,-0.5814010601121318,0.5331012520840309,-0.014894391397331692,0.6144542451898524
11.0,-2.7738818129304295,-1.829796702400823,-0.3318001746577848,0.13996228086275686,-0.2475860256487017,0.1204386443491422,-0.0957331369317324,-0.13852700614263605,0.9857206427194999,-1.7808809280395508,-1.8780764597846982,4.163930871321648,0.26466868249408093,1.3596186637878418,-0.013491266825391302,2.0,0.4825098306431543,0.5012595995932887,0.3439009931034544,-0.5814079146772609,0.533096859833647,-0.014904553117583772,0.6144513236070934
11.100000000000001,-3.0426381070559487,-1.6183196284349808,-0.6994624776870962,0.14695919925537057,-0.2446088955676126,0.12571116154181275,-0.09557814856138819,-0.1383414567777942,0.9857618470332625,-1.7808535035659026,-1.8780385025786501,4.163933277130127,0.26468388616528316,1.3596216109496748,-0.013498737474337852,2.0,0.48252463031360054,0.5012486803343822,0.3439241125867912,-0.5813974621989961,0.5331002302211786,-0.014912325785949329,0.6144581011154032
11.200000000000001,-2.610894798451367,-1.6652682585478742,-0.6593053296752036,0.1618012018998096,-0.22734865427361525,0.1247927013537711,-0.09576185037647517,-0.1385583011133465,0.9857135784142673,-1.7808665133159156,-1.8780757288797052,4.16392733586645,0.2646508647257513,1.359610417747083,-0.013512913380758107,2.0,0.482521835414212,0.5012519325350197,0.3439078012800557,-0.5813910261759221,0.5331074083560039,-0.014891353827773084,0.614458471679925
11.3,-2.6194382851084983,-1.2721270328231782,-0.210704419944222,0.14198005542818976,-0.20966041642801414,0.12081761042897926,-0.09631941858193348,-0.13920657141268036,0.9855676884979728,-1.7808489989121679,-1.8780583147325052,4.163912792094541,0.2646762761965924,1.3596122262543942,-0.013472839633628556,2.0,0.48252852061658175,0.5012568234619983,0.343902055528619,-0.5814053340948491,0.533100505788177,-0.014901022420860548,0.6144506878059944
11.4,-2.4318655404478458,-1.2572684510390228,0.419142228131258,0.12021117562906734,-0.20216234159219734,0.12314959770171244,-0.09674395991911017,-0.13968525703238266,0.985458565988296,-1.7808744557142084,-1.8780576191344203,4.163902771725088,0.26464346887735785,1.3596237951260601,-0.013482026749453986,2.0,0.4825166013412372,0.5012551992419335,0.34392036184957786,-0.5813877875361821,0.5331082064100401,-0.014881990770418985,0.6144610704615573
11.5,-2.5787574257728174,-1.0366276452594323,0.5535979454379703,0.10165414531615344,-0.18830310244787848,0.12603187295461585,-0.09697001554399134,-0.1399142306871791,0.9854038833348865,-1.7808717958993996,-1.8780838692752946,4.163933277130127,0.2646476465412597,1.3596211684021247,-0.013515581683695967,2.0,0.4825242846575324,0.5012499556098605,0.343916767417847,-0.5813868206017558,0.5331059385627538,-0.014907439042368908,0.6144633360591218
11.600000000000001,-2.3746194746795464,-0.5013247046100957,0.5774976181996307,0.08878489113815669,-0.1866082695761409,0.13610229456547515,-0.09713036981598615,-0.1400955436234242,0.9853623051410968,-1.7808604247529316,-1.8780645715280115,4.1639481355916255,0.2646724420734863,1.359614771869798,-0.013465730074392324,2.0,0.48251661800721024,0.5012653041889622,0.34389727258552794,-0.5814166144852156,0.5330951909621278,-0.014913216712801512,0.6144443292446276
11.700000000000001,-2.2168709460907885,-0.4661488179312206,0.687553706415518,0.06718968916753809,-0.18428610030371806,0.13700252694086537,-0.09728571612751237,-0.14027322371218712,0.9853217258097787,-1.7808913804607256,-1.8780747168834735,4.16389799118042,0.26465735236092197,1.359609704569692,-0.013474562183843783,2.0,0.48251912135804964,0.5012516002006387,0.34389155702798674,-0.5813974267301101,0.5331156864602224,-0.01490432689611234,0.6144449186716625
11.8,-2.1390122155000735,-0.24946106004748464,0.9704263325532212,0.05114855229048007,-0.18521757560345606,0.13793447495496686,-0.09719853524829286,-0.14016071593824952,0.9853463357556912,-1.7808770218630734,-1.878085272260893,4.1639136951706694,0.2646639786911188,1.3596509972353878,-0.013481505400259832,2.0,0.4825403389940355,0.501243206910797,0.34388627762724316,-0.5813942470530207,0.5331263873125996,-0.014911702809211124,0.6144384637732221
11.9,-2.3546349972063236,-0.030839219677520836,0.8808293468451109,0.03460763996352085,-0.18126245108795203,0.14104222041531045,-0.09701460799517667,-0.13999030934978662,0.9853886632791072,-1.7808750447306665,-1.8781003258426192,4.163904828163621,0.26463727888809935,1.3596097862112353,-0.013493341990858183,2.0,0.48253549311816524,0.5012391174982406,0.3439061706723726,-0.5813912204622287,0.5331075278839748,-0.01491312018236318,0.6144576562541177
12.0,-2.1499603520660333,0.08278755779283091,1.185840065159681,0.02272512748168669,-0.17568333920071352,0.1427721479557743,-0.09672248727658536,-0.13977302960325788,0.9854482443859395,-1.7808942794799805,-1.8780695400633753,4.163912032565824,0.26466879131328125,1.3596478827191631,-0.013518290454169387,2.260399442682128,0.4824997016122354,0.5012785397557737,0.34391301689310155,-0.5814117343707116,0.5330859404137054,-0.014870589255434415,0.6144580057615594
12.100000000000001,-2.3385867735150994,0.2884250597398469,1.4056092846673796,0.026767083382194624,-0.1786845793865506,0.14031511784347908,-0.09688849200458513,-0.1398498322943504,0.9854210465972307,-1.780900296493726,-1.878069106703856,4.163933320607766,0.2646536200773663,1.3596489733533974,-0.013494381948046466,3.0,0.48253180581045396,0.5012431424503728,0.3438943284421704,-0.5814075695652883,0.5331018268707692,-0.014913402289147951,0.6144471260176865
12.200000000000001,-2.3245095801242495,0.5242073380011237,1.757994444240785,0.004225785268773537,-0.17276655296749824,0.13981803260595776,-0.09733373755766594,-0.14028198020364244,0.9853156145461545,-1.7816866884299845,-1.8775404534026816,4.163955328334609,0.26465387776893123,1.3594742876799732,-0.013444026583705202,3.0,0.4825355166182352,0.5012558366919381,0.34388062775342226,-0.5813975679853202,0.5331193443467919,-0.01491588261113624,0.6144413308607524
12.3,-1.8754428122791498,0.7040882407674838,2.2047872884783426,-0.047738921957608184,-0.1613241742546773,0.13693497762705137,-0.09741550731498778,-0.14031992539898827,0.9853021013207207,-1.782797852071493,-1.876278005873409,4.164085168594322,0.26481958449408205,1.3593365241421116,-0.0134344548389265,3.0,0.48233415975107463,0.5009620541379358,0.34387324266934527,-0.5814438648488844,0.5331565691880037,-0.014962138528831747,0.6143640933289588
12.4,-1.6752214594072283,0.8533339225692509,2.6150479478949054,-0.08192944951418524,-0.1332031496363397,0.11704683617411551,-0.09688773256414232,-0.13968363067025708,0.9854446388450503,-1.7841407403916845,-1.8749278681724835,4.164349894869411,0.2647932828376995,1.3591326287866476,-0.013386689470819462,3.0,0.48219421802359835,0.5007780532357832,0.34399109433662195,-0.5813962907129749,0.5331473587154644,-0.014949270600827286,0.6144174202839807
12.5,-1.8950598832219414,0.7337490687653112,2.5209185417573843,-0.0755041951670993,-0.1302225230637686,0.1024294832168354,-0.09688963690605042,-0.13978436896283683,0.985430212226767,-1.7854547988515734,-1.8737597676347155,4.164704400066627,0.26491522943869716,1.3589274375035492,-0.0133277129682735,3.0,0.4817951067266027,0.500398420579596,0.3442114002280154,-0.5813719298575519,0.5331255794209339,-0.014912070403219279,0.6144602720250422
12.600000000000001,-1.7535669159468832,0.8416788590465377,2.773071367882394,-0.07778796945397934,-0.1351785242950349,0.06465708458644828,-0.09688631704929634,-0.13985436194218664,0.9854206156758324,-1.7866276151771243,-1.872773110176939,4.16484569860347,0.264927150262512,1.3586941989618149,-0.013255376588209272,3.0,0.48128322435663573,0.4999630569622397,0.34436984109510965,-0.5814110521016407,0.5330947334468902,-0.01489170081222778,0.614450511361307
12.700000000000001,-1.5880285031560004,1.041216198545535,3.0523234567879025,-0.08357680795065972,-0.12903266556487128,0.05961636378511425,-0.0969067050217645,-0.13987070566588214,0.9854162753457355,-1.7877574901934408,-1.871623938341099,4.165082472777288,0.2650434213825683,1.3584904670715332,-0.013192579169847491,3.0,0.4811119702638469,0.4997724169377889,0.3443613094844233,-0.5814285516177686,0.5331251635523544,-0.014913279999258303,0.6144070258636396
12.8,-1.5659646813602883,1.0172445889181376,3.266282835680174,-0.07982099558992724,-0.13030562377242613,0.03276702562796549,-0.09711890170228496,-0.14009918823712847,0.9853629426222402,-1.7891637748148987,-1.8702834581913157,4.1653587060246275,0.26510032763302593,1.3582619399484663,-0.01310797921788426,3.0,0.48079822404412287,0.4994549332260669,0.3445067649491506,-0.5814182150681173,0.5331181394931719,-0.014910090742532509,0.614422979489206
12.9,-1.9736975285069354,0.9884854237825706,3.5153870846563446,-0.08055902282016256,-0.13871327633118213,0.015519204015429744,-0.09720512748715512,-0.14020305542183029,0.9853396686423521,-1.7905495267530103,-1.8689129571651695,4.165532633154242,0.26514870024541554,1.358076781859985,-0.013099826057136874,3.0,0.4802767353397686,0.49892587723545134,0.34478821665905574,-0.5813665698093153,0.5331000620061905,-0.014886454981475705,0.6144881031030879
13.0,-2.008512134015068,0.40060284500582055,3.4426983885234166,-0.0647283875938366,-0.1578257574208707,-0.0026258253262631077,-0.09699234628405852,-0.1399173518778427,0.985401190326334,-1.7918053219721797,-1.8678446585855228,4.16576558930815,0.26524374762720887,1.3578363710794843,-0.01303087944576063,3.0,0.48005564095932607,0.49867826013480654,0.3448768336494147,-0.5813714936796187,0.5330958599176779,-0.01488738339816498,0.614487067635208
13.100000000000001,-1.9524903338193236,0.7063468673350449,3.559188513746943,-0.06450107861130665,-0.15635959340369235,-0.01785280748854589,-0.09692068167350193,-0.13983180962270406,0.985420382474368,-1.7928847533005934,-1.8667861790685962,4.1659815582862265,0.265302380639254,1.3576275752140925,-0.012953363315497433,3.0,0.4796441445886681,0.4982313369519003,0.3449609011882754,-0.5813929570093335,0.5331194417773115,-0.014919752812439496,0.6144455153347663
13.200000000000001,-1.8942616218650905,0.6884942795827617,3.7800481702945197,-0.06660609094318765,-0.16024630440819138,-0.02736978539906477,-0.09722604155679947,-0.1402691280732348,0.9853281701583498,-1.7941453055518735,-1.8656122269111934,4.166210134344259,0.26536065737005926,1.357407860552889,-0.012901997872574995,3.0,0.47948861065966814,0.4981311795328798,0.3450021165340923,-0.5814145385765792,0.5330999526841562,-0.014901034075152204,0.6144424578131178
13.3,-2.091695165340869,0.5054077232614825,3.9222086191400796,-0.05434811350144758,-0.1721885759536211,-0.04101076814487647,-0.09720535040683322,-0.14021802818207105,0.9853375028393951,-1.7955381745758254,-1.8643078913720075,4.166454577538318,0.2654408890881229,1.357150985539596,-0.012824576922539611,3.0,0.47902737615078433,0.49767044722070247,0.34517713317021226,-0.5814055993102241,0.5330926565104586,-0.014901638471523392,0.6144572319016236
13.4,-2.1940872679015935,0.1941485529982151,4.138761109306481,-0.04313300662618341,-0.19118311599390952,-0.05533359383534185,-0.09711920023439052,-0.14006887190112421,0.9853672220107962,-1.7968921007702698,-1.8631043520992474,4.16669225692749,0.2654770820143711,1.35694664147631,-0.012781922017232716,3.0,0.47855995768904547,0.49714985147141744,0.3453505126392947,-0.5813947022090044,0.5331055350777724,-0.01491872179174397,0.6144559548518068
13.5,-2.1668830018964376,0.019699312985020034,4.436411100100342,-0.04386206579157396,-0.1992217118245025,-0.057145648022047045,-0.09700331912484501,-0.13998761757604908,0.9853901825270249,-1.7979590079559575,-1.8619635684661102,4.166920185089111,0.26552801838551476,1.3567205779904954,-0.012752452759216291,3.0,0.4783638145957146,0.4969354237568035,0.3453877054140843,-0.5814007214949583,0.5331376736759329,-0.014918185179576791,0.6144223870461628
13.600000000000001,-2.747258752726937,0.2132851514865934,4.561883155711273,-0.03094789325928622,-0.21190386470196784,-0.055307726068845764,-0.09692270109855809,-0.13994232099822237,0.9854045548770335,-1.7991295896438722,-1.8607981002254639,4.16715532360792,0.2655878116785086,1.3564911677365514,-0.012677573548950074,3.0,0.4779102727405473,0.4965380391594231,0.3456084030111442,-0.5814010155229952,0.5330755070412716,-0.014901111478830144,0.6144764599382282
13.700000000000001,-3.3162066995639585,-0.03878812706317664,4.556381329504572,-0.030338251005924414,-0.24251080033298433,-0.042194026589083465,-0.09693192950982385,-0.13994333940994824,0.9854035025176499,-1.8004681708994008,-1.8595918262581863,4.167354380827894,0.2656630357634144,1.3563452629425035,-0.01264165960320442,3.0,0.4777179923032564,0.4963344955923548,0.3457043736981581,-0.5813942132133065,0.5330713035845984,-0.014906011032028384,0.6144864237489798
13.8,-3.3755960610517213,-0.003538877936175057,4.611805652195752,-0.02474607380438533,-0.2599320575984121,-0.042105883765556365,-0.09707949151228135,-0.14010434063428262,0.9853660758757298,-1.801908659189406,-1.8584201702937997,4.167598297112766,0.2656832202861531,1.3560998882704403,-0.012574916409210664,3.0,0.4773775178928306,0.49598855683232496,0.34583623571248545,-0.581390415494233,0.5330661954764672,-0.014898045586596029,0.6144946413512389
13.9,-3.3008205803046606,0.12113749602864045,4.612612125600096,-0.027301191540457428,-0.2738927429401252,-0.041757445804989565,-0.09712929195854896,-0.14015821566739947,0.9853534857939663,-1.8030782806721897,-1.8572619512280426,4.167787843339024,0.265743232952794,1.3559285752576848,-0.0125286903453874,3.0,0.4770492306295231,0.4956193299314844,0.3458653720233561,-0.5814257219726572,0.5330993112607945,-0.014916437109913526,0.6144320581364444
14.0,-3.322362061617267,-0.10831140622688812,4.6208376277278145,-0.04146231347397402,-0.29669610714334016,-0.04431652565470357,-0.09686145982374257,-0.1398591443970292,0.9854223070408419,-1.8042919240832496,-1.8560197661436195,4.1679784999885,0.2657739359089355,1.355719418382488,-0.012462325492141596,3.0,0.47660165728968906,0.49516454172337043,0.3460170696436291,-0.5814240367645094,0.5331105477414728,-0.014913195174817814,0.6144239822540516
14.100000000000001,-3.5876056611607883,0.0071620033010644235,4.514611116251334,-0.04149612154260934,-0.3111331699742916,-0.04853586814741425,-0.09661851381380619,-0.13958455416661494,0.9854851477893646,-1.805493736718213,-1.8547105716922394,4.168222816416759,0.26584908521950673,1.3555294174908914,-0.012410942708150685,3.0,0.4763359736179467,0.4948823911349026,0.34613630203836443,-0.5814206233330355,0.5330977622105448,-0.014888520156616177,0.6144389039251015
14.200000000000001,-3.677934760308198,-0.18788754049302317,4.215528928224514,-0.032020552465546054,-0.33064990932056026,-0.0377553844723602,-0.0964392433056959,-0.1393726029574451,0.9855326863871597,-1.8068492884536838,-1.8535804223168797,4.168446781041628,0.2658765037033515,1.3553115377450484,-0.012371102902739581,3.0,0.4758901694634204,0.4943936071232677,0.34640338796065107,-0.5813669687030034,0.5330782920578091,-0.01487476118994064,0.6145068947679532
14.3,-3.7078957928987437,0.06759135956836462,4.296582484231061,-0.02797958709305731,-0.3387761413031339,-0.044866637653618896,-0.09662685868062663,-0.13959069653457987,0.9854831369490618,-1.8080834903450729,-1.852528249960622,4.168634785857405,0.26592158801841864,1.3551359022243354,-0.01231599277877973,3.0,0.4756831396209489,0.49416028761726377,0.3464595916088786,-0.5813717094113912,0.533086046694828,-0.01488205078641015,0.6144955059882437
14.4,-3.745555906893552,0.3221542802199418,4.505906202627974,-0.05739849638918892,-0.33526348807635237,-0.03793458541032809,-0.09735907091988448,-0.1404573312793064,0.9852881519483726,-1.8092815557292088,-1.8513467078925825,4.168857957167947,0.26594929956817653,1.3548906547417912,-0.012239337538686418,3.0,0.47524435789377056,0.4937463680075739,0.34646357852623755,-0.5814603884961036,0.5331121591736141,-0.014903504506863043,0.6143884177819613
14.5,-3.690866210186092,0.708531188774998,4.4021183979224645,-0.08456937081779801,-0.3362774369086074,-0.03481701462384856,-0.09682694365631497,-0.1398714854884128,0.9854239226558853,-1.8105364182349704,-1.8499568195942004,4.169080902119936,0.2659767259157278,1.354668796972949,-0.012143599960587177,3.0,0.47504304690613486,0.49356455070480876,0.3465133182490889,-0.5814656977812624,0.533118156691639,-0.014886426710405092,0.6143786028250448
14.600000000000001,-3.9899725793385117,0.6797576829342774,4.359533796957671,-0.07671791759617327,-0.3390704728170524,-0.035890542031161474,-0.09714565944011375,-0.14021486830946794,0.9853436195651568,-1.811812400817871,-1.8487299110497264,4.169253289498697,0.26598078227349364,1.354451710118416,-0.012127117045293593,3.0,0.4746675345224633,0.4931409565635132,0.3467919180757762,-0.5814020589201723,0.5330886480732028,-0.014874496680547158,0.614464717072811
14.700000000000001,-3.672485093972278,0.29941829657497265,4.339468044761872,-0.08353540062963595,-0.34952016019669596,-0.0352379531142192,-0.09758034507606926,-0.14068181903762778,0.985234333469972,-1.8129540361817256,-1.8476577245929142,4.169491643331598,0.265995599350039,1.3542371708212106,-0.012073528395574247,3.0,0.4743764571885686,0.49280525874723874,0.34690797112068267,-0.5813956754140145,0.5330968600822903,-0.014892535919757647,0.6144631956058587
14.8,-3.834701745234485,0.3434525672877222,4.381669888265094,-0.07896050165291599,-0.35060485557232146,-0.039521779477451384,-0.09748775918795967,-0.14056328150824324,0.985260410953469,-1.8142008245361518,-1.846643887408854,4.169708305560284,0.2660299438557318,1.3540118895085456,-0.012012075953022523,3.0,0.47391630827611814,0.4922989904219353,0.34703388364473037,-0.5814245528629379,0.5331131926514606,-0.014922598440301903,0.6144209706747392
14.9,-3.703346667318532,0.5345006891737895,4.57254870499246,-0.08797660646827327,-0.34656410407126537,-0.04384890934270362,-0.09744943066911874,-0.14049512938726608,0.9852739278193899,-1.8155021086370677,-1.8452824714428453,4.1699486707721,0.26602958159909745,1.35376418196854,-0.011947012071094575,3.0,0.4736121504681402,0.492026618041545,0.34709127187715244,-0.5814295758941694,0.5331328728820526,-0.014902011334342671,0.6143996404509415
15.0,-4.099982586881361,0.4156033492041574,4.610655526890895,-0.08496360847959482,-0.3785544542227706,-0.04185583826565459,-0.09763509562033118,-0.14063498592246515,0.9852355900459363,-1.8167280361535783,-1.843885265255874,4.170156604225371,0.26607243596997066,1.353521551317642,-0.011903967990377844,3.0,0.4733827081319869,0.4917498651775842,0.3471673181059709,-0.5814243937180674,0.5331572993746607,-0.014923691128730408,0.6143828219898324
15.100000000000001,-4.382019234778523,0.04112533875560728,4.625027339299615,-0.07512168579742265,-0.419512031497855,-0.04660867545568356,-0.09753225631355635,-0.14048681841257213,0.9852668609580105,-1.817841081763087,-1.8426677595762007,4.170405854788453,0.2660534913632264,1.353282153221171,-0.011801554747090577,3.0,0.4730070555666016,0.49133524688965935,0.3474375813739203,-0.5813846210228325,0.5331029184265144,-0.014932883466968236,0.6144674196364138
15.200000000000001,-4.768629245211223,-0.044531618424229216,4.501009994121386,-0.06274546366615452,-0.4545914326345469,-0.043568112701729195,-0.09729625782370077,-0.14020571336193144,0.9853302597692184,-1.8183043744333316,-1.8422176320608847,4.170537143184291,0.26601416701401454,1.3531846526008793,-0.01176227386329431,3.0,0.47258681893809845,0.4909006814098741,0.34772967821672623,-0.5813096319055332,0.5330973752883549,-0.01490241016459979,0.6145439109500691
15.3,-4.43149891726758,-0.18941511970683522,4.0577642932891695,-0.0517054154594285,-0.4368666961356881,-0.04550625074704055,-0.09749279802382763,-0.14046142253488084,0.9852743263840356,-1.8183050200334403,-1.8421988197358115,4.17051522868938,0.2660002652945064,1.3531856548038923,-0.011763397847310841,3.0,0.4724330585334376,0.4907863230867851,0.3477417864637492,-0.581343790640979,0.5331036776100601,-0.014909799766831856,0.614505951047441
15.4,-4.617809307749809,-0.023215013913464526,3.9919827570325803,-0.037193861185857005,-0.4369294863796634,-0.048161066859373776,-0.09781176405410677,-0.14086906347564668,0.9851846334225522,-1.8184309005737305,-1.8421560625309112,4.1705457593845345,0.2659811786911488,1.3531823057011785,-0.011788639840982685,3.0,0.47243023625344355,0.4908046880318583,0.3477455496479563,-0.5813529394646628,0.5330891163517687,-0.01490026692911217,0.6145101592720237
15.5,-4.517310477111451,-0.025207415131929516,4.021127112687473,-0.03006775530782193,-0.44503317801122605,-0.04844209396712255,-0.09772600002288542,-0.14077436293567727,0.9852066793582674,-1.818535254126681,-1.8421604216229845,4.170554362598009,0.2659843651895223,1.3531734000142295,-0.011793249425968494,3.0,0.47242768520692735,0.4907954777143978,0.34774050181496957,-0.5813582402590967,0.5330894011079907,-0.014902144036996787,0.6145048519029538
15.600000000000001,-4.502753867508521,-0.0820308140843427,3.9008223325317593,-0.03514901850467913,-0.43962926641864997,-0.04804431514006708,-0.09745378242360825,-0.14047365315633234,0.9852764792839299,-1.8185055705021427,-1.8421354114372739,4.170556220467541,0.26597706853833003,1.3531899452209473,-0.011786296412168547,3.0,0.4724086784371551,0.4907856319857433,0.3476450852145319,-0.581403588120936,0.5331185722271821,-0.01490787082117694,0.6144364987971753
15.700000000000001,-4.656331309346954,-0.01611724131179379,4.002872388554647,-0.03241483872392267,-0.43618035634821967,-0.047916088951338094,-0.09718326541243315,-0.14017526391370647,0.9853457533325222,-1.81849443281818,-1.8421279392638148,4.170562267303467,0.26599704645323496,1.3531854717191485,-0.011779113654304833,3.0,0.4723995275234146,0.490785606172494,0.3476747359209799,-0.5813929740389565,0.5331064789315487,-0.014901041585041679,0.6144572001523173
15.8,-4.44636690324215,-0.3702972641709175,3.81262616386658,-0.03925731843918814,-0.439450008956958,-0.04567893686842139,-0.09743790873304861,-0.1404595324332937,0.9852800302323702,-1.818480578831264,-1.8421487013990265,4.17056686473072,0.2659790630800432,1.3532137870788574,-0.011778875336122601,3.0,0.4724008555130594,0.4907731380144469,0.34770066642916486,-0.5813864467580846,0.5331000450258434,-0.01490689329382892,0.6144688161752224
15.9,-4.424603871362133,-0.19225830419838266,3.8107565424702328,-0.037754797312791924,-0.4388661565750802,-0.03834291035455763,-0.09769255205366406,-0.14074380095288094,0.9852143071322182,-1.8184785842895508,-1.8421234933287032,4.170557643530951,0.26598424453241987,1.3532013893127441,-0.011768320619580568,3.0,0.4724047466681242,0.4907703429792758,0.3476775080897665,-0.5813962101010713,0.5331152115153752,-0.014905071314299438,0.6144464638844813
16.0,-4.447412615695931,-0.15725741814413147,3.8427339732781287,-0.03531758304447716,-0.43930900527351174,-0.03878181394561429,-0.09787069785467598,-0.1409583665466917,0.9851659866645804,-1.818539311040366,-1.8421574313607787,4.170575955607344,0.26596591167391226,1.3531721232253424,-0.011793366781432857,3.0,0.47240340118549495,0.4907722175432134,0.3476962034965109,-0.5813863334186063,0.5331091458914078,-0.01489941676053761,0.6144612089149313
16.1,-4.327410289248081,-0.08346184703961528,3.8227165863670036,-0.032689531226204986,-0.4391708125776715,-0.04233074553213393,-0.09800554136106081,-0.14113347600331022,0.9851275171558276,-1.8185244533381169,-1.8421160183348597,4.170582328604597,0.2659885126301269,1.35319957464549,-0.011801527749724016,3.2553055233121793,0.4723868728181117,0.4907901612781453,0.3476715201868808,-0.5814034313555626,0.5331057190326454,-0.014884606206481596,0.6144483630385403
16.2,-4.295200412298937,-0.11129089405104976,3.8137771535678646,-0.034192398419309114,-0.43917249473589964,-0.040685407789785986,-0.09798112902767572,-0.14111564509967256,0.9851325010844446,-1.818495389576351,-1.842130286630264,4.1705672455559695,0.26599650287555326,1.353194824050555,-0.011814191132646555,4.0,0.47239084104985596,0.49077245524925145,0.34766536999265935,-0.5814012946477317,0.5331127158163138,-0.014893955294346353,0.6144440877025231
16.3,-4.504181588026621,-0.4065542209274679,3.8476063944340058,-0.04138235286031436,-0.43206518929071996,-0.03740560271920642,-0.09786198557861148,-0.14098304631302971,0.9851633326843814,-1.8184859793574846,-1.8421463015863873,4.1706067285821735,0.2659631015086014,1.353205086846711,-0.011768224800542255,4.0,0.4723792909733623,0.4907803095172539,0.34767880266031065,-0.5814079719691778,0.5331015152037398,-0.014885576414943584,0.614447690395984
16.400000000000002,-4.525327536313504,-0.10746733167853738,3.5916486904139946,-0.037438187109162066,-0.4361798227366656,-0.04001170614952996,-0.09757910039251255,-0.14064871504228493,0.985239142730404,-1.8185396194458008,-1.8421353385291546,4.1705877537758935,0.26598811821316626,1.3531912933122243,-0.011799637471334279,4.0,0.47239262490404094,0.49078334484335145,0.34771584607158285,-0.5813772236177093,0.5331042497199021,-0.014898665622048472,0.614474094288626
16.5,-4.149780292367804,-0.23424774643918003,3.7447990131873277,-0.03843162332019964,-0.4381414875309682,-0.034274674168439094,-0.09742352382918475,-0.14046049806910926,0.9852814346022201,-1.818497581428976,-1.8421036205687464,4.170586109161377,0.2660090137594044,1.3531986701714667,-0.011765234255107762,4.0,0.4723916997630561,0.4907862777445213,0.3476602321809866,-0.5814204000923495,0.5331019966934383,-0.014912970877905721,0.6144348482772735
16.6,-4.563561799878212,-0.13141612349306186,3.7768048819438,-0.03796087772776501,-0.4323406561627233,-0.04192780223298463,-0.09735991714172283,-0.14038484953063132,0.9852984475120673,-1.818516519391419,-1.8421488836515127,4.170568638331539,0.26597706853833003,1.3532013893127441,-0.011783204813007767,4.0,0.472390269277823,0.49077320960990384,0.34766299710526455,-0.5814112717523492,0.5331121055882393,-0.01490747172342707,0.6144348486547658
16.7,-4.348271906359119,-0.32487645852872965,3.8241362894184667,-0.040033293896493065,-0.43597907455666773,-0.04099137749129717,-0.09677800473110311,-0.1397278058035993,0.9854490345814285,-1.8185128179556234,-1.8421114170020514,4.170547274162496,0.26598001786186526,1.3532038860782838,-0.011775795613424123,4.0,0.4723902062448398,0.49078369405964645,0.34766475960229737,-0.5814108060552724,0.5331097677589245,-0.014901240800753848,0.6144374688646372
16.8,-4.344960347658004,-0.35159447120482695,3.841064255490409,-0.04032545752613862,-0.43252065404475515,-0.04585165822633251,-0.09687944325521841,-0.13983537117345296,0.9854238943832012,-1.818534555297705,-1.8421036205687464,4.1705629431240325,0.2659961760880921,1.3531946795290954,-0.011780781336700649,4.0,0.47238500960350266,0.49078776532919527,0.3476885714353988,-0.5814046385157136,0.5330985473368084,-0.014904548304412719,0.6144529596150045
16.900000000000002,-4.48224232163955,-0.17254861841225874,3.6760641580768825,-0.03973852693000549,-0.43142049578192254,-0.04042323334682036,-0.09694374509473033,-0.13992028803817094,0.9854055275021745,-1.8185340697157975,-1.8421299499606212,4.170579421981011,0.26597706853833003,1.3532137870788574,-0.011790660961647284,4.0,0.4724055136356253,0.49076291675287464,0.34765861377400964,-0.5814011493153327,0.5331259038166387,-0.014907245303361872,0.6144324603176233
17.0,-4.32290297144445,-0.3362848706947757,3.7247289304854405,-0.041022626621447296,-0.43190373870849297,-0.03952956650757912,-0.09663328497893454,-0.13959963881428591,0.9854815116998124,-1.8185063806546662,-1.842146111927955,4.170579857426192,0.2660103073294647,1.3531807983571302,-0.011790842409971709,4.0,0.4723794184636124,0.4907843621914299,0.3476706402081595,-0.5814219981794763,0.5330945599500397,-0.014899249997593903,0.6144401211950337
17.1,-4.359096065317428,0.22442370600606032,3.685395766216942,-0.025735569856243923,-0.4310574747197107,-0.03743488305601166,-0.09653279313853491,-0.1394965280770369,0.9855060297149222,-1.8185042855909102,-1.842122872762534,4.17055869145068,0.2660018640705566,1.3532036540762957,-0.011779074188311466,4.0,0.47237015109216945,0.49078934148821124,0.34766531829936514,-0.5814306068799657,0.533099070775012,-0.014896715310781449,0.6144281227246711
17.2,-4.406241111393701,-0.04961371657437358,3.6183086493988235,-0.03407194290580202,-0.43205135712390874,-0.03771048796247107,-0.09657398461716238,-0.13953850691605296,0.9854960463252158,-1.8185167487891944,-1.8421279392638148,4.17058725524593,0.2659837530220386,1.3531899452209473,-0.011789721621150285,4.0,0.4723720562285824,0.49078079517239676,0.3476836792921686,-0.5814077458284594,0.5330942710022635,-0.014891336081947005,0.6144540498889476
17.3,-4.112021473249027,-0.3354311275783546,3.742957280268158,-0.04082826266101444,-0.4363189530905063,-0.03357183447488706,-0.09636013737399034,-0.13929035692003272,0.9855520328139542,-1.818529503601892,-1.8421160183348597,4.170569607147626,0.26597239968729525,1.3532211269230163,-0.011756534840310117,4.0,0.47237786415904626,0.4907885259200422,0.34768540266893555,-0.5814017279910026,0.5330921911186148,-0.01488978718465512,0.6144615860206611
17.400000000000002,-4.115890784654377,-0.06832189778880636,3.7271585421540134,-0.038023853588575164,-0.4390220958480686,-0.037395395966016355,-0.09629449686686167,-0.13921057739792705,0.985568954750588,-1.8184771430489937,-1.8421279392638148,4.170581107735757,0.2659919346581826,1.3532178930077587,-0.01177415040762811,4.0,0.47239217527323263,0.49077962575074363,0.34769415334256293,-0.5813989787219839,0.5330945582958125,-0.014886805895197195,0.6144622058895611
17.5,-3.436633204683765,-2.0486363033156874,1.8593178786831643,0.0874714061062167,-0.3536368804010495,-0.05448781262877989,-0.09886363407885937,-0.14212404086242159,0.9848913980539256,-1.8184785842895508,-1.8421016441758191,4.170533496954805,0.26598690348925247,1.3531706425711552,-0.01178278805162759,4.0,0.47237570291886605,0.4907827282198954,0.347712314377512,-0.5813814403977717,0.5330953219540848,-0.014878608223784312,0.6144783360615784
17.6,-2.0118819325392643,-0.7382619600082783,1.4809620916823933,0.037435761005282224,-0.2284460590025414,-0.050091804822020594,-0.10135089589831506,-0.14494545282120402,0.984235106060235,-1.8185322066036949,-1.8420877136089506,4.1705344239267195,0.2659758049008025,1.3531714056829691,-0.011775795613424123,4.0,0.4723951367289153,0.4907620946779441,0.34771974608684153,-0.5813726914359931,0.5331008208085083,-0.014899156753984033,0.6144813452284653
17.7,-0.4688567560810948,-0.012444323151367953,0.32418724260588694,0.003723272732539515,-0.036159473006490084,-0.03313280099327564,-0.10201255848640405,-0.1457143658195953,0.9840529592791111,-1.818522720525538,-1.8420964842240612,4.170540585999548,0.2659555278491648,1.3532317802881897,-0.01177838021228965,4.0,0.47239960120914065,0.4907475458274829,0.34770300476301996,-0.5813780802137607,0.5331005006267294,-0.01490841809403613,0.6144762999078369
