xiamingqian9007/apple-picking-rnn/final_data/grasper_20191127_130227_noimg.csv
,/manipulator_wrench.fx,/manipulator_wrench.fy,/manipulator_wrench.fz,/manipulator_wrench.tx,/manipulator_wrench.ty,/manipulator_wrench.tz,/ground_truth.x,/ground_truth.y,/ground_truth.z,/joint_states.elbow_joint,/joint_states.shoulder_lift_joint,/joint_states.shoulder_pan_joint,/joint_states.wrist_1_joint,/joint_states.wrist_2_joint,/joint_states.wrist_3_joint,/mode./mode,/manipulator_pose.x,/manipulator_pose.y,/manipulator_pose.z,/manipulator_pose.rx,/manipulator_pose.ry,/manipulator_pose.rz,/manipulator_pose.rw
0.2,0.02759354420839985,-0.6327976715922974,0.7727124996614995,0.01982526238554461,0.009396205271346589,0.04635600082237046,-0.10476978582518282,-0.18815236189117618,0.9765326358192644,-1.9689699230072972,-2.044067677006527,4.1769490242004395,0.9692985254475097,1.3267473199412942,-0.2797252828197162,1.0,0.4544007292479978,0.458917918338706,0.28008436297128264,-0.5335941046540592,0.40984308342259124,-0.09268159950307979,0.7339728193623022
0.30000000000000004,0.22463607625762066,-0.5928931046573893,0.2170987570527744,0.00017512983632716334,0.016446717581018393,0.030691460190510216,-0.10449708633957555,-0.18763482476328944,0.9766643031529576,-1.9653315065519343,-2.0459280883172966,4.176298967757785,0.9674401485319977,1.327302181494455,-0.27964043226899965,1.0,0.4546893643030972,0.45927825605574096,0.28013268260476015,-0.5335388027360484,0.40981557364178023,-0.09267547832815995,0.7340291528899173
0.4,-0.051475668534816166,-0.2627276051005851,0.18869747591432146,0.012888357705907044,0.021729463094888084,0.02013134719344145,-0.10520525121061265,-0.18881257256011685,0.9763595468979349,-1.960904653003126,-2.048088869615949,4.175482491986884,0.9650614286394975,1.3282754538297825,-0.27955672493808936,1.0,0.4552366547294,0.4598113997554099,0.2802111442842512,-0.533527200364307,0.40983095666570607,-0.09270716673446647,0.7340249959408499
0.5,-0.19125029139799699,-0.28390054966648814,0.24557044793654575,0.011772933411946362,0.024233168137309323,0.01797164326517398,-0.10699047522357151,-0.19195795386362377,0.9755512246972965,-1.9565286076234703,-2.0501970456060654,4.17458508519522,0.9626700939180121,1.3292155877515743,-0.27946649324360917,1.0,0.4560443937227594,0.4606378486434324,0.28032259818594646,-0.5335598319836239,0.4098256234562939,-0.09267984734143737,0.7340077042845226
0.6000000000000001,-0.17619907419409384,-0.310369557243773,0.29150828440306364,0.009680617205186553,0.02778601413947275,0.023747969108210972,-0.1065214292228192,-0.19121089855600293,0.9757493818829025,-1.9520292063813554,-2.052523147751465,4.173819065093994,0.9604818063923339,1.3298640251159668,-0.2793684117115904,1.0,0.4570525435599972,0.46163959942844646,0.28047229678868135,-0.5335900609599589,0.40981848847263325,-0.09266180654446826,0.7339919910725655
0.7000000000000001,-0.03524044487378987,-0.1263858040980052,0.40988226085886587,0.011813570301676908,0.023052780358901143,0.023645302915020896,-0.10556288160145522,-0.18957377893041286,0.9761745597339598,-1.9475952516148765,-2.054586384021305,4.173070153334255,0.9582869780214768,1.3305503324973016,-0.27930887250290115,1.0,0.45853244221991313,0.4631130608161236,0.280634330123687,-0.5336181208377491,0.40984897450065916,-0.09267279571420897,0.7339531811695212
0.8,-0.02925511899343949,-0.4191345834573621,0.403631582770928,0.010961030645749492,0.022119634368207984,0.022931935262978115,-0.10664997048206683,-0.19127817343200199,0.9757224202374101,-1.9435094196015754,-2.0565770077552528,4.172292761912388,0.9561138450826815,1.3313155505425107,-0.27922409515641666,1.0,0.45941538213682415,0.4639625048166497,0.28078423687985377,-0.5335595409669847,0.40986604960507816,-0.09270302890603942,0.7339824153587566
0.9,-0.10563327658642899,-0.2647425890777046,0.0817670751124917,0.008521093613317501,0.027999740917526442,0.02544123992049529,-0.10720391245465549,-0.19211923973709844,0.9754962028827108,-1.93966689645709,-2.058863835917105,4.171541690826416,0.9542039167776466,1.3321552276611328,-0.27916660065754695,1.0,0.4606256510661109,0.46514277323466285,0.2809229175713335,-0.5335866970604021,0.40987135166322397,-0.09272230959249458,0.7339572774417908
1.0,0.12147075584560474,-0.30568036804156506,0.13060705740432652,0.00563775329542027,0.023167731080492804,0.02498731871524178,-0.10528302167259065,-0.1889527935413362,0.9763187011976309,-1.9357801240978894,-2.0604307011219047,4.170978448096978,0.9521171289631347,1.3327547100145944,-0.2791023834329539,1.0,0.46123492700718854,0.4657571676088382,0.2808808316125065,-0.5336554310454187,0.40988262136933107,-0.09270965194172168,0.7339026080155179
1.1,-0.4716988319503185,-0.280889135409581,0.26012075638112975,0.013044073034568143,0.03305850646011402,0.022188077554687453,-0.10391307454992725,-0.18672220245082016,0.9769007279444014,-1.9320041116141673,-2.0623560333965525,4.170379161834717,0.9503104538409307,1.333365987022639,-0.27902140318623686,1.0,0.46231246731928,0.4669018122911059,0.28120657771207047,-0.5335847960219275,0.4098395525238496,-0.09267506555580154,0.7339823832119655
1.2000000000000002,-0.28461032305647244,-0.13537764997017046,0.2834998755491071,0.010866652750186691,0.03120028407042816,0.021534323781365307,-0.10529910721545442,-0.18917302970630243,0.9762798462446445,-1.9283380744869023,-2.0643501942340747,4.169804096221924,0.9483861426484876,1.3338838815173226,-0.2789487518312721,1.0,0.4629349263826029,0.46760348053887657,0.2813019345021738,-0.5335763142813033,0.40981324652172313,-0.09264134051091064,0.7340074944042786
1.3,-0.03771906609656547,-0.33266384685693473,0.015385595610589636,0.0036043107897449104,0.030024493975075582,0.02483738082535324,-0.10535869451509619,-0.18918118432248426,0.9762729389590734,-1.924989942190842,-2.0658125938021557,4.169123449914642,0.9466395008443299,1.3344750023365817,-0.27893855325769534,1.0,0.4641120783125466,0.46877238834020785,0.2813017258540465,-0.533650583843612,0.4098685314928266,-0.09270247778657745,0.7339149077839441
1.4000000000000001,-0.09653097894652535,-0.2178348479027663,0.1837325448373412,0.0008377510601638408,0.030126055480677358,0.022917418153661957,-0.10498561170448202,-0.18840732225461365,0.9764625754136198,-1.921541784075292,-2.067427310036815,4.168609904183642,0.9448729371760243,1.3351256905227529,-0.2788604349945282,1.0,0.46457165011377405,0.4691809413591903,0.2814724807172563,-0.5335733884413395,0.4098725188285804,-0.09270707749038275,0.7339682249522351
1.5,-0.04624769497295951,-0.27257405873889484,0.20653949108166003,0.0037350119527634748,0.027988697963824673,0.02425470509277486,-0.10608208070225342,-0.1904232895368945,0.9759508711339675,-1.9180547452420755,-2.0693581418149725,4.167986952088811,0.9432256287509205,1.3357652769980983,-0.27878386053529686,1.0,0.46527463380813733,0.4699456079522583,0.2816123428468068,-0.533588709883053,0.40983219250863845,-0.09265929191444848,0.7339856390221913
1.6,0.14481878864448874,-0.523547473403249,0.1627632377507736,0.005096048644953631,0.025415174624420406,0.025667959964603852,-0.10699141634739481,-0.1920855531512603,0.9755285435779727,-1.914956376114653,-2.070819092914528,4.167395114898682,0.9414970117756347,1.336253811711502,-0.27871359332713386,1.0,0.46655315603619985,0.47121887318948824,0.28169734225366916,-0.5336342281988057,0.40982852579962264,-0.09267301167597529,0.7339528614580624
1.7000000000000002,0.12903503346918613,-0.43797743401874145,0.25874289801717587,0.007959287859510483,0.025254344494702513,0.02303943083777089,-0.10650083438429893,-0.19112286790593241,0.9757699512647149,-1.911647772641526,-2.072228193637267,4.166836768671409,0.939977543133862,1.3367202644741412,-0.2786552122069954,1.0,0.4668975853860782,0.4715343415196213,0.2817552398296412,-0.533632269684851,0.4098644319468665,-0.09266956478855957,0.7339346700747732
1.8,0.12208653293908436,-0.6133606208070429,0.2445003498678312,0.0011529997559455996,0.02749599070762696,0.025976661045102135,-0.10444100920327967,-0.187329328192424,0.9767289393482377,-1.9087895507045542,-2.0738865967767808,4.1663289070129395,0.9383372860239907,1.337213676976724,-0.27866909427703324,1.0,0.4679596735161606,0.4725059469042067,0.2820232232880503,-0.5335024816902951,0.40986734049758344,-0.09271819307623763,0.7340212543900972
1.9000000000000001,-0.002598665525445132,-0.3890034524322693,0.2181537007265838,0.005934950346985974,0.02629777118008476,0.02386446509227221,-0.10366457274487767,-0.18593780517384706,0.9770776658955597,-1.9057599360519373,-2.0754275276087877,4.165927132005529,0.9370271306482842,1.3376257097286028,-0.2786158486241651,1.0,0.468208082881018,0.4727408894823058,0.28195835059224206,-0.5335636286415527,0.4099106874823217,-0.09274106470348517,0.7339497104000339
2.0,-0.15141376845814472,-0.3504224609598942,0.3168241095788764,0.005400014377102727,0.03031537647855067,0.026889082955237145,-0.10375611179199179,-0.1862525250009847,0.9770079601568581,-1.9028958414944492,-2.0767617467015813,4.165463097621672,0.9353535472336876,1.33811150600859,-0.27853455626911827,1.0,0.4690802146561309,0.47367239914163195,0.28204881808411825,-0.5335889317042161,0.40989313924919124,-0.0927354728627669,0.7339418222394167
2.1,0.11328148011798196,-0.5945202074405159,0.19600606366603726,0.0004863483135898794,0.02458127510159292,0.030716815139162867,-0.10384963119209022,-0.18656286306288514,0.9769388567562737,-1.9001722155015606,-2.078090642311683,4.1651141575724235,0.9340975685739314,1.3386210983541302,-0.27848456412954575,1.0,0.4698897756458472,0.4745764175222586,0.28217950957149107,-0.5336190698745421,0.40986114715273303,-0.09269888230587262,0.7339423993339778
2.2,0.12161583435266346,-0.5738055589268669,0.20277955108597315,0.003615453615441986,0.02267605346457516,0.026156013006871173,-0.10396043528706066,-0.18683495669274477,0.9768750106157065,-1.8974235427551989,-2.0794242862453154,4.164722919464111,0.9327079492756347,1.3390723578452315,-0.27845651308168584,1.0,0.4702267858218383,0.4749301513128843,0.28226020442797284,-0.5335766635413046,0.40983554737729744,-0.09267758996256953,0.733990212842658
2.3000000000000003,-0.059572173566901865,-0.47780533099132416,0.20769953253784162,0.006200289129699355,0.029726555455002315,0.024434873670666397,-0.10407123938203108,-0.1871070503226044,0.9768111644751392,-1.894912357130439,-2.080677296116465,4.164272307965218,0.9313060480305175,1.3394627001822739,-0.27843112140691373,1.0,0.47081087756243906,0.4755564395855093,0.2823531532540108,-0.5335830137843816,0.40981128064990135,-0.09265325127055948,0.7340022184447803
2.4000000000000004,-0.14071555005288885,-0.5309109846803853,0.10330609756009398,0.011347650933196281,0.027792386397218493,0.027377150753581655,-0.10412525277243363,-0.18720637428351403,0.9767864171930839,-1.8922455541229284,-2.081945395175449,4.163846735794068,0.9301765546045148,1.339830214753468,-0.27837380683689855,1.0,0.47164830321256745,0.4764321830738206,0.28246321725261586,-0.5336131113000078,0.40982513756416067,-0.09263924149226847,0.7339743694469033
2.5,-0.0936911008661508,-0.4709425757779971,0.2059213504437799,0.00896816872655462,0.027837816295888558,0.028513860436208006,-0.10424889011777776,-0.18737083415665776,0.976741196930608,-1.8899773138960605,-2.0833450756468714,4.163414365284851,0.9287681794314607,1.3402277169295047,-0.27838913779927943,1.0,0.47200998524112336,0.47677366007093785,0.2825773441175862,-0.5335337942334297,0.40979509091242555,-0.09264702919446387,0.7340478198703388
2.6,-0.22899079769413871,-0.2999622359201869,0.1884880143786642,0.011747404716897277,0.03346101023456172,0.025766585417659513,-0.1058010758678545,-0.18995870084270133,0.9760724081380936,-1.8874814872319938,-2.084376775530784,4.163082818955821,0.9276506143757324,1.3405852317810059,-0.2783187714167105,1.0,0.4725703001527813,0.4773049580776264,0.2824769574041662,-0.5336544223747938,0.4098579670353784,-0.09269972816738797,0.7339183638083628
2.7,0.08195713753612381,-0.4676608500126863,0.13178103018812498,0.005353102753504042,0.025388925628468756,0.030400496242230887,-0.10652341381051349,-0.1911392685354262,0.9757656148137791,-1.8852035577449509,-2.0854812079987615,4.162754659065087,0.9264471755052879,1.3408549744372587,-0.27827280887366546,1.0,0.47329636009632375,0.4780818249665814,0.28272469010911516,-0.533530885230217,0.40982664314785366,-0.09266165028347799,0.7340304732355232
2.8000000000000003,-0.07501501842396222,-0.5544352713601696,0.11673104042727739,0.004775039569550006,0.029124928716509506,0.025929391254491133,-0.10661964220756963,-0.1912567557458951,0.9757320573128415,-1.8830756721011412,-2.086558954068979,4.162336826324463,0.9252883630939941,1.341248023358364,-0.2782209774148133,1.0,0.47361832187311287,0.47841005460245717,0.2827468402486053,-0.5335443471596573,0.409842688812745,-0.09266259249765238,0.7340116102571732
2.9000000000000004,-0.03973040127196806,-0.40009454226897634,0.07849264015864942,0.0027094265244022153,0.03426893134753012,0.026641421765135842,-0.10707946407434515,-0.19196730230487202,0.9755419875145426,-1.8807880318716306,-2.087681365980136,4.16194579192417,0.9242146030711179,1.3416012419137575,-0.27818537518402936,1.0,0.47403055817512035,0.4787790557536743,0.2827749760320399,-0.5335690897228763,0.40986537495232,-0.09268542959491788,0.7339780732748772
3.0,-0.07328917214539557,-0.04883879144538339,0.18186587843489463,0.005712943716779961,0.03728722963933834,0.03037373368541525,-0.10697733599302367,-0.19179249200253196,0.975587033988871,-1.878844183062528,-2.088907181814692,4.161581516265869,0.9232141214558105,1.3420057687287457,-0.278117345835177,1.0,0.47473950613440763,0.47942835368425657,0.28282049382140956,-0.5335870784069829,0.40987787851323687,-0.09271123185244581,0.7339547547028975
3.1,-0.20271290937834768,-0.12031405106076193,0.15560230352404286,0.010645051830209598,0.03855959993492375,0.028607732704554995,-0.1063723622748125,-0.19082544417741748,0.975842467869147,-1.8766343893674777,-2.089819925297349,4.161307665431507,0.922106124480306,1.3423270626824868,-0.2781225497127459,1.0,0.4753896218579059,0.4800435441047045,0.2827662157762059,-0.5336409192694809,0.4099139358931952,-0.09270893406844191,0.7338957609808535
3.2,-0.16931705102945827,-0.4389819127991321,0.07959810498044088,0.009633385545804224,0.03489904406883873,0.029849884918718064,-0.10575512500682314,-0.18983518268800575,0.9761036154205568,-1.8746559438146417,-2.090686243189635,4.161019068662054,0.9210220530963916,1.34267158139206,-0.27810923073389265,1.0,0.47562841596874406,0.4803611196366105,0.2828663576337399,-0.5336506709452272,0.40987533035617885,-0.09269194366451466,0.73391237797493
3.3000000000000003,-0.04023526025183139,-0.11842374506078646,0.05648344660054152,0.007704063660514704,0.03414917760305989,0.022760583648843265,-0.10449795957728483,-0.18763360165529677,0.976662909848737,-1.8728551864624023,-2.0914680396597634,4.160766205034758,0.9201690532264603,1.3428643762019643,-0.27809762798824544,1.0,0.47620260669783804,0.4809486967733876,0.2831172556827947,-0.5335539226329452,0.40983707942305403,-0.09267475744150493,0.7340062460947704
3.4000000000000004,0.12351887551753124,-0.27047562610026754,0.17103247578212066,0.002936148449001214,0.03066541661238995,0.03146093582649645,-0.10384472414599019,-0.18649574581952,0.9769521996428406,-1.8709629354239878,-2.092458824591156,4.160467624664307,0.9191906223954952,1.3431982368629705,-0.2780597977862115,1.0,0.47646275055620174,0.48117615971500144,0.28319070104901983,-0.5335114912150514,0.40983493114477026,-0.092691929125818,0.7340361191589879
3.5,0.0005263633299958638,-0.5376671552517813,0.08601360095754568,-0.003870254543634254,0.03342168306552733,0.031278669631723675,-0.10377298153463971,-0.18638209571322945,0.9769815160020697,-1.8692363230446027,-2.093498449283855,4.160174820170437,0.9182617436881784,1.3434205320024144,-0.27802407473666113,1.0,0.4768767258936932,0.48162045280617216,0.28324088328844005,-0.5335362231585213,0.40982586348136896,-0.09269369331060998,0.7340229828962643
3.6,-0.0874608050842091,-0.3653079932026782,-0.02396499765242481,0.00040031199872141154,0.03560060858488295,0.033623900824549136,-0.10395183304805086,-0.18672478615754048,0.9768970211936602,-1.8673753494574585,-2.0944484885218477,4.159910848040361,0.9173809300442373,1.3436679296842093,-0.27800809890373923,1.0,0.47743207050518677,0.48221689896750297,0.28313696319934417,-0.5336326571496842,0.4098789344967807,-0.09268868054317184,0.7339238753292586
3.7,-0.18965037474885704,-0.13373861716689875,0.10992200962011384,0.004015334328669013,0.039612970242429074,0.03210413820726352,-0.10400629967172072,-0.18682318750460222,0.976872438882087,-1.8657459142158674,-2.09517180210353,4.15968675060707,0.9165818194733683,1.3439209330957134,-0.2780069077435102,1.0,0.47769979228660364,0.4824994373087896,0.2831682505276067,-0.5336275251636973,0.40987771201956247,-0.09267134820621198,0.7339304781782259
3.8000000000000003,-0.14520532437234035,-0.14674246119113055,0.20145727126966506,0.004530221109002671,0.04129718227192414,0.0328875207545004,-0.10392932962940378,-0.1866635707633503,0.9769111425043151,-1.8641137707706823,-2.0959506196786135,4.159450970935477,0.9156781787676386,1.3441490757938757,-0.2779380311006631,1.0,0.47803382193116817,0.48282927928705477,0.2832607503941156,-0.5336039742691668,0.4098541862050826,-0.09269621201581377,0.733957598892633
3.9000000000000004,-0.07980995619055706,-0.21029612561496172,0.2269997875526019,0.007630674338502924,0.03695635270543356,0.03149109503291808,-0.10354733629832524,-0.1860123044685854,0.9770754243297881,-1.8624277367894986,-2.0965810417610915,4.159224008053031,0.9148177350078913,1.344372616489532,-0.2779117259761383,1.0,0.4785355421348534,0.4832980887017824,0.28335637039379147,-0.5335921113046863,0.4098855698905542,-0.09271018689731701,0.7339469324102168
4.0,-0.08303184497120644,-0.29798436872646317,0.2385036284914539,0.005931496828023871,0.03653543485242835,0.030930411353564995,-0.10283517242992897,-0.18482885521194087,0.9773756374902391,-1.8608220058497036,-2.0973979977598356,4.1590184298082296,0.9140351143535451,1.344580400926613,-0.27789384523500615,1.0,0.47879581666848425,0.4836139390571874,0.28346489396724506,-0.5335775266841158,0.4098432936258809,-0.09268774085859535,0.733983978287048
4.1000000000000005,-0.07168036046961183,-0.20797841664893302,0.06876047542354236,0.00137814738354507,0.040783315466218856,0.03005167757207819,-0.09488482300568962,-0.1712846790763,0.9806363367580158,-1.8594200980679816,-2.098278323038312,4.158776314941187,0.9133230033906927,1.3448696668629443,-0.2778609966865735,1.0,0.4792221448970464,0.4840506580322082,0.28357619298576026,-0.5335281485989548,0.40981976511201784,-0.09267200604602951,0.7340349951272807
4.2,0.02690379767383827,-0.38496883250105707,0.23154955696379095,0.0025746599207882885,0.03668890929730145,0.03311176969468918,-0.0804882818392626,-0.14674219277294662,0.9856628829689762,-1.8579144615377245,-2.099080687648499,4.1585149911863155,0.912495486463939,1.345126801678258,-0.27784496208386494,1.0,0.47948552557435986,0.48430589215480124,0.2835349730789238,-0.5335537770657819,0.4098441407443207,-0.09268487591184504,0.7340011315070253
4.3,0.14645467490548134,-0.4406493710704448,0.20155924903194705,-0.0005190344892744569,0.03561427211140467,0.031300933820111065,-0.07207646412722385,-0.13241667664907752,0.9885698002907238,-1.8560823152114778,-2.099946539292189,4.158280694540123,0.9116806073390049,1.3453790393672125,-0.27783052474764713,1.0,0.479986781379805,0.48483772262350877,0.28351506821211747,-0.5336132599399249,0.4098620867377204,-0.09267995988859513,0.7339484884556516
4.4,-0.12096736571639825,-0.3250146359407678,0.23146250973207624,0.0010672829352277456,0.038434529985351594,0.029805859503299656,-0.0718318248615041,-0.1320534010720032,0.9886363796351473,-1.8546209443535797,-2.100628662506218,4.158102217913387,0.9108128242706306,1.3455569405958083,-0.2778099218951624,1.0,0.480186220008845,0.48503673178463186,0.28357848374221545,-0.5335931191795629,0.4098444292788605,-0.09269311983400641,0.7339713294732625
4.5,-0.08930946006273151,-0.30826733575422294,0.14989012467802432,0.0010888265744563126,0.03906523346057525,0.0331444193487172,-0.07210584750105918,-0.13258770797713954,0.9885450013683383,-1.8532800709121746,-2.1013752716380165,4.157835604480027,0.9101105447845556,1.3458400688282373,-0.27779992299742445,1.0,0.4805052501131236,0.4854137083877873,0.28363718196987003,-0.5336117158525289,0.4098316098125036,-0.09265032144951982,0.7339703714992266
4.6000000000000005,0.042699037426110975,-0.10068853844554641,0.003473673090076356,0.008235408933997206,0.03407194327921813,0.03166247927308639,-0.0722032332852593,-0.13280339007022923,0.9885089510559365,-1.851495002141464,-2.1020237518246065,4.157587517212158,0.9093541375643452,1.3460718131624716,-0.2777560558211888,1.0,0.48098419897476385,0.4858630249483489,0.2836841071882056,-0.5336301545307309,0.4098340292296281,-0.09266072507889454,0.7339543014989219
4.7,-0.1312634921066344,-0.434729587782915,0.1972345951480571,0.002451779004923855,0.04192156555390411,0.03105911540740514,-0.07271264045755865,-0.13364050957739915,0.9883582161038329,-1.8498182141466004,-2.102770558820845,4.1573872566223145,0.9084847015931959,1.3463245037828486,-0.27775846345921645,1.0,0.4811912113697467,0.4860611100618447,0.2837745656553501,-0.5335773507465822,0.40981620968566684,-0.09266380140096687,0.7340022513310533
4.800000000000001,0.00786440578083722,-0.3099722909748541,0.08084316406805911,0.0013718026642319456,0.03677277494270992,0.035242976373426035,-0.07325671354778772,-0.13452991447318527,0.9881978320208283,-1.8484887739297053,-2.1037122497523586,4.15709924697876,0.9076406854403398,1.3465017499756484,-0.2777255502853175,1.0,0.48154008623596983,0.48641789397347623,0.28392653043160865,-0.5335150882634843,0.40979293748465634,-0.09265294496659167,0.7340618712151729
4.9,0.005150410744823549,-0.29164791330327366,0.1382708587904054,0.0018444273243119142,0.03766059957878293,0.03421922543347319,-0.07543592411131365,-0.1381958565008849,0.9875119415665183,-1.8469226102836842,-2.104521545926172,4.156898711205315,0.9069359995264373,1.3467815985683558,-0.2777021566974085,1.0,0.482085889225732,0.4869323239083731,0.2837993720196305,-0.5336479616570099,0.40988180117705375,-0.09269035408009893,0.7339109348849346
5.0,0.29879153845607354,-0.37903341420085174,0.1597492255391828,0.000592915142283934,0.03499174736140853,0.031235848833820114,-0.07778453939084316,-0.1421494553721139,0.9867716072143446,-1.8451889001292596,-2.1052998763382695,4.156609322633536,0.9061249034197285,1.3469559569448537,-0.2776684819894302,1.0,0.48227573830306125,0.48714201412979957,0.28382243553722747,-0.5336312631933279,0.40988390487475895,-0.09267124381035884,0.7339243149248796
5.1000000000000005,0.03336270445919054,-0.452585301959634,0.13392559562944817,-0.000983979458883573,0.041618726028261235,0.03735627956106285,-0.07887060931179878,-0.14394495747787658,0.9864373100914452,-1.843631413137917,-2.106046065779028,4.156383717945877,0.9053208768482355,1.347207409586342,-0.27761523676086314,1.0,0.4826290080562316,0.48746921263119974,0.28391246097998835,-0.5335825883745262,0.4098653323661315,-0.09269321230767402,0.7339673011109049
5.2,-0.14464896822971993,-0.36403578612986337,-0.08388301887458273,-0.0028172759498910783,0.03929773979702765,0.038020305052858624,-0.07842452868901326,-0.14314673230529998,0.986589369460467,-1.8421287675753635,-2.106848199661018,4.156165475509456,0.9044409734239556,1.3474301113772245,-0.27763235895862537,1.0,0.48317121276953456,0.48800386555349257,0.2839545824212447,-0.5336037145715467,0.40987809934605596,-0.09270233390887841,0.7339436604806661
5.300000000000001,-0.1146534382247239,-0.37787654754524636,0.039793843597852305,-1.435821838898432e-05,0.03740205527342251,0.0368233721787933,-0.07859426248141427,-0.14342331288906934,0.9865356611015381,-1.8404855531086854,-2.1075788937010707,4.155958632790082,0.9036672323721652,1.3476158188417624,-0.27760029038208206,1.0,0.4833501243111142,0.4881903205292889,0.28399464571327265,-0.533596444682214,0.4098808421671367,-0.09269565788884693,0.7339482573420375
5.4,0.025245277537568497,-0.4801202341914187,0.09170331410426348,-0.005010030721720165,0.04182987419855506,0.039053935535716164,-0.07879848384527213,-0.14372910707104605,0.986474845755102,-1.8389138776456728,-2.1083276482393036,4.155745029449463,0.9029439544165568,1.3477852768406144,-0.277544824857735,1.0,0.4838485166899713,0.48868125999688744,0.28412872108137477,-0.5335525248355082,0.4098688452307613,-0.09270988514682493,0.733985088504473
5.5,-0.2643996908727875,-0.18783756454681044,0.09227381999152956,-0.00034410044947962275,0.043805557048755064,0.03526941614557613,-0.07865670992638489,-0.14347736518752624,0.9865224177828597,-1.8373900860147605,-2.109123561455729,4.155479905701416,0.9021167936212254,1.3480389367595973,-0.2775448715946814,1.0,0.484028013743024,0.488880230312999,0.2841659561069103,-0.5335485784876709,0.4098566080770557,-0.09272564196817765,0.7339928000538872
5.6000000000000005,-0.1607193805288205,-0.43680561459204115,0.0745499539648143,-0.0031086158967097662,0.035423520327684054,0.03158512129722243,-0.07790765580749977,-0.14224705327647746,0.9867602279715407,-1.8357324600219727,-2.1099005098610144,4.155266062947599,0.9012444356771195,1.3482896898640442,-0.2775347868548792,1.0,0.48437711569859754,0.4892447473555069,0.28418333316632693,-0.5335716647803646,0.4098564480974694,-0.09271656589473598,0.7339772536701148
5.7,0.037787746553998004,-0.4205581979090167,0.024148553361374142,-0.0019764703261617913,0.04624103207902103,0.03600464146183971,-0.0772853399155937,-0.1412290359952599,0.9869552039751501,-1.834191866689193,-2.110682611836447,4.1550271491118815,0.9004221874508299,1.3485275030052246,-0.2775368481734421,1.0,0.48488880930056105,0.4897720791224985,0.28423916068598076,-0.5335862706304703,0.4098715824600759,-0.09270250414402771,0.7339599603600776
5.800000000000001,-0.14502795321444545,-0.2995967132575126,0.1991461007394995,-0.0035031226405559486,0.04493894504236461,0.0353400339867957,-0.0768045792768453,-0.1404283605423746,0.9871072992108983,-1.8326824197007343,-2.111458488284554,4.154823291567967,0.8996964895038526,1.3487396356781274,-0.277476183348763,1.0,0.48506610789701027,0.4899768561721786,0.28427061763856143,-0.5335898573529304,0.40985403232363304,-0.09268648364450828,0.7339691765106722
5.9,-0.03961685943631493,-0.29326540876808377,0.09939268265668588,-0.0005885030576934545,0.040901710159879416,0.04060361206859482,-0.07655213935597688,-0.1399724555782348,0.987191682903,-1.8309223259556036,-2.1122031698430583,4.154579113674268,0.8988755625142875,1.3489950454527535,-0.2774700513654568,1.0,0.4854170632600299,0.49030781967383646,0.2843205530669995,-0.5335796454072056,0.40985345891286035,-0.09270387697384799,0.733974723964186
6.0,0.01778453414210257,-0.3221049163798745,0.12480929284221973,-0.0003642095998888815,0.035359371702692356,0.030512835752568985,-0.0778562374509941,-0.14220979426362979,0.9867645975167141,-1.8294376255092926,-2.1130207263670813,4.154370165118398,0.89806522761501,1.3492322797824705,-0.27744870617519696,1.0,0.485933010072957,0.4908473170868982,0.2844436808700444,-0.5335511155579753,0.4098154903111345,-0.09269355908017719,0.7340179664646732
6.1000000000000005,-0.1813184434342323,-0.32004810564963954,0.2705581501392732,0.0018223282222958308,0.048135730053432496,0.033207822840259124,-0.07947411174934658,-0.14499005304373697,0.9862344071475099,-1.8279879212323145,-2.1139168069426124,4.154174327850342,0.8972172099244531,1.3494806932738552,-0.27740270296205694,1.0,0.4861459181818162,0.4910592586455292,0.28447478936620296,-0.5335431937735838,0.4098240613550557,-0.09269325879215176,0.734018977198017
6.2,-0.20555393284526957,-0.1676959919123987,0.10253995451411702,-0.0039805513007629845,0.05049105186465336,0.03655935697514169,-0.0794685300775289,-0.14504836625933776,0.9862279100459829,-1.8263828103915896,-2.1146765211884726,4.153901483383398,0.8964903533739264,1.3496655984427521,-0.27741276681291505,1.0,0.4866327125996478,0.4915785527318046,0.2843543896654021,-0.5336821837522107,0.4098798422498297,-0.09268387846646195,0.7338879617047419
6.300000000000001,-0.06406579717783856,-0.3857575904940137,0.05552905480910503,0.0004716173183731886,0.042303921606333,0.03586518572966793,-0.07947614192183217,-0.14510358778642177,0.9862186276749086,-1.824560555368905,-2.115380762355919,4.153717534484827,0.8956882196613769,1.349896634044723,-0.2773669401751917,1.0,0.4868109217563102,0.4917479964216402,0.2843863987994852,-0.5336649806486664,0.40986728838604203,-0.09269264413523093,0.733906375543605
6.4,-0.4979685990463827,-0.145861110977692,0.3152108455873565,0.0040414873431538715,0.0481867377756152,0.03720977506960445,-0.08027241291736509,-0.14642617915704492,0.9859581440648625,-1.8231648376415617,-2.1160853565767668,4.153510091033855,0.8948033121345614,1.3500962257385254,-0.2773384348396185,1.0,0.4871212938612206,0.4920783305746843,0.2845828307938175,-0.5335513731235277,0.4098104459685651,-0.09267855349047342,0.7340224903475081
6.5,-0.14390378115566543,-0.2760447196583989,0.15688262962260718,-0.002546914624169667,0.049437439739329445,0.039916314800029384,-0.08073967064729895,-0.14719291219420258,0.9858068861847896,-1.8216753368263634,-2.116907344901295,4.153323650360107,0.893927736873291,1.3503241539001465,-0.2773230733370391,1.0,0.48767645516966374,0.49262378209979835,0.2846295949017424,-0.5336111904351448,0.4098602819355803,-0.09269696531340296,0.733948853364974
6.6000000000000005,-0.14913960738705231,-0.3207013963412257,0.09428921593711788,-0.003582944242926292,0.0450104178151932,0.03481232080409378,-0.08044339744094983,-0.14666968194365249,0.9859091050869401,-1.8198938910852358,-2.1176622077890968,4.153087984583679,0.8932410451492134,1.3505262325288214,-0.27731265006355416,1.0,0.4878554767217639,0.4927946400312627,0.28458187445496014,-0.5336559726361776,0.40989645183358225,-0.09270107772842356,0.7338955728385095
6.7,-0.09948891210066955,-0.2607324658755497,-0.04113644328028748,-0.0007717095128987535,0.04089314115262452,0.03294798885177329,-0.08022902145738871,-0.14635125399107043,0.985973910404466,-1.8182916641235352,-2.1184751851998502,4.152900524528218,0.8924162556915195,1.3507336574754611,-0.2773147867185351,1.0,0.48818089423978134,0.49318005417599925,0.2847266006749196,-0.5335772730073315,0.40983322647657133,-0.09266207621000105,0.7339930243798745
6.800000000000001,-0.17170849645728153,-0.10922015895003775,-0.08630633248495484,0.001507582758614324,0.044811865480284443,0.03443811970960742,-0.08025922278776956,-0.1464342334491356,0.9859590263199712,-1.8169126102650583,-2.1194378448671687,4.152660440425367,0.8916023134020081,1.3509676401243484,-0.27726689658628795,1.0,0.48851673209142,0.49352423501853754,0.2847858244550705,-0.5335611957068938,0.40982184056830895,-0.09266653114733792,0.7340105063513416
6.9,-0.12303096149510445,-0.33243048139011694,-0.13473807738215204,-0.000581913631143475,0.045649582714442194,0.035711778746331475,-0.08058128745562175,-0.14693642497106876,0.9858580565435641,-1.8152186835370667,-2.120186673646721,4.152428561142521,0.8908168139699408,1.3511924084935951,-0.27723186351614176,1.0,0.4889909148806198,0.4939952977484012,0.2846799846888441,-0.533645425367054,0.4098821010673698,-0.09268884811563596,0.733912801798968
7.0,-0.18293305307327976,-0.1723899658001904,0.012213031455410861,0.0008140004767078163,0.046996443034096884,0.03859245048390366,-0.08018062810259066,-0.1462179918388058,0.9859975442416904,-1.8135531219890135,-2.1207585558361703,4.152174758415328,0.8898585571912517,1.3513725601535742,-0.27724264433436163,1.0,0.489291192756075,0.49428855199966354,0.28473391711410945,-0.5336350782599478,0.40988267103589293,-0.09269118702932522,0.7339197116048022
7.1000000000000005,-0.3478718383652348,-0.25006127499998954,0.02402222551866711,0.0010219332228006252,0.04309021378182086,0.036335463163408625,-0.08016170761915124,-0.14612140212104957,0.9860135017234999,-1.812947446452498,-2.1209759802377857,4.152082486175248,0.8895484644123535,1.3515131688230975,-0.2772012607316877,1.0,0.48960759095608797,0.4945559862733447,0.28490687929807246,-0.5335754059574112,0.40987255378151743,-0.0927055587405271,0.7339669305851646
7.2,-0.25387090614871144,-0.27329535845928515,0.07714427179942424,-0.0019172036214806605,0.04145948176920219,0.03807101238243586,-0.08030362838508552,-0.1463366196913654,0.9859699748676575,-1.8129795294999211,-2.1209618932380074,4.152054309844971,0.8894646254131253,1.3515465886641636,-0.27721092656965135,1.0,0.4898327872020325,0.49478201814366973,0.28503859017317373,-0.5335484558729776,0.40983796655879595,-0.09269488705966425,0.7340071827410874
7.300000000000001,-0.1049577517666048,-0.4342284399373121,0.07633539166103676,-0.003387261058830164,0.043615834374128595,0.03466988664885925,-0.08057280444256243,-0.1469048029675777,0.9858635167507532,-1.8129679582436387,-2.1209862781645787,4.152077523030733,0.8894646889953681,1.3515230704387275,-0.2772116453479283,1.0,0.4898332591812399,0.49480697210684865,0.28502323537321955,-0.5335726850742797,0.40983698605743174,-0.0926810585915436,0.7339918637017273
7.4,0.01870717967445891,-0.541269760434096,0.11629968865916396,-0.003939571733488447,0.04206399875421281,0.03351138236343157,-0.08100266516263423,-0.147678483259068,0.9857124744809365,-1.81296997420744,-2.121025542116063,4.152098409981448,0.8894628209544251,1.3515362300689244,-0.2772042524313448,1.0,0.4898409440234127,0.4948200159556215,0.28499395875911976,-0.5336025137743775,0.4098477120314533,-0.09267914491206279,0.7339644312462401
7.5,-0.06148610870795121,0.18988735111960087,0.177277367836995,0.009875064563185982,0.04499717132391935,0.039515884885356733,-0.08127953498122176,-0.14816453058376822,0.9856169335854749,-1.8129896277129047,-2.121032162645686,4.152054309844971,0.8894678252282301,1.3515467643737793,-0.27722341219057256,1.0,0.4898363915334913,0.4948304882874214,0.2849937125610468,-0.5336054253930641,0.409846062210763,-0.09267577105360343,0.733963661730633
7.6000000000000005,-0.4666117087828927,-0.20106643111854072,-0.03808839438488161,0.0006705156323548577,0.051237080670968015,0.037773099399623436,-0.08090748567359221,-0.14753238343110506,0.9857423563072415,-1.8129364590704042,-2.121038166925986,4.152049865239898,0.8894759851643066,1.3515229225158691,-0.2771876494037073,1.0,0.48983325161212293,0.4948218733324516,0.28499343953751605,-0.5335993900960044,0.40983741792202577,-0.09267823492316167,0.7339725652445779
7.7,-0.3012782228825227,-0.07109789199477433,-0.02189627203986485,0.004646795932329004,0.04980854931437788,0.03677138509234686,-0.08210603837320894,-0.14955106564837783,0.9853378284246904,-1.812970246128782,-2.1210496162607115,4.1520477052722455,0.8894530969807128,1.3515582084655762,-0.27723152180808797,1.0,0.48984989509643206,0.49481119187159917,0.28499755230605905,-0.5336021569952337,0.40984613800185954,-0.09268730163302782,0.7339645395596319
7.800000000000001,-0.2122343380370008,-0.16464356926457058,0.0722337459323237,0.0038086792087129793,0.04735182497407026,0.03865777634365461,-0.08228722541104001,-0.14985565255936156,0.9852774883998654,-1.8129568099975586,-2.120998045007223,4.152045563820826,0.8894759851643066,1.351524675352014,-0.2772028182723119,1.0,0.48985343119920133,0.49481168148052,0.2849811408459852,-0.533611344745923,0.40984875926078734,-0.09269196624044052,0.7339558070383541
7.9,-0.15522367231415268,-0.4519687862952002,0.04945537832485088,-0.0036997827546719824,0.04747182642710449,0.041872749989161885,-0.08178121346405508,-0.14899936343324274,0.9854493912537795,-1.8129378435439487,-2.1210338077940882,4.1520497353159485,0.8894483690548848,1.3515409352951626,-0.2772214947305013,1.0,0.48985485125736533,0.4948094860270064,0.2849923132413079,-0.5336032018099146,0.40984555749335827,-0.09268541595056963,0.7339643422477931
8.0,-0.01658051553926161,-0.3547210881174502,0.03738443075271314,-0.0013655691250182174,0.043340601657542714,0.04247823677713279,-0.08117137497340142,-0.14794041824201043,0.9856595577324314,-1.8129515907961995,-2.1210338077940882,4.152062641491549,0.8894453056335236,1.3515451459022654,-0.27722646238688714,1.152057819170454,0.4898515403151843,0.49482079915773153,0.28499449414053957,-0.5335954589917375,0.40984649883500357,-0.09267673297361004,0.7339705421210205
8.1,0.03262670763052047,-0.21464475525396776,-0.0023025097996038357,0.0013852691241782547,0.04252158703384294,0.03978021701466388,-0.08147921681196463,-0.14835727427871379,0.9855714877915579,-1.8129506691584056,-2.1210457287230433,4.152080207003053,0.8894509961673184,1.351532427395302,-0.2772011943088986,2.0,0.48987672057118037,0.4948046244917631,0.28498748466049945,-0.533589363694329,0.4098677908485814,-0.09270214493836694,0.7339598744488767
8.200000000000001,-0.12214224701786533,-0.2959266974275808,0.17056528998300813,-0.0013129459839671242,0.046024995458890966,0.041776421506877784,-0.08150848522387147,-0.1484365559192526,0.9855571790168776,-1.8129162863391715,-2.1210421486943267,4.1520454921075745,0.8894512353657802,1.3515431843450627,-0.27721678970411806,2.0,0.4898651508837223,0.49481059185812554,0.28498148332112655,-0.5335994739932418,0.4098517892186306,-0.09270154167301992,0.7339615360493137
8.3,0.08064018218333466,-0.13382632281710183,0.022560206902064367,-0.011247559894283912,0.04959462055362976,0.04415710783703332,-0.08143493491719354,-0.14832651223033097,0.9855798253225614,-1.812967232342152,-2.1210381034548247,4.152029514312744,0.8894781751089958,1.351575817403986,-0.27722341219057256,2.0,0.4898608790346658,0.4948060729340452,0.2849956876723563,-0.53358927618564,0.40985890292502464,-0.09270378601025941,0.7339646940365345
8.4,-0.41817463436685365,0.11144517473521531,0.1474036466498713,0.0041518521385887405,0.05274357868922592,0.03704535506380822,-0.08165367927097661,-0.1487096618649878,0.9855038342861826,-1.8129568099975586,-2.1210457287230433,4.152031678225708,0.8894570918969524,1.351536530520629,-0.27719181077479027,2.0,0.48985649920223734,0.494812978199962,0.2849998297648667,-0.5335966258680284,0.40984858971777094,-0.09269151022748037,0.7339666602103658
8.5,-0.3679594790956285,-0.015274172165364697,0.23951530793376286,0.00311100345381431,0.05619561545572566,0.03707229995954213,-0.08192863486879995,-0.14919351632465908,0.9854080192782533,-1.812932014465332,-2.1210559764761734,4.152029514312744,0.8894708257258452,1.351542629733427,-0.27721976054232206,2.0,0.48985710550292616,0.4948204866590619,0.2849929195440676,-0.5335886208280786,0.409858360136967,-0.0926865056550655,0.7339676559754381
8.6,0.09580321554087191,-0.1078779060232174,0.24060823478822602,-0.0027791716731378107,0.054651067807435574,0.04138365110631263,-0.0817870860200934,-0.14892394092768318,0.9854605208466879,-1.8129300707127582,-2.121043703980779,4.152050098381061,0.8894469417642289,1.3515446586418243,-0.2772011992274592,2.0,0.4898736548090604,0.49481018304694757,0.28499903504346114,-0.5335833190610847,0.40986028456078916,-0.092703818857019,0.7339682491285511
8.700000000000001,0.13753106385188849,-0.4021793391051225,0.12558785627256458,-0.009100564672479605,0.05204235598434094,0.04150150839743639,-0.08176304725091318,-0.14886772608434237,0.9854708761070856,-1.8129264494236528,-2.1210318738960234,4.152038044282728,0.8894445670107295,1.351534366607666,-0.27722341219057256,2.0,0.4898753635130497,0.4948087686439121,0.28498903060512926,-0.533588150177356,0.40986553454864166,-0.09269590400864144,0.7339628048882889
8.8,-0.1764031447830769,-0.24857246080983192,0.08767077173477106,-0.0032641597236883766,0.049930397881684366,0.04259675587715547,-0.08239279591901778,-0.14999857919415951,0.9852467431701003,-1.8129246247072806,-2.1210581264891566,4.152023686437066,0.889460846193484,1.3515601298026696,-0.2772196434139664,2.0,0.4898662576926482,0.49481524341963024,0.2849768933017654,-0.533599617650667,0.4098587534293303,-0.09268867939552797,0.733959167115127
8.9,-0.08167493459765918,-0.08944639740486897,0.08710948072170306,-0.001988116254041511,0.04958025140081511,0.046282456614922064,-0.08232143706675929,-0.14988044970352718,0.9852707929819767,-1.8128870637211578,-2.1210581264891566,4.152052439917003,0.8894769201282908,1.3515353015716502,-0.27721239026544847,2.0,0.4898769883068512,0.49480955095630164,0.28497034442560865,-0.5336061590839583,0.4098639188898294,-0.09271347450975476,0.7339483950689354
9.0,-0.03293916643027395,-0.2187539920269654,0.006294189821762899,-0.00971919435354693,0.045297018455592246,0.04293084359235932,-0.08180596381529177,-0.14897781836091392,0.9854504601570491,-1.8129006170775106,-2.121039983286682,4.15202418457005,0.8894883829304199,1.351548231817564,-0.27724066286222193,2.0,0.48986750133232615,0.49480832695034216,0.28500795659782524,-0.5335819784016592,0.4098457576088831,-0.09268762921026022,0.7339793802869078
9.1,-0.07589150270284803,-0.4792644772796836,0.13654411799690944,-0.010111279695071942,0.04998286680411154,0.04833365955737,-0.08093412348472358,-0.1474826886686386,0.9857461491609134,-1.812932014465332,-2.1210358052638743,4.1520501551078155,0.8894780625328842,1.3515145196893283,-0.27722540966035875,2.0,0.4898655518196581,0.494816621325923,0.28499986989853143,-0.5335838270535208,0.40984460661865274,-0.09270491725218001,0.7339764957066315
9.200000000000001,0.050601506971647975,-0.3125082020213456,0.21589026967661323,-0.001643389313913569,0.03092317235664648,0.04858132295646044,-0.08023375460933799,-0.14628464278751874,0.9859833286132913,-1.8129205703735352,-2.1210550407622835,4.152044937301282,0.889473080950779,1.3515329145009023,-0.2772051439403533,2.0,0.48986560140791513,0.4948101956398959,0.28499888877479607,-0.5335819950814743,0.40984628440950255,-0.09270495537787063,0.7339768858274666
9.3,-0.35281693527550745,-0.22826113487611888,0.2627903904634826,-0.0037580947457998854,0.017916297009454768,0.04467352205370775,-0.08070106835590521,-0.14710967184432566,0.985822070982272,-1.8128858883053813,-2.1210449499451083,4.15202991927727,0.8894756113508979,1.3515240751072126,-0.2772107124836827,2.0,0.48985710362642915,0.4948201196435576,0.284999677996144,-0.5335881856579687,0.40984320762681176,-0.09269101924917594,0.7339758635261464
9.4,-0.7888328061477532,-0.3619753934696086,0.34798258910769647,0.008869750112496477,-0.014224967744016295,0.044031817380661954,-0.08110431449621504,-0.1478182928154871,0.9856834347351622,-1.8129243841116456,-2.1210581264891566,4.152012053371846,0.889470557921611,1.3515723664185098,-0.27722157866263486,2.0,0.4898549382416562,0.49481730910721183,0.2850079006422129,-0.5335822373850905,0.40984733522282013,-0.09267741498089196,0.7339796008816143
9.5,-1.4983948907545324,-0.7188792082632016,0.6159604121803728,0.019590567947355676,-0.07438213925707991,0.044499320588382484,-0.08100084020491405,-0.1476062245515259,0.9857237144502349,-1.812939469408661,-2.121021886865133,4.152018070220947,0.8894627175812458,1.3515467643737793,-0.2772030503554008,2.0,0.4898782178693552,0.49481680208725154,0.2850110976327005,-0.5335680512224426,0.40985732848591777,-0.09268613712685532,0.7339832320874732
9.600000000000001,-1.711775104738602,-0.20506500298392932,0.9114773738879386,-0.0015547001670268533,-0.10756239000737114,0.04292366026014598,-0.081310736727768,-0.1481346153181845,0.9856185551034865,-1.8129175569377236,-2.12103223829627,4.152051045289508,0.8894759851643066,1.3515499033694163,-0.2772114912616175,2.0,0.48986782522948547,0.49482557367959995,0.2849979269058867,-0.5335920316568659,0.40985053302875224,-0.09269108359057253,0.7339689689293081
9.700000000000001,-1.6635359110239745,-0.0012399833793070997,1.3546815045081586,-0.027203226407847714,-0.1276810494146965,0.04307153108310507,-0.08186250397506963,-0.14910364655405833,0.9854271015592418,-1.8128881322878387,-2.121037536225909,4.1520314150819075,0.8894425999837631,1.3515545531402617,-0.27723533311952764,2.0,0.4898671563451702,0.49482240531357025,0.28500804865534063,-0.5335827453379258,0.4098452726742324,-0.09268868691864762,0.733978959958338
9.8,-2.1165232585145612,0.08707158100936269,1.478472315822564,-0.028473326488074692,-0.13598613608261234,0.052037414871605354,-0.08216057267580924,-0.14968705444457334,0.9853137701491971,-1.8128822934255615,-2.1210290360086965,4.152037208694934,0.8894530969807128,1.351522445678711,-0.27722341219057256,2.0,0.48985636051009834,0.49483131209974,0.2850060910500697,-0.5335889363205288,0.4098380315697222,-0.09267606161885286,0.7339800968133949
9.9,-2.151061020288815,0.37157791594904793,1.9240000357893392,-0.037019864955617564,-0.14263479135436735,0.04032839056970287,-0.08180391825678628,-0.1490675814795538,0.9854366553383428,-1.8129032125574118,-2.1210438084565606,4.152043909155999,0.8894548629294364,1.3515267630488348,-0.27721949484694763,2.0,0.4898462925526349,0.4948336178751081,0.2849909040050363,-0.5336075193417207,0.4098439164707517,-0.09267931754992227,0.7339628897514994
10.0,-1.8993480861301888,0.24112389000401868,1.8199134187883856,-0.053000060456769735,-0.14396697012335868,0.047062965095649174,-0.0810699244300733,-0.14775548422794313,0.9856956633505758,-1.812882770979302,-2.1210597512497915,4.152095494518251,0.8894332407208165,1.3515533991740967,-0.27720980151055713,2.0,0.4898620289606946,0.49483140425429123,0.2849892782382107,-0.5335937560363783,0.40985342035420635,-0.09267994842562595,0.7339675091601612
10.100000000000001,-1.759587871708564,0.16032341460638416,2.019232646449569,-0.04486612466429757,-0.15684263730535708,0.04785676284758229,-0.08134814904307944,-0.1483107688287194,0.9855892702632678,-1.812908010852608,-2.121046937104601,4.152085808895191,0.8894634256433795,1.3515355749892237,-0.2772102828800598,2.0,0.48982853576101837,0.49485753558804907,0.2849873496550628,-0.5336110958816563,0.4098361286865547,-0.09265523367338667,0.7339676788851984
10.200000000000001,-1.9183197720812801,-0.012706631784163286,2.0548835148045725,-0.041663670051596186,-0.15205971466141247,0.04791872460232003,-0.08128914775340852,-0.14823419904979998,0.9856056362463403,-1.81290581544183,-2.1210581264891566,4.152041912078857,0.8894232243565131,1.3515244505958268,-0.2772436573814109,2.0,0.48984481406593605,0.4948409038024352,0.28498717087178493,-0.5336032396199557,0.409846860086713,-0.0926692674016982,0.7339656264590207
10.3,-2.012745303610966,0.017997162982136217,1.857222522980014,-0.03602986254361125,-0.1498963403823848,0.043065456268016666,-0.0809491261551081,-0.14763421495455772,0.9857236877217743,-1.8128815000570095,-2.1210382006277286,4.152028923104059,0.8894759851643066,1.3515539017659288,-0.2772212588407489,2.0,0.4898415928350533,0.4948387334638734,0.2849934881084177,-0.5336030262481631,0.4098265529343754,-0.09268255645961491,0.7339754427886805
10.4,-1.978533170469586,0.053321652057783164,1.9775554517921807,-0.029961711617644986,-0.15180238113163202,0.0424501077603616,-0.08021235084925482,-0.1463424035222383,0.9859760605427659,-1.812929563820601,-2.1210338077940882,4.152044246477802,0.8894666959023043,1.3515274117446079,-0.27722341219057256,2.0,0.4898466709154632,0.49483947869114864,0.2849976975517179,-0.5335825017246252,0.40984063333579995,-0.09267342833645387,0.7339836543142966
10.5,-2.1535000864689384,0.35407861284302294,1.8395566123878286,-0.018460978652230377,-0.1478566242085145,0.04420658807306297,-0.08009936694771246,-0.14613027004592902,0.9860169990616546,-1.8128976821899414,-2.1210478426677892,4.152033742202236,0.8894707202956137,1.3515665409533315,-0.2772312678411698,2.0,0.4898545556798064,0.4948352759812675,0.28498264458052863,-0.5336026118968902,0.4098486847127159,-0.09267823954763503,0.7339639310827369
10.600000000000001,-1.9155834458266863,0.1019396099698722,1.8703368863956527,-0.020343963111751,-0.15513219390404906,0.044933309942090244,-0.08050130267058705,-0.14680937579439587,0.9858834054041217,-1.8129237348567901,-2.1210700474181117,4.15205215714675,0.8894759851643066,1.351536519305887,-0.2772529652710313,2.0,0.48984293751934604,0.4948443204658953,0.2850018012353332,-0.5335893229878835,0.40983773058658945,-0.09268097517062591,0.7339793633491257
10.700000000000001,-1.9573608857922136,0.15362241834016602,2.123189339297798,-0.02890764619875491,-0.15127509525395277,0.047725150468653416,-0.08051542115919963,-0.14681603541312518,0.9858813766664092,-1.8129072226077085,-2.1210660021107985,4.152054309844971,0.8894510346671806,1.3515582084655762,-0.2772114912616175,2.0,0.489856906358519,0.494832919746017,0.2850067803068294,-0.5335798029250013,0.4098435820679601,-0.0926847279982834,0.7339825429423402
10.8,-2.0405972750747963,0.17520949946472025,2.0832672672863457,-0.04497496368134077,-0.14941291792324318,0.04551574779464365,-0.08021946913706747,-0.14628502601736995,0.9859845294640087,-1.8129091262817383,-2.121079819962866,4.152044146398426,0.8894580099845397,1.3515366009272347,-0.2771919461721087,2.0,0.4898509911927292,0.49482303657795523,0.2850289434911912,-0.5335632022485219,0.40983888320124123,-0.09268537744539272,0.7339971524675469
10.9,-2.0758673590195365,0.5590677750259883,2.296605279873531,-0.048047416967576785,-0.1540217816956692,0.04669050373487375,-0.08066321630450683,-0.14703565462889664,0.9858364832662142,-1.812929956084733,-2.1210581264891566,4.152048430284088,0.8894283014484863,1.3515518617920623,-0.2772212680441152,2.0,0.48986094182621165,0.4948145204371146,0.28501063035048346,-0.5335789379284727,0.4098461898940714,-0.09270086273146905,0.7339796779729515
11.0,-1.843767781348793,0.5297472838257463,2.5856543234807443,-0.05571014202288039,-0.15819298657858594,0.04891604114743357,-0.08075486360435409,-0.14720370168833716,0.9858040459342098,-1.8129017743758828,-2.1210457287230433,4.152063707843797,0.8894688037661987,1.3515663435380003,-0.277203441443067,2.0,0.4898616643098951,0.4948303470065278,0.2849881134165499,-0.5335975622167617,0.40984758382816744,-0.09269171988773921,0.73396651469314
11.100000000000001,-2.0927487477385616,0.7042977065849053,2.4260873841440294,-0.05204535180418304,-0.15172110161738614,0.050604723659841776,-0.08051832090512824,-0.14682861634680902,0.9858793827950088,-1.8129254877610557,-2.121053503406961,4.152063578368676,0.8894716340281223,1.3515489399418714,-0.27720145036093735,2.0,0.48985573686202344,0.49483669193033736,0.2849876567125212,-0.5336016312175794,0.4098561296348454,-0.0926796809245029,0.7339603047211857
11.200000000000001,-2.1765277098813325,0.7377800610719211,2.52059929338916,-0.05020816826127771,-0.14901318277311346,0.04483498874473993,-0.08051684517541287,-0.14682788275595887,0.9858796125729552,-1.812909517984632,-2.1210463489192914,4.152077319334232,0.8894537008560072,1.3515461441775312,-0.27722381205394314,2.0,0.48984632554383034,0.4948324943269395,0.2850001750564029,-0.5335861504804623,0.40984559768476897,-0.09268088557678839,0.7339772881517234
11.3,-1.982161942367455,0.40360911666292765,2.43622809240112,-0.056644889748794315,-0.15672505392015917,0.04414728783342136,-0.08061625057298868,-0.14697857661196254,0.9858489993063348,-1.8128887589087994,-2.1210733674992195,4.152067968016412,0.8894710129976227,1.351534366607666,-0.2771990934955042,2.0,0.48985316041773963,0.4948298588745333,0.28500628602027106,-0.5335908922964926,0.4098348132260147,-0.0926936667699634,0.7339782487696549
11.4,-2.027976174136677,0.3945612117404426,2.108822235091132,-0.053124211767993375,-0.15572484166706088,0.049773567288132425,-0.08081730873759167,-0.14728185618335102,0.9857873070767019,-1.812918990012952,-2.1210338077940882,4.15205681208256,0.8894620388349198,1.3515130269873459,-0.2772443408220922,2.0,0.4898527474847358,0.4948236777974063,0.28502299529059677,-0.5335584949476975,0.4098460818815532,-0.09268150327268429,0.7339970439903707
11.5,-1.8933344700059938,0.28076915581632433,2.430092065103835,-0.055707237366661465,-0.1607196106008312,0.04892317554941494,-0.08118000080232116,-0.14793749910505352,0.9856591714510347,-1.8128867464417717,-2.1210700474181117,4.152061440200589,0.8894305445912992,1.3515249931092348,-0.277191963139886,2.0,0.48985861215781273,0.49481872135209953,0.2850120713701401,-0.5335683108222098,0.40984651553307255,-0.09268083893840805,0.7339897502590927
11.600000000000001,-1.9793531151657822,0.559553433658181,2.37693256839269,-0.047824206882536385,-0.1603770535633282,0.047452407750239206,-0.08131088006236066,-0.14818192188963739,0.9856117969218173,-1.812897249225061,-2.1210577244503392,4.152076976512491,0.8894298477516308,1.3515582084655762,-0.27723378681638317,2.0,0.48984978987120065,0.49484698758736034,0.2849987620752183,-0.5335859673739607,0.4098354787462361,-0.0926738192044152,0.733983963732523
11.700000000000001,-1.7400804916066954,0.1010999919549616,2.3264326573061305,-0.057036628093723854,-0.1593468427920827,0.050959038949411326,-0.08118664465859762,-0.1479728453919772,0.9856534472092585,-1.8129205703735352,-2.1210622246827944,4.1520584080386085,0.8894604428788722,1.35154053511945,-0.27721726490011617,2.0,0.48985132382884045,0.49483263788087506,0.28499237114644965,-0.5335954418216233,0.4098405507813326,-0.092689142737837,0.733972308892485
11.8,-1.9830287967758093,0.34398818647089985,2.2847431182925426,-0.050168046874108314,-0.1537625533864494,0.049128602334061466,-0.08126879078012719,-0.1481393365641088,0.9856215777769255,-1.8129299683365223,-2.121077705578713,4.1520738889345274,0.8894665872013195,1.3515445477342354,-0.27720761903221164,2.0,0.48985436614849587,0.494827756592197,0.2849914790014867,-0.533595331785846,0.40984311001052337,-0.09268828331242361,0.7339710683738501
11.9,-1.7512990085302955,0.3160785979526287,2.2909722066179685,-0.051828055889013874,-0.16205882866473786,0.045245584989431355,-0.08158426074687193,-0.14873042433096992,0.9855065909061855,-1.8129184619642973,-2.1210435324634207,4.152054309844971,0.8894782692743142,1.351543151646157,-0.2772446688020867,2.0,0.48983994694891636,0.49483964903009775,0.28500694963588946,-0.5335927886909755,0.40982535102887857,-0.09266962045075731,0.7339851898754887
12.0,-1.9579045069827041,0.4007289378495248,2.3816154484482603,-0.048584027713839004,-0.15984306226461611,0.048424734928533865,-0.08185353008374237,-0.14915013707161906,0.9854207757475283,-1.8129091262817383,-2.1210499438423978,4.152046044548813,0.8894604086025544,1.3515706062316895,-0.27721919707121817,2.168472887209036,0.4898585519280612,0.49482524064258604,0.28499452980533624,-0.5335853436492398,0.4098413086083148,-0.09268126638677326,0.7339802215740495
12.100000000000001,-1.996806264034561,0.31269136497979855,2.5842090841257725,-0.04561338827157581,-0.15784199583019085,0.05648834919244852,-0.08202275704407903,-0.149392570530339,0.9853700444894956,-1.812926360628315,-2.121021737522589,4.15208099154617,0.8894311965758762,1.3515467643737793,-0.27722341219057256,3.0,0.48985308782269815,0.4948364980155775,0.2849867555816684,-0.533599710346788,0.40984375700110814,-0.09267115015088348,0.7339696873132793
12.200000000000001,-2.2464930871006854,0.2805747100468612,3.078793332596127,-0.03215865966504511,-0.15491128294545692,0.04446453598741065,-0.08207210442052491,-0.149427378418687,0.9853606574373379,-1.8138038988506053,-2.1207677057066987,4.152055039695319,0.8898409624611877,1.3514387753520574,-0.27722341219057256,3.0,0.4898408606982776,0.49480402501580534,0.28499183935421546,-0.5335997040629807,0.40983777320896125,-0.09269482399956533,0.7339700437202525
12.3,-2.165263402088638,0.5471033520530764,3.7460666339522666,-0.0816784060397848,-0.16418010907340197,0.05247467728503304,-0.08211199982699197,-0.14941866174556812,0.9853586558639441,-1.8153198741361225,-2.11992241046846,4.152210712432861,0.8907556355980354,1.3512893427170949,-0.27722902862335297,3.0,0.48977107453124735,0.49466847476897674,0.2848922260693456,-0.5336267696670359,0.4098968603042808,-0.09271945400537249,0.73391425756444
12.4,-1.9188065137912205,0.7604837029616556,4.52557028606935,-0.08500683431308888,-0.15140661551612028,0.0617588741227234,-0.08213989054629135,-0.14935466572373238,0.9853660343840487,-1.8170633319544585,-2.1190590657965904,4.152504763123526,0.8915001603903105,1.3510209704737735,-0.2772313609367697,3.0,0.48951424757602524,0.49434097799336163,0.2848807852086012,-0.5335852077675228,0.40990307681470717,-0.09271686077298574,0.7339413310326164
12.5,-1.6137936948253742,0.41262996244027006,5.132309013778571,-0.09492673051567424,-0.15074951474112486,0.09834234722007773,-0.08215956772323879,-0.14947403203503182,0.985346293359214,-1.8184611495112029,-2.1181537516546394,4.152802366605947,0.8923312860676269,1.3507462286613356,-0.2773138836463212,3.0,0.48895580689769663,0.4938203943169372,0.2848525828764172,-0.5335866450743691,0.4098844144625263,-0.09270389434176556,0.7339523465136292
12.600000000000001,-1.7724274920717091,0.581433157027952,5.217348947813017,-0.07191519553650562,-0.15131825117622202,0.08932947935916367,-0.0825886134978975,-0.15027640835832878,0.9851880978110572,-1.820075541774708,-2.1174428887298538,4.152980387223481,0.8931176203164493,1.3505274503759774,-0.2773689890980179,3.0,0.48870039392924597,0.4936293417203171,0.2849008292079037,-0.5335596098981991,0.40983399657538827,-0.09268798904260454,0.7340021625469259
12.700000000000001,-1.5301428402021193,-0.19134491866410397,5.026103872984088,-0.07094970039511893,-0.1480084345355586,0.08662879649252897,-0.08272906180318453,-0.1505385271393644,0.9851364575994013,-1.821850228701876,-2.1167796086895145,4.153242197424262,0.8940426900722107,1.3502867044613311,-0.27730650992633765,3.0,0.4882757222291707,0.4931629367385779,0.28480658082422566,-0.5335647376597996,0.409846123465273,-0.09271327698380888,0.7339884699894411
12.8,-1.6554296456845519,0.33606623330502083,5.243584051745169,-0.07273905943209058,-0.1428420985048899,0.08575789409016264,-0.08240450341758196,-0.1499420600032218,0.9852546930487021,-1.8233187662438999,-2.1160219510567373,4.153517246246338,0.8948132100700257,1.3500251635959046,-0.27732910481322,3.0,0.4880139837786083,0.49291156284640814,0.28470487616763274,-0.5335904307032187,0.4098694434189213,-0.0927024647129018,0.7339581354883741
12.9,-1.6393293387156178,0.2543901818994602,5.219338604927787,-0.08807119731006101,-0.1411234133102486,0.10105299279069736,-0.08189987281234282,-0.14905756633006093,0.9854306790101898,-1.8247802565315094,-2.1152351058068533,4.153711691986458,0.8955661958224672,1.349806308746338,-0.27735061301813957,3.0,0.4876993695103083,0.4926218599947987,0.2846231979252701,-0.533606208405943,0.40987150202919975,-0.09270812790286431,0.7339447998287796
13.0,-1.8223610772011474,0.3361391041007063,5.16766467091113,-0.06998343812499543,-0.15279723827772146,0.10663621098952777,-0.08165013023650913,-0.14862276432103944,0.985517361917999,-1.8265171590375302,-2.1144012965421184,4.153959980198587,0.8963878958383562,1.3495568770616841,-0.2773598604362277,3.0,0.48720175382394487,0.4920876363556375,0.28461962986893213,-0.5335612450375116,0.4098782737685273,-0.09272045279072332,0.7339721494176983
13.100000000000001,-1.7006043985063093,0.5402778072992063,5.484808099166257,-0.0736548653463302,-0.14976230575416108,0.1268139547265727,-0.08182805437197062,-0.14893740945026168,0.9854551197421119,-1.8282472739838884,-2.1136521137723716,4.154189382968016,0.8972006662739157,1.3494089401488072,-0.2774386069200665,3.0,0.486955505615024,0.4918566358141415,0.2845540888423224,-0.5335884528691696,0.40988163022660223,-0.09269771812912844,0.7339533671978906
13.200000000000001,-1.8100073137381303,0.7020151134487707,5.515429441777712,-0.07966487982876444,-0.15164531727226552,0.13431824372290377,-0.08220752578839702,-0.1496101086622134,0.9853214396000463,-1.8295893844539013,-2.1127519313838734,4.154452643665601,0.8980345957728221,1.3491364087545767,-0.27748269917360646,3.0,0.48663597610682063,0.4915375033469927,0.28449582401162965,-0.5336023803861571,0.4098759688114343,-0.0927038754815762,0.7339456255798595
13.3,-1.9641389395330138,0.2577792623970982,5.409621892548779,-0.07489791913001678,-0.16085769133604164,0.13189192746858314,-0.08258350290649336,-0.15029317882416013,0.9851861816744735,-1.831158676908604,-2.1120378646974465,4.154682330432797,0.8988620477863769,1.3489406782952305,-0.27745086351503545,3.0,0.48612558006200657,0.4910757071134958,0.28452742823450816,-0.5335524232177105,0.4098312413050278,-0.0926854636904608,0.7340092439127549
13.4,-1.7783522844178572,-0.04840055855497198,5.478000528812376,-0.05870725216719991,-0.17308034804122888,0.14021993575903785,-0.08277249978799067,-0.15066717386450595,0.9851132495928376,-1.8329513834865232,-2.1113176966388596,4.154909556672021,0.8996477287731772,1.3487371394745524,-0.27749315537219704,3.0,0.4858705966233434,0.4908276669239773,0.2844933968391008,-0.5335466586491042,0.4098285084168912,-0.092670956297703,0.7340167917643519
13.5,-1.975221206384176,0.029532707527618052,5.592713048686136,-0.07452918669749423,-0.1646414617393196,0.14619799913490533,-0.08232255652164439,-0.14991291753566852,0.9852652970415292,-1.8344659805297852,-2.11057247738027,4.155146084787793,0.9004812371956655,1.3485350608825684,-0.2774866263019007,3.0,0.4853991742029617,0.4903305877505019,0.2842808592492952,-0.5336485056094291,0.40988229711316093,-0.0926736373367535,0.7339123734594187
13.600000000000001,-1.8751963809719514,0.1477845710103328,5.506707472295055,-0.08508879495839702,-0.1676024317702051,0.155715663276463,-0.08172756428178611,-0.14889817718849954,0.9854691485648714,-1.8359975814819336,-2.1097198925414027,4.155358942471199,0.9013456393969126,1.3483044360512406,-0.27752952542356973,3.0,0.48519150425042046,0.4901144908372837,0.28425955822134313,-0.5336428530003461,0.4098782103751398,-0.09268955484822056,0.7339167558540698
13.700000000000001,-1.9596623164460718,0.23057493496984488,5.790661152733083,-0.07818186521527508,-0.1713863098842172,0.16779105695497257,-0.08164676269450225,-0.14879978447426728,0.9854894713805911,-1.8375921249389648,-2.1089598422020766,4.155603885650635,0.9020783699245402,1.3480739466405585,-0.27759068849017143,3.0,0.48485539261328925,0.4898016511438174,0.28428564302016907,-0.5335842451866043,0.40983912876240514,-0.09266858299296936,0.733983838752591
13.8,-1.8430470608612306,0.004075494543677172,5.3792614148837075,-0.08942240895155389,-0.17460995661928524,0.17658497421220345,-0.08057196375292251,-0.14702583210414627,0.9858452016939125,-1.8392210006713867,-2.108183523217672,4.1557975103178295,0.9028316934951642,1.3478856117540197,-0.2775838980012502,3.0,0.4843074953157315,0.48925541715389637,0.2841614932703337,-0.5336405325415128,0.40983839126401755,-0.09266149528775527,0.7339442229256733
13.9,-2.1917733238878885,0.4133514978499012,5.653497186360154,-0.08481795247823393,-0.1727095839251566,0.17657340218244677,-0.08132308978902199,-0.14827356260606334,0.9855967294983627,-1.8407730796587756,-2.1074346830210233,4.156054290906867,0.9036647320647708,1.3476132891141714,-0.27758744480055153,3.0,0.48412445085465416,0.48905023271417114,0.2841150746741741,-0.533645710012344,0.40986690477845406,-0.09266520448312868,0.7339240672105333
14.0,-2.173273077591878,0.4968821849959181,5.750826556788843,-0.08289148256676578,-0.1880006997587581,0.17799989732302038,-0.08106446622529832,-0.14781261414505956,0.9856874706977142,-1.8423604673780565,-2.1066467290977475,4.156322797880676,0.9045211241186304,1.3473706245422363,-0.27761873621520483,3.0,0.4838014031597001,0.48872003255904745,0.28407615246507745,-0.5336395336553865,0.4098604846214615,-0.09268202066395638,0.733930020037039
14.100000000000001,-2.0358676329872534,0.4438723760336054,5.932899936616672,-0.08380970781884962,-0.20331766948742636,0.1839829273665385,-0.0806946280477475,-0.14712768831217612,0.985820332979595,-1.8438846363405472,-2.1058686471215355,4.156499890709553,0.905290457823053,1.347128797968885,-0.2776425520526331,3.0,0.48340023120172765,0.48830120703404684,0.2840448447622698,-0.5336087328337316,0.40985723492665815,-0.09268416997449379,0.7339539575872541
14.200000000000001,-1.9666137906148595,0.18250313759634657,6.071781068438762,-0.09066241569766964,-0.20614379670234442,0.19217603954320567,-0.08114074073733636,-0.14787284050612806,0.9856720915670018,-1.8454309372504085,-2.1050781968800485,4.156756682614462,0.9061011519441262,1.3468944432452479,-0.2776716228586321,3.0,0.48293904697355217,0.48782693959501605,0.2840443141234512,-0.5335668514699116,0.4098409538321829,-0.09268143500910951,0.7339938413767955
14.3,-2.183433662999544,0.4797646155748478,5.954126778913181,-0.08303652647124948,-0.2128420543641362,0.19982785924569693,-0.08151843865235246,-0.14854286722437607,0.9855403048708922,-1.8470886586142101,-2.10426572619341,4.156937277512498,0.9068811951458396,1.3466532644215665,-0.2776907126056116,3.0,0.48278164783754046,0.4876820844825966,0.2840291654599974,-0.533566607656075,0.4098477015558027,-0.09265390279667861,0.7339937268262978
14.4,-2.1711538175792993,0.6109895425979733,6.00082522191702,-0.09087838890868921,-0.210730244874174,0.20572293109308143,-0.08118555876014394,-0.14796795531767706,0.9856539556508059,-1.8486422337648116,-2.1035226766928448,4.157182930178053,0.9077577520362279,1.3464369196472985,-0.277724238424578,3.0,0.4824173104972236,0.48731877313311756,0.283962630327705,-0.5335969367191702,0.4098511953717966,-0.09267288007919444,0.7339673317485288
14.5,-1.8800915339269135,0.3302294695160483,6.087826094469491,-0.1060447315000461,-0.22330640467572835,0.21118488799350943,-0.08083931604380158,-0.14733248477865818,0.9857779280701143,-1.8499973948722432,-2.102770245570376,4.1574015617370605,0.9085716991737512,1.3462120392830523,-0.2777627150165003,3.0,0.4820441331819641,0.48692550184069366,0.2838861749406037,-0.5335891540112028,0.409849320501745,-0.0926917874948122,0.7339716491369975
14.600000000000001,-2.109210535976297,0.20604807248898466,6.148387138631522,-0.09346671054939698,-0.2310294592098911,0.20963714863761113,-0.08084853208063135,-0.1472586782538596,0.9857879647914066,-1.8517351150512695,-2.1020575658525273,4.157599801827968,0.9093290685563507,1.3459746960853856,-0.27778608003725225,3.0,0.48158581778590054,0.4864341946727376,0.2838989854883587,-0.5335184321931088,0.40983430347648875,-0.09271979296788505,0.7340279055976965
14.700000000000001,-2.502716750021596,0.09466645123405763,6.187205224121274,-0.06739333881682381,-0.24318028777098027,0.21085900527534074,-0.0802204803197884,-0.14618874692865944,0.9859984810139678,-1.8534097913676264,-2.1013459452680356,4.15782379677698,0.9101440149494628,1.3457567819713063,-0.277793733648531,3.0,0.481372017719105,0.4862144271850176,0.28378229429513496,-0.5335612616088725,0.40986512787028434,-0.0926998227857391,0.7339820841966893
14.8,-2.646358064451235,0.308680750244629,6.2942333007541444,-0.06767742614635251,-0.25563871086360557,0.2204829886692094,-0.08023755277523709,-0.14622862616248178,0.9859913178050613,-1.8548163366133643,-2.100577327320463,4.158074523031021,0.9110365601229901,1.3455271250953085,-0.2777980009662073,3.0,0.48105161365543225,0.48588659678638085,0.2836418732749648,-0.5336348959243392,0.4098847069547654,-0.09271873953107543,0.7339152268458489
14.9,-2.7736342642933773,0.055501037393387534,6.450348562505797,-0.08101721493877002,-0.26703040762004887,0.22740308493391068,-0.08048659552193216,-0.14666756510000678,0.9859058825985447,-1.856346256992616,-2.099682470361227,4.158314579936815,0.9117976862141113,1.3452955233642192,-0.27784616151918584,3.0,0.480616329319003,0.4854381533292723,0.28365705022324517,-0.5335711671586768,0.4098543457369575,-0.09270212720775695,0.73398061314221
15.0,-2.7630692262381413,0.34608624711140257,6.378105704310931,-0.07571352009827596,-0.2750611941179678,0.2357121334739148,-0.08026415364124995,-0.14629873553145592,0.9859786963897972,-1.8581079720287788,-2.0988285266527607,4.1585095880089735,0.9125943106071092,1.3450750810344045,-0.2778438761898788,3.0,0.48030180891432317,0.48512766993263695,0.28369081567743565,-0.533526651502765,0.4098319932189536,-0.0926890412876242,0.7340271051504894
15.100000000000001,-2.7319374725103374,0.18796771588709638,6.505063279346471,-0.06876919134763561,-0.2810113513388121,0.24436812282192327,-0.08008493451326151,-0.14601221257244063,0.9860356967352396,-1.859646443091106,-2.0981184264687305,4.158778085878295,0.9134048188926627,1.3448001181704516,-0.2778795311134651,3.0,0.47985316804068334,0.4846419676774836,0.28355646901566856,-0.533602651275073,0.4098622590631983,-0.09271519651568509,0.7339516547313472
15.200000000000001,-2.6243757605583737,0.20348576056051332,6.301139086745058,-0.07524862700124854,-0.290881659853585,0.24413023452441188,-0.08068270995990921,-0.14708603948146898,0.9858272918461519,-1.8603437637789222,-2.0977367999858387,4.158970355987549,0.9138831125108992,1.3446378707885742,-0.27792466488037004,3.0,0.47959622604761665,0.4844186531562144,0.28351951300367556,-0.5336155601788845,0.40985549851089714,-0.09270234248895447,0.7339476684154121
15.3,-2.85291133993037,0.07785008228321307,6.217754823638877,-0.07507682040224083,-0.2964040135684469,0.23944894831268915,-0.08106075232489417,-0.14773091245640324,0.9856999192251483,-1.8603974889689754,-2.0977513170172437,4.158974395080081,0.9139311314682208,1.3446011543273926,-0.27792161323040077,3.0,0.47939310296024656,0.4842518486745111,0.2835091243801092,-0.5335883770009655,0.4098427108767132,-0.0926943541494091,0.7339755806425213
15.4,-3.0878677620853545,0.23280903923670795,5.972792357437149,-0.059795305643787655,-0.2923222648847685,0.23612257714774956,-0.08134952044042955,-0.14820150789322215,0.9856054687971058,-1.8604639347339655,-2.097760437473286,4.159006595611572,0.913958584937899,1.3446354229641888,-0.277932532683415,3.0,0.4793041029615442,0.4841858598306578,0.2835270050993369,-0.5335402262066324,0.40982254385723316,-0.09268786499685353,0.734022662625676
15.5,-2.974213716555152,-0.07873785438049502,5.764673461870093,-0.05131169903988237,-0.30088833060699527,0.2356797626719208,-0.08153154843979002,-0.14848610575938295,0.9855477589068411,-1.8605117499828339,-2.097733248223696,4.158995151519775,0.9139733997929712,1.3446501567959785,-0.27790305166909707,3.0,0.4793000152302429,0.4841754608524991,0.28350658447524485,-0.5335452956830741,0.4098291293256118,-0.09269772118433546,0.7340140561991324
15.600000000000001,-3.0686569272831314,-0.1676078837508851,5.564305972932247,-0.04558150745162155,-0.30202134085431065,0.23383479712002317,-0.08129178198134841,-0.14803571525116666,0.9856352329995693,-1.8605592849320507,-2.0977696000825405,4.158961594349775,0.9139758783527832,1.344619364077223,-0.27789432207216436,3.0,0.47931102680314575,0.48415307668163426,0.283468320545549,-0.5335672294898127,0.40985970119628623,-0.09270070656458869,0.7339806645629589
15.700000000000001,-2.9708311795655264,0.131359822923198,5.515937990850978,-0.03973091181056815,-0.3054256185767023,0.23296463941479717,-0.08133532676606323,-0.14809203673957883,0.9856224666499934,-1.8605594772095557,-2.097739401095989,4.158973287610799,0.9139455019752593,1.3446200866131195,-0.2779030600501922,3.0,0.47931582676580875,0.4841424247716854,0.2834651527816553,-0.533566956755179,0.4098582909915297,-0.0927173215989629,0.7339795516497951
15.8,-2.8668414555908,-0.07214727889708118,5.418017957571698,-0.04380108927026287,-0.3094711530304674,0.23261862061175811,-0.08258061529659382,-0.150297718649038,0.9851845024746101,-1.860559309086182,-2.0977818095916536,4.1589883925206514,0.9139758783527832,1.3446250551781636,-0.2779155111043986,3.0,0.47928484574634356,0.48416359885716104,0.28346881944359753,-0.5335782731325411,0.40983616314426774,-0.09267963810527957,0.7339884403045834
15.9,-2.7821970495756876,-0.32032337215897877,5.52993968241879,-0.04736502979994742,-0.3105020034665529,0.22977239615332,-0.0829118799079026,-0.1509002502691072,0.9850658296413158,-1.8605620884064529,-2.0977331562899315,4.158979782209098,0.913952036494873,1.3446229783150554,-0.2779211505488821,3.0,0.479302092310568,0.4841457412868687,0.2834626588647004,-0.5335721493265331,0.4098557834863419,-0.09269461061267563,0.7339800456206051
16.0,-2.927490231456018,-0.03451545433278991,5.575143721391258,-0.04033994178562777,-0.3069921194386946,0.22768471259968517,-0.08280897844857965,-0.15074127724237332,0.9850988218404854,-1.8605350698991663,-2.097751227542234,4.158979212575256,0.9139672310781567,1.3446469949003588,-0.277926811204701,3.0,0.4792902105552931,0.4841646441545747,0.2834565711437201,-0.5335891631054335,0.40984591338821247,-0.09267825571575919,0.7339752538150787
16.1,-3.132141991332871,0.02073131721986729,5.436645577038186,-0.038048622216895756,-0.3018652511161276,0.22669912435121364,-0.08269254915572688,-0.15054896253914127,0.9851380038754785,-1.86057114209844,-2.0977541408934535,4.158964709509072,0.9139396387287597,1.344635332866806,-0.27791747734286804,3.142851133248072,0.47928725870305555,0.4841650806251325,0.28344808811716915,-0.5335977680622969,0.4098319431514712,-0.09270118205415556,0.7339739035806293
16.2,-2.8836448430677946,-0.17330348706068882,5.525991414519823,-0.041671092547037734,-0.30933628445001266,0.22540526657523444,-0.08250875187139632,-0.15019060781381427,0.9852080110094118,-1.8605716813623798,-2.097763350260172,4.159010750228487,0.9139548565195991,1.3446122175013178,-0.27792158179765114,4.0,0.47930112286226384,0.4841565278059726,0.2834456047460565,-0.5335942042766687,0.40986088152663114,-0.09269509434145451,0.7339611041748675
16.3,-2.980414418191144,-0.32925118125546526,5.559807208022617,-0.04492157084853296,-0.30610650848776344,0.22338979570417544,-0.08232495458706575,-0.14983225308848727,0.9852780181433451,-1.8605320606159916,-2.0977482920124597,4.159003788148695,0.913943380151002,1.3446411550886095,-0.27792375914087747,4.0,0.479299379057869,0.48415485042298023,0.2834499633581925,-0.5335864666725245,0.40985869617550896,-0.09270267773562713,0.7339669919648206
16.400000000000002,-2.7272879093635134,-0.12450745875307938,5.433364799747939,-0.04097481086676827,-0.31056641088052267,0.22304205774389924,-0.0821441390833,-0.14953157220100136,0.9853388192161701,-1.8605738741324733,-2.097736149586739,4.158991646591479,0.9139550787814947,1.34466497475967,-0.2778908171438685,4.0,0.47930537576943605,0.48414282205543163,0.283460966414872,-0.5335765526972246,0.40985291778379457,-0.09271293206864584,0.7339761306902907
16.5,-2.903336742968843,-0.09222216888607324,5.375337249934344,-0.03965986167899216,-0.30374963851827597,0.21995636452686015,-0.08194402441070323,-0.14922200388353335,0.9854023997871796,-1.8605480447818556,-2.0977089870025845,4.158973482916143,0.9139338659375092,1.3446352206971384,-0.2778821502920189,4.0,0.4792878008173927,0.484164960949969,0.28344897412400016,-0.5335866973657462,0.4098498492098506,-0.0926861067192566,0.7339738572443879
16.6,-2.3633174527570118,0.2579262162532935,5.253968031200001,-0.06591195735803543,-0.25325149772279226,0.2293712191903688,-0.08162170359430762,-0.14868288331751806,0.9855105922770192,-1.8605737810197807,-2.0977332728073352,4.158976541432876,0.9139281946369628,1.3446135520935059,-0.2779360582444009,4.0,0.47928974603210667,0.4841533103875832,0.28343289808815136,-0.53359663882891,0.4098556755477818,-0.09269326142758039,0.7339624728401851
16.7,-1.0336040778828264,1.5814250639276588,4.782770699764359,-0.16837051520906263,-0.14374363545065322,0.23540284881710652,-0.08117509640958719,-0.14788616787022166,0.9856669019855745,-1.8605830194141495,-2.097757065277111,4.15900100028709,0.9139340239121377,1.3446072370453996,-0.2779151225710709,4.0,0.47927915657650566,0.4841599527368299,0.2834407443922448,-0.5336087156268149,0.4098508706257037,-0.09269057391760137,0.7339567153186076
16.8,-0.25582521380564527,-0.2745154357692918,2.4963562955588374,-0.04591847380942876,-0.040721541235025166,0.22558262429728465,-0.08065684046561244,-0.14694095380732644,0.9858509503678574,-1.8605825117010577,-2.097760667109129,4.158956322433378,0.9139896686699193,1.3445566448053703,-0.2778969115345386,4.0,0.4793046393847846,0.48414221628133974,0.28342578628175596,-0.5336056468204623,0.4098789236850786,-0.09270133895641093,0.7339419209690685
16.900000000000002,-0.5855509566630579,-0.7112957899344974,1.8428045866807388,0.0006457377143707747,-0.04338696991149524,0.22227796984398696,-0.07957428454769037,-0.14507117661439,0.986212582727286,-1.8605956884530874,-2.097751175944457,4.158940999935835,0.9139785461955503,1.3445958198645176,-0.27789093775100054,4.0,0.47930876613769824,0.48412876027525614,0.2834611203261903,-0.5335582800806387,0.40987599795693697,-0.09271632806948511,0.7339760967262542
17.0,-0.02930597085209191,-0.5255927993308162,0.8448452641879718,0.0027236919876186053,0.00391343296606237,0.21664209451105482,-0.07815247514401895,-0.14264555806199414,0.986680977422425,-1.8605866439492196,-2.0977511610122845,4.158970355987549,0.9139787390387053,1.3446352485493167,-0.2778909831448045,4.0,0.47931021006823077,0.48412993072560884,0.2834547305467611,-0.533566098061775,0.4098712366938265,-0.09271032223095065,0.7339738309245357
17.1,0.2048818176638274,-0.46683637291098806,0.3748665468004014,-0.015009451978904742,0.026723862391152882,0.2170840439217816,-0.07766185972949487,-0.1418439893666039,0.9868378220579086,-1.8605979863631712,-2.09771790126943,4.158934787330722,0.9139905127658585,1.344640939959263,-0.27791800237354425,4.0,0.47930396871168074,0.4841286405708687,0.2834385931618838,-0.5335891089870224,0.40986174915283824,-0.09271084093339499,0.7339623350862317
17.2,0.20025550452932533,-0.5417451097542464,0.39218327349625115,-0.012602910126664675,0.026903153506776342,0.2093543617586633,-0.07775709982611484,-0.14206010953691,0.9867992430783766,-1.8605928421020508,-2.097726979512737,4.158973461702364,0.913933905101408,1.3446290555744347,-0.27790316141433147,4.0,0.4792940753241988,0.48413916765236975,0.28345018696795765,-0.5335973649619479,0.40985360990144,-0.09270734181479537,0.7339613200503545
17.3,0.06251965635346977,-0.4476799275253135,0.5556297407247375,-0.00976295098286407,0.02462445897731842,0.20966891246323469,-0.07787258383185812,-0.14227726878902686,0.9867588243136893,-1.8605885983861694,-2.09772718323504,4.158968019620301,0.9139638945046932,1.344604270127896,-0.2779296080218714,4.0,0.479298529300028,0.4841522520177974,0.28344998685951545,-0.533590348771666,0.4098564338967161,-0.09269271876203872,0.7339666907835125
17.400000000000002,0.2651208727844456,-0.7718070724048992,0.42277196278053203,-0.01372805547653832,0.022904030504565253,0.2127011712897822,-0.0778897903634523,-0.14232585338272252,0.9867503463113069,-1.8605573573805811,-2.0977202917941837,4.158948977609063,0.9139388838262059,1.3446043626632465,-0.27791659121642065,4.0,0.47929511630837546,0.48415247649042115,0.2834444808312156,-0.533599174459137,0.4098568170073306,-0.09268692057027365,0.7339607927705313
17.5,-0.20112125135335662,-0.47658347282244684,0.3778971206481649,-0.004562490101311065,0.03686827689656704,0.20534284842416745,-0.07709627854412603,-0.14097917441818172,0.9870060652559213,-1.860577354591191,-2.0977302990355433,4.158988782873577,0.913942973421437,1.3446259498596191,-0.2778911377490652,4.0,0.4792897518984972,0.48415439356186907,0.28343558091885385,-0.5336041609683833,0.40985124614992385,-0.09269435582603439,0.7339593393537402
17.6,0.03268790922594142,-0.5574616729885336,0.40156871326276855,-0.003624886594964219,0.028823012879190264,0.2045597613493632,-0.07746507417798783,-0.141577957759171,0.9868913879494283,-1.8605945723927504,-2.0977228553079894,4.158995151519775,0.913942164317045,1.3446424092286955,-0.27792049524233786,4.0,0.47929813173564373,0.4841439097021555,0.2834446936037793,-0.533596379478116,0.40986139044271896,-0.09269446418742662,0.7339593181786122
17.7,0.0499524495306371,-0.5432611356276604,0.3519344042384521,-0.0048226783315024665,0.023868601773266877,0.20519716662617368,-0.07779696952683555,-0.14214289016052756,0.9867840204058546,-1.860578637771218,-2.0977431083920015,4.158993303590568,0.9139405626933631,1.3446154000227126,-0.2779049132735581,4.0,0.47927841455515136,0.48415755947692757,0.28345315608067795,-0.5335819387948015,0.40985946629474274,-0.0926750741085604,0.7339733395155046
17.8,0.10873543549532755,-0.39742578069696544,0.352661605921311,0.002529417681859976,0.028555541626449518,0.2065254021873551,-0.07810202690669663,-0.14268320241416207,0.986681969330445,-1.8605901411018129,-2.0977468096070933,4.158961227038813,0.9139850073015189,1.3446406627687935,-0.27792478480716076,4.0,0.4792776487391799,0.48417130016544035,0.2834394140547366,-0.5335983289211127,0.4098583410542728,-0.09267629392454858,0.7339618983198285
