xiamingqian9007/apple-picking-rnn/final_data/grasper_20191127_135426_noimg.csv
,/manipulator_wrench.fx,/manipulator_wrench.fy,/manipulator_wrench.fz,/manipulator_wrench.tx,/manipulator_wrench.ty,/manipulator_wrench.tz,/ground_truth.x,/ground_truth.y,/ground_truth.z,/joint_states.elbow_joint,/joint_states.shoulder_lift_joint,/joint_states.shoulder_pan_joint,/joint_states.wrist_1_joint,/joint_states.wrist_2_joint,/joint_states.wrist_3_joint,/mode./mode,/manipulator_pose.x,/manipulator_pose.y,/manipulator_pose.z,/manipulator_pose.rx,/manipulator_pose.ry,/manipulator_pose.rz,/manipulator_pose.rw
0.1,0.5745648951449371,-0.38747719825882826,-0.33999370158453834,-0.0002738073071218039,0.005166260910790058,0.01975789860119442,-0.05885621471163346,-0.5875718614432207,0.8070284811690529,-1.3285549353314388,-1.8005705446630285,4.176077531053379,-3.587422901131194,-1.3536647001849573,2.5729726952201104,1.0,0.44887959500904856,0.45855366002775916,0.34141618828265946,-0.7574558147527402,0.3622687218951591,-0.17531014400080502,0.51408989023723
0.2,0.19865497905135127,-0.16900384953403744,-0.5237803764125611,0.005190497057838524,0.005655542257702955,0.03554794052040047,-0.0589280313892657,-0.5881705058533121,0.8065872054314208,-1.3276544953029423,-1.8014713428714715,4.175894628593468,-3.587253465534646,-1.353798817385114,2.5729955214917335,1.0,0.4488827437563991,0.4585447838753462,0.34140245331423724,-0.7574619179761748,0.36227260965653807,-0.17530663222378237,0.5140793555540348
0.30000000000000004,0.25148232483537014,-0.3440455470195284,-0.08903145004684049,-0.00751176189504532,0.000628084962943448,0.12006797941922168,-0.0590645011040359,-0.5889260920617273,0.8060251412209091,-1.3254732612312405,-1.8044895371027845,4.17523489902846,-3.586594024466642,-1.3543262686809057,2.572694931291554,1.0,0.4492893445493968,0.45898419530045936,0.34120115458826844,-0.7574467495638091,0.3622731591012503,-0.1753048745978848,0.5141019166587888
0.4,0.2291305162238857,-0.6084468638790892,-0.46510989341519837,0.014376496997255468,0.0063088592533666,0.23184691135497368,-0.059200547265614016,-0.5896805636407546,0.8054639205219772,-1.3230359126995137,-1.8075203065153225,4.174575439985697,-3.5858040814454837,-1.354927604095136,2.5724072456359863,1.0,0.4497133364864759,0.45936021906561514,0.3409068972570961,-0.7574510912482719,0.3623097983086113,-0.17532932607467513,0.5140613599898127
0.5,0.5067683074184377,-0.11095424125866282,-0.22096086042103574,0.0071391485806661294,0.00370841650040824,0.2488567013643067,-0.05918447440372681,-0.5900347163526839,0.8052056467968771,-1.3203328266869658,-1.8110531158117122,4.17391604996777,-3.5849637519614723,-1.3556245901071715,2.5720466675423856,1.0,0.4506059848389433,0.4602741489131678,0.34026464555908564,-0.7574675788167693,0.3623235571644777,-0.17533509421445082,0.5140253998606981
0.6000000000000001,0.6914872824024869,-0.2881047169740005,-0.1890903352599984,0.005977098930277001,-0.0042514644779439465,0.2491609439514885,-0.05919424804053996,-0.5905030700660342,0.8048614160095476,-1.3179148922040398,-1.8140843325161222,4.173256374963783,-3.5842591492671354,-1.3563440723173927,2.571770146625565,1.0,0.45189775520732933,0.4616940053472604,0.3393685989188313,-0.7575058634473207,0.36225593599924305,-0.1752774701530711,0.5140362945677868
0.7000000000000001,0.6722268525500689,-0.14003715929064478,-0.17018250353230532,0.011970776431051128,0.0005781571989829397,0.24216042237908095,-0.05923062594338259,-0.5910889729243524,0.8044287080719018,-1.3153440951736186,-1.8171800552380692,4.172596397413458,-3.5836492381632814,-1.356919588243231,2.571506915107154,1.0,0.4523309759001048,0.4620961540568913,0.33913284319163395,-0.757477033063827,0.36225423180533106,-0.17529515115542718,0.5140739498373237
0.8,0.7652132887358073,-0.04992038296369476,-0.276375566895146,0.010257260848147872,-0.0032145836308205234,0.23944533459919334,-0.059323786790777204,-0.5919275885087677,0.8038049441029608,-1.3129516540064845,-1.8200435925612124,4.1718900030670705,-3.583014844189099,-1.3574104012270525,2.5711829577734933,1.0,0.45316964646038393,0.462953690497588,0.3385854992469913,-0.7574865417556738,0.36225945451932573,-0.1752781741869106,0.5140620471539339
0.9,0.6716719494846946,-0.6341993929433779,-0.25041208052228603,0.0020584451215306153,-0.008239028826746875,0.23746113900329577,-0.05926649238553202,-0.5906357062416608,0.804758866294403,-1.310535856133112,-1.823093610479406,4.171398652713326,-3.582355166990936,-1.3579025646223628,2.5709069785394334,1.0,0.45449396261635855,0.46419317340437205,0.33779987217882357,-0.7574672780559409,0.3622849899623306,-0.17533276071430293,0.5140538218346584
1.0,0.5639353060377844,0.050609974040725814,-0.19248472051345317,0.009757109592958176,-0.0042419254979098545,0.23395597246693192,-0.0591287926322159,-0.5896805787902663,0.8054691376453974,-1.3082284927368164,-1.8259673967144305,4.170824402935622,-3.58172185955792,-1.3583836007072048,2.570715182589156,1.0,0.4553380358987271,0.4650988038583439,0.33728280135903804,-0.7574491381266035,0.36226306068263703,-0.17534617050025444,0.514091430104616
1.1,0.8390856113323011,-0.43171316652807545,-0.2094989477623644,0.0018588348745816588,-0.007002415445554483,0.2374479202835287,-0.05931951711081748,-0.5914385620943078,0.8041649677438616,-1.3059933397767909,-1.8287409549549318,4.170307636260986,-3.5811346738073726,-1.358947620056105,2.570414155138097,1.0,0.4558893763200474,0.46571412534374107,0.33687704923519074,-0.757462908030335,0.3622639005658125,-0.17532712052669888,0.5140770468644636
1.2000000000000002,0.8024843427813539,-0.16750145080257875,-0.20454279110704582,0.008099197800578651,-0.012618053157179334,0.23193530604974344,-0.05923936558259741,-0.5912697459493326,0.8042951588172406,-1.303939896961674,-1.8313000791673453,4.16974599971436,-3.5806449074731113,-1.359486722514042,2.570243966812268,1.0,0.45654558831757136,0.46642330574562435,0.3364723230633756,-0.7574479669711444,0.3622371947289771,-0.17531579568572203,0.5141217403195895
1.3,0.541139230882763,-0.3370980330882547,-0.16284475486811684,0.008526464001252797,0.0009733195672061634,0.23376717815516893,-0.05919351416023148,-0.5912485818945474,0.8043140886995234,-1.3015451157602513,-1.8340174445474275,4.169229840605699,-3.5801263963215106,-1.3600628715259377,2.5699944222482887,1.0,0.45762081215749606,0.4675338855908595,0.3357213472999311,-0.7574873426749174,0.3622175498085729,-0.17528106295684082,0.5140894097982243
1.4000000000000001,0.39646754240936644,-0.04001747964996716,-0.2578448371932554,0.008124032489700514,-0.0006284892303129951,0.23473034933212367,-0.059217672528959785,-0.5915997296711266,0.8040541060679124,-1.2996831650787828,-1.836515360865051,4.168761324411058,-3.5796710453429164,-1.3604584020693942,2.569791722769118,1.0,0.45804392120211235,0.46796712950942476,0.33549474899215853,-0.757468001303254,0.3622189086223728,-0.17527537277408647,0.5141188898853805
1.5,0.3583062555240715,0.040859525499984395,-0.3336009940120017,0.01572178598731066,0.0016333297651194099,0.2283515979964276,-0.05918128881510868,-0.5913842770224579,0.8042152400742685,-1.297734565802221,-1.838916784191355,4.168257968323311,-3.5792496217704635,-1.3608186463637686,2.5695977210998535,1.0,0.4587159995567773,0.46870161760668316,0.33501586006387607,-0.7575029410190341,0.36219867814820983,-0.17525558663994578,0.5140884080065331
1.6,0.6536351069004146,-0.20198389269310804,-0.2171591817374857,0.0032798596587967875,-0.006949516054174757,0.23431212401612855,-0.05918519253525626,-0.5912003344009642,0.8043502143658317,-1.2955851677422212,-1.841489652307812,4.167743460352176,-3.578760298625909,-1.361225173364106,2.5693940993781403,1.0,0.4597627478131404,0.469684190811836,0.33427318348193596,-0.7575201168600262,0.3622609281295902,-0.1752879666119093,0.5140081918258914
1.7000000000000002,0.5515226173995638,-0.17063717094864678,-0.32894578347074005,0.007900920035675064,-0.005329595339953467,0.22899300299800904,-0.059253536494885475,-0.5911298557922477,0.8043969752157837,-1.2939128798561745,-1.8434338011901048,4.16726337523731,-3.578326898313024,-1.3615977018550367,2.5691905132172237,1.0,0.4601868134820313,0.4701214989759555,0.3340007274174482,-0.7575134081691887,0.3622853051782169,-0.17529014316868097,0.5140001554510756
1.8,0.9947760774507675,-0.6071511957043296,-0.1919088890197592,-0.006261057166069029,-0.013208178756987893,0.2308445916892134,-0.05932188045451468,-0.5910593771835314,0.8044437360657357,-1.2919643833669572,-1.845954311211654,4.166759967803955,-3.5778595409789027,-1.3620416954422585,2.5690340995788574,1.0,0.4610378920242806,0.4708953497255116,0.33354089922907526,-0.7574693186891236,0.3622869216054408,-0.17534022692072385,0.5140469069079955
1.9000000000000001,0.8422538314861415,-0.43331691649746573,-0.2770039029777995,0.0014593002155946985,-0.012761333690703256,0.2310780034019448,-0.05920575851836055,-0.5901285337814006,0.805134376428297,-1.2899950957180775,-1.84789346828605,4.166388890731505,-3.577535197708086,-1.3624612943161207,2.5688424110412598,1.0,0.46145778105070545,0.4713036887864317,0.3332101908068424,-0.7574939419375039,0.36231767702473694,-0.1753371891675989,0.5139899794141766
2.0,0.6181163584136096,0.005416253495721002,-0.16666808787557952,0.013531293073649477,-0.0025851508388787057,0.23222324908716654,-0.059070777389928206,-0.5891097294854716,0.8058908449347585,-1.2884693438360484,-1.8498394811158696,4.166005453296322,-3.577175619082778,-1.3627967460129669,2.568638932904301,1.0,0.462098187478425,0.4719776752535286,0.3328861546195042,-0.7574576168317599,0.3622850738505492,-0.17531826141679036,0.5140729434452341
2.1,0.47772720899448445,0.030627213219233437,-0.11821853339613352,0.009494531454384756,-0.0028536439110071095,0.2255435962294926,-0.059029158187552874,-0.5890707327123619,0.8059225879752603,-1.2867284655004645,-1.8520949394824107,4.1656493153835275,-3.5768156279343195,-1.3631884780284778,2.568497235686233,1.0,0.4628624975257308,0.4727870442008766,0.33242958612360246,-0.7574376346808449,0.3622679225029709,-0.17529403153107162,0.5141227328216986
2.2,0.816363934210872,-0.44195856827709984,-0.1561070140456131,0.0034136680286394228,-0.004040471944859797,0.2330634403319422,-0.058998111586880765,-0.5891426924621312,0.8058722607969978,-1.2849552121667107,-1.8538889975990391,4.16529811524876,-3.57650456763651,-1.3635504204594595,2.5683142108487007,1.0,0.4632352600325219,0.4731883237360993,0.33207642898825485,-0.757503752901467,0.36226334786332376,-0.17528373603712602,0.5140320447364316
2.3000000000000003,0.5022896458279058,-0.11802412610429419,-0.24301554858660362,0.011687565180685491,0.0011727556811000238,0.23342913666762816,-0.058974443249497376,-0.5891479777226724,0.8058701296155679,-1.2834348678588867,-1.8558336336893255,4.164999293551914,-3.576169196103793,-1.3638615140752128,2.568182304302345,1.0,0.4636846673983242,0.47368120742801606,0.33187745326138357,-0.7574637454641133,0.36223966050323675,-0.17528023276154492,0.5141088821145141
2.4000000000000004,0.5930861289533319,-0.04796141879661955,-0.1442251864158458,0.013263561948358038,-0.00339026338839824,0.22471899333422396,-0.058962257926596054,-0.5890494954575194,0.8059430073228087,-1.2818784336203304,-1.857811151151297,4.164638984201894,-3.5758687463401704,-1.3641613165484827,2.568014658495269,1.0,0.46419006166989374,0.4742086343837292,0.33152674157110396,-0.7574765872884357,0.3622437174055202,-0.1752813051576512,0.5140867368181413
2.5,0.5417372537855664,-0.04413752480728463,-0.1994557911511478,0.014116844065572043,-0.0026429173490412202,0.22807281276177488,-0.05894577998201994,-0.5889300862288883,0.8060314712722405,-1.2802983038220632,-1.859516153426048,4.164255905389985,-3.575569900582492,-1.364448372517721,2.567882657548206,1.0,0.46471730022656976,0.47475647254654163,0.33113987168214265,-0.7574987123804694,0.36225046914372594,-0.1752800218590576,0.5140498149831098
2.6,0.5776061078490957,-0.035768572134849796,-0.21416452433008337,0.015847665470304036,-0.002575591957563068,0.2260691483803547,-0.05892241788090219,-0.5887771160430059,0.806144931165706,-1.2787678891236514,-1.8612066987952478,4.163954998508887,-3.5753045409199915,-1.3647249380694788,2.5677274988627383,1.0,0.46525114814801627,0.4753121137401451,0.33080625981162554,-0.7574921248789654,0.3622456139758349,-0.1752817283783936,0.5140623615849573
2.7,0.6402247739128987,-0.17607255538904626,-0.2224294034181175,0.010523118027114767,-0.004311430727963429,0.22610687217815625,-0.05896351634335766,-0.5890867762212644,0.8059155988858743,-1.277306654735854,-1.862933004739748,4.163642527014662,-3.574992698641388,-1.3649888992201091,2.5676064491271973,1.0,0.4658581036655086,0.4759194037734577,0.3304552884244352,-0.7574696472351465,0.36224560928436794,-0.1753019833281917,0.5140885786640875
2.8000000000000003,0.5386806154232199,-0.24892232408719708,-0.3300404294082365,0.010404703492421116,-0.0003993537706877344,0.23283496209277105,-0.058981825106434585,-0.5891430549146549,0.8058730992162246,-1.2758714872876427,-1.8646584949889125,4.163297308963745,-3.574705977833295,-1.3652766517549757,2.567498312308372,1.0,0.46649358542948677,0.47658618907787886,0.33007714006932887,-0.7574515842069331,0.3622400584226409,-0.17530913877033805,0.514116663336223
2.9000000000000004,0.5583963703198631,-0.34268431391619003,-0.3268239299590075,-0.00039813638869902576,0.0022675079773007236,0.23327486493078212,-0.058946029344044165,-0.5886582178554516,0.8062299918957893,-1.2746019525449213,-1.8662649700219986,4.162962420471436,-3.5745007081388147,-1.3655879971212372,2.5673642482600085,1.0,0.4669336303061672,0.47701735193326184,0.3297822278478892,-0.7574572681735378,0.3622463943631612,-0.17531924872073582,0.5141003770568225
3.0,0.38397811782929087,-0.21189099653163435,-0.18980067651368077,0.0015937747066014098,0.005007637633047585,0.22886008564457194,-0.058977602768753766,-0.5889927393753186,0.8059832561143946,-1.2734306247705311,-1.8676631082935296,4.162733554840088,-3.5742535776055293,-1.3658146107306,2.567226230716806,1.0,0.46717325024078177,0.4772397573544237,0.3295718532733308,-0.7574809582709623,0.3622587240020403,-0.17530078114684944,0.5140630806337124
3.1,0.5656216907021638,-0.21453225408254467,-0.2386656977737412,0.009168714749576772,-0.00045292705203812435,0.23211169672461074,-0.05897831456881747,-0.5890030943997592,0.8059753802881787,-1.2720533639420304,-1.8690116478335697,4.162434101104736,-3.574057480344601,-1.3661022779814627,2.567103021074934,1.0,0.46773109216984693,0.4778321064580742,0.32919299689065656,-0.7574900652282414,0.36225090209157873,-0.17528886466814492,0.5140592367983525
3.2,0.8736089721416428,-0.49272104276315976,-0.37842607785851934,0.002280989561066881,-0.004665447318776821,0.2361273905717611,-0.058903902913761255,-0.5881922738148071,0.806572550574751,-1.2706777173424717,-1.8706793830762964,4.162145626167223,-3.5738541088499964,-1.3663418883112401,2.566982855605199,1.0,0.46802098506763185,0.4780851791741955,0.3291288948901409,-0.7574349948838707,0.3622589181224235,-0.17530871949540328,0.5141279584256468
3.3000000000000003,0.6404073521752932,-0.3528789801491065,-0.47302968437674814,0.005964957987348194,0.004500146226884751,0.23028078652163955,-0.05883739447803055,-0.5874487193980774,0.8071195225929259,-1.2696135323504525,-1.872115100312691,4.16185716166752,-3.5736367046300646,-1.3665818704882764,2.5668746568285865,1.0,0.4684317357944664,0.4785003777141877,0.32883783316094156,-0.7574518149757761,0.36226104039333834,-0.17531117989026715,0.5141008430342446
3.4000000000000004,0.44723012077474295,-0.12939346002034835,-0.5072095745855497,0.010920733722228269,0.00032542427365513365,0.22707395361154264,-0.05878561485555901,-0.5868305253933013,0.8075729427443605,-1.2685708986095476,-1.873255237921643,4.16159422241701,-3.5734224170293087,-1.366809543098032,2.5667434010362524,1.0,0.46902751277490323,0.47903813662040495,0.3283664646190702,-0.7574946820634806,0.3622978730001123,-0.17530700847491698,0.5140131424824818
3.5,0.5729792642688615,-0.4064899243571287,-0.34736965924072044,0.0045830943942891285,0.0011642337690804386,0.23108056558325385,-0.05875809990572971,-0.5868722594744752,0.8075446813493306,-1.267452822901598,-1.8744595418772432,4.161379337310791,-3.573256427632174,-1.3670339006510044,2.566672208072771,1.0,0.4692022551242435,0.4792384021574604,0.3282861517449698,-0.7574851458609007,0.3622722601563573,-0.17529555546321587,0.5140491528600519
3.6,0.6474951820608713,-0.40035513054284766,-0.24929590998889983,0.006264869819465199,-0.00043749594035538165,0.22906872860473265,-0.05875242966069256,-0.5870568874380272,0.8074108906475613,-1.2661987597338407,-1.8758735518042307,4.161187648773193,-3.573072668867127,-1.367241599051184,2.5665525249551804,1.0,0.4695017855656422,0.4795713526926921,0.32811143383124164,-0.757480415868779,0.3622583002889665,-0.17528751537328693,0.5140687020246129
3.7,0.6493569029778422,-0.1854812059513211,-0.40502640918935495,0.009112039367195393,-0.0011360570268555787,0.22858239435320366,-0.058773329661347885,-0.587207680173153,0.8072997188361095,-1.2650610966218712,-1.8772778164102293,4.1609495241107295,-3.572918179473452,-1.3674276690632747,2.5665093937844907,1.0,0.47007344484450897,0.48017957175017223,0.327711526827986,-0.7574843096915529,0.36227243165754175,-0.17529636265623383,0.5140499888838999
3.8000000000000003,0.6848643652042109,-0.13311779895439652,-0.37309897648075546,0.008806032622272494,-0.0019435254971960894,0.2265187301387661,-0.05876816873830234,-0.5871664327664415,0.8073300903123739,-1.2641076942397378,-1.8782066403992785,4.160708446735039,-3.5727620326833915,-1.3676119582967394,2.5664292478749333,1.0,0.47028439621511137,0.48043209257712755,0.3275599642434455,-0.7574942902116714,0.3622668703604641,-0.17528036604416225,0.5140446558572274
3.9000000000000004,0.7705422743689314,-0.352141460467602,-0.4235963901701795,0.006514645702178452,6.519550153186605e-05,0.22953412533298675,-0.05878216939612786,-0.5872209756206358,0.8072893474209358,-1.2632092640036154,-1.8792151098469096,4.160538708470132,-3.572580974752425,-1.3677912218806774,2.5663201194746432,1.0,0.4707043903968691,0.48081149109142857,0.32734193446738924,-0.7574771420681173,0.36226239367846336,-0.1752965296849686,0.514067567593088
4.0,0.5780497842031199,-0.13366351915695762,-0.35579595451787305,0.004315860809089814,0.0031925859679769616,0.22783044861185098,-0.05885395722011037,-0.5876282014776066,0.8069877921172953,-1.262208038438614,-1.8804727725835702,4.160313465154587,-3.572436896270591,-1.3679583708392542,2.566203259447297,1.0,0.470893886014436,0.4809804488111852,0.3272634278877904,-0.7574472857724799,0.36226803934461943,-0.1753176036603239,0.5141003936898999
4.1000000000000005,0.6880124269946037,-0.17582514886955772,-0.24250648671852243,0.009360084386242399,-0.0008694879945879055,0.22815056333406591,-0.05886293980209755,-0.5877748602730362,0.8068803250423279,-1.2610432497893207,-1.8817046682569525,4.160110352880643,-3.572269373644141,-1.3681498540477053,2.5660858611144524,1.0,0.47118635852317625,0.48130000867595113,0.32701381484967795,-0.7574749829213132,0.3622664527953461,-0.17531228586413766,0.5140625155100539
4.2,0.7712799543931576,0.002137484657212807,-0.26987728555960633,0.016569084540202027,-0.0017529708047942165,0.2298466136280785,-0.05878355761989853,-0.5868827980231969,0.8075344448617505,-1.2599668879721244,-1.8828717675217255,4.159885864485617,-3.5721394019910115,-1.3683357876690152,2.5660576820373535,1.0,0.47168197953743185,0.48181110811270333,0.3267470453447369,-0.7574597312170394,0.36226306793251256,-0.1753300530592301,0.5140813142791536
4.3,0.5386373190376634,0.00600412425471572,-0.26321789653557204,0.013676004443608062,0.0011575690012675653,0.22916209816334074,-0.05868466912156428,-0.5858876552580616,0.8082646010559886,-1.2590088321009245,-1.8840257057010754,4.159723313861247,-3.5719939758305816,-1.3685219923602503,2.5659728515555122,1.0,0.47198549010419943,0.4821075543898733,0.32655040928822526,-0.7574527721438551,0.3622838891680318,-0.175333191270667,0.514075824815482
4.4,0.5738469149863429,-0.35016800247763147,-0.2440891533339767,0.0060974939525848156,-0.002288752247912326,0.23212396637694402,-0.05861136438061721,-0.5854756140031037,0.8085684957665751,-1.2580162552303988,-1.8849966117864336,4.159485914827028,-3.571816594106451,-1.3687369241009462,2.565889835357666,1.0,0.4721977562702691,0.4823585857744146,0.32637970793046994,-0.7574678183052465,0.3622741930637721,-0.1753147177444598,0.5140667884760339
4.5,0.5751873151922513,-0.5352868152725626,-0.31441598925827474,0.006805839083111583,0.0009938346500735678,0.23099231847604595,-0.05857965031378304,-0.5854492315579974,0.8085898959291778,-1.2571464119466875,-1.8862595001103304,4.159316575402203,-3.5716524458881884,-1.3689055810402138,2.5657873331875516,1.0,0.4724376347480914,0.48262137221040696,0.32624718147396303,-0.757462267044245,0.3622589019468025,-0.17530173584300418,0.5140901704710168
4.6000000000000005,0.6559759286391766,-0.24340684071385932,-0.298853568488752,0.011501148638215872,0.000430137528207997,0.22933557605505928,-0.058584288405804985,-0.5856714540051204,0.8084282375256611,-1.2560131060640387,-1.8874917410552976,4.159112276970841,-3.571456947201538,-1.3690852478922975,2.565711087064982,1.0,0.47293657808162376,0.4831270306387228,0.32585125276887267,-0.7574961935492459,0.3622681257663747,-0.17528681156716455,0.5140387684822407
4.7,0.6807353857121403,-0.20916113068665748,-0.29678767572961834,0.006038579739943725,0.0019508527648826645,0.22692268091937617,-0.05869315543301135,-0.5866064765723478,0.8077417134739016,-1.2549146247413279,-1.888665563122702,4.158897876739502,-3.571367182641616,-1.3692894714795183,2.565637452652705,1.0,0.4732186733970889,0.4834491002069643,0.32569917988794433,-0.7574845756917726,0.3622429333585697,-0.17529565725887528,0.5140706248824309
4.800000000000001,0.7489652357739945,-0.1913381689534903,-0.31325930138655506,0.009971549171044841,0.0035644868883313073,0.2265865401329743,-0.05879369082250367,-0.5875126321497851,0.8070760472166947,-1.253883997274684,-1.8897102738021563,4.158693790435791,-3.571214338342184,-1.3695029795779865,2.565539810958838,1.0,0.47342043897712516,0.48364108184242405,0.32558541474672625,-0.7574686195157427,0.3622536517503804,-0.17530305046130626,0.5140840619406423
4.9,0.7461888447450383,-0.5864270835427554,-0.3370258226353341,0.0020274632366521182,-0.0010121189370748901,0.2301443549432849,-0.05886937673457351,-0.5883326906553547,0.8064725902528593,-1.2528810501098633,-1.890886612620471,4.158490328875907,-3.5710742907708175,-1.3696742546619816,2.565444221695783,1.0,0.4737417860823849,0.48396478972029233,0.32541265195133584,-0.7574601089757376,0.3622419625387346,-0.17530525349550835,0.5141040867211866
5.0,0.8387930120139726,-0.16234085572057902,-0.4679358837209805,0.004321348692400137,-0.0024664265572518413,0.22865390692779333,-0.05892289695515321,-0.5889419573699204,0.8060244769606135,-1.251932984439264,-1.8920479468733746,4.1582823208172925,-3.570903869458267,-1.369875068332414,2.565361762151919,1.0,0.474188560296635,0.48443193346835733,0.32510895759704384,-0.7574790912767935,0.36223081649134337,-0.17529567330286294,0.5140872384953685
5.1000000000000005,0.7522358635052018,-0.21090868277298913,-0.3870009041809882,0.010742515610228848,-0.0007160432745891392,0.228081891252543,-0.058902662714856426,-0.5888498322551537,0.8060932565771115,-1.250847897303647,-1.8931663229350488,4.158106327056885,-3.570740162927606,-1.370092290285018,2.565234736822952,1.0,0.474404161128595,0.48463379795681083,0.32494648684440447,-0.7574776980680052,0.36225589255181795,-0.1752925190673927,0.5140726971937816
5.2,0.9135070352606103,0.10758662846870572,-0.2530822290505794,0.015081056396664108,-0.007296092067901685,0.2284358124362752,-0.05887611377182269,-0.5886756891693372,0.8062223272127998,-1.2497802985006556,-1.8943973901757807,4.15786620545759,-3.570639469199044,-1.3702593065972375,2.5651107199738976,1.0,0.47478317474215387,0.4850641910300589,0.3247368865947177,-0.7574703751496226,0.3622237996150032,-0.17527811851427094,0.5141110103209785
5.300000000000001,0.8628110770613341,-0.4392619822447239,-0.3796519238411965,0.0017165941278423562,-0.0024225536057223725,0.22755101498099928,-0.058827225125846906,-0.5882113887815082,0.8065646910967833,-1.248774672230515,-1.8955608807005824,4.157639026641846,-3.570488199551199,-1.3704508748505495,2.5650549015092428,1.0,0.47500390442364443,0.4853015277172595,0.3245876332301445,-0.7574713753888167,0.36222239486586494,-0.17527805129660295,0.5141105492575284
5.4,0.7631666906942515,-0.320452832675133,-0.37703809887749956,0.006950362493185121,0.00030241140822019705,0.226458959373902,-0.05886582132749631,-0.5883289349177893,0.8064761403041584,-1.2477563063741979,-1.896804865269844,4.157455719812628,-3.5703421072297306,-1.3706300894366663,2.5650032108238423,1.0,0.47534973596999086,0.4855846444333882,0.3243963112857634,-0.757458011820489,0.36223771731479415,-0.17530779504889246,0.5141093011010545
5.5,0.5246839206985424,-0.08963615357604887,-0.35433434601731156,0.0073709397758974105,0.0023674800176080885,0.22746880806583203,-0.05889281109958258,-0.5883535967532442,0.8064556669462427,-1.2466929656714174,-1.89786386077576,4.157243549299838,-3.570196778547992,-1.3708225523107227,2.564917385054232,1.0,0.4757977259638941,0.48605358039120694,0.3240062657682789,-0.7575018144647472,0.36225922539435046,-0.17528519831701592,0.5140373079361703
5.6000000000000005,0.578241739204035,-0.16898337006972097,-0.41220325049894685,0.007833547311762896,-0.0009320861454247941,0.22388846575273844,-0.058732025934811055,-0.5870672382552421,0.8074033106619755,-1.245591163635254,-1.8990022279509937,4.1570515632629395,-3.5700866245960468,-1.3709915724415622,2.564786971062393,1.0,0.47597109944283333,0.4862494314376638,0.32391469306174725,-0.7574982549562004,0.36224226956829314,-0.1752788621589489,0.5140566625933246
5.7,0.555095922156298,-0.17550001543089133,-0.23667618804464502,0.011218909954995,-0.0010436469553714194,0.22188877355888711,-0.05861531498676418,-0.5860941674417871,0.8081199218728664,-1.2445252542274792,-1.9001288527166968,4.156801053236387,-3.57000128197088,-1.371169392262594,2.5647371415870985,1.0,0.47630425984866526,0.4865694829724957,0.32376346805059214,-0.7574675718579538,0.3622485362539628,-0.17529164338227346,0.514093099862096
5.800000000000001,0.7744409207615787,-0.4688557225009,-0.49443228181093923,0.003338140676731941,-0.0035944936061627743,0.22815748094521332,-0.05868307508396082,-0.5864323509381107,0.8078695548633688,-1.2435584697504671,-1.9015127928311382,4.156583425679913,-3.5698607770770074,-1.3713355968050758,2.5646167966515927,1.0,0.476758457572955,0.48696824490842744,0.32353504784712334,-0.7574508462521076,0.36226334348027983,-0.17533175376371618,0.5140936311651744
5.9,1.0794427348956388,-0.5209221378793778,-0.18877537312518092,-0.0007154170108727287,-0.003445432322970863,0.22588289187403637,-0.05873202942151372,-0.5866240955296906,0.8077268537725215,-1.24258459078567,-1.9027331029642287,4.156404972076416,-3.5697168062331777,-1.3715183053462745,2.564555908421262,1.0,0.47701694680807993,0.4872565378283251,0.32324757937101906,-0.7574934856325926,0.3622725172390974,-0.17530414481602913,0.5140337530627284
6.0,0.45329072835973444,-0.3819264403710279,-0.5913698857759455,0.014989819508224476,0.002315071623103148,0.22778253470709195,-0.05871968198613581,-0.586352416509117,0.8079249403410034,-1.2414237361383664,-1.9036781745601274,4.156210612346776,-3.5696193180479945,-1.3717078363296586,2.564450611548401,1.0,0.47743568851366,0.4876772221800161,0.3228618306761613,-0.7575430012962768,0.3623010014166565,-0.17530611036808663,0.5139400288235283
6.1000000000000005,0.6265607661579371,-0.26510180209844747,-0.48108076196461397,0.011879003455456526,-0.0006205625997163723,0.22232874945567335,-0.05881132269638702,-0.5869560893260621,0.8074797542683917,-1.240222348946661,-1.9047492731974536,4.155998559446996,-3.5695005119102863,-1.3718995036371189,2.564389705657959,1.0,0.4775833020456206,0.48780419752963694,0.3228949928214492,-0.7574841903365229,0.36229924785814954,-0.17531259547854594,0.5140257291792089
6.2,0.6120334070462435,-0.16425875012319163,-0.37625256526027895,0.010111870343226557,0.00439792001541821,0.2231322990435464,-0.05872111738430204,-0.5863718916868392,0.8079100224056026,-1.2391509108748173,-1.9059117409218367,4.155838852092533,-3.569426108897177,-1.3720563093768519,2.564293927315554,1.0,0.4779418087106155,0.48821533270208,0.32281235952795617,-0.7574234992554021,0.3622635336228104,-0.1753168800516889,0.5141388592119435
6.300000000000001,0.5838162507346156,-0.0885395973665016,-0.5061038395267207,0.014081131369081252,-0.00029375792914129294,0.22372251236619262,-0.058572923038764935,-0.5854050603918002,0.8086223547282079,-1.238205909729004,-1.907348400038489,4.155610841776738,-3.569272958652376,-1.3722134560648083,2.564195294840025,1.0,0.4783548911879428,0.4886542647920583,0.3225551128181396,-0.7574336714082528,0.36225086044477517,-0.17531408996280617,0.514133754371903
6.4,0.5306243360875227,-0.004240965788175722,-0.38658622322229313,0.006167931610365442,0.0020738858420516204,0.2247324571623446,-0.0586093615790103,-0.5856229378218843,0.808461926587214,-1.2373522154247487,-1.9085103798017116,4.155420891565221,-3.569116143462754,-1.3723924471775781,2.5641156487792505,1.0,0.4785495532421236,0.4888375572417391,0.32228354650789737,-0.7575013461733696,0.36227440916451803,-0.17530564870042653,0.5140203230843652
6.5,0.543731494004314,0.06842001900575476,-0.4516371653492781,0.007366810468224749,0.00495544511473889,0.2221884450307967,-0.05867570248786638,-0.5862040543003015,0.8080355424323081,-1.2362189438747315,-1.909471776772242,4.1552305367397215,-3.5690090366051743,-1.3726060880363,2.564075385267063,1.0,0.4789030552457741,0.4891856533093924,0.32192286931308783,-0.757543627268374,0.3622996702059048,-0.17531162624446572,0.5139381630675899
6.6000000000000005,0.5515423833216976,-0.2901374936926851,-0.36590456388571796,0.007099669720872143,0.007276675056303727,0.22204815232836222,-0.05874419244492087,-0.5868523055363017,0.8075602021508785,-1.2349004834057973,-1.910479162835558,4.155048856055944,-3.5689452058959974,-1.3727629820453089,2.5639673910071457,1.0,0.4793184782450606,0.48963463836390864,0.32179539807946417,-0.7574831985095836,0.3622625207245112,-0.17530546775725434,0.5140555057855367
6.7,0.5706782722528435,-0.272919101678844,-0.2825228961995658,0.011562730327444003,0.0056761270458389095,0.22447274892509667,-0.05873380775639516,-0.5867286556061315,0.8076506950831055,-1.2337770462036133,-1.9117774379634365,4.154857426714568,-3.5688628982716546,-1.3729544881694526,2.5638516093230055,1.0,0.47949703830162005,0.48981965988828735,0.32183347028873194,-0.7574212669268219,0.3622465981734712,-0.1753171218916405,0.5141539976411224
6.800000000000001,0.7559563051866184,-0.2282895578164064,-0.39034736397589,0.007057839932826801,-0.0031192605273516714,0.22523032435224388,-0.05885719301014387,-0.5875685557689059,0.8070306923488564,-1.232903447541831,-1.9130212219619116,4.15468647080063,-3.5687424194746535,-1.3731453774188283,2.5638109111661875,1.0,0.4799776274884345,0.4903174693476681,0.3215079614969571,-0.7574328791560592,0.3622655980902935,-0.1753154137564224,0.5141240859102584
6.9,0.7633573201344451,-0.044835654521901996,-0.5465785018166343,0.011776472667729968,-0.004710148702855599,0.22526179664077642,-0.05891386702890685,-0.5880428906640528,0.8066812674382773,-1.232056576566163,-1.9141508297178689,4.154464203671876,-3.568513573848775,-1.373304151049216,2.563704071733349,1.0,0.4801648849245689,0.4904866993537501,0.32132947864587125,-0.7574582852999906,0.36227255273845876,-0.17532536216533745,0.5140783607042336
7.0,0.5718781330866554,-0.30961371198231985,-0.629879049688563,0.0077846011397217614,-5.512989046046763e-05,0.22591699094050458,-0.05893399487694619,-0.588333055740929,0.8064681460115812,-1.231082833840547,-1.9152509387589978,4.154293016373409,-3.5683341581275605,-1.373493496571676,2.5636230764962544,1.0,0.4804227649938843,0.49077476418120103,0.3210555385602555,-0.7574906436544432,0.3622712233102848,-0.17530831666963004,0.5140374301971677
7.1000000000000005,0.22652572150461286,0.10668751643991292,-0.47987239579252294,0.005102632403204511,0.003416362455113623,0.21252256628435223,-0.05901602363561004,-0.589112865313975,0.8058924941831065,-1.2304668426513672,-1.915642741523849,4.154197384750539,-3.568253146967597,-1.3735998993051843,2.5636096000671387,1.0,0.48090259064108354,0.4912865998350076,0.32077303902895254,-0.7574639731843174,0.36225520619074064,-0.17530150103849046,0.514090340941341
7.2,0.5906583952165675,-0.16729530443309681,-0.7253178604152364,0.0018574546638380914,0.0005337202623684665,0.2288931843925488,-0.05900789634755937,-0.5891045573367681,0.8058993522787868,-1.2304886081963917,-1.915708778528534,4.154164834063047,-3.5682511877589835,-1.3735650221454065,2.563613835745425,1.0,0.48097304420791814,0.4913716852831693,0.3207799623862614,-0.7574321429358731,0.36225707211955893,-0.17529963840032164,0.5141365570776434
7.300000000000001,0.6395990189232575,-0.4308419377584982,-0.5025858819026146,0.0018823204238189888,0.0026927375320416214,0.22455883436147844,-0.0589286228992937,-0.5884637549705505,0.8063730021699166,-1.2304564219880945,-1.9157153505781446,4.154209620088258,-3.568240304986471,-1.3735526243792933,2.5635638174117417,1.0,0.4809833362682527,0.4913636746650928,0.32077759138296297,-0.7574414285711972,0.36223615686685057,-0.17530633361998973,0.5141353307593975
7.4,0.20444694153290818,-0.11414003483792236,-0.6532846344907649,0.003768834090555569,0.013605269837116631,0.21604339058897606,-0.05885494520317229,-0.5878614085933241,0.8068178196343069,-1.2304685863059792,-1.9157977678477125,4.154186772590373,-3.5682717086368063,-1.3735526243792933,2.5635972023010254,1.0,0.4809977469456543,0.49137440383669134,0.32074303376920377,-0.7574491448595211,0.36224950040272874,-0.17530817075330837,0.5141139345287995
7.5,0.5983081706157287,-0.13594762591908796,-0.4952952298584384,0.009483474607141527,0.003718010339971073,0.2193508101502792,-0.05892792929297034,-0.5885048126296414,0.8063431548871571,-1.2304913362935088,-1.9157962170784988,4.154186973191187,-3.5682508680316105,-1.3735540094207852,2.5635877678772756,1.0,0.4809985670862014,0.4913791524403838,0.3207080940524568,-0.7574689652067917,0.3622516226607251,-0.17530103350830048,0.5140856701748704
7.6000000000000005,0.476578077628366,-0.09254724493292023,-0.5755677347511361,0.0037699990345889988,0.0065709724983141,0.21767136854038752,-0.05897210396282759,-0.5886593680250751,0.8062272623262053,-1.23044647153762,-1.915777620931132,4.154168404201497,-3.5682726426968596,-1.3735515283548207,2.563619948134463,1.0,0.4809991319331116,0.4913768130772955,0.3206909688580029,-0.7574716885236246,0.362269268495251,-0.1752901315652519,0.5140729403157898
7.7,0.41619187203350555,0.15847901978920517,-0.466791093157064,0.018234363221224504,0.0033097721597189155,0.21921930976766957,-0.05899193886435577,-0.5884556756844781,0.8063745195398304,-1.2304761144205947,-1.9157999808857544,4.1541876792907715,-3.568266680258438,-1.3735639527254193,2.56358674536614,1.0,0.4810138320160259,0.4913720805568907,0.32071270295481336,-0.7574508526778867,0.36228494558476293,-0.17531085027287305,0.5140855276671286
7.800000000000001,0.6739405541853681,-0.22922228396337907,-0.40692843692563546,0.006848053587170718,0.003161744075651426,0.22440908188098962,-0.05897753038222507,-0.5885925128967434,0.8062756822847585,-1.2304638023411893,-1.9158077898175447,4.154177417958837,-3.5682864112758157,-1.373563953928317,2.5636024612159276,1.0,0.4810059989598962,0.4913901685376109,0.32073515482659987,-0.7574356433214375,0.3622741346544193,-0.1753016953056392,0.5141186761921808
7.9,0.6397912804737999,-0.3859831308525897,-0.567241044710502,0.00740936107182143,0.005841135592008548,0.2208817152605668,-0.05896495915084787,-0.5887231390682212,0.8061812445518515,-1.2304871516915192,-1.9157968960204066,4.154190003512981,-3.568240304986471,-1.3735061492590217,2.5636143414804455,1.0,0.4810110340804639,0.49139551753296185,0.32065524102870263,-0.7574807728917747,0.3622639190569805,-0.1753012689099219,0.5140595264824185
8.0,0.793271765698472,-0.5450283056300179,-0.5218690360292639,0.0033351609214045453,-0.0012384412136883108,0.22097161130414486,-0.05898811776496235,-0.5887329763232927,0.8061723663142324,-1.2304803404759472,-1.9158195919840804,4.154239693677281,-3.5682749677148693,-1.373529974251389,2.5636006858195035,1.0610496535854281,0.48100853422376816,0.49139351916061497,0.3206849757196924,-0.7574641915589654,0.3622676836807019,-0.17531017287379924,0.5140782694818959
8.1,0.6646449371221635,-0.3571297085488035,-0.4769509322432592,0.00677729674374896,0.0001548635935935041,0.2204967478871059,-0.058974284666728743,-0.5884403439690832,0.8063868489635829,-1.2304881106371288,-1.9158215845467865,4.1541991965216765,-3.5682646236815394,-1.3735411802874964,2.563590025418317,2.0,0.48102116259298855,0.4913709543598004,0.32068822081988074,-0.7574644690209168,0.3622793617031291,-0.17531162500283098,0.5140691358112263
8.200000000000001,0.8250537330620266,-0.5641644663353137,-0.3812658024779612,0.0001292847229095919,0.0006778402921254026,0.21326678258892276,-0.058927393162336715,-0.5878895347077135,0.8067920584707062,-1.2304556729766145,-1.9157957151633291,4.15421946990353,-3.5682319738630315,-1.3735423139102907,2.5636119617812936,2.0,0.4810202726541321,0.4913689027299313,0.32071251663423567,-0.7574472646302779,0.36228286084979,-0.17531696080480846,0.5140901995688759
8.3,0.6344505311056754,-0.2992754313163082,-0.5626048595284272,0.006512579014179247,0.0024292845350678866,0.2230983847617323,-0.05883161715531957,-0.5873172684784909,0.8072154278330149,-1.2304568531751492,-1.9158195800466364,4.1541988729119375,-3.5682545415787867,-1.373521969756308,2.5636222483038833,2.0,0.48101606782101214,0.491380985197311,0.3207444358699258,-0.7574361787053002,0.3622712155056676,-0.1753094256312792,0.5141173084901828
8.4,0.5472455776095224,-0.2842888306353073,-0.5344421679968602,0.009481766566408563,-0.0010925563472180015,0.21764764906226952,-0.058736473785861394,-0.586744271512904,0.8076392519282619,-1.230476808068712,-1.9158076475509154,4.154200077056885,-3.5682737289764437,-1.3735734348790225,2.563618705362043,2.0,0.48100001348973825,0.491390211271184,0.32068086945507973,-0.7574710574014596,0.3622660115531928,-0.17530362685239154,0.5140715635831787
8.5,0.902494815148357,-0.03026703057097907,-0.5015137416778588,0.01140570981907514,0.008145572652326627,0.22412321657399173,-0.058668984607449105,-0.5861393322088756,0.808082953552717,-1.2304677601131322,-1.9157968960204066,4.154201770832451,-3.5682752208855533,-1.3735314643326964,2.5636325244632836,2.0,0.48100294877834804,0.49138238965310244,0.32066969115606286,-0.7574753665154234,0.36227089732499884,-0.17529556277141672,0.5140645209954849
8.6,0.5905363845841313,-0.24584824783391712,-0.4653413394924207,0.00822655796532578,0.007195236074963558,0.22098990736898114,-0.058603110580029164,-0.5855487287423815,0.8085161379109008,-1.2304452436766382,-1.9158080791588417,4.1541869119886305,-3.568276835075477,-1.3735627792622254,2.563618860298996,2.0,0.4810066135408255,0.49139026944340025,0.3206957740175156,-0.7574619683017876,0.3622674459422398,-0.17530940244333626,0.5140819755659873
8.700000000000001,0.6673203140462545,-0.05025519750550024,-0.3213449917287816,0.008245059142638641,-3.9574491284925404e-05,0.22171949753045814,-0.05868186167162328,-0.5862417961025779,0.8080075769502897,-1.2304780541468625,-1.9158110982390117,4.15421042612965,-3.568242631901914,-1.3735538106499112,2.5635972023010254,2.0,0.4810067055879722,0.4913906546662925,0.3207097395711243,-0.7574539914712728,0.36226927676919013,-0.17530961026736303,0.5140923676356907
8.8,0.4717058513250006,-0.1428559703057195,-0.39225565128457085,0.009640287716646566,-0.00036743573441198126,0.22542699815664574,-0.058760559648574885,-0.586934365582196,0.8074993778643242,-1.2304668426513672,-1.915821485054258,4.1542229652404785,-3.5682757161611285,-1.3735407993742714,2.563619960021295,2.0,0.48101345692058356,0.49139742772476763,0.32069565336300704,-0.7574652029044502,0.3622564656043909,-0.17532449799748231,0.5140797991738885
8.9,0.5668068518593588,-0.4075646757040016,-0.48165263309565953,-0.0012893406565256359,0.004713927034144219,0.22798335418857724,-0.058821157304905995,-0.5874572681362733,0.8071144978256732,-1.230469337881428,-1.9157968960204066,4.1541876792907715,-3.5682748700629072,-1.3735300800410146,2.5636223416785673,2.0,0.4809941243079409,0.4914024612629765,0.32067856700567354,-0.7574858971043782,0.36225303459745695,-0.17529931707776386,0.5140603116804278
9.0,0.5925617136546038,-0.3808848299861175,-0.46674325522747034,-0.006363368040630861,0.0014869978945098396,0.22644512748910306,-0.05884754710017646,-0.587732715206498,0.8069121521967143,-1.2304657076027057,-1.9158304760213845,4.154189862076659,-3.5682381222005835,-1.3735617043108577,2.563618861373048,2.0,0.48100721227702303,0.49137937243931856,0.3206980044488676,-0.7574637840926929,0.3622739450819108,-0.17530965791279363,0.5140746330497804
9.1,0.6527576835603498,-0.3383108871117838,-0.33090357202478027,-0.003126324557199565,0.001598599592657164,0.22761106533830402,-0.058838511385410484,-0.5877518984690775,0.8068988383973422,-1.230454444885254,-1.9158306124048978,4.1542332061493,-3.568263559552305,-1.3735278002482436,2.563618015483422,2.0,0.48100040718181303,0.49138813991407365,0.3207029695703046,-0.7574707688277456,0.3622542840233728,-0.17530703014697824,0.5140790924160055
9.200000000000001,0.5007971912321363,-0.37520762856441137,-0.3372894378202484,0.006695261934819091,-0.021971011658856406,0.2203565048648385,-0.05885822847187068,-0.5878724214241766,0.8068095889151028,-1.230454444885254,-1.9158314737477962,4.154221827583382,-3.5682415137471364,-1.373552055550745,2.5635978185319526,2.0,0.48101015298669253,0.4913881252463816,0.3206789993134841,-0.7574707286742806,0.3622725269401834,-0.17530440979231834,0.5140671895126123
9.3,-0.6493668108606533,-0.536996475256226,-0.7412995215114325,0.04639805677039264,-0.07923447921810518,0.20788243285443386,-0.05889098392273616,-0.5881318208883108,0.8066180526751008,-1.2304531659829643,-1.9158114813291318,4.1542088567689115,-3.568241637176356,-1.373584814146066,2.5635998666807955,2.0,0.4809974255844491,0.4914030659449108,0.3206985276743077,-0.7574684895520091,0.36224616281997346,-0.1752995135260518,0.514090736558764
9.4,-1.3657436300870085,-1.1141902806745083,-0.7901595761859111,0.0684583625292416,-0.16258390687594576,0.19783508829554902,-0.058937889812906895,-0.5885462265537662,0.8063123767663914,-1.2304368012333955,-1.9158287254084703,4.154246502085089,-3.5682190853944284,-1.3735968515334702,2.5635747240213664,2.0,0.4809990015264791,0.49140228656463814,0.3206880236163212,-0.7574672600721714,0.36225916395151214,-0.175295740294701,0.5140846734599677
9.5,-1.8830294539269372,-1.3196040542915446,-0.9111854072382118,0.09178757924809171,-0.24397420860709576,0.18623937127914725,-0.05898470387522114,-0.5889647439401562,0.806003138777798,-1.2304342216368716,-1.9158298828330933,4.154234762135368,-3.568240304986471,-1.3735792977308656,2.5636109325347443,2.0,0.4809765729674462,0.49141249157522016,0.3206968102687245,-0.7574806159403771,0.36224112897436295,-0.17527520966526422,0.5140847029729277
9.600000000000001,-2.2758459275515164,-1.8069952608866298,-1.1228654313578554,0.10338109558107479,-0.29925750696064335,0.17795443298235492,-0.0590315141837318,-0.589383429408361,0.8056937551760024,-1.2304473088477688,-1.9158133045059365,4.15424062473522,-3.568240304986471,-1.373557291438131,2.563594733322378,2.0,0.48099389593783937,0.4913980015915208,0.32068538769378235,-0.7574719329254624,0.36225999653551844,-0.17528922181393317,0.5140794242683863
9.700000000000001,-2.3837637091442794,-2.152953562205808,-1.2645338594473805,0.11690464848074746,-0.3362306902514167,0.1731815698826238,-0.059071701209377,-0.5898583851704461,0.8053429475240987,-1.230464198464077,-1.9157968960204066,4.154249029982604,-3.5682632487041483,-1.373519558663464,2.563587027419128,2.0,0.48098431608490627,0.4914078683599912,0.32071705936492584,-0.7574664589331028,0.3622422970229687,-0.17529125137015547,0.5140992696279142
9.8,-2.7604583807741463,-1.9576745402097322,-1.3372982022939521,0.13578716639821198,-0.3722435349888652,0.17088961904626918,-0.059111545688535626,-0.5903362511496938,0.8049899974810105,-1.2304531660830662,-1.9157743862481087,4.15424025965432,-3.568260574141278,-1.3735540097483299,2.563606935895914,2.0,0.4809762716109064,0.4914202730928004,0.3207095700003783,-0.7574697299124488,0.3622370960429396,-0.17529396761292923,0.5140971887058492
9.9,-2.5817086343040283,-1.075354365461012,-1.197945779816899,0.1041101897100972,-0.38247904115670045,0.16678690383568373,-0.05908271818800699,-0.5900175702375693,0.8052256748846202,-1.2304668426513672,-1.915799061781033,4.154281748005677,-3.568243553627411,-1.3735526243792933,2.563611765827765,2.0,0.4809803685002643,0.49141793121240285,0.32068480156873785,-0.7574764481286883,0.3622488331459676,-0.17528528105248103,0.5140819814592654
10.0,-2.300202814470737,-1.0809905698541658,-1.4139675801534652,0.10100290542271564,-0.3610734042683097,0.17579645955414425,-0.05910916680127252,-0.5901974210884448,0.8050916214030716,-1.230447366754096,-1.9157864112627143,4.154253460179451,-3.568274689048924,-1.373528782521383,2.563604555497891,2.0,0.4809826587560367,0.4914098083550991,0.32070043310686014,-0.7574700606659184,0.3622515111349422,-0.1752881850192755,0.5140885157906846
10.100000000000001,-0.8326488872743335,-0.4670383058917316,-0.9757532844940732,0.049703923507621164,-0.22717375746725355,0.1973969781223678,-0.059212969620629795,-0.5910889639241539,0.8044299172034396,-1.2304530348970317,-1.9157803978511532,4.154221555252256,-3.5682973902434325,-1.3735467494283677,2.563606662591676,2.0,0.480971953852585,0.49140900957644523,0.32070955195492545,-0.7574703378292504,0.3622398780546656,-0.17529904559894888,0.5140926012576724
10.200000000000001,0.5742836574917649,0.250278042211621,0.06824783461631262,-0.021973733381909437,-0.039973897835391056,0.2123872700742706,-0.0592662853434869,-0.5911247887592579,0.80439976875295,-1.2304761862632783,-1.91583313564443,4.1541985499797836,-3.568297391047937,-1.3734810988055628,2.563619634549304,2.0,0.48100585010960345,0.49138989594075255,0.32068957248668517,-0.7574732047059071,0.36226780139130715,-0.17531617168807223,0.514062860137075
10.3,0.12574520249828441,-0.24782168093882997,0.4957222658439451,0.013557848867191996,-0.043924395229330726,0.20613082491006962,-0.05926483470966352,-0.5908602224896999,0.8045940829818417,-1.2304355371366746,-1.9158115064324794,4.1541876792907715,-3.568259003412883,-1.373531948841659,2.5636183546758176,2.0,0.48100897934070497,0.4913953524349267,0.3206862940630936,-0.7574646535598759,0.36227684910583924,-0.17533229150557458,0.5140635863050081
10.4,-0.12131360750390917,-0.5934898143749058,0.7059856276760654,-0.0009555096665350324,-0.08402511136986883,0.20001841034936255,-0.059187530128338356,-0.5902726308618003,0.8050310373737704,-1.2304761068644514,-1.915829645775513,4.154201523312129,-3.568285452507691,-1.3735738697819677,2.5635902174962313,2.0,0.4810203687450634,0.49138945417653146,0.3206838623155983,-0.7574688526290483,0.36227074581032087,-0.1753283263091819,0.5140630525728223
10.5,-0.6654874171919218,-0.24129755466596714,1.008498279819438,-0.0033185000399462037,-0.11440018149355598,0.18686418317375345,-0.05922418929782514,-0.590734825342461,0.8046889505371824,-1.230455852838176,-1.9158220916792035,4.1542013767057355,-3.5682843499847543,-1.3735465954910429,2.5635870578580797,2.0,0.4810023808270913,0.49139924475657504,0.32068653971458844,-0.7574687150945163,0.36225751954197993,-0.17530116994201678,0.5140818368755258
10.600000000000001,-1.1752011886008464,-0.5918673780364636,1.2257470151125072,-0.02556451445925241,-0.15796016326529436,0.17795482444488228,-0.059275548790825375,-0.5913324330164033,0.8042463742203174,-1.2304515384407098,-1.9158357469046001,4.154204678927413,-3.5682646236815394,-1.3735754293011615,2.5636195909366633,2.0,0.48099738476673337,0.4914084098615563,0.3206466201669835,-0.7574854233768664,0.3622630726717317,-0.17529060190638462,0.51405690777705
10.700000000000001,-1.3997655580794086,-0.2709101043176131,1.4844314370120062,-0.022470942566444718,-0.1992929628697228,0.17270261508464857,-0.05922310982843742,-0.59081392548492,0.8046310505612706,-1.2304528500029885,-1.9158309974715788,4.154211521148682,-3.568252225915426,-1.3735786044100546,2.563587353091494,2.0,0.4810176680408197,0.4913974184976298,0.3206818046842376,-0.7574633799451814,0.36226958982054797,-0.1753084241630379,0.5140787184378928
10.8,-1.8545661718933186,-0.38319139949003767,1.7961420249374345,-0.026975581428915367,-0.23756154715412478,0.1651847830523397,-0.05914924037822191,-0.5902021121561234,0.8050854641675036,-1.2304652276044168,-1.9158207378783167,4.154204797963355,-3.568261455704829,-1.3735857581437967,2.563598817347976,2.0,0.48100601199161525,0.4914042059064859,0.3206712086511873,-0.7574705795037172,0.3622668767527822,-0.1752998447974496,0.5140729477497115
10.9,-1.9807488339105017,-0.30246343770277584,1.8185161543998214,-0.042054960842540054,-0.2666792274423905,0.15575517061955513,-0.059064164658664244,-0.5897098948436578,0.8054522499863683,-1.2304637576412134,-1.9158228640339632,4.154212521692515,-3.5682445156084377,-1.3735650221454065,2.563598286223512,2.0,0.48100869944197505,0.49140049447170225,0.3206756003380824,-0.757475386752574,0.3622605684030241,-0.1752968373781767,0.5140713353704578
11.0,-1.930125431772706,-0.2824549944356551,1.747087405115007,-0.05526422332815275,-0.28551704185315946,0.15908767108613428,-0.05901036019319268,-0.5893480027295478,0.8057212291434899,-1.2304689489419902,-1.9158025037747475,4.1542405235649,-3.5682733880231874,-1.3735526243792933,2.5635794450346143,2.0,0.48099038828614094,0.4914084979389137,0.320683249398259,-0.757485707281751,0.3622321570566919,-0.17529678727788553,0.5140761655902489
11.100000000000001,-2.215594155950875,-0.050226723283077326,1.763863670480042,-0.06848381191865795,-0.3013310176481012,0.15413803005427282,-0.05901318760818837,-0.5892221280464887,0.8058130815642972,-1.230486401246636,-1.9158583864703143,4.154208703212733,-3.5682631583548465,-1.373580353836753,2.5635857582092285,2.0,0.4809898570815153,0.49140972785592313,0.32068058077923733,-0.7574779368854428,0.36225677955819985,-0.17529420850265315,0.5140711441632599
11.200000000000001,-2.2076502174358934,0.10960995901515297,1.7020197078357227,-0.08866178243877022,-0.32948153602087366,0.14653474188319413,-0.05897734616888371,-0.5889244355967672,0.806033241641477,-1.2304651044409636,-1.9158326588072718,4.154236725671591,-3.5682535210525894,-1.3735132838798665,2.5636087480032153,2.0,0.4809917343533501,0.49140898578719094,0.3206645538923352,-0.7574863607578397,0.36225888742465223,-0.17528426493769625,0.5140606367083059
11.3,-2.1513858702667976,0.3788030787857444,1.6643842873772894,-0.10969549695058924,-0.32405019504033566,0.15146839298684533,-0.05901560744943232,-0.5892191872192087,0.8058145451690345,-1.23044834160557,-1.915833778654973,4.154200077056885,-3.568241381763107,-1.3734713745009446,2.563577667549658,2.0,0.48099142540078593,0.49140777005353165,0.3206916964424132,-0.7574747353392468,0.36225795119801557,-0.17530146293337323,0.5140725622030156
11.4,-1.8774080607834713,0.7828001621374943,1.5526839768479885,-0.12331665295230351,-0.3179650972195138,0.14839305712698939,-0.05909792087144499,-0.5899312523644727,0.8052875138625637,-1.2304664129046912,-1.9158326588072718,4.154200870435364,-3.568252655662102,-1.3735773562923195,2.563562313040558,2.0,0.48099957514271374,0.49140504367113474,0.3206641758574573,-0.7574812123268073,0.3622569127804475,-0.17531395163913746,0.5140594911830338
11.5,-2.0948571606295614,0.6618147497829048,1.6935306911571764,-0.14252487716310203,-0.3330601867843982,0.144878500363038,-0.05894112860951068,-0.5889673506027053,0.8060043595385291,-1.2304355197766,-1.915864828246222,4.1542229652404785,-3.568254903668764,-1.3735967683022652,2.563572075121513,2.0,0.48098424137714185,0.4914245177702935,0.32068386432871215,-0.7574767557154016,0.362243159067767,-0.17528068519538506,0.5140870934549033
11.600000000000001,-2.3200858252405734,0.8615501042684839,1.838130537087768,-0.16333136118969907,-0.3538530554483308,0.14042546967480452,-0.058975772717844197,-0.5892613351419754,0.8057868197802265,-1.2304699536478723,-1.9158342765254543,4.154210027870359,-3.568274574495014,-1.3735961184375143,2.5635972023010254,2.0,0.4809901476721843,0.49142780453477214,0.32067564698179296,-0.7574861391283936,0.3622329367957158,-0.17527956805645684,0.5140808511806801
11.700000000000001,-2.539198318397998,0.9699788200046013,1.8185205234314141,-0.18690349393507327,-0.36070149848714667,0.1370108731360284,-0.05905615465280041,-0.5898558528843534,0.8053460373908004,-1.230489379159118,-1.915854203633252,4.154224488148998,-3.568253640044765,-1.3735540385086324,2.5635733604431152,2.0,0.4809808070574349,0.49141278563024515,0.32068056812393636,-0.7574855858823365,0.362244288907667,-0.17529465977584055,0.5140685212968635
11.8,-2.6039274613087366,1.3507534747140324,1.9873328204281282,-0.2042683835309715,-0.38490792116324113,0.1312569301227742,-0.058894432270217,-0.5884560862863255,0.8063793528363501,-1.2304792404174805,-1.9158406468223987,4.154225386280236,-3.5682392787364234,-1.3735483010940126,2.56361464569672,2.0,0.4809911662387914,0.49141019560383004,0.3206762212827945,-0.7574836781908425,0.3622432386317606,-0.1752947853710421,0.5140720295462163
11.9,-2.6992264030952433,1.464470485891341,1.8834226133442673,-0.21546792190936587,-0.3983891556832399,0.13224532430138924,-0.058757877709771755,-0.5872638592285571,0.807259818370567,-1.2304713526840818,-1.9158118642687634,4.154212983861995,-3.5682760677733363,-1.3735318298407848,2.563600249620427,2.0,0.48098502063971316,0.4914092448681781,0.32067355167630307,-0.7574825817141773,0.36225834714913047,-0.17528129975873064,0.5140675969902162
12.0,-3.017970974296093,1.4347212160277316,1.8392567917026872,-0.23952716553139114,-0.42050455778721063,0.12637796963314327,-0.05883587973911254,-0.5878395528522107,0.8068348764085287,-1.2304575363629657,-1.9158465428607465,4.1542229652404785,-3.5682507396280645,-1.3734867092996876,2.563576333017838,2.1157222779069187,0.4809927153859994,0.4913876264664275,0.3206793265602131,-0.7574772711064772,0.3622627067765498,-0.17530075418066698,0.5140657162461832
12.100000000000001,-2.7928906755458387,1.6364889057650303,1.8991159848554597,-0.2549182734225215,-0.42065981140254444,0.12793614547060936,-0.05886509253166041,-0.5880001269802352,0.8067157526946664,-1.230443000793457,-1.9158335917603613,4.154202804150531,-3.568266417822096,-1.373458189900742,2.563619250018379,3.0,0.48098632354182114,0.49139997949182457,0.320648100424275,-0.7575001901122715,0.3622577283639744,-0.17529917078637874,0.5140359918741618
12.200000000000001,-2.7166437826263294,1.8046397737681632,2.020625099454614,-0.2531577031975354,-0.39805043450295163,0.12867000234358425,-0.058767887843182584,-0.5870850876243916,0.8073890326978412,-1.2307853280242378,-1.9153814952388315,4.154236316680908,-3.56829891814854,-1.3734810988055628,2.563600256406344,3.0,0.4809910121825855,0.4914066227559194,0.3206828942789607,-0.7574731602342073,0.36225601725797313,-0.17532167483325264,0.5140693531215972
12.3,-2.3319371492681946,1.1868646705428492,2.4310795410656025,-0.24587472380055528,-0.384974180834614,0.09994207761368892,-0.05872409744685138,-0.5866356992701309,0.8077190159334939,-1.231792124276847,-1.9143485904081103,4.15428519400984,-3.5683632861055226,-1.3733945972493298,2.563764809041918,3.0,0.4809576733234686,0.49134090039366946,0.3207789038782832,-0.7574471554319977,0.36224141568861423,-0.1753371455713244,0.514112681102873
12.4,-2.383484769069516,1.1941627947239974,2.7579478328023366,-0.2539317669324742,-0.367955132375466,0.08012504288206147,-0.05873997875426755,-0.5865246285869502,0.807798534705493,-1.2328220618451982,-1.913098333267075,4.154550515121076,-3.5684974406842085,-1.3731339821599853,2.563764609390643,3.0,0.4807363165741647,0.4910360614269265,0.32089866564247815,-0.757455516339253,0.3622812670422157,-0.17531299570641062,0.5140805168978557
12.5,-2.690399209726545,1.3715857159622369,3.295827115809122,-0.26036122250111143,-0.3545077840107733,0.05219596730025712,-0.05867474191245453,-0.5858505525413265,0.8082902311965551,-1.2339370418245372,-1.911890434943795,4.154846668243408,-3.5686246357359828,-1.3729611352265099,2.563890314276756,3.0,0.48030825275963457,0.49060777258837784,0.3212550178403466,-0.757415355204379,0.36227218351781343,-0.17532790693295555,0.5141410018665784
12.600000000000001,-2.827125304836381,1.3248279900160589,3.537741539097803,-0.2625475710086684,-0.4071212236042263,0.02378705540106303,-0.05831255617735579,-0.5832222741084847,0.8102147098627968,-1.2350683212280273,-1.9106985423950897,4.155016300029739,-3.5687283548172855,-1.3727745236504991,2.5639531682390175,3.0,0.4800281199900024,0.4903934484899651,0.32137992839560625,-0.7574496166117903,0.3622524516517248,-0.1753016420704465,0.5141133861847713
12.700000000000001,-3.358717768426324,1.1009471216528115,3.815481433400009,-0.23364561337630868,-0.43910413516285235,-0.012386951802722012,-0.058330442449040176,-0.5835012566095419,0.8100137578135159,-1.2362298965454102,-1.909695201117966,4.155261314181037,-3.5688601066660617,-1.3726245479100545,2.5640664100646973,3.0,0.4796017118256669,0.4899232578169441,0.32163699789102806,-0.7574468465497166,0.36226439433501917,-0.17531767846191523,0.5141035837919202
12.8,-3.1153246916206627,1.3565015267077571,4.009559142686892,-0.2578386252487415,-0.45357293003660076,-0.028613795022577687,-0.05835563763915527,-0.583780408478323,0.8098075094785577,-1.2372976927997779,-1.9086484999948685,4.155494226939366,-3.568956644585007,-1.3724116397222739,2.564168786031678,3.0,0.47940483452310256,0.48975558001938213,0.3216649747428255,-0.7574965209667645,0.36225719911219456,-0.1753020407924405,0.5140407930394642
12.9,-3.1064241168401328,1.5806776683985089,4.323113797794351,-0.29326886914458494,-0.4760002771281843,-0.04812404459453902,-0.05793518076736317,-0.5804599187593728,0.8122151744086473,-1.2382268905639648,-1.9072694572788054,4.155700415317851,-3.5691072805048907,-1.3722551133334984,2.5642342567443848,3.0,0.47906251270742073,0.48943910553852005,0.32175095711966145,-0.757553353459915,0.36226631025243317,-0.17528153795460247,0.5139576048372023
13.0,-3.4268874328284027,1.3703727548361637,4.617598119625017,-0.3158876652636256,-0.520233706341154,-0.0817205979302215,-0.057658010724189974,-0.5782829744002621,0.8137952680037799,-1.239201417964567,-1.9059639644785413,4.155894486760739,-3.5692118381856655,-1.3720852530381265,2.5642943382263184,3.0,0.47860050241827234,0.4889864577701961,0.32228547856693635,-0.7574509606887232,0.3622359567020161,-0.1752880744165395,0.5141276541786557
13.100000000000001,-3.7517998520302944,1.4906441028698987,4.659298549412948,-0.30226208183874803,-0.5316281031579733,-0.09665662721745606,-0.05789605594345436,-0.5802178666164868,0.8123996702067904,-1.2403033098442355,-1.904880120884746,4.156106472015381,-3.5693425895154336,-1.3718845128531716,2.5644112394022653,3.0,0.47841750472910044,0.4887928405254738,0.3224441353829942,-0.7574366025481396,0.3622314642764543,-0.17528610818814047,0.5141526423978804
13.200000000000001,-3.8433638852549037,1.3576847360436386,4.890695727839814,-0.2917374405048553,-0.5371125405373253,-0.10469547802982389,-0.05806454631046648,-0.5815928018949331,0.811404448325974,-1.2415224727715954,-1.903896270019892,4.156262727095795,-3.5694997900362204,-1.3717295688519568,2.5644864288503944,3.0,0.4779762517156163,0.4883215313747012,0.32268157119110585,-0.7574526824227339,0.3622467274490749,-0.17530034450010162,0.5141133450526119
13.3,-3.7489848683219447,1.751262289763022,5.093598531579025,-0.3207113524371475,-0.5342437469844111,-0.08189716408484342,-0.05812159415172207,-0.5821049380950135,0.8110330960903481,-1.2425718307495117,-1.9027742970071977,4.156489167601326,-3.5696445904173792,-1.3715140576732803,2.564569385411907,3.0,0.47781986284117145,0.48814409893540106,0.32267177442720185,-0.7575052393148373,0.36224878216805617,-0.17529639222434568,0.5140358033264414
13.4,-3.6496214306996597,2.1437576116836143,5.18112919520822,-0.36363469999640696,-0.5352243525073666,-0.07759979216876714,-0.05782115921834094,-0.5797469191849449,0.8127392232825604,-1.243462603898194,-1.901455523893126,4.156668842930618,-3.569746122380667,-1.3713017495068638,2.5646636657810515,3.0,0.4774821104436999,0.487836713293493,0.3228006744738594,-0.7575447864179183,0.3622509593443291,-0.1752722761505342,0.5139842101058698
13.5,-3.461144804762487,2.650329017103273,5.528677934559083,-0.39040888018784176,-0.5322603805266201,-0.07247615221627952,-0.05742585943260872,-0.5760627573655672,0.81538097602999,-1.2445221019195807,-1.900149899890941,4.156861782073975,-3.569894460281296,-1.3711455432116657,2.5647348741403095,3.0,0.4770347959100624,0.48733659168185905,0.32328582843376713,-0.7574525792987175,0.3622585256862167,-0.1753075863255787,0.5141027143072372
13.600000000000001,-3.679358494852265,2.3894088956647446,5.274271830981066,-0.40098807721666413,-0.5432826304653469,-0.07624757567592805,-0.05727889490300695,-0.5748042839789987,0.8162837374294515,-1.2455070633622392,-1.8991229541232575,4.157089437012102,-3.570039692280309,-1.3709276472076972,2.564787026157821,3.0,0.4768166551824814,0.4871103101354512,0.32346749620343024,-0.7574373502924383,0.3622465966227801,-0.1753107350012778,0.5141324827420408
13.700000000000001,-3.381526871919008,2.6161746121165628,5.124707217728373,-0.4158235014203209,-0.5469005353647276,-0.06975962226391949,-0.057247714317455164,-0.5746767646831356,0.8163757107029178,-1.2466421127319336,-1.8980999914271326,4.157255932114809,-3.570160528222555,-1.370753495978878,2.5648631049488175,3.0,0.4765336253422028,0.4868275757996565,0.3236519419963176,-0.7574388240750936,0.3622285521898962,-0.17532187654915835,0.5141392256630815
13.8,-3.650551975172002,3.0420437176820134,5.390701710347052,-0.436246017231319,-0.5447192158939324,-0.07555050824317071,-0.057295396288955,-0.5749348009726803,0.8161906266712677,-1.2477735203474791,-1.896912446895641,4.157478275059795,-3.5703028365697183,-1.370590652140112,2.564964840771886,3.0,0.47607204991110125,0.48633638254519224,0.3238097073061688,-0.7575009926937136,0.36226905893908923,-0.1753164517593369,0.5140209302605696
13.9,-3.767455946876196,2.8754148253476557,6.214026965058509,-0.4556655159206133,-0.5389960173824906,-0.07235290355840283,-0.057142417969866195,-0.5736025496792094,0.8171339109902163,-1.2486945807151235,-1.8956962453181483,4.157591124936378,-3.5704265747891504,-1.3703888098346155,2.5650620460510254,3.0,0.47589804169606054,0.48616221803486603,0.3239124449602056,-0.7575022018231482,0.3622613851677851,-0.17531048863760515,0.5140265903852099
14.0,-4.033214602379607,2.6816394711265734,6.775418939015873,-0.49600734491562254,-0.566332697938674,-0.07575337663092205,-0.056860717542270366,-0.5713138169442842,0.8187567829747903,-1.2497131627270013,-1.8944740801248592,4.15783450525296,-3.5706398795706105,-1.3702297402962658,2.5651583671569824,3.0,0.47558363570784506,0.4858488383786917,0.32417234699143366,-0.7574769714674605,0.3622541029064231,-0.17530892809085957,0.5140694333994007
14.100000000000001,-3.8613256094928654,2.3869155281061167,7.3095808544896315,-0.47416460680307815,-0.5593703704427697,-0.0693190159300607,-0.05656208142108043,-0.5687800425450259,0.8205388417177243,-1.2506941781290313,-1.8933968623983777,4.158038685278912,-3.5707516888578583,-1.370027851024561,2.5652242259458964,3.0,0.4751119893122124,0.4853453294176355,0.32455668413238026,-0.7574406972271682,0.3622595098228702,-0.17530220162668383,0.5141213629404565
14.200000000000001,-3.3472966630710412,1.1496231713090543,7.735772850736344,-0.3780436183393112,-0.5165120704453865,-0.062449045285892076,-0.05617637446051587,-0.565468913416185,0.8228448043197369,-1.251703219164905,-1.8921766342582906,4.15822431641107,-3.570864945662165,-1.3698422254943712,2.5653448063122593,3.0,0.47495068404771307,0.4851758029253242,0.32466854782588633,-0.7574343108441007,0.3622607799937064,-0.17530118061464406,0.5141302248551294
14.3,-3.3304856423690032,1.0246172864246041,6.962821440510406,-0.3733237138172821,-0.5011232957600322,-0.06455061613955773,-0.0552583718692159,-0.5577661063002544,0.8281334736948772,-1.2527399288232777,-1.8911420082432715,4.15845254621644,-3.5710517770748287,-1.3696834743999922,2.56543035089244,3.0,0.4745017570607006,0.4846833792774555,0.32494848308953295,-0.7574458750042776,0.36226645164855475,-0.17532432586569355,0.5141012985868737
14.4,-3.733237041201698,1.056529115750325,5.225818506042861,-0.32920670321770407,-0.49440299892797934,-0.07269480169593288,-0.05482160075941109,-0.5540064293308914,0.8307046214821487,-1.253752074275396,-1.8899361095824183,4.158647867724066,-3.5711448859721022,-1.3695149136681668,2.5654716235617543,3.0,0.4743187495984197,0.48451834884392725,0.3250349185518572,-0.7574729748892862,0.3622649591052894,-0.1753040569238969,0.5140693332059803
14.5,-3.4469241175072862,1.4970056336545903,4.7342919554449265,-0.33583182071669204,-0.4745011922836113,-0.06733766895662262,-0.05467490661139211,-0.5526591095641432,0.8316115110111069,-1.2548468346775363,-1.8887633163184974,4.158864498138428,-3.571330424807226,-1.3693089816371,2.565580568938023,3.0,0.4740315644824345,0.4842068462771495,0.3252790914276358,-0.7574249992830209,0.3622744100979989,-0.17532531032267568,0.5141261108030984
14.600000000000001,-3.417087617455314,1.5214587845253496,5.182446329061005,-0.3435538575254298,-0.46366749169694205,-0.06185713536784718,-0.054414089689694016,-0.5506772456878342,0.8329412190055463,-1.2558905705967556,-1.88766156558769,4.159030836125566,-3.5714203319945277,-1.3691384031245335,2.5656781811596225,3.0,0.47353028667965447,0.48371719328527074,0.3255376039650915,-0.7574568106231776,0.3622626679262491,-0.17531143389837575,0.5140922491265703
14.700000000000001,-3.408750385335658,1.7391809450231552,5.224264359817513,-0.3550268978771044,-0.46446121897391895,-0.05339719013705397,-0.05429885035160396,-0.5497743687314003,0.833546500957148,-1.2569510764949956,-1.8864157033318405,4.159254732174673,-3.571588178674215,-1.3689635435687464,2.5657944679260254,3.0,0.4733766071133633,0.48354914558204704,0.32560663378447063,-0.757464609577508,0.3622736593308155,-0.17530872300675682,0.514073936929693
14.8,-3.3785441363754956,1.8612395758229896,5.5231723325662125,-0.3613098033043789,-0.4569193850921756,-0.048363314592701226,-0.054257360226868334,-0.5495199964447898,0.8337169022640144,-1.2578913471253188,-1.885247369805807,4.159476755949501,-3.5717680884317633,-1.3687470594989222,2.5658666124858196,3.0,0.47304916289318955,0.48320580436472804,0.32582651064669294,-0.7574650125516107,0.362270525501348,-0.1752993976457454,0.5140787316143357
14.9,-3.0318857699080044,1.7663275786974266,5.666847369260065,-0.3675036599496904,-0.4570223897102995,-0.03970276944199614,-0.05417072043041964,-0.5489518828567284,0.8340964695833047,-1.258742332458496,-1.8841994394141282,4.159711691933389,-3.5719159116370665,-1.3685729902424062,2.5659578298485797,3.0,0.4725697355794542,0.4827603662285514,0.3261737218091897,-0.7574547470177112,0.3622458088899698,-0.1753014904172345,0.5141105597237648
15.0,-3.3374248700316493,1.6334313515501369,5.842210975825648,-0.3604972724927928,-0.4502568235665277,-0.042635889415554254,-0.05406715856184082,-0.5482092644202659,0.8345916887082055,-1.2598860401752567,-1.8831726513304652,4.15991639565502,-3.5720697868312024,-1.3683388842642983,2.56605664341684,3.0,0.4723861232319749,0.48259246856023635,0.32630142648842847,-0.7574479628190143,0.3622452133904692,-0.1753034193619329,0.5141203168102118
15.100000000000001,-3.2842711985414987,1.887670499719731,5.985981735080919,-0.38292848152431347,-0.4578148801659453,-0.033378002419381554,-0.0540006559434108,-0.5476230448995368,0.8349804948154211,-1.2609347343925752,-1.8818622451087204,4.1601338386535645,-3.5722193003303317,-1.3681655289072585,2.5661720460073187,3.0,0.4719481996452454,0.48214818085134076,0.3264745901041095,-0.7574934084084498,0.36225463640117855,-0.17531353365145663,0.5140432662162197
15.200000000000001,-3.438918222018549,2.1541394323471845,5.988658959707706,-0.3927826755625027,-0.44479084192217727,-0.037954641887360155,-0.05393090235559836,-0.5470073671166069,0.8353887130341654,-1.2619069175017301,-1.8806783161559046,4.160301856152249,-3.5724326632784673,-1.3680205005034451,2.566219011821674,3.0,0.47172361213417935,0.48192857762288127,0.3266337245209387,-0.7574808636806869,0.36226580916143675,-0.1752844789319912,0.5140637860379882
15.3,-3.152996650972984,2.0116039675093504,5.776260671390763,-0.38295982796112965,-0.44759076908528045,-0.037212008300641045,-0.05379867312248002,-0.5458312419757425,0.8361662036347897,-1.2624752093514542,-1.8799750873189045,4.160437673570534,-3.572614719428632,-1.3678695018570015,2.566259119260814,3.0,0.47145610724792236,0.4816166281198315,0.3268662732637032,-0.7574646862338905,0.3622635218551478,-0.17529298106019398,0.514086335777104
15.4,-3.204842136847862,2.309651286040705,5.868947050035931,-0.382262566019678,-0.4581227661637951,-0.03263712007224477,-0.05369335631532384,-0.5450310050919847,0.8366948224476772,-1.2624726566841933,-1.8799761870089875,4.160469415090917,-3.5726666945411227,-1.3678857791661863,2.5662748859374505,3.0,0.4711443439409654,0.4813059033619708,0.327121724123843,-0.7574643085538776,0.3622516981967643,-0.17530556961913274,0.5140909313351754
15.5,-3.1282959825804637,1.8838234391050892,5.839568836349533,-0.38524116164527644,-0.4605322290572181,-0.031007357161837047,-0.053715677426392015,-0.5451596010823776,0.8366096003315864,-1.2624713685898605,-1.8799644909300746,4.160457134246826,-3.572608483027108,-1.3678514321501547,2.5662282549416626,3.0,0.4711419293560469,0.48129027197093227,0.32713467797797124,-0.7574640689459576,0.36225257108403985,-0.17531003655386537,0.5140891460460124
15.600000000000001,-3.4019269148798013,1.892819958330121,5.777415074730732,-0.38331504537253247,-0.44783501215319865,-0.03694137468878152,-0.053701718804206565,-0.5449777104988026,0.8367288058757515,-1.2624835145673188,-1.8799886735474438,4.160434328297671,-3.5726549858444363,-1.3678736299027932,2.566286563873291,3.0,0.47114500266211357,0.48128805829107885,0.32708130120072276,-0.757481055721385,0.3622681901790967,-0.17530179093157175,0.5140559217670402
15.700000000000001,-3.4470744368448014,2.316527790946843,5.738318636959398,-0.3749702962434567,-0.45936436801933456,-0.035601585621276605,-0.053654428734947524,-0.544510565149573,0.8370358261894072,-1.262460708618164,-1.8799435787737802,4.160425347769259,-3.572641536211385,-1.3678635145841052,2.566273596336654,3.0,0.4711509700819006,0.4812837719715162,0.32711535284747323,-0.7574594043138332,0.3622692192234698,-0.175310781116944,0.5140840336403354
15.8,-3.4399968329663198,2.2519729386823677,5.704472257553051,-0.3731886566571483,-0.46266042507117444,-0.03913597450169884,-0.053608466777824854,-0.5440565750909933,0.8373342029992562,-1.2624615145879685,-1.8799644909300746,4.160457134246826,-3.5726314983763636,-1.3678858915912073,2.5662642719573125,3.0,0.4711480026508081,0.4812801233294786,0.32711715774534905,-0.7574648137497598,0.3622688802643101,-0.17530702217419653,0.5140775839301892
15.9,-3.3665212817465275,1.812513609041717,5.811712005302745,-0.3860709178772926,-0.46150355062265697,-0.035401224098419816,-0.05366121812313441,-0.5445803655593274,0.8369901424862489,-1.262446342177222,-1.8799862820850382,4.160439526525874,-3.5726232020161435,-1.3678801227710917,2.566294860233511,3.0,0.47113163535526575,0.48129188910605336,0.3271154965677663,-0.7574679122259761,0.3622627158545316,-0.1752989248149355,0.5140801237243542
16.0,-3.283335010848688,1.7741317007943176,5.668231373016999,-0.38648976931610335,-0.4623553779844413,-0.03208969777523816,-0.05368808183861796,-0.5449901402408384,0.8367217423035161,-1.2624716047137046,-1.8799778557730418,4.1604477398218584,-3.572620602280823,-1.3679112351196903,2.5662736181109214,3.0,0.4711417572188486,0.4812885590323531,0.32709347549706036,-0.7574750767288732,0.36226971719642465,-0.1752984906858489,0.514064781229247
16.1,-3.3436268413487555,1.8897221444992494,5.663859978256362,-0.38191176760472983,-0.45942969610587775,-0.034801123239647964,-0.053689028479004836,-0.5452857694509732,0.8365290885091063,-1.2624627346604789,-1.8799764118590296,4.16046547992831,-3.5726353946115843,-1.3678939162849417,2.5662388801574707,3.0,0.47113056755814436,0.48130447032415546,0.3270986718009346,-0.7574834329221498,0.3622469998997401,-0.17528389159749325,0.514073455119549
16.2,-3.1913790831674427,2.225029131114659,5.518542682567875,-0.37477666939719184,-0.46428581574582567,-0.028869789672019187,-0.053628534863007324,-0.5446620097443705,0.8369388822803042,-1.2624524224496056,-1.8799585001899004,4.1604695320129395,-3.5726374285651445,-1.3678620497332972,2.5662647778141583,3.100845562188831,0.4711269633273058,0.4813003693688956,0.32710191719823556,-0.7574866783772134,0.36224191838519326,-0.1752926883287868,0.5140692541517514
16.3,-3.2073070013102645,1.9934697292681522,5.53258274987142,-0.37926244179540064,-0.46336627221533855,-0.034037001297435726,-0.05356739846623577,-0.5440286314984857,0.8373549787874496,-1.262461444344724,-1.8799644909300746,4.160447105332497,-3.572614012907596,-1.3678666052174977,2.566237962211543,4.0,0.4711336942980304,0.48130012054069593,0.327110810229293,-0.7574669818694472,0.3622499361110886,-0.1753046695921511,0.514088540996869
16.400000000000002,-3.019582363560309,2.226152960948972,5.570136084659147,-0.37422270990374645,-0.4656824691559574,-0.031077456101018638,-0.05360866336203068,-0.5443993444579845,0.8371113133522992,-1.262429233510836,-1.8799901976918565,4.160457134246826,-3.572624660279307,-1.3678516159088314,2.5662388801574707,4.0,0.4711334721666896,0.48130666339781375,0.32710935650974815,-0.7574646528483944,0.3622541064256806,-0.1752912028449564,0.5140936259750375
16.5,-3.079718541851395,1.8993370742659708,5.512197909749205,-0.3804207834001056,-0.46615707753677127,-0.031236015614530727,-0.053723709681313125,-0.5454191299512278,0.8364386522293731,-1.262436866760254,-1.880008693424524,4.160460754717052,-3.572627877906138,-1.3678739706622522,2.566275119781494,4.0,0.4711323162722438,0.4813011564832171,0.32710551042339847,-0.757474708016104,0.3622507073354332,-0.17529900275950036,0.5140785459270023
16.6,-2.878151674115495,1.7779820840319935,5.586976142732514,-0.3836034640725305,-0.46499211916943817,-0.03199749639426869,-0.0539196028172689,-0.5471479376382943,0.8352972896213139,-1.2624955856111804,-1.879943336649727,4.1604695320129395,-3.572597946329903,-1.3678712830846897,2.566277699855954,4.0,0.47112847988544404,0.4813012882752653,0.3271183944351169,-0.7574756105908127,0.36224552540840377,-0.17529273276677537,0.5140830054775405
16.7,-3.072147504025438,1.9084134214280088,5.481563958338305,-0.3792263822425556,-0.46243143622553534,-0.030890901827451085,-0.053739480283924876,-0.5454059921293443,0.8364473313675992,-1.2624818024455329,-1.8799644909300746,4.160460829916225,-3.572615767276737,-1.3678949499883486,2.5662808388096634,4.0,0.4711337286088801,0.48129122393444035,0.3271013621421397,-0.7574795032813694,0.3622634371117982,-0.17529087388648107,0.5140652816254662
16.8,-2.9813230123633363,1.772707590917366,5.50101483546917,-0.3805976897125249,-0.462088011436917,-0.02921084703723324,-0.05374919245516137,-0.5455829063472007,0.8363313955063397,-1.2624731063842773,-1.879974561836726,4.160476569400333,-3.572616543928151,-1.3678978125201624,2.566285007075462,4.0,0.4711442824325034,0.48129150778576696,0.32713218531491167,-0.7574592417506216,0.3622618467405434,-0.17530331478514236,0.5140920144371489
16.900000000000002,-3.2464928793354932,1.7698005756209017,5.466169992124012,-0.38175663398792714,-0.456290293788522,-0.03251539200757993,-0.05376912093339473,-0.5458624193343475,0.8361477664250102,-1.2624546264443124,-1.8799644909300746,4.160468830735002,-3.5726312459799843,-1.3678798189063404,2.5662559575415615,4.0,0.47112608943097756,0.4813112328069682,0.3271037204674904,-0.7574730296827924,0.36225217614547206,-0.17528090230668675,0.5140861556855959
17.0,-3.0106630715754545,2.145123605637697,5.495170141646886,-0.3744213764283124,-0.46274512889629615,-0.03155934260164417,-0.05389547194156497,-0.5469390380532648,0.8354357230834848,-1.262463545625379,-1.8799816630717034,4.160458609490578,-3.5726102834771614,-1.3678858915912073,2.5662724955275285,4.0,0.4711280359658787,0.4812990538759394,0.3271349165550264,-0.7574641478384297,0.3622399461271852,-0.17529973321795791,0.514101439117698
17.1,-3.2569597509711286,2.20795750840609,5.391654278367553,-0.3706355693334215,-0.4572484426721918,-0.03503197169860159,-0.05391818015824582,-0.5469545382812896,0.8354241792884214,-1.262460708618164,-1.8799644909300746,4.160464407573396,-3.57262637393682,-1.3678809642454923,2.566292845235367,4.0,0.4711464339770337,0.4812976002253513,0.3271152906702984,-0.757467362582084,0.3622529436012408,-0.17531146073679538,0.514083544970571
17.2,-3.1355495747738034,1.9180465027437468,5.394040173507928,-0.3777164651829097,-0.45807263683540334,-0.03499040708111279,-0.05386945546725246,-0.5464096881887114,0.8357834613336793,-1.262465802174295,-1.879978958637095,4.1604552833035875,-3.5726384428757334,-1.367883344813142,2.566262722015381,4.0,0.4711362084693839,0.481295050120379,0.32711416915093805,-0.75746659146793,0.36225642320671236,-0.17529596234210548,0.5140875141860485
17.3,-1.1222568688202672,2.62359333698561,4.5225294330288195,-0.3836820890288358,-0.30046218950680226,0.014418875846004944,-0.053682281999451256,-0.544787502207701,0.8368522363093286,-1.262450104960178,-1.8799775549431574,4.160444736480713,-3.5726429424681605,-1.3678533403912418,2.566259381965005,4.0,0.47114000215995927,0.48128469279873576,0.327110320181709,-0.7574676252425456,0.3622719007603773,-0.1752962429718584,0.5140749885268034
17.400000000000002,0.4216082850744755,2.6943681673127506,2.6724095323895303,-0.32779277555719766,-0.15067561533317644,0.037327914213604686,-0.05342427331596078,-0.5425838151978967,0.8383004146227495,-1.262434059017901,-1.8799637938659772,4.160409545827321,-3.572687627848998,-1.3678143660174769,2.566283565538308,4.0,0.47114550277150496,0.48128505370020663,0.3271199213476562,-0.7574687720897175,0.3622603913406792,-0.1753151419257579,0.5140749645588133
17.5,0.37115348740440685,0.1179314265786191,1.1630269552427424,-0.1237239700562586,-0.08882846259288708,0.03028327840950971,-0.0533261382101015,-0.5414961027971211,0.8390098782231091,-1.262420628548788,-1.879932702988601,4.160405613692873,-3.57263866200417,-1.3678843377501273,2.5662735512627606,4.0,0.4711456932955713,0.4812751402277087,0.3270658063328703,-0.7574891442489277,0.36228407369902477,-0.17531444377250335,0.5140284934649093
17.6,0.7070031023570539,-0.45159964294678206,0.15899292435777462,-0.06271245470579592,-0.049339289690984674,0.030049307876744407,-0.05343382142836185,-0.5422350828003367,0.8385235277513429,-1.2624445147873327,-1.8799098803369354,4.160438544442159,-3.572606200529929,-1.367877483248314,2.5662880198618154,4.0,0.4711557731374556,0.48127246348683156,0.32711065114581794,-0.7574580883536839,0.36229204816928084,-0.1753258081468746,0.5140647597516637
17.7,0.6264199204143701,-0.3132909996748563,-0.2673098200179342,-0.04410782327527569,-0.03570285898099032,0.029222410179760704,-0.05377055771878814,-0.5451444323717056,0.8366146530844897,-1.2624306982905782,-1.8799275410741036,4.160420894622803,-3.5726257831190655,-1.3678739706622522,2.5662503242492676,4.0,0.4711537489990163,0.4812759059264608,0.32714710825811066,-0.7574438775412562,0.36227336428954166,-0.17530945053049843,0.5141044431400086
17.8,0.829837442634989,-0.6217401297520295,-0.27318465745656373,-0.03511039938808046,-0.03054829182411272,0.03030421270450457,-0.05397823420007047,-0.5470395897578668,0.8353640142220012,-1.2624394201785885,-1.8799525700011195,4.160418128419607,-3.572616626021849,-1.3678978125201624,2.5662680416369112,4.0,0.47114921531668474,0.48127819569011254,0.32714205435700927,-0.7574470065475427,0.3622723015695561,-0.17531046427724742,0.5141002362405207
17.900000000000002,0.7238392721035984,-0.5414764141772264,-0.4040114783248919,-0.03187102314529148,-0.021362128931840103,0.03135289808755804,-0.054068138098017124,-0.5480060323798392,0.8347247956383704,-1.2624382036212318,-1.8799607531348816,4.1604252652857765,-3.5726376471747647,-1.367879486592873,2.566262722015381,4.0,0.4711500189481479,0.48127976225666325,0.3271362828856629,-0.7574675754682851,0.36224810655649536,-0.17531299646630383,0.5140861160160209
