xiamingqian9007/apple-picking-rnn/final_data/grasper_20191127_112410.csv
,/manipulator_wrench.fx,/manipulator_wrench.fy,/manipulator_wrench.fz,/manipulator_wrench.tx,/manipulator_wrench.ty,/manipulator_wrench.tz,/ground_truth.x,/ground_truth.y,/ground_truth.z,/joint_states.elbow_joint,/joint_states.shoulder_lift_joint,/joint_states.shoulder_pan_joint,/joint_states.wrist_1_joint,/joint_states.wrist_2_joint,/joint_states.wrist_3_joint,/mode./mode,/manipulator_pose.x,/manipulator_pose.y,/manipulator_pose.z,/manipulator_pose.rx,/manipulator_pose.ry,/manipulator_pose.rz,/manipulator_pose.rw
0.2,-11.886000968952219,-5.353047247586999,-9.054904628713288,-0.11995860989668866,0.1686851276490055,0.44809023863446973,-0.04567355600547735,0.048611254699575154,0.997772952476581,-1.6930943185867071,-1.7170196282794346,4.1457010278181405,-0.1267040871121092,1.362354819147346,-1.3653009248332542,1.0,0.47757754083288656,0.4713793528638992,0.4190251501566573,0.8279797795216004,-0.0522257623540643,0.37188796333370205,-0.41643882765348605
0.30000000000000004,-11.879577375547882,-5.09356769799387,-8.941056671269413,-0.11474080005941112,0.16222549510548695,0.4477214248807275,-0.04571555128314877,0.04868062686710497,0.9977676504105328,-1.6911712227824927,-1.7196802953291144,4.145348731344359,-0.12590831181187587,1.362729910082249,-1.3654924342263501,1.0,0.4776857693989607,0.4714962472785416,0.41894742158894416,0.8279832036869966,-0.052215773324008244,0.37189360592088494,-0.41642823307690746
0.4,-11.703578369546285,-5.0194104100955945,-8.86610421544201,-0.12938499029248954,0.1594137608406926,0.4487917276717927,-0.045695913859447865,0.04868769043594915,0.9977682005980923,-1.6883440017700195,-1.7232684911381622,4.144748243500339,-0.12502410362982808,1.3635100631895953,-1.365700442195834,1.0,0.4783296191108055,0.4722279018689439,0.41844287224636245,0.8280310548064252,-0.05218538696854299,0.3718446336486786,-0.41638062645827123
0.5,-12.041506661700014,-5.06232037008288,-9.165899350029571,-0.13186291412131648,0.1580111946196754,0.4500463250432318,-0.04552162817739972,0.04858700459500789,0.9977810724692006,-1.6856629371756504,-1.726580711387302,4.143944961556473,-0.12414777029059706,1.3640355653763951,-1.3659151951390915,1.0,0.4789249151040756,0.47285257280808973,0.4181372867369571,0.8280126111936651,-0.052170002999174264,0.3718288473200909,-0.41643332574606395
0.6000000000000001,-11.862026133674375,-5.1253891541359,-8.94354462408256,-0.1273380314131068,0.156521000167775,0.44219361262599277,-0.04555985088365617,0.04856991863604472,0.9977801618802278,-1.683074095326316,-1.7300826600607597,4.143368386453329,-0.12332210520141562,1.3645357374221392,-1.3661816400172428,1.0,0.4797673806422199,0.4735817145379947,0.41781466097382025,0.8279484891083493,-0.052211117614816366,0.3718773345674309,-0.4165123606996997
0.7000000000000001,-12.023742643450209,-4.81789883357213,-8.792370766775253,-0.126665837897318,0.15378061762792106,0.4458401326195892,-0.04565153916156665,0.048553964069344514,0.9977767424830009,-1.6804076687993847,-1.7335599718917245,4.142735957571922,-0.12242025677641842,1.365055047528448,-1.366442469340702,1.0,0.48135251468916734,0.4750645973240688,0.41690178398357947,0.8279692239608102,-0.052249874868937896,0.37189640202651386,-0.41644925370283425
0.8,-11.927153857014826,-5.537424970664609,-8.940110690367707,-0.14222537065472998,0.150693230619072,0.44526946062856937,-0.04549381979878287,0.04833971456269316,0.9977943247767584,-1.6780061879902919,-1.7367836437621058,4.142147877337674,-0.12154697930152127,1.365608154906758,-1.3666709906324594,1.0,0.4819214479415994,0.4756181454956031,0.4165901380753993,0.8279612154906522,-0.052264475087987344,0.3718983496712041,-0.4164616042312352
0.9,-11.701577095222596,-5.302451840624831,-9.045754118843812,-0.12788213720733474,0.15474916345383452,0.43849729184787606,-0.045371713371751395,0.04817336029810654,0.9978079636303153,-1.6754696987395448,-1.7399546875566143,4.1415709315153935,-0.12086109082357095,1.3661695844307293,-1.3668842384371611,1.0,0.4828265156863358,0.47652816628421835,0.4160892635712485,0.8279325224048313,-0.05225546785043971,0.37193604599558544,-0.41648611274960284
1.0,-12.057968996233285,-4.78856772277498,-8.955811291209848,-0.12762482998505498,0.1544677741249152,0.44805282088406406,-0.04543979918515289,0.04826279239883759,0.9978005423912145,-1.6732176412243112,-1.743093968115594,4.141015396538692,-0.12015558204730029,1.3667145440860005,-1.367101017628805,1.0,0.48393925146352723,0.47758270741825004,0.41541954503614337,0.8279676932476276,-0.05226349030017535,0.3718971574124601,-0.41644991394929776
1.1,-12.054256040635645,-4.929277674847311,-8.84176797457534,-0.13260325601407955,0.15241002167908904,0.44333832255836386,-0.04495809062963697,0.04766794205959059,0.9978502789802084,-1.671000984957547,-1.7460114668334141,4.1405314039307966,-0.1194040172467147,1.3672135163936066,-1.3672690820220523,1.0,0.4844356251948854,0.47809537478912634,0.4150682903929809,0.8280101258443813,-0.052225402527607545,0.37187370993309965,-0.41639126154446804
1.2000000000000002,-12.256958181627148,-4.944368233631243,-8.93672141359576,-0.13294850097368566,0.15632272144640252,0.4415134176737051,-0.04418191716710544,0.046706596215019824,0.9979306287865916,-1.6685649617498417,-1.7489550255336224,4.1400603398863804,-0.11872990473545668,1.367575365324799,-1.367467818711845,1.0,0.4855976082795356,0.4792363569520755,0.41435010051380056,0.8280200331372563,-0.05224148594282945,0.3718446043134248,-0.41639553565432796
1.3,-11.980213038348275,-4.94926227039406,-8.943919310709573,-0.12385776223131005,0.15455459800633925,0.4416253421169135,-0.0440572535568409,0.04655422248740215,0.9979436264582534,-1.6666021347045898,-1.751492948639611,4.13963600728489,-0.11808916367212463,1.368037364623192,-1.3676251755014734,1.0,0.4861309559830597,0.47981550138028817,0.4140638744313146,0.8280062976952899,-0.052233871156312055,0.37184803494828667,-0.41642073986061556
1.4000000000000001,-12.106919172161867,-5.229624214109406,-8.744103100655696,-0.142985175705404,0.14848124579023378,0.4439630677646146,-0.04429961159269724,0.04685757521886548,0.9979186819694563,-1.6643109305149675,-1.7543845118141492,4.1391914624718655,-0.1175096593043437,1.3684225808055213,-1.367842571975586,1.0,0.48691001047780125,0.48059106778614274,0.41374248916774975,0.8279415532337265,-0.05223317738490304,0.3718994238064841,-0.4165036592655659
1.5,-12.10738692735332,-5.320043183343741,-8.905413387673716,-0.13083415730283912,0.1575895211632421,0.4443914287472515,-0.04447301311805965,0.04707107259441154,0.9979010082063058,-1.662306877057118,-1.7566647142953093,4.138769051816968,-0.11692588682161284,1.3687360834009217,-1.3680483493620388,1.0,0.4878330165438716,0.48151765961813653,0.4131290142069167,0.8279842344965471,-0.05223090945128807,0.37188207600323747,-0.4164345819820692
1.6,-12.125074803474911,-5.195081229078984,-8.72454803452132,-0.13737303458188455,0.15611275185772125,0.44285883194948905,-0.04418018635729339,0.0466770405533919,0.9979324932235639,-1.6604576169053633,-1.7594322013796382,4.138260055383367,-0.11642433658361609,1.3691802024841309,-1.3681610368343042,1.0,0.4882768434698311,0.48193932823770536,0.4130286158710616,0.8279048606566416,-0.05224156946858642,0.37194636845261325,-0.41653362303117697
1.7000000000000002,-11.867312043412122,-5.118244471736193,-8.931971684026704,-0.1331626930019605,0.15335168663862608,0.43701694920130163,-0.043989539545525,0.046479252163852215,0.9979501927270622,-1.658336504207224,-1.761668614931398,4.137888161154926,-0.11586023187460813,1.3696461530682507,-1.368332890804053,1.0,0.4890870154470839,0.4826913258220291,0.4123407500192342,0.8280302303999207,-0.05225429859954958,0.3718562094951626,-0.4163632852229084
1.8,-11.974059759295944,-4.778612261160208,-8.783353330805593,-0.1264861172615527,0.14814716372054132,0.4422280077210108,-0.04389133471896687,0.046432326569949195,0.997956702603867,-1.6565184489672442,-1.7641703743187687,4.137510776519775,-0.11527060631215516,1.3700401594965035,-1.3685140405322687,1.0,0.48986890423071683,0.4835048615041423,0.412080443412123,0.8279297629908368,-0.052228141214960735,0.3719087070250559,-0.4165194382716343
1.9000000000000001,-11.949834723899066,-4.852878147594633,-8.781621893686786,-0.13168199514950987,0.15015848076264482,0.4430654665176208,-0.044037502474601045,0.046634792726734466,0.9979408130763812,-1.6547019747923133,-1.7663695879760566,4.137069526348753,-0.1148050757976058,1.370425859985477,-1.3686602751361292,1.0,0.49032017139063827,0.4839557332287474,0.41179862994729366,0.8279372852414657,-0.052216654074149674,0.37189759136672734,-0.4165158511748612
2.0,-11.966760969203202,-5.12543619772158,-8.774344441387967,-0.13363923861146756,0.1503381296052302,0.4409636554896405,-0.04425245891988785,0.046889712565566836,0.9979193308784589,-1.6529276583532255,-1.7686265695153256,4.136730064256004,-0.11435093636674883,1.3707124974390108,-1.3688621320057317,1.0,0.49090982141166195,0.4844875372326934,0.41141566078762726,0.8279605227306215,-0.05222428312919769,0.37188514423543,-0.4164798152951362
2.1,-12.022167193945776,-6.006506722614334,-8.730065473611646,-0.12898786429891168,0.16611767503768723,0.43614861021027806,-0.04443601331271072,0.047075673063539165,0.9979023781981865,-1.6512713930595113,-1.770658785329797,4.136302940894078,-0.11392037290179116,1.371028391282825,-1.368972895273626,1.0,0.4917996929808827,0.48538157408100163,0.4108924093502334,0.8279690090795259,-0.05222475539270181,0.37188918517382585,-0.41645927637499974
2.2,-11.997232521216747,-5.1852838098569825,-8.87408617075337,-0.12773547388360035,0.15524319461685998,0.4399041253248759,-0.04376087714884168,0.04611235843739053,0.9979769509656209,-1.64953448737638,-1.772869767818661,4.1359897938603245,-0.11355856183139937,1.3713154792785645,-1.3690814086239802,1.0,0.4922474052611024,0.4857802814948504,0.41059923609094967,0.8279973020248138,-0.052244384533119394,0.3718813693856882,-0.4164075398311256
2.3000000000000003,-11.942801387636756,-4.913429045911048,-8.941430706123644,-0.12881878640601385,0.1442172991862344,0.43793848961575166,-0.04347214922407889,0.045719041632348995,0.9980079865662504,-1.648003460168103,-1.7747866448369232,4.135645205058263,-0.11307227499792455,1.3715844412044123,-1.3691938060556412,1.0,0.4929272177494256,0.4864667957667915,0.4102078928750128,0.8279984365235131,-0.05224109039808656,0.3718872812928269,-0.4164004173884399
2.4000000000000004,-11.964867794140838,-5.000757350807415,-8.985349626952264,-0.1279646560931256,0.15008529112265365,0.4426126261427913,-0.04295413995854411,0.0450367860425873,0.9980604699692133,-1.6465037341638689,-1.7767609748123596,4.135297966428173,-0.11269388128633791,1.3718763930117464,-1.3693105277847832,1.0,0.4932688946510525,0.4868012382976526,0.410027977474475,0.8279903921063194,-0.05222955875398026,0.37189494273086454,-0.4164110173172598
2.5,-12.151422504075443,-4.79590822835668,-8.805693282431188,-0.134303014917961,0.14913652844649053,0.44109080207950435,-0.04203822685981294,0.04380556364751548,0.9981544048870947,-1.6448662232335676,-1.778857892802796,4.135018033786521,-0.11230166376147466,1.372134838099951,-1.3694794911140624,1.0,0.4938942553151463,0.4873266976238052,0.4096913754682871,0.8279784742828591,-0.05229274227393433,0.3719098254396112,-0.41641349278232853
2.6,-12.03550052584404,-5.010254472308825,-9.028457414432525,-0.12761123250771328,0.1486375652478095,0.44178924396664543,-0.04186135872270115,0.04358685293598436,0.9981720966141069,-1.6432592505649881,-1.7803807769597535,4.134740150527541,-0.11194463370029657,1.3724323528733922,-1.3695839087115687,1.0,0.4945754259218808,0.4880740006758871,0.40919755058113677,0.82801744900019,-0.0522534189746702,0.37188070563428527,-0.41636693568728733
2.7,-11.873842410859789,-5.1740249658005935,-8.959868247805757,-0.12947486161304933,0.14256805004521156,0.4368672516437684,-0.04228734144026432,0.04419066593840652,0.9981276780420221,-1.64197972062384,-1.7821526838493726,4.134466648101807,-0.11163540811391634,1.3727203819415643,-1.3696674371239967,1.0,0.4948289753250264,0.4883434245140173,0.40921884411575243,0.8279453794986382,-0.052242089223265065,0.3719372946063308,-0.41646111650593204
2.8000000000000003,-12.061668871091397,-5.126658204903054,-8.86921734028959,-0.1318927920129964,0.14426598189776071,0.4340691308451773,-0.04296638976282788,0.04506556288662951,0.9980589878870665,-1.6406791967429861,-1.784159430082369,4.134193734554265,-0.11130619046819548,1.372996230725421,-1.3697857008285548,1.0,0.4954990341596991,0.4890010935399982,0.40874309498278794,0.8279854300003648,-0.05224871738181315,0.3718844817947949,-0.4164278226046901
2.9000000000000004,-11.889541554096654,-4.994114419168,-8.821147423950732,-0.13003723445062415,0.13784276073106008,0.4377596168226178,-0.04367399197654359,0.04598032833274176,0.9979869499769002,-1.6390455523300833,-1.7854958973326625,4.133928581562186,-0.1109947831681057,1.3732579838038181,-1.369908027921881,1.0,0.49581161497750026,0.4893284495756593,0.4084343356813236,0.8280414025932109,-0.052241948149734055,0.37184270417956944,-0.41635467788102704
3.0,-11.982437540077044,-5.005429818303778,-8.798781452576884,-0.13167812588203487,0.1469751527307587,0.44053778471796373,-0.04520323622910441,0.04804231514062491,0.9978185799625613,-1.637669329487515,-1.7870258773651628,4.133708124046796,-0.11070414237852318,1.3735132743637652,-1.3700090183469096,1.0,0.49630236333220995,0.48982468465680734,0.4083062246126078,0.8279792082756963,-0.05222661689385845,0.371882359527643,-0.4164448604835053
3.1,-12.009350134504341,-4.904023275138314,-9.007913386015195,-0.1200771515633997,0.14756083186918112,0.441428863849971,-0.046692824261401825,0.050049614429253035,0.9976546551667221,-1.6366102207344315,-1.7888791175881942,4.133425999816105,-0.11043140692671734,1.3737473487854004,-1.3700728934113027,1.0,0.4968188434687649,0.49035893284666865,0.40818856634887274,0.8278928961842339,-0.05222193490130324,0.37194071326259576,-0.41656491424573566
3.2,-12.283186210959405,-4.821515655775298,-9.03869992732062,-0.13151925182311025,0.14842735479100144,0.43474926346978765,-0.046484647709695355,0.04971562822063795,0.9976810393435162,-1.6354531888920905,-1.7903795143420431,4.13320779800415,-0.110117714286866,1.373965854078755,-1.3702071348773401,1.0,0.49714175712609865,0.4906634485637458,0.40784484703717633,0.8279750723685886,-0.05220902059824295,0.37189074018841684,-0.4164478059331262
3.3000000000000003,-12.026735792045447,-5.095465918712783,-8.988582980158176,-0.13131289551810058,0.14302624959212426,0.43870591476657517,-0.046393762582425294,0.049598905996436606,0.9976911160050458,-1.6339774695607974,-1.7916498311733768,4.132967472076416,-0.10986155859248836,1.374171477902685,-1.37026333152226,1.0,0.49755949785072,0.49111155412384744,0.4074000519185082,0.8280564629972559,-0.05220000929162548,0.3718259663170076,-0.41634493378790166
3.4000000000000004,-12.19031771416057,-4.980629981015286,-8.859522463340218,-0.13203128459484947,0.1445896115588342,0.4411427773474119,-0.04641324411466894,0.04968688939179856,0.9976858334452551,-1.6327390639606465,-1.7931930042988724,4.1327259970016765,-0.10958961103679875,1.3743899407114355,-1.3703630606280726,1.0,0.4980919010618129,0.4916308698242013,0.4073558447140247,0.8279392120348945,-0.052221212561036526,0.37189781045487014,-0.4165112540046983
3.5,-12.10357725123756,-5.149100909191312,-8.85770560148276,-0.13037138437078621,0.1443082488173845,0.44003982790632157,-0.046115754164118505,0.04925921460447694,0.9977207670105682,-1.6317297504155033,-1.7946445808571272,4.132507464096207,-0.1093439904709233,1.374554798711926,-1.3704418345855893,1.0,0.4983213266897124,0.49184580029920727,0.4072514337567947,0.8279287140632499,-0.05221062775362298,0.37191530049561056,-0.4165178315947659
3.6,-11.764204409454566,-5.319578210336985,-8.893447373971364,-0.1357120320546821,0.1388962156691855,0.44212841807725634,-0.0460661349280373,0.049163861920913585,0.9977278062167092,-1.630761373362923,-1.7959212025970375,4.132325346064003,-0.10907379174084354,1.3747900905845667,-1.3705483358080335,1.0,0.4988757929770678,0.49238057970925914,0.4068008255504741,0.8279891831925121,-0.0522235435044957,0.3718758919392431,-0.41643118881085633
3.7,-11.973207038307418,-5.256262146507179,-8.996963636750271,-0.13635627762408037,0.14163938472689472,0.4410149148312775,-0.04626894484081081,0.04940694286786981,0.9977064380760656,-1.629628362064868,-1.7971753660783414,4.13210621484402,-0.10883378837365836,1.374967871303052,-1.370622434723348,1.0,0.4991470065471807,0.49263987661622366,0.4066282762308812,0.8279910348321559,-0.05222470648637189,0.3718719263820288,-0.4164309025983873
3.8000000000000003,-11.884239647286023,-4.782209428111899,-8.989950131559524,-0.1279427573114505,0.14068350738576002,0.43603369721765073,-0.04611878644042614,0.049214984625771056,0.9977228466195723,-1.6284422992927936,-1.7984193179175343,4.131889820098877,-0.1086317450686926,1.375135898590088,-1.3706577943062352,1.0,0.4995894937924488,0.49309816189673555,0.40638429986733327,0.8279864452755916,-0.05220548258212,0.37188429690693914,-0.4164313913987385
3.9000000000000004,-11.969829376100432,-4.979588714113404,-9.024887418630085,-0.13118982040623184,0.14089456604784484,0.4366643751698166,-0.0459634871462075,0.049016690148375314,0.9977398053708892,-1.6274361178387629,-1.799613181440921,4.131685733795166,-0.10843248314535879,1.375299597275318,-1.3707309695314693,1.0,0.499840025096973,0.49333483357048047,0.4063044651260855,0.8279587491847644,-0.05222738777619504,0.3719012016869116,-0.4164686132211
4.0,-11.923365630651125,-5.0148977708540485,-9.21052312379885,-0.1311395394264942,0.1460946981386127,0.435615309302257,-0.04592852904857495,0.048963061277735226,0.9977440470647597,-1.6264549935176023,-1.800817152062887,4.131502657201897,-0.10821755350146489,1.375462834396604,-1.3708632916825085,1.0,0.5001498664758282,0.4936424285031113,0.40616255109694976,0.8279444176995071,-0.05222881204001979,0.3719111275266085,-0.41648806179169057
4.1000000000000005,-12.289835863717641,-5.158723288562104,-9.147563372098855,-0.13132675319041479,0.14924962457954652,0.4381816124341354,-0.045896209337382456,0.048912604087168396,0.9977480099471103,-1.6255366320774551,-1.8020206063153235,4.131290912628174,-0.10801346719775395,1.3756383416734932,-1.370934443730743,1.0,0.5005891110295717,0.4940653249034429,0.4059163798361152,0.8279414493248094,-0.05223170266771095,0.3719208672717791,-0.4164849027445938
4.2,-12.141282386634579,-5.223990344913443,-9.001835876257736,-0.1343344085264748,0.1405921750470323,0.4347156902400036,-0.04586330958303479,0.04882694075867841,0.9977537143331927,-1.6245125496897717,-1.8033945450807414,4.131074162633502,-0.10780351372127117,1.3758248177135965,-1.3710110823260706,1.0,0.5007986455510045,0.4942536831073746,0.40576317399689604,0.8279601861851245,-0.052236437057379,0.3719069329518756,-0.4164595033831906
4.3,-11.891693024939139,-5.363624704951179,-9.206617810166724,-0.13238950237019814,0.14018615549796046,0.4351209368068397,-0.04582975761594263,0.04870169090695515,0.9977613769027627,-1.6234437054701305,-1.8044587142445103,4.130876858277389,-0.10761318462086095,1.3760221947330804,-1.371076380145265,1.0,0.5012056419209932,0.4946202909875689,0.40543907878686963,0.8280082424794346,-0.05225795286568278,0.3718865002243939,-0.4163794996145442
4.4,-11.928879635534416,-5.17400956154462,-8.956371054498685,-0.13507487765951312,0.13703219277466439,0.4373857221231113,-0.04586890792030463,0.0487157865868472,0.9977588796244412,-1.6224516107198832,-1.8056112728514613,4.130670008883363,-0.10744752325579737,1.3761925079678354,-1.3711395161344004,1.0,0.501627278344097,0.4950100439214076,0.40526974596773824,0.8279786598834991,-0.05227067092968199,0.3719142092125891,-0.4164119795633409
4.5,-12.017466737647736,-5.208164160948041,-9.053389416299124,-0.1316247475173637,0.14726249926902413,0.43702335391751407,-0.04599314543298129,0.04889296551075785,0.9977444917534781,-1.6213750839233398,-1.8067648331902482,4.130504123876991,-0.10720961100211704,1.3763779164346257,-1.371200954768129,1.0,0.5018239465390407,0.4951860735676969,0.40518685654983444,0.827971702360984,-0.05227171036160483,0.3719241088700508,-0.4164168411898649
4.6000000000000005,-11.916756171378092,-4.861172069383574,-8.9576186202815,-0.1237194500797314,0.13809020692041263,0.43728729847183495,-0.04605048903765935,0.04897089634356674,0.9977380428167458,-1.6204101338263697,-1.8081806635347806,4.130300830376511,-0.10701144025344832,1.376553843987351,-1.3712973744624841,1.0,0.502172071096568,0.4955555494011083,0.40504739472672097,0.8279384597112825,-0.05226364324099652,0.37193017794084204,-0.4164785243718818
4.7,-11.814140008398109,-5.158553298822148,-8.982900364074258,-0.1349832822681923,0.1351962833670388,0.44533193440974983,-0.046026627952553086,0.048928346691818274,0.997741231210388,-1.6193643746975652,-1.8093984995964905,4.130129523345371,-0.10681241916423864,1.376758874544401,-1.371336265214887,1.0,0.5026457590164483,0.49605034479078536,0.4045874833027373,0.8280317500135089,-0.05224921357526126,0.37185995500625146,-0.41635755608981284
4.800000000000001,-11.918120071330591,-5.322838045687755,-8.990094997683725,-0.12661774902861178,0.14478358357565732,0.4384759841960754,-0.045925050732714745,0.04884852523987039,0.9977498105977111,-1.6182703236788343,-1.810396864238319,4.1299549385105365,-0.10667920689658521,1.376902859991296,-1.3714165337755762,1.0,0.5028707950127658,0.4962663239232667,0.40447461812031577,0.8280233460629913,-0.052260802784317544,0.3718631960515558,-0.4163699200102102
4.9,-11.971705326542795,-5.158425234168174,-9.105055402579604,-0.1333194561596713,0.13889084677743727,0.4355830198516672,-0.04572349408536461,0.04872075475830184,0.9977653253333217,-1.6173389411794346,-1.811511930793464,4.129765419795672,-0.1065185782798436,1.3770995140075684,-1.3715122426062856,1.0,0.503136027731449,0.49658223876718494,0.4044472057618377,0.8279589025523004,-0.0522231716141399,0.3718980259311936,-0.41647167291357484
5.0,-11.771027918447247,-5.1452647085440715,-9.046834249142407,-0.13618841423362169,0.13666013478677036,0.43297478516880866,-0.0462009271800676,0.04929951943862776,0.9977147218392668,-1.6163430914600587,-1.8127354151104784,4.129586680085759,-0.10628682330890363,1.3772425651550293,-1.3715747038470667,1.0,0.5035760961598126,0.49697218595623793,0.4042467910605617,0.8279458951241478,-0.05224219842674392,0.37191457424153196,-0.41648036798552024
5.1000000000000005,-12.071465492050992,-4.9507482638263465,-9.039216793339286,-0.1280453944003846,0.1432078048576876,0.4355114899280949,-0.04644538956202659,0.04958487788037673,0.9976894006520778,-1.6153758749147469,-1.8142126003757684,4.129417262425555,-0.10609356379078956,1.3774097569395993,-1.3716359199677972,1.0,0.5038260149686199,0.4972225712679108,0.40406957026662643,0.8279597617342386,-0.05224267442005909,0.3719069053149597,-0.41645958951316303
5.2,-12.077220565666044,-4.9057762394224165,-8.971374787444503,-0.1301839735590026,0.14272123048544966,0.43255914103985527,-0.04630289772979894,0.04939802539966845,0.9977053021252852,-1.6142314991487263,-1.8153603707697787,4.129204273223877,-0.10588621552558247,1.377577781677246,-1.3717264191728027,1.0,0.5042500913361591,0.49768691514255803,0.40362302334110395,0.8280492684090561,-0.052225232318712546,0.3718297656162378,-0.4163526865510261
5.300000000000001,-12.222463333608722,-5.033145232215774,-9.037861606387525,-0.1354193216788989,0.14562418774051444,0.4267688861475773,-0.04643987576217501,0.049583603650423434,0.9976896953905655,-1.6130243979660623,-1.8163911329885858,4.129016182704213,-0.10573360290634495,1.3777696334091776,-1.371818632795987,1.0,0.5044687867070343,0.497894803856315,0.40354963709699065,0.8280260136738471,-0.052223980490938376,0.3718518293179792,-0.4163793865862634
5.4,-11.865993510270856,-5.0925475637488,-8.979237917118258,-0.13623910585729895,0.14080946090586033,0.4395615353476338,-0.04660345238230778,0.04980462805387244,0.9976710898572643,-1.6121392351039612,-1.8174596455733512,4.1288617401643375,-0.10553851836672994,1.377903379466324,-1.3718938718858544,1.0,0.5047807847299399,0.4981775419915358,0.40357766446802196,0.8279392703716159,-0.05224705348202423,0.37191765414805283,-0.4164901781698725
5.5,-11.881503029029455,-5.132690912254334,-8.961891282363398,-0.13361946116987675,0.13942441033023678,0.4340416074608744,-0.04633781954934966,0.049470526641713905,0.9976999664135556,-1.6111886909595434,-1.818801141502036,4.128668748993804,-0.10536226780164817,1.3780646020087643,-1.3719109196541106,1.0,0.5051978256248117,0.4986003207606224,0.4033549863807499,0.8279268705235117,-0.052241574074090705,0.37193523283154695,-0.4164998170251081
5.6000000000000005,-11.819276738618816,-5.099467607513911,-9.129638878569196,-0.13696654436722566,0.13585702747101805,0.4349287833762383,-0.046027459314396856,0.04907857623454022,0.9977337910214182,-1.6102170944213867,-1.8200758600232134,4.1285248813247915,-0.1051831943244872,1.378220790664331,-1.3720067183123987,1.0,0.5054287464760587,0.4988412435810702,0.40315236179350006,0.8279604553752026,-0.05223877506319754,0.3718986584522817,-0.41646606411108283
5.7,-11.82443685790962,-5.206732198277105,-8.954182195273761,-0.13507837311818233,0.13563083780935623,0.4323552001101345,-0.04588087671107935,0.04888408690707083,0.9977500915223242,-1.6090870722588007,-1.8213387920732658,4.128342151641846,-0.1050166020983544,1.3784293309394415,-1.3720494365728402,1.0,0.5057756721512098,0.4991879132616278,0.4028576179491262,0.8280045799908164,-0.05223793504110715,0.37186175050815296,-0.4164113977377239
5.800000000000001,-12.00457432274678,-5.138962790407898,-9.092969637446044,-0.1354790492001091,0.1377680481598661,0.4374667274189526,-0.04575280868140236,0.048711919966760255,0.9977644109751134,-1.6079130172729492,-1.8223434138938337,4.128173351287842,-0.10483833472139552,1.3786065717477225,-1.3721543368323503,1.0,0.5062173887655712,0.4996452491261133,0.4026141308033696,0.8279950743116499,-0.05222573284673934,0.3718787787540643,-0.4164166226949304
5.9,-11.886408881142376,-4.949920662584218,-9.114280183133788,-0.12864301724049845,0.14051613455715742,0.4375061108971547,-0.04583999507876917,0.048876843037122426,0.9977523456559956,-1.6069345004237483,-1.8235068144114621,4.127957820892334,-0.10467491027958514,1.3787189629836205,-1.3722267971059,1.0,0.5063968557903886,0.4998300598769364,0.4025890233298827,0.8279551821191327,-0.05223183926404103,0.3718954663206881,-0.4164802678390509
6.0,-12.131999323368193,-4.990971464768861,-9.142022879542157,-0.13064328056585603,0.146498380195533,0.4337634113967899,-0.04587611590846202,0.048880986909104245,0.9977504850680236,-1.6059876268753226,-1.8248474588026893,4.1277732408934895,-0.10446448648636183,1.3789133585387536,-1.372329232621994,1.0,0.5066665692259452,0.5000957606910431,0.4025655182719582,0.8279005588857917,-0.052232334238916545,0.3719487394849234,-0.4165412141098696
6.1000000000000005,-11.856303364137847,-5.333376304759851,-9.20500362105641,-0.13854846076377117,0.1361981469429887,0.43540751369283703,-0.04590659243227481,0.048866790152481895,0.9977497788744657,-1.6050881833620263,-1.8260740117739303,4.127601598362526,-0.10428793848071294,1.3790844488280551,-1.372390095387594,1.0,0.50722064443921,0.5006145768648955,0.40202590206510913,0.828007918513649,-0.052237301901901345,0.37187167846505437,-0.41639597251208765
6.2,-11.996580575369764,-5.1884448694798095,-9.143761901423742,-0.1342628118047318,0.13376035765604138,0.4344324778490457,-0.04598679949276718,0.048950898303046435,0.9977419464153909,-1.6039181436760015,-1.8272072277464808,4.127412300799842,-0.10413783046561885,1.3792546265831667,-1.3724439596029632,1.0,0.5074618602048897,0.500856206561726,0.4018560638201682,0.82801981758217,-0.05223134271605619,0.37187213588506596,-0.41637264929573226
6.300000000000001,-12.151757448758868,-5.0324359552185705,-8.978955144137549,-0.12729376182197719,0.13693638665490276,0.43429456554813245,-0.04614014479037213,0.049181545144801074,0.9977235324967094,-1.602729311190774,-1.8284123726168886,4.127250438002997,-0.10397304858467038,1.3794453093724912,-1.372497860585348,1.0,0.5078263442228461,0.5012052038272834,0.4017471696131168,0.8279761450813501,-0.052238224615103634,0.3718992264643498,-0.41643443231859134
6.4,-11.99668232725379,-4.986080391894462,-9.06000449464163,-0.12764779145027377,0.13903703441663973,0.43422638750608067,-0.04606060509077767,0.0491160749849484,0.9977304326751654,-1.6017236709594727,-1.829559621992568,4.1270673538046125,-0.10381317241895825,1.3795729837294435,-1.3725799249420991,1.0,0.5080396522466899,0.5014674756698719,0.40171925332142794,0.8279303786495078,-0.052226253253215886,0.3719229197734127,-0.4165057602574459
6.5,-11.823424764195666,-5.063168033288778,-8.963380762653918,-0.13461346500955074,0.1367611671354845,0.4325181960710406,-0.045609856055334776,0.0485525481052355,0.9977783667060913,-1.6007397302353596,-1.8307827414085789,4.126858119789325,-0.10363361260569674,1.3797731769704622,-1.3726864681898419,1.0,0.508343236790398,0.5017505739453683,0.40154574409835797,0.8279377094279949,-0.052248609211548495,0.3719144186962143,-0.41649597514074604
6.6000000000000005,-12.01786305766763,-5.243509636934766,-9.100592428466134,-0.13630595736934573,0.1355629981655134,0.43175627653135024,-0.044949102099043514,0.04769430877226849,0.9978500852245089,-1.5999064799327374,-1.8319717214453204,4.126687526702881,-0.1034226464789242,1.3799481391906738,-1.3727478906965964,1.0,0.5087583397404862,0.5021429603869483,0.4012552285904307,0.8279589434234245,-0.05224454114828753,0.3719029798726838,-0.4164644876663431
6.7,-12.087705509029423,-4.957129386699869,-9.106272956055856,-0.13439616582582523,0.13829225514928037,0.43638147168123065,-0.04509821883972129,0.04790772666869472,0.9978331219429761,-1.5988135834631034,-1.833218672825357,4.12650502583148,-0.10324999851848174,1.3800981760952942,-1.3727895026494144,1.0,0.5091840199452186,0.502568027784011,0.40088116431469156,0.8280097519452669,-0.052214458245714974,0.3718636686677664,-0.4164023450445422
6.800000000000001,-12.07339520602093,-4.888258662649893,-9.111738059111824,-0.12552315578335166,0.14464805100067527,0.42969549796370665,-0.045228201663422854,0.04808373345937185,0.9978187998058309,-1.5975655415310241,-1.83450843386193,4.1263072495245225,-0.10314777935179693,1.3803012010919926,-1.37287059133648,1.0,0.5094834312621727,0.5028639748086361,0.4007256927678787,0.828001034158399,-0.052230730619804405,0.37185781327996836,-0.41642286790494953
6.9,-11.996813745757025,-5.023031095623989,-8.975315517057844,-0.13402348432945219,0.13830893279241654,0.43147574691954577,-0.04531920044348664,0.048183517687733324,0.9978098588192459,-1.5964966884982321,-1.8356855106511378,4.1261221278298805,-0.10308328757006034,1.380486011505127,-1.3729367793796188,1.0,0.5097262362459138,0.5031022160232754,0.4006169092144411,0.8279953286661051,-0.05223927776886423,0.3718639677405343,-0.41642764444926417
7.0,-11.715709931166206,-5.358693219310542,-8.806691482341906,-0.1346758677378537,0.1381106653820114,0.43235169456343286,-0.04548994360336927,0.04841963103189601,0.9977906533310054,-1.5953946158684158,-1.8367675675852146,4.125888659656369,-0.1029281772413589,1.3806641079288293,-1.3730240481345386,1.0,0.5100145480727382,0.5034106193332585,0.40048761793680876,0.827992448009878,-0.05222502885637603,0.37186954648032605,-0.4164301775809204
7.1000000000000005,-12.182381409658195,-5.70996771876796,-9.169432895213196,-0.1194206069688786,0.12675241648079333,0.43231092046769604,-0.04579448772274413,0.04881092503450137,0.9977576424898509,-1.5952359687506728,-1.8369216797168615,4.12587308883667,-0.10294098791043747,1.3807249069213867,-1.3730465189366847,1.0,0.5104898843592635,0.5038437953261753,0.40033058562760093,0.8279558495706432,-0.05222762889153725,0.37189560764819296,-0.4164793427699671
7.2,-11.965606887331958,-4.958078309407654,-9.059283137060778,-0.13590216229350716,0.13060415616548224,0.4312219435457306,-0.045657208213181144,0.04861661383781622,0.9977733922189074,-1.5952476763768084,-1.8369382108551018,4.12587308883667,-0.10287506998095708,1.380699550941417,-1.3730599679842845,1.0,0.5105652560111834,0.5038795317156758,0.4003040583965002,0.8279532839105676,-0.05223770064895723,0.3719123735961074,-0.4164682084610138
7.300000000000001,-12.102935424205297,-4.870336728905168,-9.213096963376609,-0.12883087835935134,0.14330956356682686,0.4354475237295966,-0.04542692432707692,0.04830316591352389,0.997799160334155,-1.5952357076741603,-1.8370290610757485,4.1258829462559445,-0.1029075967903698,1.380676429869305,-1.3730721817147036,1.0,0.5105478752664241,0.5038766909724348,0.40030828355920867,0.8279536542227808,-0.05223016564751029,0.3719087178493071,-0.41647168192238715
7.4,-11.906263989878312,-5.371594863745494,-9.344888708308767,-0.13382811922611718,0.14037077263029582,0.43429477678669826,-0.045243159434283996,0.04805728694923183,0.9978193861985085,-1.595191839806231,-1.83707918743276,4.125860691070557,-0.10290161666454957,1.3806869161459974,-1.3730275150306153,1.0,0.5105726524074032,0.5038967013137923,0.40027547046990647,0.8279651666759664,-0.05222864036225518,0.37190446658726095,-0.41645278199286156
7.5,-11.93769166838659,-5.345185012719056,-9.28718102383193,-0.1368868099721304,0.14303162353912538,0.43284747376404953,-0.045447183437697956,0.0482911939416648,0.9977987692760484,-1.595191244955379,-1.837058370671436,4.125882851484322,-0.10291886178490804,1.3806883119918496,-1.3730742698505825,1.0,0.5105889598274661,0.5039126009225635,0.4002234682127024,0.8279772148928115,-0.052230238567518565,0.3718960031966921,-0.41643618551207745
7.6000000000000005,-11.969028227264012,-5.095555526739104,-9.113112941966865,-0.13224434246633585,0.13566684464531725,0.43221064621093935,-0.0456620029003372,0.04854923766110185,0.9977765044159812,-1.5951682053852556,-1.8370902005257785,4.12587308883667,-0.10290956376664077,1.380699796062295,-1.3730367324124972,1.0,0.5105934449717188,0.503918609192889,0.4002320702659614,0.8279783921764533,-0.052240523996083414,0.37190274789085326,-0.4164265311585497
7.7,-11.988919865928922,-5.204505834711588,-9.176170842793764,-0.1331436270190963,0.14102441693187534,0.42583358201124094,-0.045664049485852065,0.048562220898963795,0.9977757761740613,-1.5951238125078435,-1.837078710595602,4.125871447727986,-0.10293186924552403,1.3806883564023535,-1.3730623026606856,1.0,0.51060320028995,0.503905444802022,0.4002634265035044,0.8279647871989939,-0.052248751635744786,0.37190208440247136,-0.416453141095284
7.800000000000001,-12.080829393700867,-5.042222409606869,-9.26004967905283,-0.13078116325124464,0.1419494519566367,0.43060442334544435,-0.045754343883492345,0.04865762621761224,0.9977669919281449,-1.5951778950565307,-1.8370555770893575,4.125884749917051,-0.10289030115373307,1.3806660389623435,-1.373071277980302,1.0,0.5105966681496316,0.5039207827061527,0.40023436054565853,0.8279807865474857,-0.05224020347062376,0.37189426803477876,-0.41642938375243255
7.9,-11.946143263953187,-5.221460635049213,-9.222268735933872,-0.13540595362610253,0.13796828964547406,0.43272291405159136,-0.04555370894935627,0.0483908437140858,0.9977891264822921,-1.595170021057129,-1.8371010766608316,4.125826435070496,-0.10292245568082505,1.380688369281411,-1.3730368653953233,1.0,0.5106078313495563,0.5039082211177559,0.4002338245665291,0.8279759187073503,-0.05224646314533639,0.3719044680327173,-0.4164291677906631
8.0,-12.033112598067936,-5.152582035846214,-9.193175494992841,-0.13424697794590632,0.13825467181706028,0.43594029084664204,-0.04573419292444893,0.04864743912883303,0.9977682525040289,-1.595170021057129,-1.8370717517497739,4.12587308883667,-0.10291627168810763,1.3806704628430635,-1.373042602331561,1.4971445411183701,0.5105958772461058,0.5039117197199118,0.4002668440553057,0.8279603887004454,-0.05224800652228649,0.3719094501821576,-0.41645540148095067
8.1,-12.154537752058564,-5.005990504354371,-9.173317162890418,-0.12851106240072968,0.14133220850253359,0.42785642925139683,-0.046076890231022176,0.049122779048925515,0.997729278814732,-1.5951699506559547,-1.8371029263966463,4.125872985942646,-0.10287520672169942,1.3806776648421375,-1.3730733691885808,2.0,0.5105827557955919,0.5039369428582953,0.4002628642978507,0.8279672749053927,-0.052231144706793325,0.371897289450824,-0.4164546857792405
8.200000000000001,-11.837868432724095,-5.130622783636851,-8.991136831228266,-0.13451664459585194,0.13641712698847758,0.4301616173818661,-0.0458310134643727,0.04880927993322563,0.9977560114427009,-1.595156503830278,-1.837078710595602,4.125837201508792,-0.10289938867602544,1.3806892339354997,-1.3730375504474557,2.0,0.5105935490883234,0.5039160480002729,0.4002486814365338,0.8279748319246159,-0.0522305038293371,0.3718948337953705,-0.41644193444639027
8.3,-11.806702307241308,-5.361346379521795,-8.989390565769737,-0.1396849969000047,0.13514082413255807,0.43355209078950646,-0.04554336921222439,0.048454100542178254,0.9977865386685544,-1.5951339712557875,-1.8370558653067728,4.125873294477909,-0.10291111187302,1.3806537112568968,-1.373061086642423,2.0,0.5105850535499774,0.5039251811078788,0.40025821661247396,0.8279738320077352,-0.05223107907095235,0.37189375738535446,-0.4164448115985041
8.4,-12.038653801009145,-5.439094082998371,-9.224761606746867,-0.12667753522329034,0.13919537721242473,0.42784360773642577,-0.04555335110199389,0.048451581954618544,0.9977862080502052,-1.5951803225111403,-1.8370899657239297,4.12584924697876,-0.10287621261874264,1.3806891441345215,-1.3730376402484339,2.0,0.5105648054713477,0.5039321664347597,0.4002856476279516,0.8279575368554534,-0.05222965209501478,0.3718957823035245,-0.41647557876919256
8.5,-11.805022380743106,-5.389440387696135,-9.319108140570384,-0.13368637427041755,0.13627734418821905,0.4282305283465985,-0.04565614992089409,0.04855298909756822,0.9977765845035858,-1.5951459856609034,-1.8371134738016233,4.125860691070557,-0.10284114906209443,1.380665682344612,-1.3730259880003217,2.0,0.5105910453801893,0.5039127156309766,0.4002451861966271,0.8279750207595672,-0.052245532156865074,0.37189772411633026,-0.4164370926861991
8.6,-11.922535794308022,-5.099051369030052,-9.491010652941105,-0.12838931666658987,0.13937935022728312,0.4268766320068563,-0.04549552696981894,0.048332569101375795,0.9977945355633747,-1.5951563879122959,-1.8370667896666468,4.1259072010180295,-0.10289849661208159,1.3807012367208644,-1.373049561177389,2.0,0.5105991124318311,0.5039044392524051,0.4002249922074286,0.8279827853375172,-0.052252344529925,0.3718893188534588,-0.4164283061927508
8.700000000000001,-12.225271174101255,-5.2833993810946005,-9.204527085424896,-0.13567000670060708,0.14181401788116266,0.4280264395261612,-0.0452241070882345,0.04797678649193061,0.9978240846841376,-1.5951569783879422,-1.837054317360472,4.125849511639825,-0.10288829481289992,1.380688879473456,-1.37306064401297,2.0,0.5106009592773222,0.5039006823736143,0.40022558905725986,0.8279853832216908,-0.052248452341941615,0.37189282804624657,-0.4164204952291217
8.8,-12.08654710027889,-5.689790051555556,-9.291300398955672,-0.12502638026730567,0.12593146254418777,0.4343462353215724,-0.045464415538843846,0.04829826338632249,0.9977976422758529,-1.5951794222706537,-1.837078710595602,4.125872389957261,-0.10288948374536516,1.3806878001356582,-1.3730158143888185,2.0,0.5105948238341365,0.5039063781812342,0.40023749513930934,0.827983312555892,-0.0522353166064216,0.3718945305529942,-0.41642473986636225
8.9,-12.386082863449369,-5.927815276530616,-9.251045994058394,-0.08851167583227859,0.10679348714126953,0.43992058637818976,-0.04547667319569693,0.048335557012838974,0.9977953179750775,-1.5951566696166992,-1.8370904566683997,4.125895677438204,-0.10292260390574756,1.3807343213375896,-1.373016304903276,2.0,0.5105951067262335,0.5039164239173194,0.4002590391000642,0.8279753680563551,-0.052238330785735296,0.3718957207515376,-0.41643909467695006
9.0,-12.668006578269253,-6.094988867462223,-9.306272206942813,-0.09048846524781641,0.09881889645408393,0.43449298012535553,-0.045407600498366174,0.048268729206790456,0.9978016438031164,-1.5951345620604902,-1.837058153877936,4.12587308883667,-0.10293271200231316,1.3807002519099507,-1.3730260881619876,2.0,0.5105938770327562,0.5039303501720694,0.40022959762521465,0.8279817625730428,-0.0522360831518458,0.3718803234523944,-0.41644041289521055
9.1,-13.324441287540557,-5.197286546198756,-8.674659936611313,-0.12325452724845568,0.05381924441678761,0.42566567700266644,-0.04589513271188907,0.04891834420215844,0.9977476510489369,-1.5951355823250704,-1.837067727631212,4.12587308883667,-0.10291130960498052,1.380676724559577,-1.373045771800546,2.0,0.5105804588065257,0.5039414775315861,0.40025335891218333,0.8279671999353152,-0.052224947625973545,0.3718864490202882,-0.4164652923255652
9.200000000000001,-13.610346885710623,-5.322719187241762,-7.831839792941642,-0.15253215216297378,0.005588985109774,0.422565386664529,-0.045861180588359536,0.0488495454586872,0.997752682265537,-1.5951452255249023,-1.83707918743276,4.125895997439056,-0.10292711909862096,1.38068158860741,-1.3730386123896052,2.0,0.5105969245506258,0.5039179641698264,0.4002533314881499,0.8279622338893317,-0.0522510040758701,0.3719043217669815,-0.4164559367773408
9.3,-13.870909519477106,-4.84158512506126,-7.22137236563354,-0.16916506699107614,-0.013145299556481258,0.42479919292246987,-0.045641292178024644,0.04857547271415974,0.9977761543633364,-1.5951555783113185,-1.8371149502196253,4.125876453694927,-0.10294593561540746,1.3806880528291408,-1.3730506979538273,2.0,0.5105870254808383,0.5039366445836833,0.4002231810918066,0.8279890037475205,-0.05222608575548221,0.371878344959587,-0.4164290361994081
9.4,-14.037647467765844,-4.392717321754716,-6.8087935958324115,-0.18198203756930986,-0.01777713666457089,0.42351585998834657,-0.045462333864142924,0.048373572201616456,0.9977941441834915,-1.5951361594743865,-1.8371274656589007,4.125873707127403,-0.10294645410111267,1.380653522801231,-1.3730608875960237,2.0,0.5105792597842432,0.503951099891985,0.4002042282462219,0.8279950247923085,-0.05222107309019259,0.3718711410136764,-0.4164241262531262
9.5,-13.776109936616944,-4.252071539663936,-6.208423062263012,-0.19641647475322815,-0.033593402497271274,0.4273189037770323,-0.04531454035896634,0.048160851785972306,0.997811133517455,-1.595182776780199,-1.8371401583601117,4.125871667902791,-0.10295626075564863,1.38068499063549,-1.3730481948948128,2.0,0.5105882767311732,0.5039401431302711,0.4001973904726853,0.8279958958688313,-0.05221673293376279,0.3718827757989204,-0.41641254819011564
9.600000000000001,-13.9682087676514,-4.385259064688971,-6.337569964577673,-0.1957736407451656,-0.03444094552692731,0.42429369370882614,-0.04522141511244866,0.0480212565329565,0.9978221009700915,-1.5951688489296074,-1.8371263076257336,4.1258595640248625,-0.10294538182330515,1.3806788270884183,-1.3729928833734504,2.0,0.510591639286499,0.5039316858355514,0.4002120146323845,0.8279868877081416,-0.052236735810780484,0.3718808965328819,-0.4164296291201194
9.700000000000001,-13.770534392790768,-4.624085138136866,-6.458188100617191,-0.19419570305970757,-0.029664108961299417,0.42343180897279303,-0.0454505016014307,0.04831265700098951,0.9977975757825576,-1.5951513895554976,-1.8371179916820901,4.12587308883667,-0.10290928196333733,1.38065704089945,-1.3730505749982105,2.0,0.5105872066336131,0.5039382420424909,0.4002008658283187,0.8279898321328131,-0.05224272308564858,0.3718710626339117,-0.4164318053953102
9.8,-13.734503995111508,-4.304700757690253,-6.635848216022788,-0.19291218678804287,-0.02548126351436639,0.4255198663719845,-0.04556736539684323,0.04845645802153905,0.997785245596266,-1.595157388011733,-1.8371136417143854,4.125873755917772,-0.1029006715242999,1.3806989248901549,-1.3730265509875605,2.0,0.5105889956941614,0.5039305827711192,0.40019842738261774,0.827995673492666,-0.05222733432754931,0.3718820512577469,-0.4164123079098351
9.9,-13.831538533628612,-4.133224648056823,-6.247491815226751,-0.19617544799108497,-0.011688298893927043,0.416065630406138,-0.04495894713951756,0.04764634119491513,0.997851730266871,-1.5951893005814077,-1.8371006076903404,4.12585162109673,-0.10291012254599535,1.3806927527938364,-1.3730173595674793,2.0,0.5106077842332043,0.5039114350258999,0.40020511316178514,0.8279908803736998,-0.05224453119449918,0.3718920428859678,-0.416410758045891
10.0,-13.46708968134097,-3.8766330004264997,-6.089080885633395,-0.21075176705791185,-0.006497834709747411,0.42470853240093864,-0.04492995525446947,0.04760383770649892,0.9978551620772407,-1.5951586920970402,-1.8370911083617152,4.1258799970132864,-0.10293153989085312,1.3806671802940709,-1.3730376402484339,2.0,0.5105945011165055,0.5039250987567818,0.40022315485160503,0.8279855068397532,-0.05225245974748114,0.37188105692995127,-0.41643025875927586
10.100000000000001,-13.214127859920989,-3.8955978052920197,-6.2857748185647795,-0.21831891743631068,-0.004359388803273169,0.42780514557564164,-0.04525534820190425,0.048030816687793375,0.9978200299243857,-1.5951566696166992,-1.8370931660638754,4.125843104627214,-0.1029232305339356,1.380682888719954,-1.3730532512977027,2.0,0.5105948807201015,0.5039181964062496,0.40024994605402614,0.827963821440977,-0.052243432558732525,0.371910694269817,-0.41644803952843584
10.200000000000001,-13.237211461573565,-3.8614488661702775,-6.389533208316997,-0.2107598061571748,-0.002837401612231498,0.42628569559353635,-0.045346998661941175,0.04813598395572079,0.9978108886785322,-1.5951769993786764,-1.8370765635906743,4.125870855951545,-0.10288746774707036,1.380687083009791,-1.3730440812632168,2.0,0.5105934293693134,0.5039322485096137,0.40022708090662895,0.8279779937789884,-0.052239406568207455,0.3718953989636318,-0.41643402652617706
10.3,-13.450549870909295,-3.8967393326080892,-6.344889680383592,-0.20907274818868257,0.00036357561948299364,0.42746039992211765,-0.045260486491300114,0.04800516136347619,0.9978210932215079,-1.5951220867109135,-1.8370932631002077,4.125883245674751,-0.10291130960498052,1.3806825937295042,-1.3730224173444938,2.0,0.5106117579630599,0.5039126143798003,0.4001947806000712,0.8279936094379672,-0.05225082091690937,0.3718881610328797,-0.41640800920128707
10.4,-13.245596403606294,-4.2246620932957795,-6.595986979343033,-0.21435554776039026,-0.0038847105108185003,0.4246062706120087,-0.04489694673062377,0.04757894068514508,0.9978578022565372,-1.5951730318604904,-1.8370667896666468,4.125870896181676,-0.10289168439128801,1.380708769348214,-1.3730274351373137,2.0,0.5106007754460529,0.5039289360085158,0.400197802293548,0.8279913638216274,-0.052240012745786005,0.3718841610297978,-0.41641740271065186
10.5,-13.290422086331647,-4.232103000238129,-6.448487593606215,-0.21362337272344942,-0.0055127684962636495,0.4234879847280443,-0.044585385388127056,0.047215429743120506,0.9978891848243561,-1.5951312857294193,-1.8370959077918807,4.125885486602783,-0.1029017883911082,1.3806777000427246,-1.3730566826761785,2.0,0.5105881878598102,0.5039367746034767,0.4002173269281039,0.8279870860308368,-0.05223050246297086,0.37188108337648484,-0.4164298498010933
10.600000000000001,-13.330631740189633,-4.069919364167122,-6.496349926212087,-0.21025623533850823,-0.0024387859097652416,0.42447013853673254,-0.04480420829249095,0.04749180468886636,0.9978662164827244,-1.595164854105781,-1.8370837781825007,4.125894545947804,-0.10288746774707036,1.3806826682651745,-1.3730475766933334,2.0,0.5105868546262492,0.5039193590186254,0.40022108804210665,0.8279870789284891,-0.05223325815413008,0.37187987216827995,-0.4164305999157311
10.700000000000001,-13.27509229266773,-4.152624711368858,-6.455084794407974,-0.21009999510442137,-0.006456194212850506,0.42092173732125715,-0.04500111453091251,0.047739686520100126,0.9978455893222954,-1.5951334227879304,-1.8370911083617152,4.125858217304165,-0.10290540807510883,1.3807011829326883,-1.373046610412453,2.0,0.5105832872821894,0.5039222528136621,0.4002458888999249,0.8279785652293036,-0.0522337140295878,0.37188984187992086,-0.416438567073256
10.8,-13.625739366679024,-3.7747483522377805,-6.512714044277231,-0.20166918260841427,0.002509441545804632,0.4233641385745987,-0.04493683643490504,0.047648011451154375,0.9978528623842698,-1.5951566696166992,-1.837091018939418,4.125852100923612,-0.10289044060629123,1.3806619420025295,-1.3730585092471232,2.0,0.5105960037441576,0.5039179186705152,0.4002262909786704,0.827976932868855,-0.052238489289853966,0.37188722266523144,-0.4164435525880286
10.9,-13.454207222759795,-4.250735695446378,-6.570079511767088,-0.21220559736979122,-5.228913371034717e-05,0.4201149227219153,-0.04487916243545377,0.04756646375784687,0.9978593544606278,-1.5951421409553581,-1.8370813405581585,4.125866662650119,-0.1028961755827502,1.3806807846122688,-1.3730376402484339,2.0,0.5105956657158791,0.5039202433855321,0.40021285243881155,0.8279815859207961,-0.0522477902258341,0.37188656267556275,-0.4164337237712087
11.0,-13.33816979530407,-4.007073777733574,-6.671565878253341,-0.20563784606642638,-0.0040272292627808425,0.4252176665551581,-0.044927417505136555,0.047647358188909125,0.9978533196033388,-1.5951366544801313,-1.8370697824239655,4.125876201304282,-0.1029172951196178,1.3807044149476606,-1.373043455952459,2.0,0.5105926283364911,0.5039177601247594,0.4002430448802858,0.8279748358469872,-0.052233922016676246,0.37189806753633514,-0.4164386100707408
11.100000000000001,-13.619657081953832,-4.310580905617561,-6.425424413109198,-0.21200982940433521,-7.871147304209196e-05,0.4283741925516834,-0.04497254114824998,0.04772314705034325,0.9978476695771321,-1.5951337814331055,-1.8370961652423066,4.125859475756713,-0.10291803906416067,1.3807047720410413,-1.373046196447799,2.0,0.5105959261387218,0.5039199839348882,0.4002553468034773,0.8279695733137131,-0.0522294379272073,0.3718969079096047,-0.41645067098972355
11.200000000000001,-13.372888877609256,-4.329348043823143,-6.479721767933507,-0.21192562705401458,-0.003554572326677028,0.42158741009496975,-0.04495675341115326,0.047699624212805714,0.9978495051463414,-1.5951276964918322,-1.837069946079067,4.125857660914633,-0.1028962322636054,1.3806685849455282,-1.3730400919401289,2.0,0.5105871182361467,0.5039208322157386,0.4002414329081026,0.8279751861084601,-0.05223454836605144,0.3718956128022586,-0.4164400272837472
11.3,-13.613504062232279,-4.356202843505891,-6.521776274854846,-0.20567108450109867,-0.006350934965500356,0.42018628722431267,-0.04494096567405654,0.047676101375268176,0.9978513407155506,-1.595156291289515,-1.837078710595602,4.125890200416338,-0.10289756316443352,1.3806859136009653,-1.3730841265683185,2.0,0.5105785026530255,0.5039362859699951,0.40024982118153507,0.827967822376556,-0.052232716434361,0.37187918504713496,-0.4164695669212699
11.4,-13.309421235977025,-4.623173489551234,-6.541064993586221,-0.1988853144809881,-0.02448078127012573,0.4224470806965065,-0.04494932999996712,0.047680563719151636,0.9978507504250593,-1.5951302892175214,-1.837073639781831,4.125893707110964,-0.10291987263433552,1.3806891441345215,-1.373054766307144,2.0,0.51060211777111,0.5039147713996293,0.40023405134317863,0.827977201438996,-0.05223861902464508,0.3718978939128001,-0.4164334725773973
11.5,-13.424478916866576,-4.368264951713377,-6.556207773685038,-0.20032862119830702,-0.017480790671245056,0.4228273647128613,-0.04498006943273535,0.047710952271679714,0.9978479127542923,-1.5951408473926287,-1.8370452721375272,4.12586775703008,-0.10291384024562181,1.3806653022766113,-1.3729988699837692,2.0,0.5105967866713259,0.5039115513527841,0.4002506973178315,0.827968430101137,-0.05222931047704677,0.3719058701778298,-0.41644495627900496
11.600000000000001,-13.448617004947145,-4.684447595224092,-6.526412246078314,-0.20984874519162122,-0.019499459964027153,0.4247193121778681,-0.044904308710920854,0.0476056796087587,0.9978563310845976,-1.5951281061919853,-1.8370667896666468,4.125893703882584,-0.10290611120101846,1.380652904510498,-1.3730410015109304,2.0,0.5105931620523343,0.5039188242783725,0.4002364935550079,0.8279799213765986,-0.05223212144278877,0.3718931168487973,-0.41643314580767343
11.700000000000001,-13.807803830082428,-4.392961224682669,-6.547754346109342,-0.20444825689273166,-0.012498440129792187,0.41844749542634235,-0.044725889805681075,0.04736963968081505,0.997875599358053,-1.5951451432966879,-1.8370668753210369,4.12584941828754,-0.10291104921563453,1.380712643374871,-1.3730252424823206,2.0,0.510599808206168,0.5039057068775887,0.40025074214953854,0.8279641596320982,-0.052246821844619026,0.37190287173000824,-0.41645392778892504
11.8,-13.655037904565454,-4.267534803510545,-6.567761570002535,-0.19949745880985126,-0.01993471330912578,0.41749851260302306,-0.04466642849427819,0.04729554232438922,0.9978817729385004,-1.5951416243903125,-1.8370630384847824,4.12583975626854,-0.10288647357382487,1.380676705869479,-1.373032894893324,2.0,0.5105849047666744,0.503919265616183,0.4002522317092555,0.8279735171632348,-0.052228286400906,0.371893089064378,-0.4164463846428757
11.9,-13.498111344705658,-4.3058750759053845,-6.500028951395818,-0.19916260204333552,-0.021052933131276836,0.41829177074079493,-0.044607167811004184,0.047221718092478306,0.9978879244340714,-1.5951364390139215,-1.837070479702659,4.125877811327878,-0.10290761956896843,1.3806817640624973,-1.3730623329272629,2.0,0.5105962582955227,0.5039127428639972,0.4002483243034113,0.8279733187785088,-0.05223434266067249,0.371899172858769,-0.4164405864762377
12.0,-13.613747117210885,-4.558364156675323,-6.466553343456966,-0.20866729186553515,-0.018576566200306118,0.4189712764482792,-0.044814913973553694,0.04749113595478373,0.9978657400897756,-1.5951426514408045,-1.837076029258,4.12584924697876,-0.10293902837903988,1.3806837814593176,-1.3730599963472894,2.4716355025645056,0.5105943325538568,0.5039191188379054,0.400246830162673,0.8279776120353064,-0.05224468230012682,0.37189570449252857,-0.41643385083309004
12.100000000000001,-13.501703628215054,-4.4093294980895195,-6.276359489288948,-0.2084501483528118,-0.01772098225563255,0.4181605379478132,-0.045025495005810594,0.04776419809299598,0.9978432548977101,-1.595153317931829,-1.8370225054365716,4.12584924697876,-0.10291799352632586,1.3806706091109893,-1.3730322949859017,3.0,0.5105805770314891,0.5039431377116549,0.4002484795411575,0.8279752540317766,-0.05221112563322269,0.3718923207676815,-0.4164457693687799
12.200000000000001,-13.699975872076237,-3.9717708629354167,-5.432136404382283,-0.20576020821977287,-0.01649449420898346,0.4142202558843167,-0.045102934535782555,0.04783416650192861,0.9978364544301341,-1.5955008565111364,-1.8363740841419183,4.125905303752169,-0.10294435023503702,1.380556583404541,-1.3730220434883538,3.0,0.5105803212742563,0.503895004080578,0.4002649736922402,0.8279691268476015,-0.05224519612783912,0.37189458284315147,-0.4164516583238708
12.3,-13.158506951290695,-4.601561546254537,-4.939205514419353,-0.21954149378858107,-0.002264045281620817,0.39572942533750505,-0.04503294355972749,0.047679244769434616,0.9978470220020402,-1.5966061807924325,-1.8353059356818864,4.125983132579731,-0.10312123480504562,1.380424976348877,-1.3729442120207054,3.0,0.5104608915803174,0.5037625335396536,0.40043320571513275,0.8279266876059509,-0.05224053464518023,0.3719250773659114,-0.4165093796256991
12.4,-13.21290612270792,-4.000304349763855,-4.493674173964739,-0.21422317777239291,0.015201134466613586,0.37468245901759967,-0.04496295258367243,0.047524323036940624,0.9978575895739464,-1.5977785280899937,-1.8341528377928675,4.126216586593781,-0.10328559399988078,1.3802595630164143,-1.3728907252422735,3.0,0.5101806501074426,0.5033872049298854,0.40056918768303756,0.8279427070335625,-0.05228937493585488,0.371942332037416,-0.4164559962076698
12.5,-13.170599855001623,-3.8747076874886677,-4.724725548969719,-0.24596302982659532,0.01740990047506614,0.3439102964905141,-0.04512190869642492,0.04773240775315046,0.9978404631182604,-1.5989265441894531,-1.8328158503334504,4.126507217632489,-0.10343190130389203,1.380104560011931,-1.3727949806805704,3.0,0.5099505325613707,0.5031607891122375,0.40063058711155,0.8279706071158642,-0.052298272664772966,0.37191430249479884,-0.4164244421600103
12.600000000000001,-13.286198066902699,-4.126556059260963,-4.837312573170678,-0.24824147572812877,0.007733555467665671,0.32312543411542516,-0.04508327921735994,0.04770572136417543,0.9978434389623332,-1.5999212265014648,-1.8316205768272695,4.1266105029149305,-0.10362087247018789,1.3799290338804848,-1.3727105936056283,3.0,0.5095887794014212,0.5028441393329407,0.4008701224099441,0.8279439175700937,-0.05228191869293787,0.371937387482527,-0.41645894170871633
12.700000000000001,-13.532775183464505,-4.238524086828413,-4.828240486237919,-0.2491178921153243,0.000577603527841464,0.29513659911056733,-0.04479660166183645,0.04738027909052216,0.9978718458791106,-1.6007438650314865,-1.8306125340261472,4.126803345561042,-0.10375295045790425,1.3797601141608542,-1.3727014700519007,3.0,0.5092459132613759,0.5025226474034028,0.4010068472584227,0.8279776692627074,-0.05226489493535969,0.3719032027099217,-0.41642450429074607
12.8,-13.263019984838463,-4.048478805915992,-4.855156754510713,-0.24392550005112593,0.004140060369993251,0.2732711066830237,-0.04467704001857016,0.047266434141431696,0.9978826707497687,-1.6018047201524088,-1.8294247943853923,4.127062868415763,-0.10390123010738944,1.3796184417304642,-1.37259867620962,3.0,0.5089215575868935,0.5022345941176827,0.4012502233766227,0.8279400239980335,-0.05226495097142854,0.37192519609525404,-0.4164796994711709
12.9,-13.01378230289502,-4.275327163254163,-4.673885455155645,-0.23079230890046235,0.007646372089055346,0.2555629714186887,-0.0447672209560771,0.047418159169126034,0.9978714288783762,-1.602987808483278,-1.8282004311067788,4.127199591086387,-0.10406239450488286,1.3794298707820287,-1.372533146535055,3.0,0.5084538218743667,0.5018183829781621,0.40148070554698073,0.8279515026461626,-0.05224402220499702,0.37190905799813984,-0.4164739175371503
13.0,-13.046994052480294,-4.6018028511074816,-5.057243746364905,-0.19990081952136596,0.019166413479713373,0.2326307365536719,-0.04465387021675011,0.0472696270217369,0.9978835129207436,-1.6040825177434208,-1.8269800010282178,4.127359867095947,-0.10423299396356785,1.3792631764252943,-1.3724536310918831,3.0,0.5081138289721706,0.5014429293925721,0.401631856938031,0.827976263730739,-0.052237641106409105,0.37189758259808825,-0.4164357376688775
13.100000000000001,-12.824483591288732,-4.766322539689325,-5.024362102464996,-0.1922881181634989,0.02254394831057927,0.2332552552771156,-0.044604380086229085,0.0471729828917095,0.9978902595043682,-1.6051871591165825,-1.8258575251195086,4.127588748931885,-0.1044091771637807,1.3790908502202441,-1.3723596420494886,3.0,0.5078193351678063,0.5011494843154821,0.40172961204597274,0.8280063287671589,-0.052236004666393866,0.3718811838078124,-0.4163908073765854
13.200000000000001,-12.913834649894213,-4.135979261770303,-4.762852852322317,-0.22067423913706077,0.018622342137094863,0.23873267979812646,-0.04499958408634309,0.04767514051492949,0.9978487207122451,-1.6060387397823743,-1.8245748541272904,4.1277921890201155,-0.1045954078459232,1.3789045238550288,-1.3722755638677946,3.0,0.5075929145411678,0.5009314167157259,0.4018772199868459,0.8279921912057262,-0.05224225773934263,0.37189193420897687,-0.4164085338690146
13.3,-12.85583163270233,-3.7340329797291756,-4.547837334844272,-0.2319980647721581,0.029930148393726288,0.24564154339004685,-0.04543185645954025,0.048265184675459157,0.9978006414463417,-1.6069645810338198,-1.8233078379254086,4.127922585336761,-0.10480530679736333,1.378707873143654,-1.372215108749067,3.0,0.5072537523240751,0.500642197225733,0.4020814588214336,0.8279901859833688,-0.05223239154931207,0.3718796553666223,-0.4164247244252773
13.4,-12.646804939040457,-3.940954107434206,-4.648673150372395,-0.2101468212166657,0.046723745411053105,0.24239289560484087,-0.04552171606376804,0.04840125317376009,0.9977900012608745,-1.6081588984710806,-1.8221901386708061,4.128145795293204,-0.10494339807030373,1.3785516168223162,-1.372143461636221,3.0,0.5068339048847432,0.5001932833933772,0.4024711135026916,0.8279222314381158,-0.05224622132753544,0.37193943015310815,-0.41650470747028323
13.5,-12.42805759935891,-4.312708768911205,-4.7618539132243844,-0.20180674434607251,0.05694730529498681,0.2509758998021544,-0.04510960307792868,0.04786665474996191,0.9978345765951987,-1.609334039560033,-1.8211249492223067,4.12836082886831,-0.10511560099087928,1.3783783912658691,-1.3720542738952866,3.0,0.5066022564162872,0.4999735868573402,0.40259031588773286,0.8279290267184036,-0.05225057629675455,0.37193187885875395,-0.4164973967294046
13.600000000000001,-12.53728641964577,-4.080958200984158,-4.70921568654144,-0.2176810580646143,0.04779239683742905,0.25389071327666857,-0.0447320107479048,0.047367941266729906,0.9978752127191002,-1.6103973248914998,-1.819849167533936,4.1285600592353005,-0.10527856418295799,1.3782055273142546,-1.3719947903955998,3.0,0.5062908274823988,0.49968841345783294,0.4025953361332722,0.8280065812704852,-0.05224253589262668,0.37187892735885497,-0.41639150111727596
13.700000000000001,-12.738974079655438,-3.710114047812786,-4.574548851283315,-0.23519294748942415,0.04642858599606719,0.2540207690797953,-0.04435828027540335,0.04687324226481044,0.9979154081599078,-1.6112236828018045,-1.8184985345984614,4.128732707480964,-0.10548600278552082,1.3780112677211516,-1.3719273323558323,3.0,0.5059401601827278,0.4993519506991827,0.4027283115293883,0.8280319677770022,-0.05223895398694807,0.37185020847119277,-0.4163671150386708
13.8,-12.844922096603076,-3.647952564055367,-4.702805001970661,-0.23489017203378065,0.05382737238589031,0.2519037957306106,-0.044850764185151014,0.04752026642264855,0.9978623422137022,-1.6121914659017746,-1.8173110342441816,4.128895282745361,-0.10563292634590687,1.3778482242284948,-1.3718698984851274,3.0,0.505409750617844,0.4988160877438279,0.4032566307177654,0.8279350072350083,-0.0522518239393145,0.37192229017741096,-0.4164939144320973
13.9,-12.686036406887121,-4.195281967615952,-4.720926594829955,-0.22403789311841488,0.06824079331252528,0.25305252345755574,-0.04544976591493564,0.04830768753596935,0.9977978079753027,-1.6132166823311165,-1.8162645065404823,4.129108135446481,-0.1058007996252881,1.377646376714913,-1.371768277582131,3.0,0.505141284798473,0.4985633634996141,0.4034175189788486,0.8279214598805322,-0.05223976315565177,0.3719411839461208,-0.4165054850773124
14.0,-12.356202513635491,-4.118164403912908,-4.482607316085611,-0.20601979349050054,0.07346239292533509,0.25814483405321687,-0.04547493131584293,0.04827328480001462,0.9977984302585394,-1.6144622367059045,-1.8151773016079893,4.12933549448396,-0.10595496118579106,1.37748479467938,-1.3716837883200408,3.0,0.5048873350157069,0.4982954800021963,0.4034704768030806,0.8279645678402945,-0.05225315528791311,0.3719165927446907,-0.4164400679625715
14.100000000000001,-12.705429594813953,-3.7406272833781955,-4.301198686513441,-0.22401672045982146,0.06645727681475411,0.2593703181116659,-0.04534500534133136,0.04808268351918782,0.9978134968127546,-1.6155602731011074,-1.8137644603898608,4.12949419612836,-0.10615712240398381,1.3773188620564893,-1.371628112564933,3.0,0.5045253059361858,0.4979551553224917,0.4035158474149835,0.8280338493837189,-0.05224521426112656,0.3718654942680969,-0.4163489354307679
14.200000000000001,-12.65025598422677,-3.5805977714684096,-4.354968885325363,-0.2524143003467419,0.05294210442855778,0.2577786715098317,-0.045084337727736755,0.047815559920772494,0.9978380911404946,-1.6164310069442485,-1.8124063170172766,4.129676112687656,-0.10638113894380397,1.3771433308331262,-1.371537987385885,3.0,0.5042871841643211,0.49771580208645283,0.40366298928005423,0.828028898109731,-0.05223622512091671,0.3718655820763779,-0.41635983181293884
14.3,-12.59717191949484,-3.5438756626813626,-4.501354488981715,-0.2333026684903928,0.06466912983046118,0.25554790221606194,-0.04482367011414215,0.04754843632235716,0.9978626854682348,-1.6173295974731445,-1.811360302736061,4.129872987303015,-0.10659012052804735,1.3769700075828866,-1.3715139424476017,3.0,0.5038741890744045,0.49734553632078243,0.4040507677050038,0.8279551159324859,-0.05221931518051684,0.3719096942099523,-0.41646926474346385
14.4,-12.375075301809444,-4.036005055028813,-4.23751284633719,-0.2249023207974052,0.0753236614641149,0.26016016784879037,-0.0447359235834461,0.047440249796794606,0.9978717900749251,-1.6183895732905413,-1.8103114567198695,4.13005258424862,-0.10679371774707036,1.3768224716186523,-1.3714127830772722,3.0,0.5035600073812027,0.49703424235434945,0.40433686088454585,0.8279111820976484,-0.05222819005839789,0.3719384315160606,-0.4165298235208028
14.5,-12.777905520921939,-3.82898954538221,-4.194565510494097,-0.21615105215052727,0.07053314514996983,0.26768153712490894,-0.044675812438762674,0.047357463802424525,0.9978784191915638,-1.6195054723802944,-1.809096475640768,4.130252905089034,-0.10693439326984103,1.3766353227662522,-1.3713374761897668,3.0,0.5031423948596896,0.49666954276916175,0.4043953572536521,0.8279856523203755,-0.052213596145363736,0.3718838855783959,-0.4164323181217874
14.600000000000001,-12.770771089375643,-3.750970813029969,-3.888623812795562,-0.2284264896711059,0.055130496204124704,0.26246094706076095,-0.04487830775305268,0.04763293960000143,0.997856097396507,-1.6205391877647337,-1.8077564458168356,4.130453586578369,-0.1071503332367155,1.3765064163296619,-1.3712681601689867,3.0,0.5030075699150811,0.49652478338396105,0.4044367029087819,0.8280143941340156,-0.05221254951612095,0.3718669668860216,-0.4163904078132637
14.700000000000001,-12.857641590362727,-3.946179984243352,-4.00735997367508,-0.24775674678144222,0.056947773490669346,0.25364242043047774,-0.045126790875209905,0.047971154427374596,0.9978287056996288,-1.6214846203217446,-1.8064290485777796,4.130621433258057,-0.10737243246096105,1.376335630696189,-1.3712023040021828,3.0,0.5025622483445187,0.49606837267063575,0.4047696029920308,0.8279684360511218,-0.05221937984403088,0.3718823398699252,-0.41646720226763806
14.8,-12.829374385392128,-3.9646015279937434,-3.9280377709393854,-0.21693999775194447,0.05965480556841743,0.26213580539488957,-0.045293277322640206,0.04820450408996821,0.9978100241839749,-1.6224873813670686,-1.8054324270339783,4.130780070487298,-0.10759189716482682,1.3761992454528809,-1.3711397894246693,3.0,0.5020982954872186,0.49558017301726087,0.4051501404764032,0.8279227705356167,-0.052225239178819494,0.3719263649822512,-0.41651793413061233
14.9,-12.35502934605592,-4.289229612035948,-3.9317523873742393,-0.21484964574446827,0.06196209888699679,0.2615740917209477,-0.045302567701282305,0.04823681643353552,0.9978080409826299,-1.623616167285267,-1.8042742885222012,4.130980316091973,-0.10769616560014052,1.3760199546813965,-1.3710463939165913,3.0,0.5019284983891732,0.49543842733531773,0.4051919380465551,0.8279446072139901,-0.05221090455655966,0.3718979405398825,-0.41650170546211657
15.0,-12.710718028393831,-4.298991536578418,-4.0827673665413124,-0.21590388371615693,0.070689490019567,0.2620647142452489,-0.044985551070597464,0.04780189837866255,0.9978431911344734,-1.6247254196754006,-1.8030830385726742,4.131156332458503,-0.10786004245060113,1.3758362944969627,-1.3710188674776533,3.0,0.5015277322118806,0.4949950431913927,0.40531063837495035,0.8279948371694391,-0.05221428389085598,0.3718737305031026,-0.41642303819580473
15.100000000000001,-12.930114589115961,-3.8478010126540294,-3.857057435982452,-0.22558805379131924,0.059542326136426287,0.260021040766787,-0.044792786656070824,0.04752748412518587,0.9978650685512246,-1.625668268493408,-1.8017368201316257,4.131363649078613,-0.1081113220531811,1.3756768203045526,-1.3709299511838458,3.0,0.5013177723374131,0.4947868330368959,0.40540390750300953,0.8280009677356563,-0.05222590803831165,0.3718578429888291,-0.41642357830229276
15.200000000000001,-12.730175859194325,-4.063787958651174,-3.7594248640103514,-0.2373704665300956,0.05241449855595342,0.25582646748258564,-0.04501809433895416,0.04781307499380367,0.9978412932384493,-1.6265065782952783,-1.8005573033188171,4.131531238555908,-0.1083793124007777,1.375489434541809,-1.3708505878212487,3.0,0.5009788040375169,0.4944385843110399,0.4056104105929976,0.8279940658967648,-0.05221133625107901,0.371873385890768,-0.4164252490817004
15.3,-12.950711075040763,-4.479033962912881,-4.265237719538504,-0.21078058030572197,0.04781226448559431,0.26353274552380296,-0.0448598305541426,0.047633046553979,0.9978570049762322,-1.6266107559204102,-1.8003459767762073,4.131583157679575,-0.1084497130231347,1.375430493947317,-1.3708065191852015,3.0,0.5005384649974459,0.49400576689298786,0.405978663386607,0.8279562749432386,-0.05223612375446006,0.3718952682300687,-0.416477734849428
15.4,-12.85773998603187,-3.9762661003038215,-4.56841368840252,-0.20507071490760456,0.060650723942813886,0.26405821322348666,-0.04472684095465477,0.047474327742699635,0.9978705720771822,-1.6266800933238517,-1.8003249259050014,4.131584082674315,-0.10846535751312258,1.3754309949861339,-1.3708118946045618,3.0,0.5004675581473763,0.49398026094013237,0.406029371729791,0.827954182544854,-0.05220723276809455,0.3718982586924491,-0.41648284674726394
15.5,-13.02717941293389,-4.267170026753179,-4.740751568593509,-0.1935123111456859,0.06350160002260434,0.2684756353819236,-0.044883854984854435,0.047645033858577907,0.9978553878467223,-1.626753616900671,-1.8003422222533167,4.131563941637675,-0.10847295798516923,1.375434398651123,-1.370838765298025,3.0,0.5004715303119814,0.4939751697125448,0.4060346531656233,0.8279504803481652,-0.05223120106604284,0.3719027871014524,-0.41648315772983274
15.600000000000001,-12.608237586776482,-4.180705974749336,-4.598305629899859,-0.18626984530153226,0.056574136159756316,0.26691009774827107,-0.04483261881128095,0.04756144780232349,0.9978616689192552,-1.626751006074863,-1.8003334560965174,4.131599483166597,-0.1084491132724,1.3754376796141652,-1.370819264464711,3.0,0.5004669856819658,0.49396085230955883,0.4060125517258317,0.827955882792931,-0.05223458760401248,0.37190868757996287,-0.4164667238915573
15.700000000000001,-12.807140943510685,-4.628356495429069,-4.671635759469259,-0.20135843484323926,0.058195017373429976,0.2639843597042624,-0.0447231940587825,0.04740680827356319,0.9978739477553182,-1.6267701005061355,-1.8003753972962624,4.131596634967483,-0.10843403757128911,1.3754342929264387,-1.3708215046952343,3.0,0.5004507835788307,0.49394589640517156,0.40600173752898594,0.827962113342673,-0.05221989410024307,0.37191122086634665,-0.4164539174062335
15.8,-12.914557915373608,-4.591598689724161,-4.6293835341150364,-0.1973418921589589,0.05929535210828426,0.2622689935869155,-0.044597310540906265,0.047275196608402174,0.9978858299576505,-1.6267786026000977,-1.8003274372217322,4.1315816718102525,-0.1084882762838586,1.3754192513464856,-1.370809383287831,3.0,0.5004506007512717,0.4939643485464408,0.4059760153102982,0.8279739135705013,-0.052214477446531404,0.3718906334453328,-0.41644952100748406
15.9,-12.886570053831825,-4.450050532923926,-4.777702347611507,-0.19080432809118292,0.05707162416005815,0.2659036415248765,-0.04492546729691725,0.04769721062912787,0.9978509747379225,-1.6268178041681185,-1.8003450124335139,4.131562608887301,-0.1084368277514863,1.3754383142694369,-1.3708275708629145,3.0,0.5004424876992147,0.49397873829061345,0.4059465796327514,0.8279899120866508,-0.052206267175780564,0.3718734910764946,-0.4164340497424432
16.0,-12.984359452302517,-4.168427121230529,-4.681021396749103,-0.1882298225382046,0.060745387245293686,0.25824574931267735,-0.04507965523660933,0.0478483605617385,0.9978368392687679,-1.6267583734239521,-1.8003541431822718,4.131599883538236,-0.1084304260406099,1.3754288590522725,-1.3708065191852015,3.0,0.5004701797607706,0.4939506976491003,0.4059251385396591,0.8279945730198093,-0.052221460047801885,0.3718881991529322,-0.41640974231039346
16.1,-12.751899357270526,-4.4719266503828,-4.651992030033682,-0.19432265338185947,0.05446353307105862,0.26414336715475406,-0.04511352690402531,0.04784967178234671,0.9978352462054577,-1.6267876344475303,-1.8003422222533167,4.131605110877568,-0.10845536667465316,1.3753957467827354,-1.370837632789951,3.0,0.500466811834411,0.4939484883538754,0.4059723118280226,0.8279779821479433,-0.05224130777590355,0.3718938036388004,-0.41643523584724285
16.2,-12.572441118173284,-4.473090238324887,-4.667755528940339,-0.19386051545173846,0.049692370017416394,0.26466975942265786,-0.04510528568204678,0.04784765242634875,0.997835715582545,-1.6267786026000977,-1.8003492242127228,4.131574758254864,-0.10843649705606359,1.375429479681574,-1.3708184401141565,3.5194768895258792,0.5004741229041065,0.4939503318515431,0.4059740435114465,0.8279747888562116,-0.052226107853615505,0.37189270426431,-0.41644447311970995
16.3,-12.661539466372812,-4.6413314527401734,-4.845914191864837,-0.19672694898163282,0.04803582764059931,0.2655642715562636,-0.045104399752351594,0.04785874919721465,0.9978352229698069,-1.6267945423482695,-1.8003425038202363,4.131626605987549,-0.10843403757128911,1.3754304193832991,-1.3708224540930627,4.0,0.5004742467604267,0.4939403047196683,0.40595533297744674,0.8279846129382689,-0.05223247567628361,0.3718905975860243,-0.416426023021258
16.400000000000002,-12.644928356660689,-4.73380231400592,-4.850773930495707,-0.19810530802729787,0.04991818837445765,0.26668838830366076,-0.04512770244992128,0.04791297968617726,0.9978315667556201,-1.626800342441834,-1.8003449505483973,4.131567478179932,-0.1084119162598261,1.3754385024001918,-1.3707908622125327,4.0,0.5004665815024166,0.4939510908164034,0.405976904415998,0.8279766983600567,-0.05223131854674963,0.3718940948051319,-0.41643878131691703
16.5,-12.765371200506674,-4.419546876527284,-4.877020768377293,-0.19224529708003493,0.05067324496776438,0.2645295499454329,-0.04521518271264594,0.048050744634819155,0.9978209628520731,-1.6267596233722776,-1.8003343731532926,4.131558687187905,-0.10845410215810594,1.3754220008850098,-1.3708065191852015,4.0,0.5004518578239389,0.4939544933056784,0.40598278762338696,0.8279727931210957,-0.052219111197146645,0.3718882695525086,-0.4164532785874923
16.6,-12.920893666166622,-4.3925250361766555,-4.840579588696351,-0.19247488428624876,0.053749211189251835,0.2663016090003807,-0.04532842079973258,0.048222036345272515,0.9978075704762333,-1.6267879763934876,-1.800322693517088,4.131588296065118,-0.10843403757128911,1.3754156174649215,-1.3708303610431116,4.0,0.5004623198139521,0.4939413162455855,0.40598624835286323,0.8279739953838979,-0.05222471985701754,0.37188635832232075,-0.41645189169656005
16.7,-12.816523422528753,-4.473970551707849,-4.608241792015119,-0.18993657786356694,0.05150534711973587,0.26478313929259695,-0.04549775638291292,0.04846581661475441,0.9977880309343842,-1.6267900466918945,-1.8003446288646177,4.1315789222717285,-0.10843644418259005,1.3754128671400618,-1.3707874905498931,4.0,0.5004434130909906,0.49395607096865746,0.4059932300532303,0.8279724884678787,-0.05222879781494129,0.3718702390454759,-0.41646876993524384
16.8,-12.877259030845014,-4.456702817612013,-4.725164352471743,-0.18853764791119812,0.051067203827391175,0.2665798703429789,-0.04565176928608261,0.04867685025655533,0.9977707545911475,-1.6267978985724711,-1.8003404131875755,4.131550653333279,-0.1084625640951899,1.375416056353066,-1.3708322424714823,4.0,0.500447202233523,0.4939612499139839,0.40595488189696954,0.8279897586156606,-0.05221354025733289,0.3718622568118623,-0.41644347491606215
16.900000000000002,-12.601468995753049,-4.637511407078544,-4.777542041355392,-0.19559879980517084,0.04746907123738968,0.26441632759076994,-0.04564062983264286,0.04862018212540298,0.9977740252899611,-1.6267944487802224,-1.8003520267936526,4.131556497094755,-0.1084634511922967,1.375451806687631,-1.3707988310334849,4.0,0.5004634955979044,0.49394315296127606,0.405964911891301,0.8279810426399216,-0.0522384687789222,0.37187877270794656,-0.41644292984486275
17.0,-12.796354755763113,-4.391654000056834,-4.600746728361911,-0.18705901427257712,0.04796725912109903,0.2634068601155692,-0.0456294903792031,0.04856351399425062,0.9977772959887745,-1.6267803313148705,-1.8003219818845169,4.1315789222717285,-0.10843943980495456,1.3754036332905473,-1.3707898803055119,4.0,0.5004716535917724,0.49392965300957725,0.4059900950159408,0.8279670289291048,-0.05225418039544447,0.371896492264987,-0.4164529969618535
17.1,-12.79334070070686,-4.515386375935196,-4.761729096640735,-0.18793191689387634,0.04981730629790419,0.2698805877237846,-0.04550254583786441,0.04838523446259832,0.9977917155528055,-1.6267930993549509,-1.8003183803954066,4.131567478179932,-0.10842505189527274,1.375432872319595,-1.3708184401141565,4.0,0.5004620852483448,0.4939404321800361,0.4059828878664264,0.8279687154877841,-0.052235498520656384,0.3718957346768167,-0.4164526640531889
17.2,-12.721943800168726,-4.786535753313403,-4.88291226328892,-0.19385316415448334,0.04848235121143506,0.2659066042271643,-0.04532185425728306,0.048150513086864626,0.9978113094879046,-1.6267886230262696,-1.8003362903132132,4.131575837662875,-0.10843403757128911,1.3754235431894366,-1.3708636346970833,4.0,0.5004711410074667,0.4939313654146813,0.4059839800683782,0.8279680849406071,-0.05224517075590761,0.37189595072851306,-0.41645251143942613
17.3,-12.740725771028846,-4.714216688540499,-4.7795797958774715,-0.19545309060684235,0.04869718105996285,0.26987988106914584,-0.045246803257408055,0.04804593555020247,0.9978197793111795,-1.6267690241584902,-1.8003349227625514,4.131548622712118,-0.10842211664233403,1.3754111066026469,-1.3708011630800503,4.0,0.5004714852817193,0.49394552943584485,0.40596187430004405,0.8279845944797091,-0.052226710309859044,0.3718877614057898,-0.4164293156720263
17.400000000000002,-12.669122576072661,-4.554088831688452,-4.808674356068971,-0.1891726157408618,0.045655666971583304,0.2707161718759265,-0.045222726501364496,0.04800415569736253,0.9978228814700137,-1.6267956347961297,-1.8003226401373276,4.131572381339633,-0.10846469290013164,1.3754370545292949,-1.3708303610431116,4.0,0.5004679232803426,0.49394344694779935,0.4059721666943004,0.8279760492031786,-0.052231935374833734,0.3718918047785052,-0.4164420396783696
17.5,-12.910128261345355,-4.189968164776326,-4.6741708529966175,-0.18183507215972336,0.0513812102033404,0.26700518843774135,-0.04520317708195262,0.047972578476253365,0.9978252874847429,-1.6268187114047563,-1.8003045657386612,4.1315749833179245,-0.10843593129907954,1.3754239703619118,-1.3708108652029949,4.0,0.5004667102501857,0.49393415498030985,0.4059905508831021,0.8279678192312399,-0.052239248615739954,0.37190487276823836,-0.4164458150021055
17.6,-12.832681979869736,-3.9996679426637556,-4.775873761728964,-0.1740038774775025,0.04861278158753426,0.2719402702526116,-0.04520627603416473,0.047992040754474455,0.9978242109816734,-1.6268022994381373,-1.8003263381774728,4.1315789222717285,-0.10844399654633881,1.3754294545272816,-1.3708214222840926,4.0,0.5004766695297254,0.49392853005702947,0.40601064056419406,0.8279591418365018,-0.05224120320360433,0.37190546666465163,-0.41646229121272316
17.7,-12.935472087328893,-4.265917531778232,-4.868196073513885,-0.17966017103697235,0.05302900740571662,0.27094861187786645,-0.04520937498637684,0.048011503032695545,0.9978231344786039,-1.6268011386102101,-1.800308632083869,4.131554126739502,-0.10844487219153545,1.3754220008850098,-1.370833663421586,4.0,0.5004643903594694,0.49393444731353253,0.40598697648281246,0.827972449475016,-0.05223368216218195,0.37189427862110075,-0.4164467683714366
17.8,-12.906017614138415,-4.355832177954985,-4.937774819147199,-0.18410635199194514,0.053046621498445364,0.2682698267339124,-0.04519814555368881,0.04798125886259194,0.9978250977111132,-1.6268111243765069,-1.800310332224383,4.13157491387516,-0.10845818208435992,1.3754065291249642,-1.370814567356225,4.0,0.5004640569037746,0.49393014746200625,0.40597805669107584,0.827976057887297,-0.052244506455678026,0.37188724657841565,-0.4164445160437811
17.900000000000002,-12.896893056325757,-4.56013088900302,-4.961563398828376,-0.1897079382488282,0.05077875530462724,0.27250219866629044,-0.045308893379416494,0.04812472369129195,0.9978130922799237,-1.6267915854523214,-1.8003170065021683,4.13157011605495,-0.10843541146452744,1.375434398651123,-1.3708198140073948,4.0,0.5004745557006549,0.4939306398631743,0.4059630702095008,0.8279834527501388,-0.05223099028477281,0.371895530596426,-0.41642411067112056
18.0,-12.93269002806267,-4.467382358913049,-4.952885640641244,-0.18790502598785566,0.05084368036057274,0.26873740711372307,-0.04549007298161052,0.04837680091276211,0.9977926243826697,-1.626776617882696,-1.8003064594664515,4.131556276850021,-0.10842418405629418,1.3754425788927576,-1.3708505035619805,4.0,0.5004713657562856,0.4939387544761457,0.4059617646962524,0.8279858139676585,-0.05222809810403371,0.3718875666017261,-0.41642689087497226
18.1,-12.701691510453653,-4.694112941699731,-4.785909021421053,-0.18862732886409111,0.04666843810138635,0.26906986263526583,-0.045671252583804556,0.04862887813423228,0.9977721564854157,-1.6267688857635627,-1.8003064594664515,4.1315807214959595,-0.10843493718340473,1.3754316638302915,-1.3707963974804775,4.0,0.5004551317372219,0.4939489053280195,0.4059392786162927,0.8279973594326191,-0.052214197676771094,0.37187086956903714,-0.4164205887075587
