xiamingqian9007/apple-picking-rnn/final_data/grasper_20191127_130831_noimg.csv
,/manipulator_wrench.fx,/manipulator_wrench.fy,/manipulator_wrench.fz,/manipulator_wrench.tx,/manipulator_wrench.ty,/manipulator_wrench.tz,/ground_truth.x,/ground_truth.y,/ground_truth.z,/joint_states.elbow_joint,/joint_states.shoulder_lift_joint,/joint_states.shoulder_pan_joint,/joint_states.wrist_1_joint,/joint_states.wrist_2_joint,/joint_states.wrist_3_joint,/mode./mode,/manipulator_pose.x,/manipulator_pose.y,/manipulator_pose.z,/manipulator_pose.rx,/manipulator_pose.ry,/manipulator_pose.rz,/manipulator_pose.rw
0.2,0.7911231822359284,-0.6918697743116937,0.28525638198717074,0.019464560023221836,0.013689854319412957,-0.012819360902670655,-0.49551898327015925,0.5300401744300761,0.6881266926308205,-1.2445426319422346,-1.8306508634414016,4.1580946475550755,-3.2929412583554796,-1.3534486929522913,1.6115632057189941,1.0,0.48881465058523244,0.5016661206035242,0.4153449102066185,0.7357960025593577,-0.00344467536144701,0.4702881532715052,-0.48725909916778487
0.30000000000000004,0.2329414457684463,-0.34366839091842377,0.07510102861260509,0.001102000723602014,-0.007966867363154675,-0.011884761322177629,-0.4955774278246347,0.5300870890862285,0.6880484648591516,-1.241530002373271,-1.8331017687429687,4.15757673596368,-3.29346304349572,-1.3539603963106062,1.6115647349203042,1.0,0.4888396912040049,0.5016600777494953,0.41533399088088074,0.7358017544807657,-0.003476892170125683,0.47028981813836956,-0.48724857750356076
0.4,0.1672353095785026,-0.6318885120622795,0.03166580624887619,-0.010431984834719658,-0.02219254046165642,-0.008519175980411743,-0.4955335386798823,0.5300033807135028,0.6881445308283228,-1.2368799351399815,-1.8371447088246275,4.1569605010899275,-3.29424608603873,-1.3545219981124825,1.6114916801452637,1.0,0.4893763247585077,0.5021773845701947,0.4152936793145844,0.7357972574061706,-0.0034726016276202683,0.4702917796538475,-0.487253505909922
0.5,0.36929851062154156,-0.7123007170342253,0.11644726525987091,-0.008098865641806268,-0.011681917420886388,-0.015693195303139545,-0.4954831264387358,0.5299113459867503,0.6882517068705292,-1.2322568477833378,-1.840991663392737,4.156270170573867,-3.294971456889686,-1.3551285852230743,1.6114355775537803,1.0,0.4907876504698273,0.5036258231518589,0.41503332782348656,0.7358485081009323,-0.0034981518790871777,0.47028293314565256,-0.48718446080615585
0.6000000000000001,0.296557944722614,-0.41943492160632967,0.1714993217934131,-0.0013458913019154077,-0.015426114219322704,-0.019162955665862316,-0.4955482554504252,0.5299826292763278,0.6881498476992634,-1.2279599193924957,-1.844418652686311,4.155680817449898,-3.2956364180115747,-1.3558415334418947,1.6113502328115819,1.0,0.4913972157586585,0.5042369666577293,0.4150330478286036,0.735800274046102,-0.003512432009888922,0.4703173593868343,-0.48722397415814095
0.7000000000000001,0.17943050160796284,-0.5492772017606893,0.23462598221721842,-0.012844628716258915,-0.02342014718887157,-0.01749577649344708,-0.4957653891941354,0.5302687718537971,0.6877729842258381,-1.2237218662772058,-1.8481348989442645,4.155074958470809,-3.296341409534691,-1.3565353022864024,1.6113146163791299,1.0,0.492792991397218,0.505692815497103,0.4148126585670011,0.7358129839024656,-0.003475877294595202,0.4702813715594805,-0.4872397793301738
0.8,0.1204658517052323,-0.33074385617082736,0.12434977104835394,-0.009092078132688582,-0.02191421616586035,-0.01589982771076995,-0.4957489071576932,0.5303180958764149,0.6877468546182501,-1.219607488904567,-1.8513405307051731,4.154532305029573,-3.2970982013792414,-1.3570266491778564,1.6112748513610529,1.0,0.4934258333894637,0.5063665986830225,0.4146037170344936,0.7358764484534969,-0.0034551682560772555,0.47023709326216484,-0.487186812777337
0.9,0.256904783939314,-0.6727205219306852,-0.017782042362468102,-0.008965579189912509,-0.012810531594058901,-0.01948487316634995,-0.4957123987621405,0.5303471189869094,0.6877507911403768,-1.2155896265746315,-1.8545634332275698,4.153953860947549,-3.2978359985880514,-1.3575259148883076,1.6112168862446863,1.0,0.4942964174201022,0.5072764064499081,0.41470217178007474,0.7357871195333514,-0.003473446425896324,0.47026928461475176,-0.48729051893779957
1.0,0.25732235619599414,-0.5780807429473086,0.01577072489787859,-0.010976577573570416,-0.01832000275794633,-0.019122966462085476,-0.4955686928957128,0.5301258386444289,0.688024832037082,-1.211571049809447,-1.8579364326497874,4.153487238347748,-3.298584124718488,-1.3580111026568897,1.61114756088365,1.0,0.4955077167321399,0.5084753478592832,0.4145650392617313,0.7357730233495784,-0.003480673046526935,0.47031228181666485,-0.4872702541696609
1.1,0.2457778643093067,-0.6624784559942436,0.08532776133926315,-0.015811530055502367,-0.01658389528756367,-0.018742354067196577,-0.49566389300877683,0.5301818452790795,0.6879129747220956,-1.2076905196979941,-1.8610293476404702,4.15300989151001,-3.299187370961548,-1.3585286014522477,1.611132215114318,1.0,0.49609050649075803,0.5091112833827368,0.4144938739949838,0.7357818499186946,-0.003476478060309337,0.4703077130976526,-0.4872613656256519
1.2000000000000002,0.24983970246904136,-0.2842241848471631,0.2819473435225169,-0.004069946340787985,-0.018388381630943827,-0.02431912348836954,-0.49585840077473914,0.5304184741965419,0.6875904210476533,-1.2041995285634837,-1.864000437960393,4.15258965483283,-3.299846151711821,-1.3590893734960658,1.6110828212486694,1.0,0.49721217184770256,0.5103328115870833,0.41438029570989626,0.7357517098710049,-0.0034650453965201166,0.4703151393165518,-0.48729978925908135
1.3,0.17691628489065364,-0.29742344187639924,0.09579186310042759,-0.0056656785336840244,-0.018445146946989587,-0.019460562877653458,-0.49560127905040113,0.5302044885655006,0.6879407915865146,-1.2005782307013089,-1.8670465872475301,4.152035942632744,-3.3004948101439417,-1.3596096076031872,1.6110363694924832,1.0,0.4976857932465671,0.5108408595058105,0.41426023967154857,0.7357865848675307,-0.003446131163589863,0.47027487501038506,-0.48728612502609436
1.4000000000000001,0.48383235783746836,-0.42086939323968253,0.19416696032788644,-0.002616351643971605,-0.01564597413269587,-0.022859515850220846,-0.4950485444740791,0.5296752086025908,0.6887454638768211,-1.1970763292324382,-1.8697327655454177,4.151548862457275,-3.301201425192126,-1.3601452873457944,1.6109991563968682,1.0,0.498547018142702,0.511735313721227,0.41411778425226436,0.7358030703100985,-0.0034218097428007723,0.4702628310877641,-0.48727302679056306
1.5,0.20917781886464387,-0.46861110145558027,0.3846773274889423,-0.009431534783576402,-0.011813472642033232,-0.022165272105919953,-0.4951046736012748,0.5297278616621419,0.6886641812698396,-1.1937407621113154,-1.8728003403495441,4.151071263605831,-3.301894156654887,-1.3604845584910377,1.6109813152702996,1.0,0.49964843141821824,0.5128148314518137,0.41402289287792204,0.7357952584472292,-0.0034237901384764303,0.4702568952652886,-0.4872905373215396
1.6,0.5276206025773014,-1.0112327919276494,0.31411105586644184,-0.005866607575556043,-0.01771951073308802,-0.02272963235328938,-0.4958192666107327,0.5303985627706371,0.6876340205576623,-1.1903051165977003,-1.8751144737023782,4.150658081495777,-3.3024499637497797,-1.3608789743429746,1.6109124786396343,1.0,0.5001126229824664,0.5133162212090486,0.4137735318031838,0.7358997261299938,-0.003392661147140354,0.47019833704093417,-0.48718949780971377
1.7000000000000002,0.38830414979043937,-0.5527476924939634,0.14478146577839154,-0.01441987961951657,-0.02125414070551009,-0.01529591153075089,-0.4958437805169305,0.5303670765109993,0.6876404445434394,-1.1871109445829493,-1.8780255840708808,4.150223887026142,-3.3030667584478195,-1.3612784981407877,1.6108871619561322,1.0,0.5008302947243696,0.5139895340023122,0.41391327843315084,0.73577427508511,-0.003454873939005624,0.4703008043930269,-0.487279625427042
1.8,0.24295166864266995,-0.3285343102778977,0.1216049326792477,-0.0016161947067757738,-0.014272103532152604,-0.020487167498014606,-0.4965436849335143,0.5310214821047866,0.6866289409277083,-1.183856283853626,-1.8802467473472089,4.149799550344372,-3.3037264216850954,-1.3616856641431032,1.6108582175708517,1.0,0.5019289138034756,0.5150773411857807,0.4135943715005444,0.7358619900438064,-0.003476796446800171,0.470266100649946,-0.48718049845486505
1.9000000000000001,0.2868318452125083,-0.5217280048569526,0.3763296148763532,-0.012479617865777263,-0.017158439222570702,-0.022874806942735776,-0.49738229785118426,0.5319139433818153,0.6853299827671532,-1.1808185740097807,-1.8827861934503742,4.149399738781093,-3.3043008138501007,-1.362103271103155,1.6108403019829973,1.0,0.5023150289896529,0.5154522886866432,0.41373783422235166,0.7357805465583322,-0.0035126322840749596,0.47030628905511107,-0.48726444893504045
2.0,0.2270159413867989,-0.4047793183465635,0.16709896852900336,-0.0061037846794646565,-0.020110610758202915,-0.023159887572443947,-0.4970973813687911,0.531627437216548,0.685759384031389,-1.1778349736952647,-1.8851270935646882,4.149016367995448,-3.304924023284123,-1.3624971655504583,1.6108214678627466,1.0,0.5032250804432384,0.5163715360648555,0.4136013892681894,0.7357970066846298,-0.003494079438112847,0.47029525830065033,-0.4872503734044168
2.1,0.3291387786958384,-0.8047813394325587,0.2058844084651377,-0.01934557202400434,-0.017026525504281922,-0.026015058944310027,-0.49646896185321204,0.5310117638743166,0.686690850693366,-1.1749874027412919,-1.8874399076990351,4.148664051311752,-3.3055093908812254,-1.3628597659498134,1.6107592582702637,1.0,0.5035833767630711,0.5167735950953986,0.41346794150632477,0.7358313055836885,-0.0034651607094924614,0.4702705785368609,-0.48722260348517094
2.2,0.5879264262189411,-0.6433579147072555,0.1879280313118702,-0.008126168565402657,-0.014125668866745095,-0.019000388427135376,-0.49578944284666315,0.5303565955685083,0.6876869792400432,-1.1721004423392247,-1.889743610896589,4.1483340252443135,-3.306053993569579,-1.3632391134845179,1.6107248536856527,1.0,0.5042116547239037,0.5174229004589564,0.41348860406816734,0.7357940605229537,-0.0034631848294146136,0.47027837335812084,-0.48727133960620056
2.3000000000000003,0.3713172445507477,-0.6214229922639827,0.42140155388816175,-0.007131257805323461,-0.02211836031527389,-0.022952741991646517,-0.49467061434748466,0.5292433096728547,0.6893478949579813,-1.1694835881968941,-1.891874663452032,4.147983221097667,-3.306570027618914,-1.3635620285210828,1.6107182046231698,1.0,0.5050746174819144,0.5183379387802072,0.4133626010505928,0.7357927350915273,-0.003444328445050122,0.47027639507201174,-0.48727538397313397
2.4000000000000004,0.167813774575086,-0.17374346102552218,0.2671384206272184,0.0005662887919333608,-0.014438296220741097,-0.024004253257731485,-0.4789255421900389,0.5132216303890085,0.7109407166641567,-1.1667460372328091,-1.8940202957892078,4.1476684143573745,-3.3071549424841975,-1.3638846032450922,1.6106406128670765,1.0,0.5054524885578506,0.5187071877872986,0.4133537706664651,0.7357679711565971,-0.003452296659392467,0.4702880294932835,-0.4873014914641703
2.5,0.35652954155113026,-0.3633583705564367,-0.047586545996117245,-0.002890966028858173,-0.01708295948882563,-0.020045748545953375,-0.4564012467766741,0.49028995223416044,0.7417719213596565,-1.1642464998075845,-1.896045220686906,4.147371828286897,-3.307693314952198,-1.364161793385641,1.6106271743774414,1.0,0.506206427152081,0.5195178428902252,0.4132735169400443,0.7357672545986235,-0.003440514156685789,0.4702985103810028,-0.48729254155604707
2.6,0.3434017334056514,-0.03704827674641081,0.21192273548414858,-0.0007248786059351588,-0.017872174386158617,-0.023197416272573424,-0.43946640949330246,0.47295971114339524,0.7633990589072932,-1.1617853598387542,-1.898100850017414,4.147091602390632,-3.3082318206080883,-1.3644256335989846,1.6106239928221324,1.0,0.506575948817236,0.5198584675379534,0.4132699537901333,0.7357499442277169,-0.003462900076186436,0.47030889962017286,-0.4873084924665648
2.7,0.3342799377032809,-0.3109715427210513,0.1228198421787347,-0.009310523763323135,-0.015465439231567422,-0.02108612580652212,-0.4277269159679852,0.46090328289556315,0.7775712889941335,-1.159300417826285,-1.8997948868370689,4.146768998489151,-3.308743356609637,-1.364726748840137,1.6105707868676504,1.0,0.5071074699118464,0.5203774974849398,0.4130025533698926,0.7358650297891456,-0.0034641222802271076,0.4702621654115132,-0.48717979594059707
2.8000000000000003,0.49533141855076723,-0.26306245853924054,0.2860496115631619,-0.005519731986934042,-0.01824087175223802,-0.014565640122109756,-0.42855752407871167,0.46178330585041355,0.7765901414399293,-1.1570174765665635,-1.9018783366141854,4.146506860460153,-3.30923606638955,-1.3649888859649737,1.6105291658130012,1.0,0.5077872133539864,0.5210909301689587,0.41310572601383927,0.7357744711206033,-0.003467780465101517,0.4703110676149933,-0.487269331914792
2.9000000000000004,0.3406950702961228,-0.48173742667082603,0.328235151443546,-0.007869120392323941,-0.016986554929470325,-0.017285223650598654,-0.42898114726698555,0.4622394814044619,0.7760848113941803,-1.1547280145842858,-1.9037131643087686,4.146214813473749,-3.30966378483935,-1.3652726226786416,1.6105429227323051,1.0,0.5081028646388428,0.5214355093929246,0.4129480590742937,0.7358343853896633,-0.003467778307403525,0.4702623764700651,-0.4872258501645355
3.0,0.22296444869592577,-0.36815181472829445,0.17268095296607905,-0.008425975054528521,-0.017783751386128387,-0.01939789313903975,-0.4272509177840895,0.46045256438671545,0.7780976110260605,-1.1524540568728687,-1.9051953267259238,4.145965065374219,-3.3101500603500784,-1.3655481016982058,1.6105377056458652,1.0,0.5085539328658378,0.5219327424983199,0.4127971386223342,0.7358649184767743,-0.0034523318679495494,0.4702459274549902,-0.4871957213193072
3.1,0.46242089986470614,-0.48003016137258425,0.37423989693601817,-0.011677811569213471,-0.01866425366468157,-0.024798982715029495,-0.4261640428267033,0.459340123933362,0.7793522038045176,-1.150232349936463,-1.9069981516768577,4.145736653854512,-3.3106194760875756,-1.365814510975973,1.6104707717895508,1.0,0.5090400930278168,0.5224112603754542,0.4128881713381731,0.7357904905225092,-0.0034654559895231562,0.47029353094385395,-0.4872620849438134
3.2,0.3774395801826161,-0.3492292172348188,0.2940679077659484,-0.01142079231415449,-0.022098786055850857,-0.03117834609028778,-0.4255405929214841,0.4587126225870793,0.7800627725111443,-1.1482448939847367,-1.908892166372299,4.145474243329344,-3.311089412659362,-1.3660962855398202,1.6104812699752622,1.0,0.5097959950420174,0.5231974851604614,0.4126724976872381,0.7358607051744113,-0.0034270729953125114,0.4702516369233125,-0.48719675257728035
3.3000000000000003,0.6450135230259085,-0.3014052934745815,0.2399091725601118,0.0019117599457418623,-0.011039168793046238,-0.02694238862076396,-0.42561387991274613,0.45880990441145075,0.7799655675067292,-1.1460621141736702,-1.9101018129441485,4.145230250228444,-3.3115374568416622,-1.3663030609098636,1.6104682791558407,1.0,0.5101676979895468,0.5235979908172032,0.41259863311396,0.7358781718274978,-0.0034316798263632764,0.47022696865461333,-0.48719414790336124
3.4000000000000004,0.31876660265064616,-0.41916656486703086,0.078458768545654,-0.011881207597755027,-0.017527051986067427,-0.02178249372938063,-0.42799766581538884,0.4612742581162934,0.7771854451296165,-1.1442956924438477,-1.9115166571638562,4.145018473196803,-3.3119952868980094,-1.366548258983567,1.6104063389957544,1.0,0.5104130793672642,0.523817050271438,0.41270415246115566,0.7358056685654345,-0.003443348285477437,0.47027955439371183,-0.48725281136060244
3.5,0.18343748515613745,-0.13709668196807173,0.40307227744354457,-0.003899460989192664,-0.015134273061971687,-0.028951965151744252,-0.4314187353347202,0.46479804838953226,0.7732012771227055,-1.142414068244201,-1.9132082007641724,4.144794174081547,-3.3124288789586958,-1.366796421907118,1.6104560146110236,1.0,0.5107907104227386,0.5241904131422516,0.41280393446640407,0.7357502185085216,-0.003450669834516669,0.4703097206838521,-0.48730737268446206
3.6,0.21654061575483402,-0.26711667700815916,0.2169210103659654,0.0010171923060689303,-0.01780239869145104,-0.022778614148590236,-0.4321835851278226,0.46557561903405703,0.7723048020226213,-1.1403065789247846,-1.9146619277561703,4.144586658938064,-3.3127813139796656,-1.3670000976897136,1.6103992462158203,1.0,0.5113537951706985,0.524801164937741,0.41255790856554025,0.7358404149211398,-0.0034433084068549134,0.47024383426381,-0.48723481375284605
3.7,0.2359731901453711,-0.36012514297138154,0.18632068803565402,-0.009800923924836826,-0.01250393658300851,-0.02648192079225003,-0.43252897215509534,0.46592540008524647,0.771898397034834,-1.1387440796291874,-1.9159738888753064,4.144372086527013,-3.3131598866189993,-1.3672013645272434,1.6103992462158203,1.0,0.5115743305349328,0.5250409002517862,0.4126045945840931,0.7357877702265083,-0.0034462582312870366,0.4702845988024746,-0.4872749497137133
3.8000000000000003,0.24957119710635245,-0.3874924901601466,0.030766559178445854,-0.01257334837935999,-0.015053076672619485,-0.025566695516846597,-0.42937855982630224,0.4627099860661294,0.7755762324673038,-1.1370310134787258,-1.917322314857657,4.144167447933657,-3.3135692730446102,-1.3673933836666807,1.6103440058825733,1.0,0.5120819291415561,0.5255200719079246,0.41253439188148133,0.7357907420184999,-0.0034593110303504752,0.47027631644378903,-0.48727836327824126
3.9000000000000004,0.2878397686220016,-0.3026450074771878,0.07005527742204418,-0.004068682445204012,-0.021258849515304733,-0.0237820384965196,-0.42844800420566165,0.46174932985645856,0.7766717426671449,-1.135123507614929,-1.9187095246838948,4.14397705043247,-3.313903873839478,-1.3675593729275364,1.6103791042654776,1.0,0.5123005189700823,0.5257505848209981,0.4125018762938259,0.7358089996281942,-0.003435380376957089,0.4702729489420522,-0.487254212625368
4.0,0.22414943402204318,-0.17651911920368749,0.20378607471747004,-0.00443781107675144,-0.024614851954437373,-0.02280347310033729,-0.4290080223517536,0.4623026825595039,0.7760332912852353,-1.1335972292847512,-1.920033235080439,4.143777849501636,-3.3143237317545426,-1.3677541442810865,1.6103194472248483,1.0,0.5127123765702248,0.526166378698737,0.41249166263435416,0.7357830290720503,-0.003462122399490427,0.4702944154329656,-0.4872725219531824
4.1000000000000005,0.5064650902596987,-0.4511901009658855,0.15662831686555787,-0.007751398862766881,-0.020276873479237213,-0.022512770867556972,-0.43185020006509944,0.4651898045533795,0.772701272969223,-1.131992803373888,-1.9212769402854755,4.143571350680447,-3.3147183731670538,-1.3679402249071524,1.6103012097329783,1.0,0.5131623357384486,0.5266162369588636,0.4123534709343914,0.7358224880633384,-0.0034797157624109625,0.47026677325488125,-0.4872394889691655
4.2,0.512036398915134,-0.4127661251675214,0.084856035757925,-0.001352236702176264,-0.024670266846079397,-0.023280278943496296,-0.43579457853300124,0.4692059666855401,0.7680676006835773,-1.130192782453421,-1.9225822589308343,4.143361568450928,-3.3151019338155665,-1.3681088824019645,1.6103245239355684,1.0,0.5133446032909549,0.5268244015823637,0.4122890543210086,0.7358553371424054,-0.003444551798878779,0.47024696763163,-0.4872092438523705
4.3,0.3873103607759226,-0.3755522977344877,0.1636692398538758,-0.005111480244370207,-0.02112656602145232,-0.022988874734907905,-0.43406488673100996,0.4674398698349378,0.7701211781629238,-1.1284658453655356,-1.9238574694837782,4.143200540172299,-3.3155275783934535,-1.368270222340719,1.6103034019470215,1.0,0.5137408917063113,0.5272054297239824,0.4123457384678199,0.7358053029530388,-0.003469157264420782,0.47028318906933403,-0.48724967231681005
4.4,0.23104912938635067,-0.3891456348599323,0.08140660327902283,-0.01004492209858556,-0.02048365812249233,-0.023774177628818335,-0.43607165702246625,0.46946073237453667,0.7677551661618507,-1.1268810053291363,-1.9251625953528804,4.143013581079785,-3.3158569826210553,-1.3684553907896206,1.6102743013747418,1.0,0.5141896272211358,0.5276379361085437,0.4123064016839098,0.7358071325780849,-0.0034847830622501304,0.47028975255744704,-0.48724046278370703
4.5,0.21688903297454548,-0.0024340120749772876,0.2726673591321664,-0.0007947347517128873,-0.017432175016930188,-0.02751225009630571,-0.4354668779849342,0.46886202937435656,0.7684632492926871,-1.1251179780403193,-1.9265311765509603,4.142802481668709,-3.316240937767653,-1.3686568933339114,1.6102485766593557,1.0,0.5144686831342064,0.5279224686119837,0.41225257354197764,0.7358047616900099,-0.0034808840197465057,0.47029337079515987,-0.487240578674309
4.6000000000000005,0.21043180439788492,-0.6744753083840875,0.06649914183020647,-0.0110067897645516,-0.014458021233077469,-0.031350968275522716,-0.4349089448159696,0.46831141873021787,0.7691154630518352,-1.1233961606796674,-1.9279347854060895,4.142647147694725,-3.3166148858073705,-1.368872109051208,1.6102370639821417,1.0,0.5149147253327093,0.5284140214156958,0.4121508258875925,0.7358299513929664,-0.0034639119221869545,0.4702620610327927,-0.48723287850925034
4.7,0.26993162953846955,-0.4630926238494555,0.24783174029815952,-0.007133891950256003,-0.013732109895932895,-0.028658491934382233,-0.43523726204823154,0.46867064007641485,0.7687107158752754,-1.1216918809443728,-1.9291620299997931,4.142468748408987,-3.3170157871642054,-1.3690483282751151,1.6102308303911832,1.0,0.5151007023847235,0.5286584689059327,0.4121081321881066,0.7358310356507566,-0.0034568611293500588,0.47024484473715206,-0.48724790721192324
4.800000000000001,0.586186916570434,-0.45287686925095416,0.07327308453259154,-0.010093160181181863,-0.025435486122674832,-0.021879736512606104,-0.4358687862236674,0.46929688568811684,0.7679701764447902,-1.1199378673311042,-1.930421730464217,4.1422633632244725,-3.317441135453032,-1.369235808042371,1.6101946830749512,1.0,0.5154634368975247,0.5289904793619912,0.4120700373865211,0.7358347415269487,-0.0034651021217542693,0.4702607388927242,-0.4872269119058628
4.9,0.25776804654967256,-0.4712134579235445,0.11650753872574815,-0.0060342655401907815,-0.016658405981817413,-0.022512674304949187,-0.43528088387748454,0.468668982023405,0.7686810204528072,-1.118288235237177,-1.9317292504971875,4.142069012962877,-3.3178398801400344,-1.3694152163098028,1.6101750247992268,1.0,0.5159662991370322,0.5294764545443702,0.41211830212953,0.7357855467715044,-0.003467763664899861,0.47030032205771877,-0.48726297914958466
5.0,-0.06186904302381824,-0.3573757460213146,0.15467801904604456,-0.00212631487633955,-0.01475017946813343,-0.026973847906809043,-0.43342357469021814,0.46676795995197606,0.7708845772448076,-1.1165822364380957,-1.9333188930086378,4.1418633460998535,-3.3182312029972496,-1.369615814717953,1.6102002150471124,1.0,0.5161365564426404,0.5296659200743343,0.41214489706485874,0.7357669351561689,-0.003460341037506439,0.4703038139260171,-0.4872877648550642
5.1000000000000005,0.1524614343042866,-0.5487209935077786,0.23083277564508006,-0.016023255606136697,-0.015873956437318478,-0.027459261321721263,-0.43056514886487035,0.463843007895357,0.7742420616382799,-1.1146996080205682,-1.9344960744660584,4.141688579387879,-3.3186318441029483,-1.369810848462983,1.6101542077260964,1.0,0.5166845702059321,0.5302388026915357,0.41182061690284555,0.7358884448622345,-0.0034509510811229446,0.4702317263165251,-0.48717390244168296
5.2,0.5749855241868612,-0.6007209862725023,0.23089436892353238,-0.012158714388240196,-0.030993274893177776,-0.02894092901863001,-0.42957562543199945,0.46283409864382735,0.7753977969791703,-1.1131131644213401,-1.9356490574278773,4.14148153937426,-3.3190676174559535,-1.3700103645333574,1.6101396732050821,1.0,0.5169292011071864,0.5305092927169979,0.41186306390121974,0.7358446214718918,-0.003455299340388615,0.47025715846060834,-0.48721551583863887
5.300000000000001,0.20432294776028068,-0.44875383731799395,0.16666393233933968,-0.010861685433789119,-0.018141558700866176,-0.027236871158672165,-0.43128403636456897,0.4645890487080891,0.7733973295235014,-1.111424330010242,-1.9369446239867152,4.141308365695562,-3.319494834525775,-1.370197987899548,1.6101195736741467,1.0,0.5173170212545446,0.5308449123958076,0.4119252734410811,0.7358169074790232,-0.003453529767098084,0.47028374290955544,-0.48723172408529997
5.4,0.5650514720935225,-0.24076369954427118,0.30804016517240684,-0.0018049277924983742,-0.024294523685106387,-0.03391563359393512,-0.4329023470645969,0.4662516153071169,0.7714914027952803,-1.1094568868118424,-1.9384519694253473,4.141119480133057,-3.319883202296156,-1.3703668753253382,1.610103954835524,1.0,0.5175317608625398,0.5310924009397975,0.4118729252024675,0.7358332738796965,-0.0034577804298226962,0.4702595766538657,-0.48723030218913277
5.5,0.3782753815608096,-0.3751381987700807,0.1980905506438047,-0.004772788057149252,-0.02000801439199391,-0.030998525331464563,-0.43442723421593055,0.46781839090850397,0.7696835038967902,-1.1079301834106445,-1.9398574571033909,4.140969985780014,-3.3202913282754865,-1.3705528326114356,1.6101107597351074,1.0,0.5179191484931636,0.5314619712575496,0.4119042459876913,0.7357736277216897,-0.003478657458857389,0.470307461466813,-0.48727400852106834
5.6000000000000005,0.20588468034037838,-0.4465631645583803,-0.009645405057073514,-0.009208180721288138,-0.020138177615058567,-0.02602064999520917,-0.43489335581429417,0.4682939891602622,0.769134387305592,-1.1062612533569336,-1.94094202503953,4.14075227696545,-3.3206627368533277,-1.3707398756944418,1.6100749969482422,1.0,0.5183904469663874,0.5320044345260221,0.4116713025321863,0.7358599326275435,-0.0034731709789974875,0.4702366442041759,-0.48721206377134524
5.7,0.08547122350582048,-0.45517664475493375,-0.028098857095288053,-0.007402119674068276,-0.019521662441965036,-0.03279716026911065,-0.4342143402686644,0.46758939439361424,0.7699467415067125,-1.1042718887329102,-1.942167875059213,4.140597818291364,-3.321132322350973,-1.3709237451812333,1.6100638566359902,1.0,0.5185690821219836,0.5321838521834187,0.4116897363034994,0.7358476072675533,-0.0034474527551724347,0.47025311731489045,-0.4872149624177669
5.800000000000001,-0.04225004827396402,-0.5564026791379739,0.07022481828806942,-0.004278048726014462,-0.009294980678694482,-0.03735028952466047,-0.43482674354821554,0.4682258186873362,0.7692135509943294,-1.1026108040563838,-1.9437191301131977,4.140437426052553,-3.321589048438301,-1.3710837339564854,1.6100563521368807,1.0,0.5190748754241074,0.5326371361661392,0.411902108226649,0.7357157505134345,-0.0034989966300443412,0.4703505867845079,-0.4873196250721962
5.9,0.27584571729378615,-0.5253452056588075,0.1657779941299542,-0.013487961909538177,-0.01802262633898926,-0.026981376677838755,-0.43593070014340163,0.469350260849241,0.7678999681959131,-1.1010696044159118,-1.9450026181044429,4.140259207000952,-3.322003467598929,-1.3712429203237448,1.6100149154663086,1.0,0.5192629651672848,0.5328598012319709,0.4118623048533477,0.7357208371071551,-0.003484438863232224,0.4703423330840492,-0.4873200162533947
6.0,0.1695016149816516,-0.7883173605155576,0.37246173423698226,-0.013358467821228683,-0.017469604508796487,-0.02989775981092693,-0.43756926024970844,0.4710030196640769,0.7659560218105207,-1.0991847344867713,-1.9463250128394733,4.140081619919934,-3.322352770033545,-1.3714115843768193,1.610046559159328,1.0,0.5195772318619849,0.5332198221978894,0.4116037734431427,0.7358417042406598,-0.003461743381945082,0.47026012201327894,-0.487217015586499
6.1000000000000005,0.3880093555638497,-0.268286415498149,0.20318000210818854,-0.007158206750848575,-0.023998332034016457,-0.025525413749627673,-0.43400794370904044,0.46738298317194393,0.770186534508136,-1.0974682824301627,-1.94745445392629,4.139891762315064,-3.322741431408767,-1.3715992388932765,1.6100128310099149,1.0,0.5199894662882486,0.5336569277411808,0.41155044757898956,0.7358375752397437,-0.003471190432451955,0.4702588987203774,-0.48722436502762667
6.2,0.20422875394263246,-0.4232640519670188,-0.0271149855507946,-0.011828314709514877,-0.01835751915320357,-0.029176112728012883,-0.4332508794161851,0.46659040795735546,0.7710943318184813,-1.0957918634027821,-1.9489728634819046,4.139751701635308,-3.323153623974838,-1.3717606347371674,1.609961417196499,1.0,0.5204905337237775,0.5341336995373089,0.41164500150828587,0.7357494718439245,-0.003486758066646318,0.47033520712593424,-0.4872836444386119
6.300000000000001,0.29226013241806736,-0.29383877586013174,0.10609373586551957,-0.0063487246195624725,-0.018218907390148503,-0.02475329059535543,-0.4336611653065767,0.4670071666386703,0.7706084403433926,-1.094035035809587,-1.950366802052784,4.139532119175933,-3.32356447171063,-1.371972386037008,1.6099770483464733,1.0,0.5206590040203881,0.5343495195017204,0.41154820228781475,0.7357874140473974,-0.0034712538083588452,0.47030374668384456,-0.4872568291790067
6.4,0.23339636825589355,-0.16586397766959504,0.15153580754159832,-0.0028042735356825195,-0.019133831092997704,-0.030090774553865426,-0.4353896001883541,0.4687969461788538,0.7685464111179416,-1.0922442571414346,-1.9516058905682674,4.139387616496264,-3.3239812788842777,-1.3721403099210754,1.6099752924604585,1.0,0.5211530982817256,0.5348891006193444,0.41137771643586346,0.7358364314868198,-0.003444711416151403,0.47025825781991265,-0.48722689890048426
6.5,0.27624948353003,-0.5089188504946982,0.037253597657944046,-0.011320832658895386,-0.018920584860224608,-0.02682953501639662,-0.4339309704418366,0.46731187156167203,0.7702702452472349,-1.0904226303100586,-1.9528601452329326,4.139175287622191,-3.3244289423958064,-1.3723386096777008,1.6099498690157636,1.0,0.5213705721709586,0.5350820771924576,0.4113786294981777,0.7358130435783944,-0.003459196556026698,0.47028462871589527,-0.48723666410958777
6.6000000000000005,0.3862531911689445,-0.4203309650527962,0.1400027921519427,-0.006705439787412612,-0.026427741198248946,-0.02948008517922247,-0.43183525709873416,0.46517250683326267,0.772738228191407,-1.088589887210831,-1.9542390673670686,4.138987064361572,-3.324905938642024,-1.3725286487051676,1.6099142298469593,1.0,0.5218146787595305,0.5355397728316809,0.41144828081752965,0.7357694373832466,-0.003456541557626001,0.47030986857813206,-0.4872781698898701
6.7,0.5020138596336604,-0.458148985675861,0.07638009847842389,-0.013317103392613536,-0.02183422065544542,-0.025271005581497953,-0.4292847227634067,0.4625665128142328,0.7757199152515576,-1.0869428502731753,-1.9555227704574756,4.138816909614004,-3.3253378790286705,-1.3727272192584437,1.6099014103905582,1.0,0.5220640766222718,0.5357786305458423,0.4114606333211754,0.7357407719176035,-0.003463765521175777,0.4703320524195092,-0.48729998905536176
6.800000000000001,0.7527947769453799,-0.2862406397993501,-0.16142317681715185,-0.028659026844004818,-0.022372627060569375,-0.03347415966215331,-0.42849175466237727,0.4617669418617116,0.7766376433070805,-1.085198051529645,-1.9568868207623258,4.138619474116199,-3.3257006351433374,-1.372875176835848,1.6099185943603516,1.0,0.5224116067724637,0.5361363135906718,0.4113269283323012,0.7357986399804445,-0.003462274978059307,0.47028112883143364,-0.4872617714534324
6.9,0.7860627398779299,-0.010444899857885966,-0.7562923998996501,-0.02798025194938986,0.00870581883097482,-0.03894543218419968,-0.43024461473484454,0.4635671611910609,0.7745870675725228,-1.0833406448364258,-1.9583020533181086,4.138425833382675,-3.3261410626545485,-1.373084825730191,1.6098899413370495,1.0,0.5228528591014158,0.5366129424955943,0.41124078834402605,0.7358057145084456,-0.0034505492515437956,0.4702828775082095,-0.48724948366229925
7.0,0.07733491319057316,0.14756551767039533,0.103027268215729,-0.040665988073100345,-0.03430690801924478,-0.03520767429118346,-0.431844541323838,0.465200445810057,0.7727217069734594,-1.0816850747036761,-1.9596752965760922,4.138252279391973,-3.326648774063142,-1.3732688851789705,1.6098589897155762,1.0,0.5230836416475534,0.5368662433674081,0.4112643878115463,0.7357768233655695,-0.0034618867789690914,0.4702946035942718,-0.4872817125319886
7.1000000000000005,0.19144608943401328,-0.2379370275424752,0.14089192367237652,-0.05261312063767243,-0.03408864524028289,-0.03467782822754172,-0.43187788033900815,0.4652100894802633,0.7726972676645157,-1.0817289352416992,-1.9596281793687556,4.138229613581486,-3.326622779658093,-1.3733110222076537,1.6098522107641822,1.0,0.523406983426125,0.5372304144006235,0.411078832785704,0.7358548630879844,-0.0034384760774544077,0.47023479667730983,-0.48722174966423365
7.2,0.312870202840511,0.02052727936114579,-0.11374304421065509,-0.019130235799768892,-0.01967693271782461,-0.030311544165994637,-0.4322689057482502,0.4656034787458707,0.7722407670806494,-1.0816882105513528,-1.959654742811148,4.138247977743766,-3.326634137300864,-1.373309573592535,1.6098628153902501,1.0,0.523565534682928,0.53731376232563,0.41104663265959523,0.7358707653164493,-0.0034297002767989435,0.4702426216539232,-0.4871902407567698
7.300000000000001,0.3199572442775985,0.23896909045609296,-0.17829874483866404,-0.020321927720148354,-0.019964705270709822,-0.025131732002248587,-0.4331154687676796,0.4664922814271657,0.771230075594313,-1.0815318602056025,-1.9596480477834008,4.1382317543029785,-3.326607561214822,-1.3733047274639856,1.6098416266007023,1.0,0.5235502634357108,0.5373214735475315,0.41108817531872544,0.7358533266836093,-0.003450152649624594,0.4702383148019978,-0.4872205920807704
7.4,0.27152913076944984,-0.15870528774329884,-0.18160456287169507,-0.02052391223097492,-0.01595849630269796,-0.025923777973337114,-0.4328626038221459,0.46621883762810906,0.771537260084642,-1.08154567691062,-1.959667582647527,4.138229694092017,-3.3266390765583553,-1.3733089600197044,1.6098742473611443,1.0,0.523571540147848,0.5373131380705091,0.41112774877696223,0.7358294321092291,-0.00346985432529767,0.4702574183424209,-0.4872381013905746
7.5,0.45441972023099453,-0.1987142281845754,0.08055535328362784,-0.0240822547358306,-0.023361201597523945,-0.027696962535596448,-0.43271981558537187,0.4660674928788459,0.7717088967677632,-1.0815055353716276,-1.9596382580199183,4.138241722193329,-3.326625009576315,-1.3733013311969202,1.609856124538993,1.0,0.5235769332675256,0.537321248552015,0.4111443283668895,0.7358202166796359,-0.0034485177360754774,0.47027210978752265,-0.48723799031576964
7.6000000000000005,0.47301116719436687,-0.30873551823385803,0.07596601040383714,-0.02603107180214623,-0.02146429696347024,-0.02953046628356726,-0.4328763456120019,0.4662481572890067,0.7715119547141218,-1.08155066286924,-1.9596408133367742,4.138203282842197,-3.3266156439642156,-1.3732749340221542,1.6098492494789929,1.0,0.5235856823084233,0.53732857835921,0.4111353592489668,0.73582054531882,-0.0034564569139890083,0.47026276249131566,-0.4872464594087397
7.7,0.2507224309191059,-0.34939756527433485,-0.0515032469955565,-0.030315333243929238,-0.017543351392740276,-0.028959257413727464,-0.43233896138119526,0.46569510791414964,0.7721458486962404,-1.0815362930297852,-1.9596409930946512,4.138222935882926,-3.326622274501582,-1.3732499317763438,1.6098869147124113,1.0,0.5235834915265651,0.5373349415978442,0.41111750730933755,0.7358272600989172,-0.0034613061553631103,0.47027044726540423,-0.4872288672521526
7.800000000000001,0.307260217880795,-0.21524391055286143,-0.10421228438430172,-0.02250211492154868,-0.01932330114337177,-0.03374971436285881,-0.43158486225103815,0.46491291393335876,0.7730392193297415,-1.0815224083187007,-1.9596417291976893,4.1382167001863,-3.3266043009061286,-1.3732894102679651,1.6098589897155762,1.0,0.5235835032751783,0.5373156144229435,0.41114557503337434,0.7358142974779804,-0.003483929349077205,0.47027560824332876,-0.48724330077964506
7.9,0.31452950683514314,-0.02096194669965032,0.13281029443838832,-0.017766672886743974,-0.01973346565037617,-0.0341686355127786,-0.4314490852737613,0.46476587481498505,0.7732039614279699,-1.0815294524279324,-1.9596597022268158,4.13823436965296,-3.3266079797403245,-1.37326045950302,1.609832654300613,1.0,0.5235874598105973,0.5373185536095567,0.411117437660183,0.7358269104955015,-0.0034721068813442385,0.47026542307005537,-0.4872341676536977
8.0,0.63661168559491,-0.49826689213037123,0.17444036684942507,-0.029937183533983024,-0.0249691687552163,-0.030791783238181016,-0.4315947990842236,0.4648807681423305,0.7730535271897723,-1.08156725169729,-1.959625860253805,4.138207912445068,-3.32663058459242,-1.3732830643551153,1.6098407228737712,1.394924386846966,0.5236038769252683,0.5373011842277801,0.41113046747479676,0.7358175507841346,-0.0034690192907662703,0.4702887316562122,-0.4872258272509668
8.1,0.33854157083203673,-0.11848649561704427,0.015952488164363177,-0.02114351754827415,-0.017773695708275788,-0.027966779499107045,-0.4316701492341094,0.4649338160553182,0.7729795352341782,-1.0815512371546134,-1.9596382580199183,4.138247049745548,-3.3266193387063447,-1.3732711142788456,1.6098733314838294,2.0,0.5235772179547896,0.5373115874321793,0.41114042328759914,0.7358221035031094,-0.0034506121132794366,0.4702868628538247,-0.4872208861485834
8.200000000000001,0.3081144201886929,-0.2413791934037217,-0.083347468662376,-0.025242324480619745,-0.020041742093424887,-0.0349365678019108,-0.4314373888318278,0.4647323091687585,0.7732305674015475,-1.0815505329758306,-1.9596501789488734,4.138227898958427,-3.326634434206834,-1.3732680647084912,1.6098329349891722,2.0,0.5235801813165647,0.5373237845221653,0.41116516894574445,0.7358082062267964,-0.003461567521341094,0.47027918860729073,-0.48724920314195286
8.3,0.385084340410103,-0.2972455424737561,0.025923690625442634,-0.019653968667829345,-0.01956383073935957,-0.034509938814025566,-0.431442587998202,0.46477070623388417,0.7732042667016661,-1.0815175616529566,-1.959624262496635,4.138207912445068,-3.326648851434225,-1.3732681236505957,1.6098519068497879,2.0,0.5235759725302679,0.537317288100684,0.4111511309868586,0.7358218862657423,-0.003458897558804279,0.47027100030621477,-0.48723646619582495
8.4,0.16708068148659508,-0.1948128464163577,-0.17238163977459686,-0.027472433572390566,-0.01959832796789903,-0.03789289109285096,-0.4322269406894567,0.46559462333774665,0.7722698920701325,-1.0814911173123032,-1.9596475664506043,4.138214876214782,-3.326643626437687,-1.3732734059048624,1.6098299228611277,2.0,0.5235759211381876,0.5373208775537962,0.4111773666594494,0.7357988463885785,-0.003468331556980017,0.47028219872979704,-0.48726038407335737
8.5,0.4599463216232199,-0.10125605032216217,0.1742248343885832,-0.025774118217675605,-0.026964514818191003,-0.03168582674086501,-0.4321036041560575,0.4654821352775453,0.7724070877969994,-1.081547737121582,-1.9596382580199183,4.1382166228467305,-3.3266307401037243,-1.373261881045604,1.6098771010460768,2.0,0.5235655143286516,0.5373399049056244,0.4111391789735308,0.7358127933239037,-0.0034492464005839787,0.47026188609160435,-0.4872590628913015
8.6,0.1690324307110267,-0.0019328496218837502,0.18304206705828435,-0.02791452474568214,-0.027778825034397225,-0.027109191811888065,-0.4323634591458575,0.46573706136570836,0.7721074578715192,-1.0815248489379883,-1.9596540267873108,4.138236456392217,-3.326640778343707,-1.3732648680727915,1.6098582893783127,2.0,0.5235799542423095,0.537327771362777,0.41113030645037735,0.7358243047990967,-0.0034608428603316193,0.47026705341992175,-0.4872366093607564
8.700000000000001,0.3579970176238891,-0.14966754214245181,-0.026943121962820227,-0.02806285911592106,-0.023952851719172944,-0.02332494733834318,-0.43290544924909524,0.4662721980358378,0.7714808014105818,-1.081571468961096,-1.959658972931701,4.138223312079464,-3.3266312634685695,-1.37327748933901,1.6098684956318035,2.0,0.523564305037858,0.537322078802046,0.41117215524086526,0.7358045209068923,-0.0034553042211593974,0.47028175281298623,-0.4872523379696227
8.8,0.21789256199249882,-0.2779961973335,-0.007902148287523248,-0.047074797651720006,-0.03319253314367394,-0.032744556819632065,-0.43254508753344884,0.46590679092744947,0.7719032339132447,-1.0815288920030788,-1.9596501789488734,4.138227711237888,-3.3266439262586367,-1.3732901239174176,1.60987543054678,2.0,0.5235874798257837,0.5373046290977291,0.4111607573331842,0.7358077551379054,-0.003478163736086321,0.47027963015284646,-0.48724933998851494
8.9,0.3505983451005721,0.2278556900100105,-0.021121640083391284,-0.055074699846217774,-0.025143166737662405,-0.028170780660861178,-0.4320469908362336,0.46540419770269564,0.7724856933518203,-1.081550360642294,-1.959640887412006,4.13823448887075,-3.326654182371838,-1.37328415148379,1.6098113059997559,2.0,0.5235674234487308,0.5373189714379331,0.41115482686582805,0.7358172931125742,-0.0034603432689204626,0.47026526201908314,-0.48724893075210385
9.0,0.34117342735947626,0.5959659110436486,0.12733498111295974,-0.05191519560106908,-0.023541598139604863,-0.026705648460846314,-0.43243560701756356,0.46578760285497356,0.7720368332980493,-1.0814907750212217,-1.959652922859973,4.1382174565436385,-3.3266130886473597,-1.3732829771612092,1.6098713874816895,2.0,0.5235689025728453,0.5373153578377073,0.41117499190529316,0.7358087276344137,-0.003464410389226705,0.47026220476031416,-0.4872647873298963
9.1,0.5120802580890844,1.1098870768526352,0.10419614585436529,-0.09896854176471417,-0.009308458673186608,-0.03199804001047546,-0.43283328808237764,0.4661775984854017,0.7715786635645082,-1.0815248489379883,-1.9596315976053198,4.138204516939587,-3.3266282744854316,-1.3732590385918213,1.6098382821704182,2.0,0.5235913869999138,0.5373022873258735,0.4111638722518419,0.7358152315448695,-0.0034847495136517527,0.4702800547446129,-0.48723759261452815
9.200000000000001,1.0278970527932072,2.267443787730186,0.3787932044120769,-0.18787118682392115,0.025683217641094505,-0.04606081501207955,-0.433267826857848,0.4665943909232211,0.7710826407814636,-1.08153693046924,-1.9596501789488734,4.138207912445068,-3.3266525023302864,-1.3732331257179355,1.6098713874816895,2.0,0.5235823844667865,0.5373242137766315,0.41114573802294346,0.7358124018477159,-0.003453604912749934,0.47028262437603796,-0.48723960749326267
9.3,1.4435073167958077,3.3198370151686234,0.8046699804431361,-0.2587564342406629,0.0647425485368639,-0.06184921313527198,-0.4327461380039251,0.4660508436616299,0.7717030758383894,-1.0815423120225476,-1.9596682333137427,4.138168794218949,-3.3266307970693556,-1.3732684621565754,1.609855980219195,2.0,0.5235978366868859,0.537312765544988,0.4111208187860064,0.7358308903284014,-0.003477462731500395,0.47028689249907873,-0.4872073961210188
9.4,1.707989157334507,3.5895644938482967,1.2010229221622617,-0.3327401101827026,0.10034666181264462,-0.06709665668770848,-0.4319692911179908,0.4652510131404542,0.7726215283595487,-1.0815390875858781,-1.959641329521246,4.138181276031065,-3.326648851434225,-1.373244637548075,1.609855962279809,2.0,0.5236058156714397,0.5373053204908705,0.41113262423684493,0.7358174577493338,-0.003479072573093932,0.4702878461680985,-0.4872267507761756
9.5,2.231637969497668,3.9274659638262945,1.3961580995534837,-0.3734581973378955,0.1150446249233126,-0.06713578443695689,-0.4319676580701695,0.4652296053371663,0.7726353318742811,-1.0815410981094664,-1.9596690155154488,4.138165434232236,-3.3266588620168944,-1.3732521000085753,1.6098723198043035,2.0,0.5236173117864098,0.5372818128199394,0.41114787338492365,0.7358119362993781,-0.0034779329092435663,0.4703025766952704,-0.4872208787971098
9.600000000000001,1.9136098926499066,4.171633758782197,1.8576440976295014,-0.38226497161526823,0.1182385927166375,-0.0748507029534633,-0.4322529010530318,0.4655045711600326,0.7723086971919494,-1.0815403145687619,-1.959658557155075,4.138157164822718,-3.326644662331124,-1.3732613793069541,1.6098506115093745,2.0,0.5236196126905066,0.53727845265189,0.411155096254612,0.735811984949708,-0.0034991067715024857,0.4702979775774958,-0.48722509309629125
9.700000000000001,1.697548779087385,4.281466403678554,1.6843797119814918,-0.3718727235914548,0.1128685130010728,-0.08489539366249191,-0.4339254322527418,0.46721275410587865,0.7703357559212743,-1.0815182625541524,-1.9596711151156447,4.138172626495361,-3.326645945743086,-1.373292315959104,1.6098892392845643,2.0,0.5236144598047536,0.5372914642396527,0.4111121618936048,0.7358378158249981,-0.003488015551851911,0.4702818023543578,-0.4872017743437962
9.8,1.8005958918675387,4.679661108295417,2.023003554095535,-0.3882515084708532,0.12857768040528061,-0.09052956062755985,-0.43372542864340696,0.46705650432896334,0.770544010678064,-1.081530365577111,-1.9596650636041657,4.138204830169678,-3.326627973302652,-1.3732714433372823,1.6098589897155762,2.0,0.5236012952315977,0.5373022481912021,0.4111414137715332,0.7358166009590345,-0.003469158325570373,0.470292003888135,-0.4872241022080983
9.9,1.6176681591740814,4.834539653343433,2.043381602961399,-0.3959271973630182,0.13194442333803252,-0.09126684327437763,-0.4327252807526554,0.46608816387030116,0.7716933527129977,-1.0815615488697221,-1.9596448982834471,4.138197351114216,-3.326642211170696,-1.3732894102679651,1.6098589897155762,2.0,0.523584465105433,0.5373219574007282,0.4111402894612689,0.7358167326971937,-0.0034538885799756665,0.47027174341319766,-0.4872435673086051
10.0,1.975809766651171,4.4001713107525555,1.838928197479021,-0.4012799043610174,0.1307871253397491,-0.09137541250288826,-0.4325682313884399,0.4658719088045142,0.771911938414582,-1.0815098647257728,-1.9596730321041451,4.138195514678955,-3.3266217821684165,-1.3732948763811235,1.6098623462197905,2.0,0.5236083486776536,0.5373047865604926,0.41111859008095536,0.7358274485086772,-0.003477546151486152,0.4702773723433245,-0.4872217829241964
10.100000000000001,2.023946261003657,4.067452919250633,1.9236250753123192,-0.4050223151427751,0.1292555714669982,-0.08647668566241554,-0.4325603076541988,0.4658643455462876,0.7719209645728838,-1.0815332664188346,-1.9596533316686136,4.138237846629612,-3.32664323594475,-1.3732592629705749,1.609862481656953,2.0,0.5235995529427895,0.5373143283282076,0.41112430679324896,0.7358242293922664,-0.0034513451038907595,0.47029255110832247,-0.4872121796797335
10.200000000000001,2.0695317444111923,4.128450593846332,1.9165003039661492,-0.3993802008759049,0.12757625866846975,-0.08920069223770724,-0.4324964065888247,0.46582826036241726,0.7719781765934549,-1.0815707120775455,-1.9596534301365538,4.138221870692431,-3.3266073233041142,-1.373275321973096,1.6098698268227651,2.0,0.5235925052531603,0.5373097377445722,0.4111569907511877,0.7358026303330022,-0.0034684675180057995,0.47028737092376877,-0.487249676939576
10.3,1.8100019669189522,4.337818759777599,1.7255960427844519,-0.39305699873186406,0.1320002702829013,-0.08988300602383618,-0.43152649058031806,0.464848417224049,0.7731102551451265,-1.0815432939866994,-1.9596382580199183,4.138211412923526,-3.3266266983374724,-1.3732689342547253,1.6098796003626028,2.0,0.5235769952328607,0.5373174693635168,0.41113342413739873,0.7358225680538223,-0.0034661028412750657,0.4702657320689937,-0.48724047011243354
10.4,1.9058375917297978,4.025955868246174,1.9010600902759553,-0.40342003524735626,0.12781941629436144,-0.08413996189489573,-0.4314727315114358,0.46477573201047306,0.7731847154269287,-1.0815380415496954,-1.9596501789488734,4.138225203240893,-3.326652126965268,-1.3732676627458815,1.609881865172945,2.0,0.5235790159456706,0.5373100913611937,0.41110865158900783,0.7358392360079712,-0.0034521474737813705,0.4702630715173648,-0.4872179645662487
10.5,1.9685748267109529,4.565473448895619,2.1372509952557404,-0.41622730028525584,0.12155460016012597,-0.0872495113953561,-0.4322415155752199,0.4655533497333754,0.7722860144105124,-1.0815255513785509,-1.9596469681139037,4.138187152988729,-3.326619510317299,-1.3733013311969202,1.6098713874816895,2.0,0.5235880696913487,0.5373055291095076,0.41112428322900435,0.735829075428709,-0.0034652943597954016,0.47027527299599436,-0.4872214394885291
10.600000000000001,1.864311009207242,4.85101061168806,2.8671445393557287,-0.4655105860511351,0.12495056341796221,-0.09092495552087279,-0.4330003213189841,0.4663345898840835,0.7713899515534121,-1.0815547364248381,-1.9596602740978004,4.138207912445068,-3.326610920632159,-1.3732687988577117,1.609850091601091,2.0,0.5235784524397891,0.5373251756629576,0.41113805959256877,0.735815936182184,-0.0034430838500131566,0.47028026926170063,-0.48723661764801685
10.700000000000001,2.102151509663987,5.645969108395678,3.4085364043726574,-0.5044398109854478,0.12617163141586063,-0.09664981237835145,-0.4322116397041472,0.4655029126555095,0.7723335722440096,-1.081557310292054,-1.959646805493554,4.138186120316639,-3.3266198355579983,-1.3732484734627837,1.6098330053957237,2.0,0.5235802235881366,0.5373243855569131,0.41114357341288116,0.7358126758782749,-0.0034508735317063115,0.470282317068477,-0.4872395096268624
10.8,2.0188751468309127,5.86606946224932,3.3288724468025035,-0.5179414733661424,0.12456584264139507,-0.09029959323944685,-0.43190380418238883,0.46518494889153794,0.7726979129811683,-1.0815785795376207,-1.9596488502664053,4.138187460106034,-3.326633399756441,-1.3732531706439417,1.6098677155029073,2.0,0.523609027078959,0.5372933883917708,0.4111323995741737,0.7358208199359523,-0.003476408926067143,0.47029771525361735,-0.48721216585486593
10.9,1.9160477110916816,6.178215126022085,3.48495747470392,-0.5446830565542318,0.1315799597454932,-0.09014105428587772,-0.4319270931244061,0.4652207430096609,0.7726633448642892,-1.0815517811245388,-1.9596610110996506,4.138211667590671,-3.326625009576315,-1.3732618132644523,1.6098604109022352,2.0,0.5236032564942462,0.5372967178421325,0.41114182525304277,0.7358237537280337,-0.0034800496892527753,0.4702783199045139,-0.4872264304525507
11.0,2.13088375685377,6.361487755980638,3.821366352848435,-0.5728765280854347,0.12808044370845117,-0.0932388095679313,-0.43191566814009114,0.46523389053745434,0.7726618158887075,-1.0815444137179844,-1.959676952917058,4.138213109503386,-3.326648851434225,-1.37327748933901,1.609853792657258,2.0,0.5235946466301018,0.5373200144379382,0.4111344961007882,0.7358170925859099,-0.0034700009227851217,0.4702803032422813,-0.4872346475101728
11.100000000000001,2.3235004527117815,6.140137550162098,3.922861193398021,-0.6092271126190146,0.12791519639663554,-0.09085769847111112,-0.4318514582299867,0.4651973987848597,0.7727196160114468,-1.0815412068055328,-1.9596638171879566,4.138197844874492,-3.326630094678738,-1.373267285720183,1.6098284480793852,2.0,0.5235725076859153,0.5373161628809144,0.41114269308363505,0.7358297902172968,-0.0034582788120526343,0.47025983303563146,-0.4872353123181111
11.200000000000001,2.0773358061914466,6.510872669572369,3.7812383909863643,-0.6051376935604534,0.1311807250472169,-0.09495216354656912,-0.4314263149083953,0.46472950182290046,0.77323809640994,-1.0815362930297852,-1.959645854672822,4.138212409692162,-3.326640202882122,-1.3732736910125583,1.6098544924684828,2.0,0.523573291361933,0.5373173743785112,0.4111681488542408,0.7358090566687714,-0.003465984055203018,0.470269787054095,-0.4872569614308639
11.3,2.0931351554000495,6.3683796865747695,3.7313914251925855,-0.6134625566859282,0.1283977202393706,-0.09567472690622257,-0.43109662101229473,0.4643599938774534,0.7736441461449401,-1.0815233015395915,-1.9596501789488734,4.138212685628462,-3.326661696297828,-1.373269234074824,1.6098675751903295,2.0,0.523595734537742,0.5373123816347886,0.4111261430649062,0.7358279402225198,-0.0034624671413154753,0.47027888839696286,-0.4872196843696856
11.4,2.2044656510280825,6.494953967553785,3.725814148558504,-0.6128615125530736,0.12625765983951479,-0.09618930596271007,-0.43211585453472096,0.4653841661815255,0.7724593620876998,-1.0815315640982934,-1.959641755499244,4.138199152057454,-3.3266587033748327,-1.3732760608480319,1.6098641127246922,2.0,0.5235895876243086,0.5373097227492214,0.4111334584825282,0.7358288138625037,-0.0034432082278757926,0.47028315020980066,-0.487214387755069
11.5,2.0609250358548836,6.637289194207205,3.6634897216825477,-0.6096997766979824,0.13286044915738865,-0.09084545573560784,-0.43209336687188005,0.4653891375297169,0.7724689460909089,-1.0815587262434962,-1.959644895717184,4.138201009239912,-3.3266208694809336,-1.37327748933901,1.6098415200470408,2.0,0.5235924460839139,0.5373206280145136,0.41111473774669316,0.7358347695683493,-0.003465504619331205,0.47026835398098243,-0.48721951666168406
11.600000000000001,2.115390727199842,6.768523315845314,3.771276385943326,-0.6066319575302558,0.1317725327795081,-0.09862698205079527,-0.4323226293740822,0.4656476216455198,0.7721844855372313,-1.0815568145628898,-1.9596501789488734,4.138203943731598,-3.326620720788649,-1.3732894102679651,1.6098666218568651,2.0,0.5235822430688033,0.5373149776549702,0.4111320338481912,0.7358194218920544,-0.003454765394174955,0.4702788509009278,-0.4872326398732101
11.700000000000001,2.284139543336921,6.1417150164762875,3.60989868136557,-0.6214536163456863,0.1289055000056229,-0.09585979908457645,-0.4327633902716974,0.46611908494073007,0.7716529945518128,-1.0815442122378038,-1.9596456015277897,4.138220592171014,-3.326617519198286,-1.373293082021901,1.609850410573556,2.0,0.5235671017444535,0.5373252506654643,0.41111316388712443,0.7358430158425282,-0.0034478035268451462,0.4702474213976614,-0.48722739183615654
11.8,2.272231165535863,6.139877372778344,3.558813792645646,-0.6184310189695502,0.12698213889321833,-0.09435306893690297,-0.43291568430452615,0.46626957157283616,0.7714769430591261,-1.081547737121582,-1.9596443779308343,4.13820409133711,-3.3266175143260885,-1.3732811634812778,1.6098536655346953,2.0,0.5235761538901541,0.5373206434836388,0.4111183349604062,0.7358336586937663,-0.0034556041404978513,0.47026241631109944,-0.4872269956997625
11.9,2.224358542348568,6.339605889178105,3.4613489362433274,-0.6138737916420638,0.12848037018624306,-0.09715519315856107,-0.4328065485290706,0.46613096255388925,0.7716219198179745,-1.0815362930297852,-1.9596514205934243,4.138205429155966,-3.3265994492366953,-1.3732894102679651,1.6098721522890822,2.0,0.523581176346432,0.537311852558499,0.41114780416085495,0.73581466108836,-0.003457891108457007,0.47028300545138524,-0.4872357974329437
12.0,2.065251962648464,6.227392859716558,3.567146499881224,-0.6147867942300347,0.13110758251302507,-0.09661413741105648,-0.432313853015261,0.46563609643164133,0.7721964467136844,-1.0815390398470124,-1.959634568383572,4.138212930938489,-3.326640478232526,-1.37327748933901,1.6098459329485244,2.3937458886587892,0.5235779940695398,0.5373257234651221,0.41111538073138243,0.7358306131241981,-0.0034648962578968556,0.47026695658132933,-0.48722714705866205
12.100000000000001,2.373711478138379,6.302465298579068,4.689822902841338,-0.6230801210488521,0.11313322531340775,-0.09965865273405725,-0.43240862443877803,0.46574914567997205,0.7720752115393938,-1.0815912156359906,-1.9594900157714976,4.138233379363026,-3.3265849703123918,-1.3732728854012692,1.6098437459838797,3.0,0.5235943992351948,0.5373168107963288,0.41112135398406874,0.7358283853172095,-0.0034707105876459403,0.4702698330628292,-0.48722769383579134
12.200000000000001,1.5460355794187404,6.44385145944584,4.451597862898215,-0.6236922105842341,0.10472103600125696,-0.10796471420721211,-0.43254205484823727,0.46591169212974753,0.7719024790686319,-1.0826632034108314,-1.9585167370238246,4.138345312364142,-3.3263125214449087,-1.3731793654762636,1.6098618952261616,3.0,0.5235222600330529,0.5372478960544801,0.41124702450371114,0.7357739599995927,-0.0034750472640810628,0.470297125121041,-0.48728350878714755
12.3,1.541039482611192,6.357081300942834,4.652935501384178,-0.5915446781276568,0.1109343451577724,-0.10238239922865638,-0.4321640069046421,0.46555441993968893,0.7723298180496592,-1.0844117041158103,-1.9571813650299823,4.138481389023004,-3.3258227205899322,-1.3729605375576182,1.6098713874816895,3.0,0.523416947062442,0.5370988083902513,0.4113226202347448,0.7357397011296294,-0.0034955440231897437,0.470318547930773,-0.48731441270082976
12.4,2.075849073948579,6.10201623999815,4.865631569782144,-0.5766918347911532,0.11916019551719452,-0.10311731745104606,-0.43250495922543114,0.46591409065795764,0.7719219613030397,-1.0865486543297753,-1.9559257564293913,4.138656938908651,-3.325398736928659,-1.3728014565642837,1.609882826724882,3.0,0.5229770135927732,0.5366413588170982,0.4114081281812261,0.73571133318805,-0.0035043656855636767,0.4703367215185619,-0.4873396372459096
12.5,1.8046774233260576,5.5815580569669105,4.676471071009442,-0.5683593204111687,0.14209415201688325,-0.11300076750194463,-0.4311425345122169,0.4644765514755817,0.773544301821407,-1.0882520603041503,-1.954614929637053,4.138892979993486,-3.324934447624796,-1.3726095956439164,1.60987933854983,3.0,0.5227848433493044,0.5364516647399091,0.4113105611060824,0.7357841225749783,-0.0034551742253465098,0.4703036385164054,-0.48726201815437264
12.600000000000001,1.7320349899336243,5.661596214165197,5.004054468999027,-0.5681709981260638,0.14369990839005592,-0.15300498494677522,-0.4297553423097168,0.46301288525079853,0.7751961593640535,-1.0899414052174612,-1.9533632738179063,4.139028452794365,-3.324556692699905,-1.3724211862028477,1.609983824651055,3.0,0.5222333445102195,0.5359277857614048,0.4113058619240161,0.7358241683289798,-0.003452026857838973,0.47027670483102846,-0.4872275625483516
12.700000000000001,1.7597126179833158,5.936075140651568,5.065775116634762,-0.5551300073409448,0.1424509763138779,-0.1476696902561416,-0.4290481189956666,0.46229991276882304,0.776012674983173,-1.091877826924446,-1.9519424170423818,4.139255337178861,-3.324089887683669,-1.3722533882903791,1.6099764296470547,3.0,0.5220375004251201,0.5357292442727186,0.41131871778281937,0.7358172929173136,-0.0034676782284809838,0.4702760769793574,-0.487238440676067
12.8,1.8617357385408895,5.719407310984245,5.517413759934289,-0.5585852867328246,0.1482751971732168,-0.1469400799741142,-0.4285521088610029,0.46181020381130605,0.7765785947422508,-1.093589105645193,-1.950677533731769,4.139430798700975,-3.3237049903120015,-1.3720663229571741,1.6099996570884423,3.0,0.5216892614919544,0.5353439174561051,0.41137214489499263,0.7358144803450399,-0.0034736608054748647,0.47027942503928905,-0.48723941402546933
12.9,1.6924859750725891,5.684537274787327,5.127571195468113,-0.555432365930859,0.14121841233694957,-0.13717081573730655,-0.4282794471880373,0.46155567034150347,0.776880340395047,-1.0953086856972463,-1.9492717702209827,4.139617061220479,-3.323235936960846,-1.3718969163661339,1.6099943155093064,3.0,0.5211868510580264,0.5348914932742405,0.41137888955916024,0.735836739417163,-0.003443142538240493,0.47025353821432714,-0.4872310001326743
13.0,1.7015000682222339,5.9894271254461,4.76283954440157,-0.5688940116061292,0.12902284009694243,-0.13211338757293778,-0.4258657881883033,0.45905457933535954,0.7796767672202609,-1.0970773433376262,-1.9478968040030729,4.139821822058837,-3.3228583988975107,-1.371688692583263,1.609965751928242,3.0,0.5210144608891302,0.5346742449982457,0.411416377148333,0.7358364991094125,-0.00345019199292479,0.47026688080255374,-0.4872184351744632
13.100000000000001,1.5733345522235591,6.0386150589277365,4.822963970860968,-0.6352025805615653,0.08621983032668581,-0.1314747957613466,-0.4221717053017109,0.45526539691509105,0.7838893593022934,-1.0987294041308189,-1.9466350081790802,4.139980142810758,-3.322405495753173,-1.3715204887683612,1.610009751531132,3.0,0.5205016057796454,0.5341362752601206,0.4115641462611352,0.735787873105692,-0.0034496393041002363,0.4703039203207091,-0.4872561218807264
13.200000000000001,1.2623545468819204,6.307804895625275,4.9429882948667005,-0.628621788913055,0.07868321604460105,-0.1401792689768663,-0.417329387061369,0.4503090192745427,0.7893206255261478,-1.100507428093276,-1.9454185612189916,4.140151500701904,-3.3219962663415656,-1.37130730052032,1.6100252186247126,3.0,0.5202708093912051,0.5339027567981621,0.41160810656439445,0.7357755776964736,-0.0034570328231990862,0.4703094510352012,-0.48726929767475347
13.3,1.4678317659927587,5.760622034337672,4.9346688793134925,-0.6202008250671514,0.0771864354519637,-0.14446783229278642,-0.4128644815935616,0.44571042231303165,0.7942789627485943,-1.1023547952825372,-1.9440095097908625,4.14035190524477,-3.321555378057575,-1.371139620284389,1.6100316712350555,3.0,0.5199626983958376,0.5336027192382556,0.4115011832807241,0.7358388315158813,-0.003449605501415202,0.4702734423375151,-0.4872085833472669
13.4,1.399935285354171,6.293400589982588,5.274285396798372,-0.6028178815410951,0.07947234771935227,-0.17583346528188734,-0.41299569691482035,0.44592127465858644,0.794096165120012,-1.1038694381713867,-1.9425777183255248,4.1405379368651145,-3.321196614959496,-1.3709485362505114,1.6100963742125267,3.0,0.5194618719424771,0.5330934331479628,0.4116034420861469,0.7358306882283083,-0.003462103754974057,0.4702587727504514,-0.4872349523076963
13.5,1.6685171251460333,5.50754307026218,5.2252873375515,-0.5757765269560187,0.105514559472746,-0.1781928058981929,-0.4123422250771841,0.4452656131683179,0.794802795779792,-1.105747834427782,-1.9412986073725025,4.140786647796631,-3.3207928093950456,-1.37074274099047,1.610092521938628,3.0,0.5192332201643017,0.5328783264784559,0.41171434520893274,0.73578468091228,-0.0034685023390860674,0.4702839106011833,-0.48728012093250456
13.600000000000001,1.6296577342466307,5.699375182779453,5.385151905406975,-0.5476343071992831,0.13257557658374897,-0.1846310438558307,-0.41178593843423134,0.44467596533715414,0.795421559666449,-1.1076222604347097,-1.9401568806149705,4.140966892242432,-3.3203726912391884,-1.3705369727529941,1.6100912564165444,3.0,0.5187771245641009,0.5323871295051075,0.4117628040511012,0.7357961486326334,-0.0034836089966424925,0.47028630914779085,-0.48726038167892416
13.700000000000001,1.7160468466788599,5.604927255931093,5.53117942656983,-0.5687725115365164,0.12229543284740826,-0.17884019241599114,-0.4114793231142747,0.44430324033832563,0.7957885072485444,-1.1091589515118052,-1.9387941839855634,4.141177194123297,-3.3199695343129303,-1.3703559326321306,1.610128830424257,3.0,0.518556633475478,0.5321992110898258,0.41160593461046385,0.7358908619055691,-0.0034483845263313007,0.4702327022754661,-0.4871693275635798
13.8,1.77301970565316,5.872145238207152,5.613704431881625,-0.5545868363723375,0.11169821390126478,-0.1694231512335591,-0.4103362544421968,0.4431607565332479,0.7970119017794958,-1.1108333407137014,-1.9372166554248833,4.141337871551514,-3.319548486144512,-1.3701610810811813,1.6101041014397952,3.0,0.5182207153256373,0.5318536724311367,0.411662650678453,0.735888247873159,-0.00346165909528242,0.47023616859841777,-0.4871698361971528
13.9,2.256856746680596,4.866019406190118,5.105350989593383,-0.5489543279685358,0.12263361919323867,-0.17214821097510555,-0.4091065696607218,0.4419385629478192,0.7983239827894082,-1.112762136788204,-1.9359380207457484,4.1415181159973145,-3.319170712938089,-1.3699694049168656,1.610143513515078,3.0,0.5176625376900367,0.5312898698480673,0.4120090109502784,0.7357478234529347,-0.0034538297436511956,0.4703217264008362,-0.48729937925233224
14.0,1.195158853512197,5.93329257482972,5.258980481051157,-0.580442506550695,0.0991228070301047,-0.17842983447222824,-0.403385089277054,0.43605265915094793,0.8044065545513349,-1.1143538144419345,-1.9348414243218808,4.1417018559763585,-3.3187709636595275,-1.3698285567157387,1.6101451378235156,3.0,0.5174757336873163,0.5310419582993006,0.4119854575876832,0.7357764784142241,-0.003465576889172949,0.47031571289234037,-0.4872618328945514
14.100000000000001,1.2394902555352056,6.258955147804647,5.403040959875635,-0.5961644346106926,0.08196969632134307,-0.1823722854489562,-0.39900388698753303,0.4315586989035956,0.8090429185909042,-1.1160402297973633,-1.933582546549178,4.141892808638709,-3.3183400653174884,-1.3696062693755278,1.6101745545493535,3.0,0.5171310977076268,0.5307408552209479,0.4118679757020609,0.7358459784037543,-0.0034463096460964197,0.47026222425194314,-0.4872086405827178
14.200000000000001,0.9426575164081149,6.167625710209735,5.207995486282912,-0.6022490551377271,0.04812611843338834,-0.17933806439507077,-0.3976129601957034,0.4301700531760575,0.8104669288130902,-1.1179699389576343,-1.9319863891440145,4.14208609354478,-3.317986889493079,-1.3694510177081798,1.6101713180541992,3.0,0.5166778231990322,0.5302990687714988,0.41189519315634837,0.7358568217200139,-0.0034465799471552773,0.4702416300247521,-0.48721213901795574
14.3,1.1235995496202595,5.874132794136283,5.151876592083874,-0.5767992634386149,0.06793546009896666,-0.18752588092813663,-0.39590530242410643,0.42846198958286386,0.8122007603650289,-1.1194386044419509,-1.9305879936080506,4.142274641627776,-3.317594494530073,-1.3692690232429634,1.6102216912382863,3.0,0.5164271691320166,0.5300267090761648,0.4119863227265212,0.7358393613594068,-0.003453705165822523,0.47024979310708825,-0.4872305801954029
14.4,1.4115634255516318,5.448856784387159,5.270939544184894,-0.5517502212008311,0.08718599290079482,-0.1963796985386328,-0.394152524165042,0.42670842273698945,0.8139787280776818,-1.1210735096410716,-1.9295334423918338,4.142441272735596,-3.3172412537433407,-1.3691100683779036,1.6101933299601716,3.0,0.5160536456213991,0.5296108166871841,0.41215705231256616,0.7357757488213611,-0.0034769254921566315,0.47028087438884214,-0.48729647815221616
14.5,1.4542437773659218,5.079897176389393,5.453481971023629,-0.5182884452945905,0.1064033852245081,-0.2082911093001827,-0.39375845709700674,0.4262724984822785,0.8143991408240152,-1.1229626043548797,-1.92819746538342,4.14264440536499,-3.316833045150594,-1.368910010550556,1.6102240502390337,3.0,0.5155942014447161,0.5291544786262885,0.41213668559318134,0.7358165668836436,-0.0034499254724818683,0.4702687332239066,-0.4872467511084966
14.600000000000001,1.4143118889974842,4.7150487189060755,5.198560409773664,-0.50910338498215,0.11382555470354037,-0.21124799499812874,-0.39386288698769173,0.4263656010081753,0.8142997561116555,-1.124648579927466,-1.926817430939784,4.142786864759632,-3.316452823441116,-1.3687526918905917,1.6102608737857125,3.0,0.515405621355073,0.5289696478552356,0.41214460025655886,0.7358162688793278,-0.00344725155962629,0.4702665194587087,-0.4872493566803156
14.700000000000001,1.627438954390863,5.006854616769768,5.478027728132027,-0.49388275304178414,0.11192054472672534,-0.20811573313172735,-0.394326663066845,0.42685735506422606,0.8138177136138021,-1.1262845281305651,-1.9254508658921712,4.142965164276238,-3.3160589747747675,-1.3685746442347284,1.6102763447530728,3.0,0.5149364839633058,0.5284650324325317,0.4122141243570985,0.7358134405826878,-0.003441702757753739,0.47025948236932374,-0.4872604586683907
14.8,1.651426904690072,4.575928904778079,5.418812400923051,-0.4789036490145819,0.12514807084277296,-0.2174995160885327,-0.39452712341141344,0.4270277159126377,0.8136310974179141,-1.128011604454474,-1.9242298106815974,4.143169088217565,-3.3156511804166398,-1.3683877064701244,1.610296217918741,3.0,0.514683427340001,0.5281486875776521,0.4122977031513317,0.7357933746687189,-0.003463213702661407,0.4702849518769977,-0.48726602588577617
14.9,1.719428433926816,4.760238389846194,5.607490929923876,-0.49705053776943764,0.12500420740133894,-0.22236454037209755,-0.3948584430709811,0.42732267988805583,0.8133154786793292,-1.129641327618053,-1.9229566529919047,4.143399715423584,-3.315219391908228,-1.3681773887758957,1.6103038787841797,3.0,0.5143677419664213,0.527844529041216,0.41225480109908713,0.7358301967092634,-0.0034493792867099572,0.47027255193370177,-0.48722248541206153
15.0,1.2895492748294637,4.9802394730594015,4.940793747041106,-0.5074559163906758,0.1067574354360088,-0.22252359717059012,-0.3925886325591931,0.42501114878782775,0.8156138508913172,-1.131410129964133,-1.9216433883707267,4.143608322409436,-3.3149681931315538,-1.3679185928946012,1.6103288401423879,3.0,0.5138846338866995,0.5273951121898335,0.4123590767585517,0.7357880729567083,-0.0034557439834868955,0.4702888479257243,-0.4872703244040918
15.100000000000001,0.7807557103497829,5.520432861919349,4.9198851504305665,-0.547761594604035,0.06745189134984811,-0.22022887860428492,-0.3879649503197861,0.42029252304953507,0.8202372464848646,-1.1331725428076886,-1.920329646597485,4.143789600248007,-3.3145098399268607,-1.3677522586671411,1.6103815397921664,3.0,0.5136546848606267,0.5271650082951009,0.4123595928897212,0.7358147557299713,-0.003456724414675459,0.4702732020159334,-0.4872451249340983
15.200000000000001,0.8934299677467714,5.638351835676238,4.696548913843307,-0.5410607743938827,0.0670011461885556,-0.23105843846313165,-0.38207922839954056,0.41426867356431657,0.8260731928176434,-1.1334848259127117,-1.9200898609557093,4.143833608276839,-3.314390629132808,-1.3677034008457958,1.6103689297024932,3.0,0.5133138397778683,0.5268215166212059,0.41234154188624583,0.7358490412370139,-0.003441813991569079,0.4702447822440019,-0.4872208813252019
15.3,1.3272398449517055,5.465790120712089,4.7057719484713045,-0.5443301472618635,0.061726793799887894,-0.23109265209179775,-0.38216249766503774,0.41437142237109936,0.8259831372285137,-1.1334896087646484,-1.9200842395365538,4.1438534631447075,-3.3143923297465148,-1.3676973528085095,1.6103543614079376,3.0,0.5131226807014411,0.5266430845031986,0.41240138660654563,0.7358203776310795,-0.003451068836769047,0.47025748119499344,-0.4872518479871366
15.4,1.2142973593555564,5.5699173670826445,4.7659388411546155,-0.5480245914259319,0.060940312343300856,-0.22788421073636358,-0.38195293411314235,0.41413159632011065,0.8262002316460462,-1.1334704858047442,-1.9200706544001473,4.143865690240502,-3.3144000410571133,-1.3676892875348536,1.6103536523914428,3.0,0.513126223180147,0.5266411747019701,0.41240441674363054,0.735827195751395,-0.003445072468136899,0.47026670902394974,-0.4872326875858302
15.5,1.2873226281967372,5.590466612537941,4.82392284918143,-0.5623797956524588,0.06015982972645478,-0.2253996350834031,-0.38174776064575766,0.41389906336806537,0.8264116482851812,-1.13347047716362,-1.9200054607787074,4.143832968424136,-3.314400059059455,-1.3676963109473945,1.610323028017362,3.0,0.5131343144309182,0.5266396878776942,0.41237922387599485,0.7358303810489395,-0.0034482310061496662,0.4702675454807706,-0.4872270473770851
15.600000000000001,1.1124155607849298,5.76056424075366,5.159748619699007,-0.5677044074030597,0.0624516190230025,-0.21549011274169116,-0.38173091464637915,0.41389206303139214,0.826422935811462,-1.1335264166774657,-1.9200297794737757,4.143830207925806,-3.314397404734138,-1.3676817356931221,1.6103453984141305,3.0,0.5131341436990918,0.526638186925181,0.41242075058649424,0.7358003343851647,-0.003452503461491105,0.47028332004790835,-0.4872571672364041
15.700000000000001,1.207690261276739,5.627597178137938,4.893481035346794,-0.5690372118727144,0.06360708954592766,-0.2219155523499431,-0.38180456933427714,0.41395705972087526,0.8263563454142492,-1.1334969988998298,-1.9200241553176214,4.143829822540283,-3.3143966059323775,-1.3676766579685002,1.610339641571045,3.0,0.5131358063746398,0.5266220098873841,0.4124047063583785,0.7358131337774922,-0.0034630197271238853,0.4702805994216441,-0.4872403898103428
15.8,1.2628786517845576,5.560588771932357,4.990168428120388,-0.5773701487418058,0.06541163957866554,-0.22172672941530275,-0.38175773409197195,0.413906844953735,0.8264030408725843,-1.1334913833928537,-1.9200042312425913,4.143816740330143,-3.3144013520702362,-1.367687389402495,1.610346182676115,3.0,0.5131301528238401,0.5266291855697903,0.41238557213192006,0.7358215983342915,-0.0034595800874937686,0.47027210420324217,-0.48723583072126603
15.9,1.303973523168181,5.709321092504091,4.903543271115681,-0.5687759986134858,0.06584660401708017,-0.21534431420919223,-0.3813332209448068,0.4135058262006229,0.8267997097285027,-1.1334963698863298,-1.9200059376158656,4.143832938670848,-3.3144098720946253,-1.3676942030536097,1.6103567223072737,3.0,0.5131178805389688,0.52663824678712,0.41240830647203097,0.7358116161704776,-0.003461295671342752,0.4702679176695376,-0.48725493384020485
16.0,1.280576121478483,5.524621722561971,4.929016269432573,-0.5721085436712084,0.06653406412884216,-0.2133374204930276,-0.3813830785080514,0.413552756628227,0.8267532928931831,-1.1334896087646484,-1.9199901762695133,4.1438384570493945,-3.314394110748273,-1.3677022835651675,1.610343005151284,3.0,0.5131176428873332,0.5266296290422084,0.4124105762795202,0.7358179112930834,-0.003452981292532846,0.47026837242667324,-0.4872450474203355
16.1,1.2306010905723617,5.544463041926533,4.876113672861754,-0.5721852454825144,0.06824973109591415,-0.2117988322938259,-0.381503007642504,0.4136592311161336,0.8266447164739011,-1.1334805000268073,-1.9199820957579554,4.143828440860644,-3.314426639444656,-1.3676942030536097,1.6103346012931266,3.3879774739903086,0.5131275222417021,0.526614779507588,0.4124316607695888,0.7358088522241495,-0.0034583056251227986,0.4702781276764293,-0.4872492747454175
16.2,1.3392273116565343,5.431230280718607,4.832004538354718,-0.575156779683598,0.06623591242597664,-0.2128035177012015,-0.3814199596133046,0.4135552060298907,0.8267350832837305,-1.133453369140625,-1.920008708744664,4.1438230799069675,-3.314400077389456,-1.3676991004061942,1.6103370385101006,4.0,0.5131233193267306,0.5266137966997942,0.412416726053311,0.7358219360570525,-0.003455064239226373,0.47027579740872716,-0.4872317880844187
16.3,1.021720444770962,5.873487188918123,4.661388318220932,-0.5647356171500678,0.07408300806447732,-0.2228679318488673,-0.3813708926431763,0.41350984668747004,0.8267804112051726,-1.133464527935595,-1.920007905834879,4.14384426725417,-3.3143771174437178,-1.3676922348345963,1.6103701502199799,4.0,0.5131182591079052,0.5266265787450435,0.41243449150815104,0.7358027795314279,-0.0034575574327455052,0.47028368411090976,-0.48725308761412106
16.400000000000002,1.170615805906367,5.895304007110642,4.878050409478406,-0.5644631987012267,0.06611487897108935,-0.21785984566404418,-0.38166499093900735,0.4137931066026127,0.8265028790641907,-1.1334768437902658,-1.919982939803383,4.14382450563619,-3.3144098720946253,-1.3676886646118458,1.6103157997131348,4.0,0.513129417004909,0.5266128132374058,0.41240577154021907,0.7358153286652859,-0.0034524598737998963,0.4702827713599908,-0.48723505373072645
16.5,1.2865691761269642,5.620659202275652,4.810889964906814,-0.5720039078347677,0.06465113271577745,-0.21459589728661704,-0.38162112326239545,0.4137371700461385,0.8265511761733347,-1.1334909621512346,-1.9199953180201665,4.143843173980713,-3.3143979511656703,-1.3676822821246546,1.6103404660671428,4.0,0.5131352143616388,0.5266146451190336,0.4124028960009376,0.7358220168477483,-0.0034615063621899534,0.4702817903684896,-0.4872258358745198
16.6,1.3681057030624522,5.490409575276098,4.746108008481428,-0.576577114343069,0.06634781572868219,-0.21221056149886794,-0.38159902396152523,0.4137395190006901,0.8265602144010231,-1.133462037693634,-1.9200159200533007,4.14383465319764,-3.3143979511656703,-1.3676822821246546,1.610361068100277,4.0,0.5131229302901165,0.5266263963812674,0.4124048474508817,0.7358164887707792,-0.0034581072638105725,0.47027038151320133,-0.4872452202111599
16.7,1.374768201973654,5.551903597935452,4.676351747005636,-0.5715563674720517,0.0692259344687137,-0.21105678621665486,-0.38167836860458654,0.41384859946834335,0.8264689346561753,-1.133479541306049,-1.920012824815521,4.143843173980713,-3.3143960976953144,-1.3677010902532651,1.610337311263531,4.0,0.5131305620114254,0.5266230145326556,0.41239515437367974,0.7358195694493302,-0.0034524474717231484,0.47026789504291283,-0.4872430078654443
16.8,1.3413295198551547,5.5125019783100955,4.746447869086632,-0.5702490107940343,0.06878479085740014,-0.21212232403781853,-0.3818786454572684,0.4140520317633663,0.8262744263104249,-1.1334824360757836,-1.9199561053239194,4.143823201596716,-3.3143810061239765,-1.3676973544628714,1.6103224206567022,4.0,0.5131292413745643,0.5266114176292622,0.4123957475342366,0.7358232640721822,-0.0034630600473420426,0.47025792768618924,-0.487246973016312
16.900000000000002,1.2275004076108647,5.519035765833633,4.561530477930261,-0.5693172699848719,0.06805774481556488,-0.20401941414748176,-0.3820789223099503,0.4142554640583892,0.8260799179646745,-1.133491732002967,-1.9200030395143475,4.143832899452918,-3.3143979511656703,-1.3677229845883443,1.610363483428955,4.0,0.5131118047025413,0.5266221388911838,0.4124343963658781,0.7358056069115495,-0.003452303436403476,0.4702754599724934,-0.4872567928579028
17.0,1.20891771097576,5.573414617283964,4.635236212342664,-0.5704641034250361,0.06773205594530272,-0.20589578018881205,-0.3818074429854446,0.41396412808166366,0.8263513988959064,-1.1335020065307617,-1.9199940166869105,4.1438197807665045,-3.3144002597603093,-1.367695663801545,1.6103768651058454,4.0,0.5131321728446657,0.5266098933265243,0.4124221166851405,0.7358110714705901,-0.0034694776474162546,0.47028537398475745,-0.48723884989004385
17.1,1.1687953137268752,5.5326698723471255,4.699055760895832,-0.5716298544445452,0.0712041519557996,-0.21201796796915204,-0.38179245743795615,0.4139823202921304,0.8263492517722159,-1.1334723125732349,-1.9200059376158656,4.1438167312072895,-3.3143911327630695,-1.367707839858811,1.6103272438049316,4.0,0.5131176164872019,0.5266186266307977,0.4124330107615166,0.7358025067578364,-0.003463309055921725,0.4702722037333853,-0.48726453896729727
17.2,1.2881430837612413,5.408461554870645,4.765312512213342,-0.570997857775307,0.06918682190382133,-0.2132509769662521,-0.38189123263605373,0.4141240761618491,0.8262325994805707,-1.133511544986371,-1.919992525901867,4.143829225798155,-3.3143701764179694,-1.3676889879816538,1.6103644973768403,4.0,0.5131124926264349,0.5266276999330227,0.41241066261426496,0.7358171090129487,-0.0034522404453636935,0.47025557650745187,-0.487258613965292
17.3,1.2019685656034207,5.545391557577091,4.725650474926305,-0.5695653690304167,0.0708662478136239,-0.20756425052372002,-0.38172412020803775,0.41393324018825983,0.8264054395478652,-1.1335134506225586,-1.9199784612091826,4.143832530759109,-3.3144081850325966,-1.3676822821246546,1.6103445538271695,4.0,0.5131239441887232,0.5266213719302758,0.41242506793968997,0.7358043250624449,-0.003475175519088404,0.47026858802424826,-0.4872651983183197
17.400000000000002,1.319651106368242,5.3286076076002775,4.6061194821209845,-0.5720806789150419,0.070870993588214,-0.2093017941318323,-0.3818486823781615,0.4140542818266826,0.8262872177837932,-1.1334791451856057,-1.9199835531078677,4.143843173980713,-3.314392719376149,-1.3677247340509535,1.610356526723944,4.0,0.5131329562023693,0.5266122486736861,0.41243492705092755,0.7357981721597535,-0.0034682157724045815,0.47029309832465294,-0.4872508830098923
17.5,1.6247948190844024,5.331543725974475,4.5943041673782075,-0.5683761080164843,0.06147303685265135,-0.20245380058123325,-0.38197324454828524,0.4141753234651054,0.8261689960197213,-1.133492448517092,-1.9199810969537832,4.143824579920388,-3.314400681696866,-1.3676850126558504,1.6103477239433843,4.0,0.5131181781479686,0.5266034330691649,0.4124512399384312,0.7357984804403417,-0.003466017235135364,0.47028224135065033,-0.48726091201369576
17.6,1.4807304209054117,5.281972314543294,4.613305955362351,-0.5733405792788349,0.06361546882285476,-0.21011233460038312,-0.3819297469039043,0.4141111117218591,0.8262212912981878,-1.1335001064560124,-1.9199737335537603,4.1438069343566895,-3.314432500668772,-1.3676822821246546,1.6103475269380818,4.0,0.5131153373874895,0.5266244877893788,0.4124101015180361,0.7358180965040892,-0.003457491131534387,0.4702636198353757,-0.48724932269989185
17.7,1.3173094861377699,5.298175112814007,4.718889073326995,-0.5747559105251359,0.06916495965468761,-0.20640788390793072,-0.3817606860146697,0.4139145210234076,0.8263978743313444,-1.1334772109985352,-1.9199790279833637,4.143829822540283,-3.3143753518111194,-1.3676966880603278,1.6103196331539273,4.0,0.5131390261806699,0.5266218423074474,0.4123964029386285,0.7358179880840697,-0.0034716918508047217,0.47027368612054726,-0.48723966988556866
17.8,1.4832419037918232,5.409979984640475,4.666254665074215,-0.5707321777701094,0.0656788811910365,-0.20705747553951473,-0.38136686529881325,0.4135024025008728,0.8267858757724021,-1.1335020065307617,-1.9199820957579554,4.143826737875069,-3.314388245639831,-1.367675767809398,1.610339641571045,4.0,0.5131328003700213,0.5266033653543579,0.41245440790791527,0.7357918705204793,-0.0034482709368481184,0.47030787787574907,-0.48724627521565494
17.900000000000002,1.2037173694436671,5.649961825409319,4.6120713990506434,-0.5665384236318985,0.07042474394431007,-0.20642304894497893,-0.38144170268184946,0.41360813091356885,0.8266985265100515,-1.133519760029434,-1.9199940166869105,4.1438069343566895,-3.3143901551981396,-1.3676876307547812,1.610342328918562,4.0,0.5131233032194025,0.5266207458657551,0.41242696173324145,0.7358063453642182,-0.0034643528225329324,0.47027280425645246,-0.4872581553530391
