xiamingqian9007/apple-picking-rnn/final_data/grasper_20191127_135453_noimg.csv
,/manipulator_wrench.fx,/manipulator_wrench.fy,/manipulator_wrench.fz,/manipulator_wrench.tx,/manipulator_wrench.ty,/manipulator_wrench.tz,/ground_truth.x,/ground_truth.y,/ground_truth.z,/joint_states.elbow_joint,/joint_states.shoulder_lift_joint,/joint_states.shoulder_pan_joint,/joint_states.wrist_1_joint,/joint_states.wrist_2_joint,/joint_states.wrist_3_joint,/mode./mode,/manipulator_pose.x,/manipulator_pose.y,/manipulator_pose.z,/manipulator_pose.rx,/manipulator_pose.ry,/manipulator_pose.rz,/manipulator_pose.rw
0.30000000000000004,-0.05867991356109456,-0.26714700026384897,0.07990437384902105,-0.0033817268252703163,0.011306571919605723,-0.00684179071747958,-0.030749294665025278,-0.08387117768165858,0.996002060433767,-1.7932455453310607,-1.6854918460094386,4.188565543737048,-2.725202825369334,-1.3206468583527018,2.8061023779005616,1.0,0.44416073746970924,0.4537764902420926,0.3021658114571917,-0.5521832676635747,0.3959941030194034,-0.11151858642535113,0.7251523385937101
0.4,-0.19002743815773265,-0.18028246071640666,-0.10375247944264974,0.020591932127075687,0.00992179294254231,-0.005163088129213288,-0.030895169495450094,-0.08431185722601547,0.9959602828140656,-1.7893658206362286,-1.6886773497998495,4.187597646003326,-2.725914084549807,-1.321716926220783,2.8061963739702778,1.0,0.44505587797840257,0.45478550500465137,0.3023114039358631,-0.5521657234110249,0.395940242874271,-0.1114920430001403,0.7251991880237442
0.5,-0.09287066183576512,-0.26129848809971334,-0.019762968847286858,0.015525814360743257,0.007290651477209985,-0.007328291814441366,-0.03079376841403713,-0.08407896104873981,0.9959826209012889,-1.7853186144044584,-1.6921749741565983,4.186742599609894,-2.726721624356272,-1.3225439383785198,2.8062825202941895,1.0,0.44561494656874856,0.4553109045140542,0.3023682745623892,-0.5521659001493755,0.3959399551449263,-0.11147771172700252,0.7252014136915172
0.6000000000000001,0.18091988281867816,-0.43543557847030484,-0.062074682621460625,-0.00019029552738761973,0.006026221330893932,-0.0023640776475594436,-0.03041566013603952,-0.08308957038060538,0.9960769424901985,-1.781170287748661,-1.6953435836711044,4.185812545642462,-2.727551122704977,-1.3232542260724627,2.8063563219127334,1.0,0.446718590455308,0.4563449104275171,0.3024416143508339,-0.5521817145159191,0.39597747463285704,-0.11150885543536909,0.7251640979096656
0.7000000000000001,-0.3830856145000501,0.32894944028401063,-0.3816280134652627,-0.029491863438365337,0.007676467528624682,-0.007387151118881935,-0.03003755185804191,-0.08210017971247095,0.9961712640791083,-1.7772831211838296,-1.698621082499084,4.185060627373364,-2.728291222980991,-1.3239841190379302,2.80643892288208,1.0,0.44825247047578526,0.4578197852975837,0.30252644056397066,-0.5521886007180359,0.39606802754794235,-0.11157380412939677,0.7250994090629469
0.8,-0.1329365085567794,0.323860783553268,-0.19938375084236298,-0.04661055600340852,0.012219406049672019,-0.0020627186854489943,-0.030510342749726325,-0.08305184729511728,0.9960780297187513,-1.773513211154438,-1.7016743705821733,4.18436725190732,-2.7289823749923414,-1.3248410328490836,2.806452095855015,1.0,0.44881800215496354,0.4583996714551463,0.30261851360534237,-0.5521672146313105,0.3960582408549438,-0.11156562123750532,0.725122299405471
0.9,0.023480842860573933,0.6387202898686606,-0.08426498927448814,-0.04924404869326108,0.016955605648587082,-0.0007015274371657281,-0.029743227464229815,-0.08183050945140677,0.9962016623430402,-1.7699282651724475,-1.7045801060179275,4.183747458319315,-2.7296765526734617,-1.325723163142944,2.806508291388684,1.0,0.4495935488770544,0.4592592864923745,0.3027399560440843,-0.5521654699638507,0.3960092430256549,-0.11152734619649779,0.7251562757559329
1.0,0.16531288394802973,0.05204381707048071,-0.29290112745681246,-0.04829634854533807,0.010535955250274932,-0.002233260024616612,-0.029257412604563684,-0.08111693048523161,0.9962750832791906,-1.7662115859257268,-1.707497327323558,4.1830211285260415,-2.7304377586296766,-1.3262606725189179,2.806558132171631,1.0,0.4507053882133006,0.4605126278640202,0.30288856306665446,-0.5521965403631977,0.3959395626854916,-0.11145651462018291,0.7251815557914157
1.1,0.016760691426999492,0.4192809858804151,-0.21052306498550843,-0.05963384173529731,0.012767525491494788,-0.004918227688298922,-0.029228275565906084,-0.08122426119017714,0.9962671960531754,-1.7628042815187754,-1.7104503724032452,4.1822357883707015,-2.731141884833175,-1.3268218571140364,2.8066442972802252,1.0,0.45146701149092267,0.4612975928488908,0.30297816802262295,-0.5521972463951258,0.39593334142369707,-0.111461851086566,0.7251835946676282
1.2000000000000002,0.14944012229771167,0.3445667817316347,-0.4981540463908074,-0.0762566362646139,0.01423612213426665,0.003718346199624955,-0.030171814309247223,-0.082798692361029,0.9961083801180769,-1.7595905959762612,-1.7130413155755366,4.181627474807379,-2.7318698368468226,-1.3275369730051505,2.806678295135498,1.0,0.45273897131893576,0.46252922683237335,0.30297504334201053,-0.5522147129485829,0.3960468066564204,-0.11152399620362062,0.7250987767271029
1.3,-0.09831017010952381,0.639074332798129,-0.55903224975523,-0.07271686249040332,0.014742692883970551,0.0016612094215913364,-0.03044494138366036,-0.08320128020744356,0.9960669956011377,-1.7561423688676976,-1.7157568114595574,4.180941104888916,-2.732462553892929,-1.3282496108479132,2.8067383766174316,1.0,0.4531502094946252,0.4629251185056133,0.3030167802871652,-0.5522329950411903,0.3960369502466716,-0.11154804722642388,0.7250865371713392
1.4000000000000001,-0.01722071051925872,0.5859383061415697,-0.6574755125138323,-0.08848597220276108,0.01708278463646796,-0.004277376915181,-0.02966344211119153,-0.08178763884875129,0.9962080731727551,-1.7531316201821143,-1.7180867479604973,4.180324738365459,-2.73309387783193,-1.3289560487358707,2.806812956043477,1.0,0.4539360571793813,0.4637438372700995,0.3030694578676445,-0.5522565352186481,0.39602933286749153,-0.11151167811199275,0.725078362979803
1.5,0.022495550303819487,0.7612837327550404,-0.5726016597565742,-0.09365644142737468,0.01451846564743268,-0.004603785704813506,-0.02971347659060995,-0.08185165065871758,0.9962014911883519,-1.7499202524574058,-1.7205734766087382,4.179711392782266,-2.7337844908100783,-1.3294528166400355,2.806846706612596,1.0,0.4550650372699052,0.464814932464766,0.3032846048481915,-0.5522040299462792,0.3959977405647838,-0.1115232899875548,0.7251338183873562
1.6,-0.1894386056175465,1.0098739199149156,-0.6265440325235099,-0.10405607653521017,0.017114144028719306,0.0024043591640552824,-0.028709968886845794,-0.0798398178729273,0.9963924239413643,-1.7470178604125977,-1.7230132211208764,4.179191744283229,-2.7344500027098597,-1.329950154491861,2.8069065452065165,1.0,0.45553787523158606,0.4653249289136405,0.30337194943884405,-0.5521876352087981,0.3959813215969212,-0.11151351481362415,0.7251567723484234
1.7000000000000002,-0.16843885257549096,1.119127904488287,-0.6460192470678539,-0.10989022305628895,0.014475153641734944,0.00108465969656706,-0.02780078611208044,-0.07800788564474934,0.9965646477764706,-1.7441182727206286,-1.7249396191524975,4.178608794947339,-2.7351079626661323,-1.3304551454276752,2.806930030992836,1.0,0.4566058118266569,0.46635851277692286,0.3034224247315556,-0.552201769324093,0.39604208150426595,-0.11155646067221249,0.7251062209879314
1.8,-0.0556715632840776,1.2612102661267315,-0.6110947981350849,-0.11886367368765066,0.011515323615848666,0.0011881377706809033,-0.02722193258333747,-0.07681511578169448,0.9966735147905993,-1.7412830352783204,-1.7274646664061488,4.17814818572998,-2.7356508694090786,-1.3310092608081263,2.8069812774658205,1.0,0.45696639184385063,0.46676498498085717,0.30363764276087046,-0.5521187337178931,0.39599291034930273,-0.11153426808508962,0.7251997144742699
1.9000000000000001,-0.10944971604821617,1.6123360788913543,-0.725359736320669,-0.11969693298618382,0.01015139819537749,0.008097490567236158,-0.028285277052437365,-0.07898248269673327,0.9964721780187398,-1.7386715398799477,-1.729474103878983,4.177648410312013,-2.7361834926559934,-1.3315095029311512,2.8070316469269683,1.0,0.4575798498022285,0.46744223119661027,0.3035804739626771,-0.5521914045321744,0.39600009519101026,-0.11152049165875318,0.7251425772285651
2.0,-0.10860902937580302,1.0889534893923423,-0.7868005860957922,-0.12719156551963054,0.006942069114587329,0.0007295392687062601,-0.029287427145481503,-0.08103215704300619,0.99628085421661,-1.7358443458215944,-1.731605658248998,4.1771413941055995,-2.736776968041891,-1.3320997355004844,2.8070476418054082,1.0,0.45859777332355933,0.4684560176307409,0.3037641811810955,-0.5521356940908697,0.39598989749057806,-0.1115157029437269,0.7251913019287815
2.1,-0.04736621983139835,1.1982430276799838,-0.918315083213589,-0.13753532343045463,0.006604479257482784,0.005719612762829532,-0.029761540104743592,-0.08201480736855328,0.9961865173608224,-1.7334490654250383,-1.7336789388640388,4.176701058335931,-2.737340589562887,-1.3325789141849593,2.807092236653074,1.0,0.45898836729750536,0.4688783924081095,0.30378288357591704,-0.5521570161281162,0.3959850706421161,-0.11148742197915269,0.7251820517011544
2.2,-0.12015178172285908,1.4466297347747852,-0.7824344217660717,-0.1322950346680055,0.007226077496942389,0.0069736452774024765,-0.029507205949692503,-0.08166552577597934,0.9962228669323825,-1.7307594539018714,-1.7355649854048651,4.176247514592972,-2.7378826394493765,-1.3329458131193754,2.8071187234359147,1.0,0.45980412576459034,0.46976499405873207,0.30377570775010687,-0.552232496579622,0.3959764031200054,-0.11147212637717557,0.7251316590347794
2.3000000000000003,-0.39373863674105264,1.6749739332604165,-0.6777657000025917,-0.12891269649922535,0.011958549914426422,-0.00192874268335689,-0.02868437161121024,-0.07999134795088025,0.9963824459839851,-1.7286447400670117,-1.7374889904192636,4.175810528189171,-2.738476832883912,-1.333327595387594,2.807146292839131,1.0,0.4601825133828889,0.47012589705400376,0.30391925146663057,-0.5521675710326308,0.3959493938834588,-0.11149559568477159,0.7251922387382153
2.4000000000000004,-0.25699368799161987,1.470488508019755,-0.4176934313805772,-0.14892994446153815,0.009659768607345312,0.0012356899047539136,-0.03032455877166893,-0.08300539573618121,0.9960861084188901,-1.72608519072851,-1.7392682141469016,4.175386699805222,-2.7389647114718816,-1.3337333187019547,2.8072094626334274,1.0,0.46096296532915215,0.4708769376339159,0.3038443413296827,-0.5522448786558838,0.39603315085533,-0.11152883987109333,0.7250825162000225
2.5,-0.02698287095847307,1.7496562718048585,-0.5003715779231246,-0.14325298187325514,0.004164642154264949,0.0013223414522514176,-0.030562982878060578,-0.08329509800309094,0.9960561179891626,-1.7239400701881848,-1.7412241083992317,4.175026532738098,-2.739439626733297,-1.3341691836724385,2.807229146251736,1.0,0.4613120345212345,0.47120036226164314,0.3040028212052277,-0.5521566478543756,0.3960164504371741,-0.11155940012978162,0.7251541266903496
2.6,-0.16695850858951428,1.6769186963034501,-0.43294022857141384,-0.14549889268895666,0.003890556652645515,0.0050880842895716615,-0.03033069249387501,-0.08289227909925757,0.9960967825867308,-1.7216753792683996,-1.7428488082228322,4.174548039249566,-2.739926941369794,-1.3345948243624806,2.807302951812744,1.0,0.4618664366279745,0.47179422594266296,0.3039272416716509,-0.5522389960266518,0.39603661679469604,-0.11155790081387705,0.7250806328893964
2.7,-0.27046267446635397,1.3950208126055073,-0.2788570663619612,-0.13775144511392687,0.007676193569215965,0.0042368490114639435,-0.03014246518944271,-0.08261666459080838,0.9961254524975818,-1.719446557293963,-1.744421291755821,4.174190708761728,-2.7404384130582398,-1.3350055424836502,2.80728450239435,1.0,0.46229329942459907,0.4722375168070944,0.30398785172404547,-0.5522337939526795,0.39602059933902317,-0.11154608660867836,0.7250951608430991
2.8000000000000003,-0.26759224491271594,1.5804724389841438,-0.0899890391042385,-0.12540841025611946,0.012351688068381161,0.0029648059308190573,-0.030089656980504666,-0.0825853057901508,0.9961296495724695,-1.7173882397364897,-1.746279855767721,4.173811504169558,-2.7409539406523846,-1.3353873767806181,2.807351589202881,1.0,0.46274003280016085,0.4726947717886594,0.304095424064085,-0.5522031932402053,0.39599606137360915,-0.11153033672221738,0.7251342887648727
2.9000000000000004,-0.030465269021153513,1.3798088103847594,-0.30593167594405457,-0.12860365817439723,0.00921343677212859,0.00022201085843058987,-0.03019406088768628,-0.08284570306303188,0.9961048554108708,-1.7152759741756065,-1.747895106462001,4.1734490394592285,-2.7414334183847084,-1.335771589062831,2.807363986968994,1.0,0.46355498223051195,0.4735380543963624,0.30413730330361566,-0.5522393687168631,0.3960074718992678,-0.1115089356090028,0.7251037988581348
3.0,0.028873692686367525,1.6226233259560714,-0.12271299997914437,-0.13328745968421013,0.008133932207592325,0.0027782879007515826,-0.03053965885040518,-0.08352160274349021,0.9960376637595137,-1.7133364865728573,-1.749161938367028,4.173096524877001,-2.7418750151269746,-1.336103679646151,2.8073878288269043,1.0,0.4640461073625522,0.4740293216648054,0.3041392042502798,-0.55226512707738,0.39602662785257214,-0.11151296827874034,0.7250730979367462
3.1,-0.2139810729679001,1.3341620885461407,-0.30070775412245815,-0.12692645044549977,0.007723675187915055,0.0027277344649209185,-0.03073404809817259,-0.08386894513452342,0.9960026222449123,-1.7113190434603998,-1.7505982636742736,4.172725324452258,-2.7423218630189328,-1.3364139179769403,2.8074087595965214,1.0,0.4646464810077077,0.47461634660213464,0.3044072939072538,-0.5521635496655338,0.3959901056950337,-0.11150944974016666,0.7251709406967706
3.2,-0.07830926971383263,1.218933987127717,-0.30104361534552865,-0.126257829467774,0.009623013124746877,0.0014106613371187022,-0.030311178079747928,-0.08297099440318492,0.9960907947161648,-1.7095982536165248,-1.752275893838208,4.1723952293396,-2.7427220256968283,-1.336711046880205,2.807443470740875,1.0,0.46493599780824607,0.4749087240206333,0.3044606872139926,-0.5521514989409502,0.3959888438892174,-0.11151846915830504,0.7251794183297888
3.3000000000000003,-0.27910202514117755,1.249784740425922,-0.34763685870904204,-0.12409405764576484,0.014940798226729068,0.0011984782982436793,-0.03005723053445911,-0.08241828046624819,0.9961444361007814,-1.7079052329925744,-1.7535860241319625,4.172078847873237,-2.7431158028163583,-1.3369555115775933,2.807492633685414,1.0,0.4654540674196986,0.4754242576899532,0.3043540639688143,-0.5522309873802274,0.3960291262704688,-0.11154359467419123,0.7250930245214529
3.4000000000000004,-0.17248528648533884,1.403656893890864,-0.10685470029242536,-0.12762505696213164,0.013679959149594988,-0.0033041750065148845,-0.030247816263412358,-0.08269027856020442,0.9961161327625074,-1.7059677338855228,-1.7546404124159396,4.171849182067919,-2.743545398721236,-1.3372724517953456,2.8074886296227914,1.0,0.4659588744082999,0.475923227031692,0.304413511945631,-0.552204098735639,0.39604340277803235,-0.11155270376818764,0.7251043033506044
3.5,-0.10888639475755113,1.184944148556047,-0.2830204654570667,-0.11951740490701307,0.012725055738118217,-0.0023996976536400662,-0.030092639562732254,-0.08236620734460565,0.9961476774227108,-1.7044803475970771,-1.755838544254591,4.171532154083252,-2.7439507600265647,-1.337531780414739,2.807502545148599,1.0,0.4661345053743479,0.476116068242028,0.30459917298689926,-0.552130385150877,0.39599766501883094,-0.1115615936330211,0.725184044170057
3.6,-0.05390497803503199,1.1652948101629332,-0.3647505046677929,-0.11287982582092809,0.01031793399382058,0.0006693259574208398,-0.0302845289720508,-0.08280974676953883,0.9961049157376237,-1.7029765432664292,-1.7573864822885363,4.171290354163088,-2.7443176459162935,-1.3378417628734596,2.8074763537510714,1.0,0.46654420592350876,0.47650978257301346,0.30470003086259545,-0.5520991930380135,0.39600288356804436,-0.11154087627022896,0.7252081288660779
3.7,-0.02396021566831169,1.2960079002781364,-0.2842048725336942,-0.11486623235306626,0.013804393422521084,0.002199005037472185,-0.030604535409122172,-0.08352396887762045,0.9960356459895339,-1.70114939462038,-1.7586694738982256,4.171041011810303,-2.7447198757701643,-1.3381207207507646,2.8075708861265936,1.0,0.46709471039311357,0.4771312079838098,0.3044822724633933,-0.5522711086466534,0.39603950427630796,-0.11154144368904659,0.7250571287467876
3.8000000000000003,0.2217138542014083,1.2452592156782465,-0.23583963031176713,-0.12042478594264745,0.014353269193863805,0.00484518870750302,-0.030877469410938725,-0.08408254713029534,0.9959802012543082,-1.699659603719042,-1.7596484623351039,4.170784576131216,-2.7450353260130536,-1.338405521769083,2.807579517364502,1.0,0.46733570667419344,0.4773942292700539,0.3045521127790267,-0.5522376343024539,0.39603536244371484,-0.11152223582149173,0.7250878414864504
3.9000000000000004,0.07272571543319359,1.1327863855985958,-0.293360819807861,-0.1172753285597693,0.014519011755626426,-0.00031625281054368896,-0.03048342882120484,-0.08333592066931658,0.9960545113341885,-1.6983913867291929,-1.7606772639045896,4.170510241251898,-2.745445654560107,-1.338642422352926,2.807579517364502,1.0,0.46767496908452827,0.4777657804447155,0.30470090541771006,-0.5521746530785999,0.39599952944922745,-0.11151129549036956,0.7251570561965028
4.0,-0.011160170470905617,0.8967031413664539,-0.3202626251749824,-0.12364864668718076,0.016019881345840658,0.0006978861113538719,-0.029851424612528665,-0.08213683946855015,0.9961738448074092,-1.6968125027840153,-1.7619901722444007,4.170298315409995,-2.74577692659511,-1.3389267442149069,2.8075841588203923,1.0,0.46814689977542373,0.4782225587428423,0.3047681756738104,-0.5522006846799051,0.39600126003809966,-0.11151475160452004,0.7251357569875198
4.1000000000000005,0.10248145970902174,1.157403562764425,-0.39055507039848547,-0.11483230709406592,0.009598094090941287,0.0050578210407697805,-0.029515787302001464,-0.08157755745012266,0.9962297698824296,-1.6951668496596075,-1.7631166101868283,4.170062072517598,-2.7460950368584895,-1.3391630173295708,2.8076476976850393,1.0,0.46835314338624756,0.4784628110074307,0.3047185646958713,-0.5522416732105735,0.3960009986303934,-0.11149587844264898,0.7251075868749542
4.2,-0.0813678106340999,1.2914165245370286,-0.45017412848836635,-0.115561902351027,0.015166482338718559,-0.002704811157706706,-0.029682021552057403,-0.08193004357675582,0.9961956220320622,-1.6937954431158107,-1.7642014799620684,4.169774351398004,-2.746489721081165,-1.3394216926767686,2.8076395988464355,1.0,0.46871136389424867,0.47886766791373603,0.30481246585982524,-0.552200305095558,0.39597632532345306,-0.11148382156052894,0.7251544182903167
4.3,0.08936668589696137,1.3725267406287749,-0.5965756116815369,-0.11655577196173554,0.011898010715244845,0.0035830779431168165,-0.030093249854818115,-0.08272761922534948,0.9961175041049602,-1.692470049688521,-1.7653070888915003,4.169540719728212,-2.746821057361926,-1.3396390120135706,2.8076448200437456,1.0,0.4692031075931893,0.4793506117279627,0.30482637432724086,-0.5522196969761629,0.39597775913416494,-0.11150333692111025,0.7251358675435228
4.4,0.01820616623946672,1.3460689691960952,-0.4796827616853766,-0.12209867279194302,0.0112921065447027,-7.008530010715278e-05,-0.030073102611218785,-0.08263664810773161,0.9961257934125904,-1.6908651109265795,-1.766392160763077,4.169259000248958,-2.7471584704147647,-1.3398695916976473,2.807701600941971,1.0,0.4694204826348559,0.47954944048911885,0.3048158386060893,-0.5522344016212195,0.3960009158090552,-0.1115027054710185,0.7251121203076711
4.5,-0.1579413592440554,1.4358916555636996,-0.5882170919904395,-0.12510743489630904,0.0161321860975005,0.003860241091109374,-0.02987083008220901,-0.08217619619556388,0.9961700688797915,-1.689323561735033,-1.7675498657010529,4.169053977843959,-2.7475142049016266,-1.3401260744066192,2.8077224320698986,1.0,0.4697484027241496,0.47985119446573987,0.30491244660372574,-0.5521936419416312,0.39599587996783253,-0.1115187246301508,0.7251434471224323
4.6000000000000005,0.06488197360831213,1.1962417716477716,-0.511421478516924,-0.1299207960631672,0.015284026034421402,0.005380940167658128,-0.02990086049174851,-0.08221696771928055,0.9961657544823461,-1.6878981100939296,-1.768690213998581,4.168798923492432,-2.7479251651169156,-1.3403198910971432,2.8077515231819024,1.0,0.47025911140195253,0.48041709831922597,0.3050011257283089,-0.5521797716935967,0.3959915281984987,-0.11150684162312403,0.725158212805082
4.7,-0.15896601597402804,1.4037853528180837,-0.663766984457005,-0.1251083571347049,0.02300661195613052,0.007082333170874372,-0.03015593695173543,-0.08267725346718796,0.9961197994067393,-1.6864628751250947,-1.7697794481641678,4.168542625547804,-2.7482746024810902,-1.3405907271984039,2.807750258381864,1.0,0.47058713016983256,0.4807394880813342,0.3049827903198483,-0.552207870067202,0.39600692426049605,-0.11152474501608786,0.7251256549196717
4.800000000000001,0.21289599841660378,1.1297553073610285,-0.7246576385595932,-0.1337752325685766,0.012468146287171519,0.003439603585606017,-0.03041101341172235,-0.08313753921509535,0.9960738443311326,-1.6849228960805327,-1.770960162841443,4.168286266550466,-2.7486449275917226,-1.3408071340924095,2.807794837839879,1.0,0.4708178483459326,0.48094330098319144,0.3050049386070342,-0.5522035235586716,0.39602917244851027,-0.11152946051300065,0.7251160890345869
4.9,0.24784556474703867,1.3026805505425645,-0.6200062483018276,-0.12404812405840498,0.006984149550048224,0.006941611410827367,-0.03042363223241909,-0.08317242333936536,0.9960706390365286,-1.6834103149612771,-1.7722138472005646,4.168056011199951,-2.749016528508393,-1.341083207145862,2.8077943429953436,1.0,0.47117669723876326,0.48131585285476386,0.3050957236345226,-0.5521857371694631,0.3960058041649556,-0.11152737227410299,0.7251427169653691
5.0,-0.001064500206724106,1.0807470133660027,-0.7350931668691439,-0.128286225122395,0.00994468548299263,0.007454781468450198,-0.030265305830281693,-0.08289271961457637,0.9960986977031495,-1.6819772720336914,-1.773203806129557,4.167773135805869,-2.7493803619296253,-1.3413298599918997,2.8078004703794757,1.0,0.47153080932118546,0.48169943346457345,0.3050525940776499,-0.5522241119448017,0.396023440798248,-0.11151995568054628,0.725105002058392
5.1000000000000005,0.12783950269398442,0.8466986846858084,-0.5465316416799666,-0.14711944769029894,0.005830579212581611,0.008375598703082007,-0.029858686935996564,-0.08207033333189376,0.9961787371930565,-1.6804249156152384,-1.7743123285108444,4.1674947574533086,-2.7497362948522954,-1.3415913368144943,2.8078482281530723,1.0,0.47203455841808045,0.48218864247116566,0.3051299772843236,-0.5522113124145775,0.39601838644553855,-0.11151584703125217,0.7251181420288313
5.2,0.039254109019540115,1.0942716678965867,-0.5876406431677783,-0.13415559268206279,0.006911090307817553,0.009552118469174567,-0.029524758583101204,-0.0813912501123329,0.9962447983482979,-1.6789647848392681,-1.775378523632364,4.167253017425537,-2.750052669924652,-1.3418462912188929,2.8078513754845953,1.0,0.4722564386681854,0.4823978421766586,0.3052006918794755,-0.5521832445910662,0.39600626363514224,-0.11153555171230507,0.7251431060548316
5.300000000000001,0.021908283385026525,1.292207392282939,-0.5343750162568607,-0.12315014293669536,0.008604258378379196,0.006940876849119269,-0.029761023219191038,-0.08183625264491952,0.9962012118345074,-1.6775691402480353,-1.776642101813636,4.167045143704902,-2.750457844530652,-1.342086140309469,2.8078813493585977,1.0,0.4727175661642381,0.48285336799377354,0.30526074137210535,-0.5521823449517506,0.39601147780029866,-0.11152583682310223,0.7251424377975103
5.4,-0.13456416922471848,1.2607742607750831,-0.633788668527583,-0.12133789085727736,0.011159786784386495,0.0029549783466474118,-0.029985111320845845,-0.08226014512655484,0.9961597013777537,-1.6759205018431558,-1.7778791978928972,4.1667851069667945,-2.7508255443968714,-1.3423188406909123,2.807903450065508,1.0,0.47292459136542386,0.48305872483649737,0.3052163538595882,-0.5522041892015852,0.39604281484200304,-0.11152080688312067,0.7251094619934154
5.5,0.021704856519728255,1.2163659892841951,-0.4245188281126089,-0.12578498572093968,0.012886634599551713,0.00450475653961214,-0.030105354713928112,-0.08250400550622515,0.9961358960849049,-1.6744019945781639,-1.778858378599021,4.166553843286052,-2.7512059295835583,-1.3425948601244921,2.8079340224790865,1.0,0.47328205887628844,0.48342706247754663,0.30524543170514834,-0.5522059352889755,0.3960313433623347,-0.11153271812298739,0.725112565671255
5.6000000000000005,-0.10451591296447466,1.220436071523954,-0.41572818309810744,-0.12320402717947812,0.012207682181148899,0.0019844363622045927,-0.030136612421336372,-0.08258398182253732,0.9961283398962921,-1.673082508991674,-1.7798541173839069,4.166353702545166,-2.751599915357225,-1.3428073540533279,2.8079418475357527,1.0,0.47378552590447676,0.4839661688496558,0.3054019623272695,-0.5521642767871654,0.39599627644427216,-0.11151950449249326,0.7251654711858025
5.7,-0.031973488191182065,1.0630075094231786,-0.46349668675255995,-0.12579666481158533,0.00782840632134345,0.008786484853047566,-0.03009154007505542,-0.08252606816000424,0.9961344915784986,-1.6716324093189923,-1.7809099271250526,4.16608273692805,-2.751962199392034,-1.3430703322040003,2.807960155528004,1.0,0.4739689611853486,0.48415288279499674,0.3054125917351461,-0.5521685965649153,0.39601227225183006,-0.11151253195282072,0.7251545189895358
5.800000000000001,-0.15952084255052262,1.1410931028981695,-0.5667922221445796,-0.12041241517432902,0.009513577302774256,0.007932512284664794,-0.029858708612360705,-0.08215368665892772,0.9961722434871289,-1.6698971547921517,-1.7822467946225427,4.165854557388593,-2.7523576598483674,-1.3432659668106164,2.8079806407626164,1.0,0.4744092344797834,0.4846498339932368,0.30547855219485953,-0.5521806072669272,0.39599001166055214,-0.11149740948520538,0.7251598549985319
5.9,-0.22111177895829945,1.2378776908078364,-0.40544129649281035,-0.12042034659886731,0.011904842910666937,0.005577166299402491,-0.029913217510983806,-0.08226434326287232,0.9961614397059823,-1.6684863006400565,-1.7835590599579354,4.165659427642822,-2.752725593215435,-1.343494570017925,2.8079886436462402,1.0,0.47464790835248943,0.4849011208417484,0.3054931174663833,-0.5521777024459437,0.3959875753900329,-0.11149831078726892,0.7251632586871922
6.0,-0.37407591228313025,1.30368777556134,-0.3947198794792401,-0.11408053616986541,0.015476530936608864,-0.0008093793833597769,-0.030138835054169876,-0.08265319316945147,0.9961224539431149,-1.6671819686889648,-1.784496756245738,4.165407016460023,-2.7530695400633753,-1.3436980709485953,2.8080236170848996,1.0,0.47503682037210204,0.48529405867674863,0.30544401373831515,-0.552209185318799,0.39601605603111123,-0.11152078538702753,0.7251202751556274
6.1000000000000005,0.0497193124414878,1.1312128943331348,-0.370004075800072,-0.12159258557413599,0.010548166416468248,0.004193407921275694,-0.02960703111512581,-0.08161818142794831,0.9962231301324932,-1.665551582032458,-1.785441568756169,4.165187899884616,-2.7534402342200615,-1.3439401798145265,2.8080248832702637,1.0,0.47541186672797986,0.4856552816637224,0.3054490871431411,-0.5522345713010407,0.39602977484034085,-0.11152582634875924,0.7250926739094053
6.2,0.15716632903180294,1.1527048042235224,-0.31820516942711735,-0.11721888428272773,0.005194938959550144,0.007348163005528557,-0.029126706277134207,-0.08068062027733656,0.9963143066719532,-1.6638804946626935,-1.7865163288512171,4.164955005600339,-2.753853166869544,-1.3441745271402985,2.8080569649196807,1.0,0.47571460244083164,0.4859861654399872,0.3055988081300307,-0.5521860587911842,0.395996609861452,-0.11151825963464865,0.7251488945195705
6.300000000000001,-0.21600175696835028,1.0561620689031157,-0.39982593730790067,-0.11365886187380195,0.008385379565995743,0.0023088020711252094,-0.029605295507238748,-0.0815582956137571,0.9962285308606074,-1.6625301102987864,-1.787843036811994,4.164694766348474,-2.754228711471664,-1.3443972731834728,2.8080755158257804,1.0,0.47615578921343593,0.4864309592262555,0.3057835913861367,-0.5521088470176777,0.3959713273030424,-0.11151774453353709,0.7252215672832896
6.4,0.08297830441466762,1.2838227917102176,-0.19228216135230677,-0.11400950937677161,0.003813277067637681,0.004907519166777667,-0.02981444479603105,-0.08195128614936995,0.9961902857431156,-1.6611638508418995,-1.7890602331324397,4.164503248116077,-2.7545894365418397,-1.3446457582591211,2.8080804787202935,1.0,0.4764023098244439,0.4866626385416704,0.3057494808322851,-0.5521247051339483,0.3959914113173136,-0.11153411241701248,0.7251960106833338
6.5,-0.06096890027749524,1.0857401941742042,-0.10887693695654632,-0.11100366903255023,0.008597861566512589,0.0059278528362142055,-0.02930418969214451,-0.08100949972411142,0.9962814126458738,-1.659517164676845,-1.7901202640929164,4.164279107372014,-2.754948498796374,-1.3448779511179598,2.8080977160532794,1.0,0.4767269051291045,0.487014893656225,0.30557833017122465,-0.5522620176556874,0.396019856883338,-0.11154300175090955,0.7250745448361612
6.6000000000000005,-0.11028404449347529,0.9802825439278663,-0.12993436410739045,-0.1136699951595303,0.010116061009320816,0.006200666368189902,-0.028414889995706568,-0.07935534182866702,0.9964412039409567,-1.657957565621154,-1.7911336149062724,4.164000439317259,-2.755380883426262,-1.3451581107918642,2.80812101886697,1.0,0.47704496299528687,0.4873833296882048,0.3056605122709509,-0.552234313533988,0.39600056139548623,-0.11151886729502897,0.7251098955105624
6.7,0.2128539124836181,0.533250568548578,-0.22003624172850716,-0.11421348535331893,0.0028788699165102206,0.001725283837569776,-0.02963290507746536,-0.0817014630647224,0.9962144666073419,-1.6564946376813618,-1.792232349235274,4.163724939200392,-2.755777568257013,-1.345370157726414,2.808140794608107,1.0,0.4775593030430798,0.48786957261209074,0.3058655496050266,-0.5521570965168408,0.39597380037958174,-0.11151900735417979,0.7251832879884793
6.800000000000001,0.035455633493282734,0.7262474359941223,-0.30952079441047486,-0.10176210363950243,0.0007282413958710261,0.004580212531529678,-0.030047836205018257,-0.08251719609781559,0.9961364913291806,-1.6550216307296177,-1.7934666888937605,4.163536548614502,-2.756152199284815,-1.3456353506597438,2.808156397319584,1.0,0.47778210876287863,0.4880723656347374,0.30588206603566687,-0.5521591155693798,0.39598506498525116,-0.11151805011849492,0.7251757469055592
6.9,-0.13136581146528964,0.9548717185083226,-0.2927589728302499,-0.08297888115310656,0.005018726512688986,0.001340097043250203,-0.02992152946760829,-0.08235493178586317,0.9961537753180865,-1.6535344307565378,-1.7946796485028045,4.163328562500777,-2.756451956886332,-1.345894457827449,2.808196954744132,1.0,0.4782620614317635,0.4886393596538422,0.30581792409884817,-0.5522234442015511,0.39598695153249314,-0.111494926811692,0.7251292872208617
7.0,-0.4898018096983149,0.7025058559994913,-0.2548058469612895,-0.08546434252955563,0.0035807272963863522,0.0023799332719135237,-0.02987871699547266,-0.08231344226093644,0.9961584583983601,-1.6530656814575195,-1.7949984075836887,4.163210363398276,-2.7565508001930468,-1.3459489981280726,2.8081971208467293,1.0,0.47847283016266734,0.4888545082532682,0.30581078330939737,-0.5522351374719555,0.3959767488500334,-0.11150306394950049,0.7251247024073597
7.1000000000000005,-0.136063320531789,0.8683810571264367,-0.1428904143021294,-0.09019205071543124,-0.0026345293928630433,0.006721135117869768,-0.02970949769359226,-0.08194081547461965,0.9961942811558148,-1.6531053888544665,-1.7949666635067218,4.163186262443162,-2.7565868644044524,-1.3459450099686359,2.8081968776357655,1.0,0.4786479842643218,0.48899093709583674,0.30580610428056687,-0.5522378881048283,0.39600479748185696,-0.11150148454830147,0.7251075328917757
7.2,-0.198714687432291,0.99210136421664,-0.1073892677014004,-0.08618105904634664,-0.003739260422568127,0.006032207924281022,-0.029957155289391878,-0.08229564640174643,0.9961576138520026,-1.6530973977528511,-1.7949304748234245,4.163206222985313,-2.756590805318849,-1.3459328228174534,2.808188840947166,1.0,0.4787119702201776,0.48900985885351095,0.3058172414709028,-0.5522144178387977,0.3960185794542239,-0.11152016170970334,0.7251150081126841
7.300000000000001,-0.04531651999916542,0.9581909995327589,0.009597061158439613,-0.08831202103203398,-0.0007474218200125907,0.0046997932484657634,-0.030058005467654043,-0.08251922451682656,0.9961360666998387,-1.653082061437037,-1.7949944935240687,4.1632102755004725,-2.75655125947135,-1.345953093122952,2.808168888092041,1.0,0.47869925353228526,0.4890246244280713,0.30584827619613547,-0.5521990794116696,0.39600883144197185,-0.1115073355064009,0.725133985029754
7.4,-0.08430225592542111,0.6930774293896355,0.14280760293335912,-0.09467383016097233,0.001871397688651237,0.0023083509220144633,-0.029992723743377376,-0.08242093893722603,0.9961461520310566,-1.6530542373657227,-1.7949825725951136,4.16320276260376,-2.7565629961284115,-1.3459092562753683,2.8081844763222312,1.0,0.4787025528923432,0.48902733881290034,0.3058638141714094,-0.552193773610883,0.3960001291177967,-0.11150987282897859,0.7251423876630895
7.5,-0.057046451361046704,0.913300388609559,-0.14816614029607406,-0.08868875475556985,0.002276077745885754,0.0012514142431349464,-0.029902286892956806,-0.08223340249842535,0.9961643983927742,-1.6530771255493164,-1.7949863376136925,4.163209338966602,-2.7565904062821738,-1.3459486851914635,2.8081969718056885,1.0,0.47868736135479906,0.4890361525409305,0.3058384859225387,-0.5522180561572947,0.3959965915034063,-0.11151096215832286,0.7251256603445144
7.6000000000000005,-0.0463203511390592,0.8413368233182676,0.012088833792313541,-0.0926431858262345,0.0007869633683887526,0.005777242910173248,-0.029996313442521134,-0.08236007240531273,0.9961511119878848,-1.6530582425325735,-1.7949789957637647,4.163181401713888,-2.756590625125168,-1.3459335003677686,2.8082007887853093,1.0,0.47870663372342626,0.4890185479855277,0.3058516016523894,-0.5521959584538395,0.3960070176166537,-0.11152372218478694,0.7251348321903033
7.7,-0.16129018254823665,0.6925200783794975,-0.05187847583504351,-0.0939886711243108,0.0041850850901094866,0.004470623551250185,-0.029838355836152672,-0.08206727210347826,0.9961799873870926,-1.6530892085757969,-1.7949867543404248,4.163170537455235,-2.7566011204738454,-1.3459293380154735,2.8082054424556975,1.0,0.47871706420735877,0.4890319613864617,0.3058466685398535,-0.5521965358325664,0.39601359906704076,-0.11150847655993815,0.7251331428253461
7.800000000000001,-0.1286354338447397,0.6708266583946183,-0.058630052686432496,-0.09248468134973786,0.0038606987009109288,0.003360590362291263,-0.029588255846519362,-0.0815902227813706,0.9962265918122214,-1.6530656814575195,-1.7949944935240687,4.163182036352496,-2.7565867890151723,-1.34592106088152,2.808200920727236,1.0,0.47871349548540015,0.48902613030446135,0.3058522486174969,-0.5521978041065805,0.39599999324525237,-0.11152227544116673,0.7251374852881732
7.9,-0.016234205302472743,0.8272501164811517,0.0058485357308404595,-0.08947573881320763,0.0018673851396063135,0.010674945628939787,-0.02946294488446086,-0.08135830596126219,0.9962493106239338,-1.6530771255493164,-1.7949785925155464,4.163170334587442,-2.7565704784789027,-1.3459132353412073,2.8081809581831103,1.0,0.4787051201613749,0.4890309321065202,0.3058351457398918,-0.5522119913146722,0.39600886436088156,-0.11151995880513504,0.7251221930019726
8.0,0.063944550505668,0.5186579168977223,0.022445975793568537,-0.09595478399302357,-0.0005625316640161904,0.010662422001902094,-0.02962985538824686,-0.08171186442030458,0.9962154516827176,-1.6530801075848212,-1.795000679769361,4.163177967071533,-2.7565800089031844,-1.3458932750057226,2.808179794840402,1.9792356895263996,0.4786944456033246,0.4890365495886504,0.3058537656943754,-0.5522031127017791,0.39600618013370287,-0.11150163328013842,0.7251332383736391
8.1,-0.08664163693227471,0.5809452834098624,-0.12868401065664786,-0.09647973734662647,0.0016185434317477062,0.007125389800523773,-0.03001105618020777,-0.08242574349918137,0.9961450431472346,-1.6530693909032714,-1.7950105941577144,4.163170390302759,-2.75656661115588,-1.3459528621340642,2.8082004579619344,2.0,0.478698324872957,0.48902111160411543,0.3058723072521702,-0.5521826866940828,0.3960139233592019,-0.11150822313195344,0.7251435507504088
8.200000000000001,-0.22344468569752934,1.0251954306814752,0.11204438878907844,-0.12582407547202912,0.002868962794121622,0.011843458710517826,-0.030128275324951617,-0.0826427855523973,0.9961235998209622,-1.6530619477578725,-1.7949786833246482,4.163186319996362,-2.756574591468968,-1.3459329348110936,2.808192729949951,2.0,0.4787056954302823,0.4890265074617732,0.3058538151488877,-0.5522021058314314,0.39600274265279656,-0.11152330510605643,0.7251325496383519
8.3,-0.030314940456586004,1.6806485843521093,0.25513175039328256,-0.15386576397039056,-0.013818237908434637,0.013699496581406338,-0.029852027112813064,-0.0821242034488619,0.996174773870361,-1.6530422369179698,-1.7949905460083606,4.163166522979736,-2.756566929418522,-1.345912838022847,2.8081807295021983,2.0,0.47869696490042674,0.4890365325668525,0.305826913080398,-0.5522173583628806,0.396007870493063,-0.11151506702987156,0.7251194008269224
8.4,-0.28592135533261037,2.4806794841618007,0.2674678018745783,-0.19335705798863922,-0.02604013004150773,0.012590370112390973,-0.029691266669982935,-0.0818220129737501,0.9962045908175721,-1.6530771255493164,-1.7949867610768586,4.16320276260376,-2.7566027721297632,-1.345961194890337,2.8082209946181824,2.0,0.4787020280069498,0.4890362854433259,0.30583633053137976,-0.5522096543448566,0.3960005022546301,-0.11151820914085604,0.7251288084833144
8.5,-0.5567849540954529,2.7224502945783775,0.3761668696669148,-0.2382092326493425,-0.06862146867307577,0.014612266710366108,-0.029697751242722555,-0.08183319266312919,0.9962034792178963,-1.6530567587798222,-1.7949906031185467,4.16320661407685,-2.7565704784789027,-1.3459409676046394,2.808189066669198,2.0,0.47870644475142893,0.48902663729471707,0.30585519733452937,-0.5522020539880867,0.3960011145632186,-0.11152241954455988,0.725133614429061
8.6,-1.3430498988999569,2.469116974435333,0.7171475517834919,-0.23971694788086642,-0.13471329618919164,0.009731756174447118,-0.02975132719579706,-0.08193182561561299,0.9961937578577938,-1.6530575566189591,-1.7950025082806391,4.163178397743786,-2.7565585113850424,-1.3459409833715021,2.808156397996117,2.0,0.4787039349227873,0.48903897213062536,0.3058374262009228,-0.5522067547542039,0.39600645066943546,-0.11150530085719652,0.7251297531564768
8.700000000000001,-1.9638317108935044,2.0850597945191085,1.0596754220601623,-0.21910748112624642,-0.18809467168653898,0.003407423180344483,-0.029877612995995582,-0.08216548781008592,0.996170742889393,-1.6530529652015094,-1.7950067329429207,4.163194497221615,-2.7565545835132403,-1.3459488391902277,2.8081685696021443,2.0,0.4787129527236594,0.4890269252004002,0.305837680489582,-0.5522055206915009,0.3960066781343895,-0.11151853769126083,0.7251285331180929
8.8,-2.2007390171434515,1.713535322782154,1.1819168272235596,-0.1985852332982218,-0.22123124965220778,-0.003803192736288415,-0.02987401353895739,-0.08210652214133286,0.9961757157175758,-1.6530460378201117,-1.7949944935240687,4.163217684713778,-2.756550570433932,-1.3458852937104917,2.8081817162255835,2.0,0.4787130091495501,0.4890403189728299,0.3058521317496643,-0.5521921320967305,0.39600078335345057,-0.11151028813090175,0.7251432165268346
8.9,-2.325536496192688,1.6624306495526768,1.3720625501180994,-0.17575257121640844,-0.24218099181330208,-0.003439130881557992,-0.029747311030785505,-0.08185031965725383,0.996200513824055,-1.6530538195488231,-1.795002453489115,4.163174221205629,-2.7565545965860387,-1.3459098102347153,2.8081807500007376,2.0,0.47871864837574485,0.48901180949413486,0.3058160156853779,-0.5521994212987054,0.3960381866120408,-0.11153494970044348,0.7251134455088672
9.0,-2.3829013260128638,0.9602499818870754,1.4069150204335812,-0.17177845169957778,-0.2499761119088654,-0.010570288162281588,-0.029437336697182005,-0.08132048518931771,0.9962531535592883,-1.6529965451125113,-1.7949990209556062,4.163218553029832,-2.756559865069934,-1.3459620787070659,2.8082029444630643,2.0,0.4786983755977794,0.4890524296959017,0.3058765214755308,-0.5521802985021202,0.39598867694443224,-0.11150784444768151,0.7251592144519292
9.1,-2.2698513636817337,1.2723911887094255,1.5023946057526794,-0.16079270631183484,-0.25519729598869983,-0.011451812535846866,-0.029550773597973055,-0.08152135218716675,0.9962334067225841,-1.653030480271744,-1.794962153649555,4.163193924666492,-2.7565466366209925,-1.345940500111469,2.808185884125248,2.0,0.4787102366301651,0.48903451121468117,0.30583478310138545,-0.5521975529884352,0.3960112056769094,-0.11151001922624716,0.7251334381091985
9.200000000000001,-2.1737977742355614,1.1355903454587248,1.3425531219902513,-0.16154988101802892,-0.25681174120815575,-0.009703787320293738,-0.029213637419278054,-0.08085931019150167,0.9962970438734154,-1.6530614969920527,-1.7949837281207424,4.163206947069226,-2.756582876245016,-1.3459370771991175,2.8081964100796752,2.0,0.47870846102941295,0.48904108960200354,0.30588977012160357,-0.552170443938335,0.39599747841072697,-0.11150463113438581,0.7251624060642367
9.3,-2.1946068895439876,1.2108715254625284,1.447417110534581,-0.1613512587152207,-0.25516973173971613,-0.007765774479293887,-0.02890926297345507,-0.08027776004622332,0.996353218327602,-1.6530412453594043,-1.7949825725951136,4.163217934124791,-2.7565506746693296,-1.3459087583622167,2.808189002520717,2.0,0.4787071886814971,0.4890397234233277,0.30583976048979544,-0.552209025668059,0.396004110960354,-0.1115222946378996,0.7251266881531325
9.4,-2.3434093916923433,0.8142787347145302,1.1019818271573611,-0.16539616444561353,-0.25227881109022166,-0.00430897958907952,-0.028801648711296958,-0.08008414582500145,0.9963718116424916,-1.6530369890997316,-1.794986201088496,4.163185514337769,-2.756579102611898,-1.3459204923279724,2.808227266838472,2.0,0.4786948096425113,0.4890472386078662,0.3058547586931031,-0.5521923881119176,0.39599727099856585,-0.11150010430164187,0.7251465056205322
9.5,-2.304845836400758,0.910235516592528,1.1446138035256268,-0.16407212170030827,-0.2537860111337997,-0.006445546641713614,-0.02847046143709457,-0.0794147515263258,0.9964349362280678,-1.6530253317807087,-1.7949782912901269,4.1632215407345665,-2.75657842368783,-1.3459370771991175,2.8081812858581543,2.0,0.4787039568738044,0.4890384821655082,0.30587250629610063,-0.5521843504118079,0.3959987282805948,-0.11150871796897846,0.7251505058795426
9.600000000000001,-2.3382039016909797,1.1123392612549152,1.262235968786142,-0.1554328228608141,-0.2561883936094699,-0.0021726929266811393,-0.02930270772916264,-0.08102466117581458,0.9962807506239146,-1.6530374065720321,-1.7949935905471062,4.163195224005028,-2.7565662830397324,-1.3459215319438491,2.8082013584166985,2.0,0.47870351898585334,0.48904257683535657,0.30585552903095337,-0.5521933433579816,0.3960103778640621,-0.11150914411567649,0.7251372304286177
9.700000000000001,-2.3066604662858263,1.1480602391230583,1.2929129017689212,-0.15657756152155414,-0.26080421838160023,-0.009337717538432027,-0.02935155804350037,-0.08110106979291383,0.9962735239327218,-1.6530392711276845,-1.7949861702484882,4.163209670098239,-2.756598394827346,-1.3459117744413527,2.808185534643202,2.0,0.4787077781743884,0.4890348643039013,0.30586887543045194,-0.5521761206884742,0.3960073969318556,-0.11151807737983443,0.7251505993476034
9.8,-2.5012192730295135,1.1941093457062826,1.2826244289262514,-0.15863054446327296,-0.2535288185197014,-0.005742372682371325,-0.02922675289322439,-0.08086452927696751,0.9962964838229158,-1.653040969806978,-1.7949988578526033,4.163194903739322,-2.7565904328454365,-1.3459132353412073,2.8082102933209225,2.0,0.47871562029971854,0.4890288671918192,0.30586451885279375,-0.552190926735351,0.39600069474328203,-0.11152378952999488,0.7251421064611142
9.9,-2.441625938219263,1.1352623019951855,1.227505611726704,-0.16064725635136828,-0.25531113694487145,-0.004471887188379038,-0.02934888481267644,-0.08116250347216364,0.9962686840578096,-1.6530542373657227,-1.7949811785676208,4.163199113277919,-2.7565736030123604,-1.3459216473030082,2.8081708069119165,2.0,0.47870244349857805,0.4890417582163766,0.30586458869776684,-0.5521913009202882,0.39599994868211963,-0.11149462378672774,0.7251467139126913
10.0,-2.330010659192221,1.1348472488260744,1.2034018883826525,-0.17446375478885243,-0.2559972910370953,-0.0072436128694256755,-0.02934666311646285,-0.0811563140735934,0.9962692534877576,-1.6530334762139127,-1.7949820404542538,4.16320276260376,-2.756582876245016,-1.3459370771991175,2.8081645175132564,2.0,0.4786986991164428,0.48904713009681766,0.3058563800098838,-0.5521989406020349,0.39600127620491254,-0.11150897123674768,0.7251379652009631
10.100000000000001,-2.2570605098343064,1.3511057461978786,1.407684164598252,-0.18382460431688788,-0.2572345693386326,0.0011489527882497493,-0.029294221819001667,-0.08103383133900405,0.9962806588680938,-1.6530261125689312,-1.794980482869025,4.1631991559004815,-2.7565635425110595,-1.3459662421359406,2.8081449427474268,2.0,0.47870588136774267,0.4890411549639706,0.30583939256749654,-0.5522073228395262,0.39600729073248575,-0.11151045852259299,0.7251280686397409
10.200000000000001,-2.439585944896358,1.4126041536746627,1.3540958833930008,-0.18729206433383713,-0.2515021925785036,-0.007487488035639919,-0.028986205878098893,-0.0804070040098282,0.9963403276084593,-1.6530503122037266,-1.79501166281693,4.1631991178104775,-2.7565792314517337,-1.3459251562701624,2.8082202166011436,2.0,0.4787032160023643,0.4890325954092357,0.3058299823531488,-0.5522107468442363,0.39600923817827444,-0.11151821880980077,0.7251232041664939
10.3,-2.3700847444301014,1.580958798812945,1.4898962714343382,-0.18066103891237364,-0.2538859685668372,-0.007852835802197998,-0.028814353050223954,-0.08005834811301275,0.9963735901558327,-1.6530433193067775,-1.794974121034479,4.163218989600178,-2.756569442492067,-1.3459079150864677,2.808179434971735,2.0,0.47870955567033624,0.48903032484717396,0.3058514981522112,-0.5521891389565001,0.39601697402166147,-0.11150800031618155,0.7251370056552706
10.4,-2.41014104774646,1.5264285607902734,1.4513935135950644,-0.18270213108335645,-0.25450965455788044,-0.002922966723498662,-0.02908547737404302,-0.08060205753734165,0.9963218334482178,-1.6530373477405704,-1.7949899438132857,4.163218574417908,-2.7565790432115667,-1.3459407628082034,2.808205662404967,2.0,0.4787007057237739,0.4890424477828872,0.30586453651100487,-0.5521937442730815,0.39601075178735246,-0.11150163064383717,0.7251378762816465
10.5,-2.3306262981751025,1.7138028669295016,1.5419550439552736,-0.17874320588980674,-0.2581302067262685,-0.0026843366316420206,-0.029413424012313984,-0.08122054677370766,0.9962619655113429,-1.6530586807884304,-1.7949842491195815,4.163181467406078,-2.756562265465147,-1.3459110693222243,2.8081734534856437,2.0,0.4787018365241283,0.4890376459119455,0.30587848695635306,-0.5521783433980025,0.3960049751546922,-0.1115130245800373,0.725151006400723
10.600000000000001,-2.3903480677913467,1.4681241738243311,1.5438428116695022,-0.18346857797298577,-0.25549273098005754,-0.0070987963212001065,-0.02909691116455842,-0.0806154291898415,0.9963200677792307,-1.6530365365140398,-1.7949961817407012,4.163181514411805,-2.7565331639115693,-1.345940488103225,2.8081564903259277,2.0,0.47872924233582104,0.489014465092349,0.3058467453291202,-0.5521933725075024,0.396006156924896,-0.11154763330530014,0.7251335935814527
10.700000000000001,-2.52642095586342,1.404027196205944,1.528648352117452,-0.1833710421131044,-0.2514833194188686,-0.0057228922642574235,-0.0287628683906793,-0.07998313100042206,0.9963810410121466,-1.653026009296275,-1.7949778027853691,4.163188836772734,-2.756584070495155,-1.3459287318297677,2.808155915935331,2.0,0.47869339082600915,0.4890297388829091,0.3058341694961829,-0.5522182864773657,0.3960045780373008,-0.11151355905771823,0.7251207240175821
10.8,-2.356133310922995,1.4209524491503414,1.5764805919607148,-0.18645983900290597,-0.25603714950053474,-0.002013702355290518,-0.029191545732632006,-0.08080192313854567,0.9963026144413945,-1.6530376053039098,-1.7950152582126386,4.1631903648376465,-2.756551938954299,-1.345931990898044,2.8081792767264213,2.0,0.47870798577718654,0.48904093021588396,0.30582919605249353,-0.5522044783752642,0.39601492344115097,-0.11151327370260279,0.7251256334334969
10.9,-2.22724905066949,1.4996879518156225,1.4832990055205584,-0.1899353179880582,-0.2586428852855594,0.0011778397924847555,-0.029361064780631455,-0.0810745481305946,0.99627533874268,-1.6530479374767468,-1.794992878708777,4.1631903648376465,-2.756579350469289,-1.3459251562701624,2.808168888092041,2.0,0.4787171378464709,0.48901911712042273,0.305877503743246,-0.5521773177467222,0.39601292101857727,-0.11152560990364294,0.7251455126303892
11.0,-2.3021550073250263,1.3794748242215313,1.4236211527327456,-0.19070198143270237,-0.2586512206652456,-0.0008701142141753918,-0.02984144856867902,-0.0820254026984432,0.9961831632614406,-1.6530451060721854,-1.7949951104881336,4.163181885779362,-2.7565665703636992,-1.3459289242584591,2.8081679450103496,2.0,0.47871670797556787,0.4890220209713916,0.30586948663486563,-0.5521772103204045,0.3960127211882693,-0.11151860725272351,0.7251467805184346
11.100000000000001,-2.456727765054796,1.393894981607696,1.4832427589007975,-0.18540779384831102,-0.26159590570334446,-0.0009594210235957884,-0.029861426569029025,-0.08207032790921165,0.9961790302693566,-1.6530546545164384,-1.794979197940421,4.163210967027052,-2.7565846732098933,-1.3459097257003272,2.808191274836044,2.0,0.478718454883921,0.4890254804089947,0.30585741363057695,-0.5521891308305016,0.39600590814745873,-0.11152972649870413,0.7251397138566376
11.200000000000001,-2.3211291009349675,1.4258764364387098,1.4752232993460035,-0.18461640211348893,-0.267334662991128,-0.0010529614255176123,-0.02969977454113536,-0.08176008966292918,0.9962094209448131,-1.6530398403495796,-1.7949740722306597,4.163177967071533,-2.75659137660947,-1.3459251562701624,2.808198286587062,2.0,0.4787120342471381,0.4890250782219868,0.3058467075296412,-0.5521923815693328,0.3960132018151971,-0.11152393221325453,0.7251341463953809
11.3,-2.2058840255930505,1.2701064739606418,1.5413572813607412,-0.18604489564553306,-0.26926812576785386,-0.003771674092130378,-0.02966555873296199,-0.0817048149716066,0.9962149754714419,-1.6530607070702588,-1.7950119381580674,4.163188210770382,-2.756546517013048,-1.3459166049789866,2.8081710421593056,2.0,0.47871023138146196,0.48901763624742156,0.3058552750462951,-0.552198035364971,0.3960060636330857,-0.11152660460571301,0.7251333282714397
11.4,-2.306522555105711,1.0858819737401264,1.42114238341582,-0.19186289864918554,-0.26633130064554833,-0.002546706356415599,-0.02965494535599825,-0.08166735148884145,0.9962183628193642,-1.6530429947231817,-1.7949928615633381,4.1631814908228515,-2.7565704784789027,-1.3459303007542747,2.8081913037685853,2.0,0.47871843893345917,0.48902884912246986,0.3058328543316296,-0.5522058196736884,0.39602011891366623,-0.11151722084116408,0.7251211675230415
11.5,-2.403826805550275,1.340646392190309,1.5632523748082177,-0.1806511020486971,-0.2713922252484573,-0.005157752565531479,-0.029736087588097176,-0.08181716692729708,0.9962034813650066,-1.653051949452901,-1.7950099847742245,4.163185107713935,-2.7565760102427066,-1.3459302111968083,2.8081881518604637,2.0,0.47871502905286856,0.48901637721919194,0.30586022090408826,-0.5521899780353132,0.39601405020522745,-0.11152918408526229,0.7251347056200578
11.600000000000001,-2.5952258659765812,1.428921852395811,1.4242421612882514,-0.1750301111610618,-0.27063098424744314,-0.002898285428233036,-0.03028842627308799,-0.08292872371630466,0.9960947833590422,-1.653040885925293,-1.7949815546947188,4.16316139389933,-2.7565865105878693,-1.3459168696840607,2.8082013479994967,2.0,0.4787190784895272,0.48902101048732494,0.3058398341117229,-0.5522039865250007,0.39601268143148227,-0.11152575177613434,0.7251253133783928
11.700000000000001,-2.6719907709783652,1.3058926428554922,1.529696327020769,-0.1819736879830534,-0.2685678187631767,-0.006888056158019377,-0.03066849833836054,-0.08362283297357556,0.9960253977054677,-1.6530391189053606,-1.7949671314722149,4.163186703835946,-2.756557338010581,-1.3459251562701624,2.8082236255626123,2.0,0.4787297386765054,0.48901606793177693,0.3058630142237824,-0.5521723291846397,0.39602449081740543,-0.11151814734605943,0.725144140408048
11.8,-2.552971218973722,1.0824629125210028,1.4649463058716747,-0.1846531451775676,-0.2693537907226556,0.0006117701272004522,-0.030897538308211223,-0.08406812349320626,0.9959808070099347,-1.6530656814575195,-1.794999701322531,4.163214206695557,-2.756560197144588,-1.3459132353412073,2.80817909205039,2.0,0.4787247550676301,0.48901130954665817,0.3058728122846058,-0.552177815294267,0.39601183709724613,-0.11154339303402552,0.7251429904826853
11.9,-2.4775954288107616,1.1302433561469138,1.4865107834988105,-0.18366440515893093,-0.2692629220665124,-0.0026937597261799907,-0.031016464818184562,-0.08433957670159556,0.9959541651689001,-1.653036700260003,-1.7949944935240687,4.16317461702853,-2.7565704784789027,-1.3459286458982906,2.8081997092062077,2.0,0.47870814023726954,0.48903055726293876,0.3058506253149472,-0.5521946020769608,0.3960039389043087,-0.1115299647037316,0.7251365862942815
12.0,-2.4070407525750617,1.1129997463610248,1.770967789890939,-0.182739574017663,-0.27024940193620245,-0.0014365774302794456,-0.030666192276921484,-0.08365296507351164,0.9960228485894299,-1.6530998068239902,-1.7949679285824893,4.1631895491026105,-2.756570170955449,-1.3459137969704524,2.808224439756206,2.993774191763554,0.478719062913647,0.4890191646822625,0.3058665610439393,-0.5521809483772319,0.39601323802830557,-0.1115109127159431,0.7251448351197262
12.100000000000001,-2.2000392021253643,2.0339263650508483,2.964885085793667,-0.22374970822650644,-0.24844421293483668,0.0004884548148144578,-0.030798452795009593,-0.08385846656699011,0.9960015281942385,-1.654244848102072,-1.7940393886961878,4.163210501463517,-2.756340642968649,-1.3457397760808472,2.808217206507144,3.0,0.4787264005718032,0.4890151023858254,0.305873352793322,-0.5521747534854401,0.3960110644284907,-0.11152407313550286,0.7251487154886054
12.200000000000001,-2.0556896838853778,2.627708597094718,3.819090699984547,-0.25225573747634167,-0.22236622803842448,0.008318765141490159,-0.03129399883852316,-0.08467463932573695,0.9959168125920571,-1.6556674363373045,-1.7929546882908427,4.163395404815674,-2.7559090060289897,-1.3455557447059505,2.808192729949951,3.0,0.4785665159681695,0.4887378987441206,0.3058823896243897,-0.5521454145479826,0.3960446040810355,-0.11155286359452135,0.7251483099310062
12.3,-2.035447216935472,2.50404894531486,3.9246475712416364,-0.26688463826465203,-0.21175792658597495,0.010356957782767625,-0.03178684318335915,-0.08547091622483563,0.9958334770057834,-1.6571797771570789,-1.791832038014013,4.1637444496154785,-2.75545684485891,-1.345307550810213,2.8081889705541028,3.0,0.4781628329311252,0.48824560758284424,0.30584666815707806,-0.552123214322317,0.39605043020990316,-0.11158361995507945,0.7251572992769664
12.4,-2.243605893178988,2.6942012008275067,4.194202631881578,-0.2645025895334823,-0.215824092804249,0.016497957970238952,-0.03181168004826928,-0.08559927098294984,0.9958216434837969,-1.6586779235447227,-1.7907787513589,4.164023366009402,-2.7551016639172943,-1.3450442819246187,2.8081290147345896,3.0,0.47788151255230676,0.4880564417677489,0.30580210400757896,-0.5521358927823975,0.39603473624327906,-0.11154466921018105,0.7251622096889029
12.5,-2.1220132470032165,2.3165779610011406,4.487463061798755,-0.27043409150864434,-0.22864570137779405,0.05716414921251513,-0.03183651691317941,-0.08572762574106406,0.9958098099618103,-1.660279484256984,-1.789766074417367,4.164192133806031,-2.7547456924579987,-1.3448203943581454,2.808067623695879,3.0,0.47738888036360283,0.4876129462387431,0.3056670904439145,-0.5521808757217803,0.3960419732318448,-0.11152860448270077,0.7251264760770331
12.600000000000001,-1.8380456952498854,2.5040467830199247,4.787021841636219,-0.28697137730977007,-0.20159184472332772,0.0548946711069159,-0.03185748470636625,-0.08584681897293191,0.9957988874065037,-1.6618309020996094,-1.7885064401214312,4.1645144326859596,-2.7543532347373128,-1.3445874931368864,2.8080248832702637,3.0,0.4772070060055864,0.4874049578345353,0.3055756492196024,-0.5522389910488552,0.3960487134529908,-0.11156965471163789,0.7250722208753407
12.700000000000001,-1.6236038507868336,2.831768036040794,4.944628209700808,-0.3033573050434867,-0.1863227831786814,0.05292033633825855,-0.031842022825813894,-0.08587975083877257,0.9957965421589627,-1.6631420482655008,-1.787263776239374,4.164764725114866,-2.754021939887474,-1.3443463725197873,2.808064500135609,3.0,0.4768325243018148,0.48704928005117626,0.3055858385841426,-0.5522238059351077,0.39603321274550907,-0.11155530211526671,0.7250944608331982
12.8,-1.3306082733866833,2.491053272073177,4.815620719328648,-0.30044907965900464,-0.1940415456546674,0.052773713242341765,-0.03163070200198593,-0.08548912395336021,0.9958367243315841,-1.664668734195166,-1.7861820073696357,4.1650029351218905,-2.7536097770190593,-1.3441073016880578,2.808056680024829,3.0,0.4763088141204947,0.4865528954029551,0.3057260997857147,-0.5521257506158278,0.3959932223156403,-0.11151010989992469,0.7251979169696307
12.9,-1.9242201058911077,2.1459125052811268,4.723116687182613,-0.2727336532469342,-0.18717616409985074,0.04663052258791061,-0.0313209064428217,-0.08488016123293457,0.995898759459947,-1.6663410100837148,-1.785170205661452,4.165269192705591,-2.753249462653685,-1.343843944216426,2.8080549630635416,3.0,0.47608605877690074,0.48631648258052385,0.30567181561536105,-0.5521434148577691,0.39600172085177693,-0.11152884358967209,0.7251769463787325
13.0,-1.460942319390492,2.1161922880065895,4.96416201479097,-0.2687900340353478,-0.19568387465747084,0.05369877828316117,-0.03150354506266002,-0.08526936956545597,0.9958597159720053,-1.6678239965333899,-1.7841974697508753,4.165485257747814,-2.752863920733448,-1.3435784355851612,2.8080158502633306,3.0,0.4756058132138628,0.4858449160881922,0.30540338165218706,-0.552261051357051,0.39605130575422054,-0.11153354800456042,0.7250595575770972
13.100000000000001,-1.3387268553549507,2.3377932725331037,5.055416876589374,-0.3121105571701084,-0.18149743076105473,0.06568077366001074,-0.03164277007935331,-0.08553108131254224,0.9958328920868978,-1.6691491452554792,-1.782877883782872,4.165743435258769,-2.7524838090015806,-1.3433321158038538,2.8080034680961576,3.0,0.4753948954639681,0.4856400393065306,0.3053042650675627,-0.5523023013611716,0.39606958178541873,-0.111529423215328,0.7250187873791502
13.200000000000001,-1.6956437656053562,2.751823730039611,4.969229844471758,-0.3056568032493535,-0.18326369746636773,0.07732848518532982,-0.031746164568294655,-0.08569131738533228,0.9958158350581149,-1.6706884777376438,-1.781564851800436,4.1660332679748535,-2.752127310471536,-1.3430563784346239,2.8079638481140137,3.0,0.4750730452900332,0.485307797867544,0.3054427081272885,-0.5521933925657102,0.39603473789538285,-0.11153145981556575,0.7251204569299611
13.3,-1.5036138573397972,2.186197368541149,4.796709669972902,-0.2885733801889838,-0.18310224602562472,0.10128449742053534,-0.03181107819826846,-0.08580319091847625,0.9958041226855079,-1.6723401433721907,-1.780485292474264,4.166255279031121,-2.7517468805047685,-1.3428190711051151,2.807890469826411,3.0,0.47450884209816047,0.4847515539667504,0.3055323826527728,-0.5521303309745335,0.39599494624174814,-0.11152174557190497,0.7251916990931034
13.4,-1.3957909757957443,2.0597131018697183,4.862541582602013,-0.2822564392385047,-0.17944693207898096,0.09076510213536146,-0.03186117866898178,-0.08589029020688976,0.9957950093556279,-1.6736575497829074,-1.7795337861925453,4.166495249204969,-2.7514046923801896,-1.342588249837057,2.8079285621643066,3.0,0.4743247416692903,0.48452101377582796,0.3054314757021456,-0.552181131078731,0.39602027628503306,-0.11155056366041285,0.7251347536829164
13.5,-1.3085565824895098,1.8630626719456393,4.999717824699161,-0.2784897321013815,-0.17033818212323554,0.09994599302323261,-0.031603512041129406,-0.0854626648990325,0.9958398952993065,-1.6751186129472984,-1.7785284507475112,4.166749132833173,-2.7510103359523472,-1.3423712889300745,2.80790982187238,3.0,0.47386245377897696,0.484109853664442,0.3053197879430795,-0.5522086876250528,0.3960267013214579,-0.11152435899936339,0.7251142906477865
13.600000000000001,-1.3757805145935456,1.9993560695476957,4.96965328746504,-0.2803350851198531,-0.15746578789478533,0.10007128986422648,-0.03135597959701335,-0.08505420802276772,0.9958828160126971,-1.676712989807129,-1.7772125070482634,4.167020974082444,-2.750657645763111,-1.342107246613807,2.8078871519173454,3.0,0.473655341540736,0.483921559952525,0.305284954307458,-0.5522068132219362,0.39601825508135324,-0.11150938840635964,0.7251226333323443
13.700000000000001,-1.1050354254153993,1.8761906713095546,5.021928877148191,-0.29661187291910507,-0.15338567783257306,0.11098235783803713,-0.03139611060239422,-0.08518985586147762,0.9958699527637713,-1.6783308583463008,-1.7759566808207923,4.167270302819179,-2.750302811615534,-1.3419132818239654,2.8078625401872013,3.0,0.4732921820529326,0.48354892628914947,0.30527745306551063,-0.5522072740341472,0.39600005710839203,-0.11150648070894005,0.7251326678848729
13.8,-1.352461399365521,2.189743630271894,4.963530663212678,-0.29427249775890396,-0.1518561856610275,0.11388122292517541,-0.03149467313198445,-0.08541205630156873,0.9958477682326874,-1.6796636581420898,-1.7748549027098366,4.167494297027588,-2.7499557101011827,-1.3416583947325422,2.807879465883592,3.0,0.47274103628349196,0.4829752141860127,0.3052385293241479,-0.5522129388228962,0.3960098606075767,-0.1114885355331971,0.7251257593981967
13.9,-1.4187128066100898,2.1510305678022097,4.826310292611815,-0.26814460176535704,-0.16322338691727714,0.1239611800171124,-0.03164579569737161,-0.08571211210977607,0.9958171990679567,-1.6811452372994766,-1.7738661774647666,4.167753019600293,-2.749556511556519,-1.3414662981106547,2.8078532834810295,3.0,0.4725777483461358,0.48281459914977465,0.3052808486933236,-0.552189892552978,0.39598682244390765,-0.1114995846285911,0.7251541916315174
14.0,-1.4497112631880493,1.7210870632137034,4.8867884099814285,-0.25534079255084585,-0.16170128498183745,0.12382836954505,-0.03167254366540389,-0.08575834207642932,0.9958123934296633,-1.6826992381846597,-1.7727749419101217,4.167968732653276,-2.7492045624976464,-1.3412193739865823,2.807784310081076,3.0,0.4722063101664385,0.48244818798022554,0.30515270868605765,-0.5522105829670669,0.3960171457914674,-0.11148123686441277,0.7251246969491055
14.100000000000001,-1.311047888975834,1.6054918775600746,4.758971179360561,-0.26563219587318126,-0.15973886431146497,0.1330782623041606,-0.031584199056490195,-0.08556968911022299,0.995831428597386,-1.684145139791586,-1.7715913257994593,4.16821420028045,-2.7488503414412304,-1.3409926470970184,2.807799256276082,3.0,0.4719158631386097,0.4821180375756098,0.3050679832104657,-0.5522414043729559,0.39602375174231985,-0.11150142910111702,0.7250945115366211
14.200000000000001,-1.201278079077808,1.5915960157583873,4.642251411869488,-0.2698977486338595,-0.16610707146910153,0.14391809907464895,-0.03141575985961855,-0.08523791566902518,0.9958651534069372,-1.6855939550367125,-1.7703327002149616,4.168453693389893,-2.748470445672506,-1.3407575627831998,2.807758730809591,3.0,0.4714167192182399,0.4816329747811806,0.3050568456813135,-0.552236222725192,0.3959890103640228,-0.11149145974282475,0.7251189642986511
14.3,-1.3506546610253412,1.601232673133726,4.4227713491776965,-0.24758976324382406,-0.17056052885675066,0.1443932124028285,-0.031170713194586235,-0.08476924142259201,0.995912928834557,-1.6870507389403724,-1.7692746899717082,4.1686839945169325,-2.748146196404928,-1.3404844845233648,2.807755539512107,3.0,0.4711500819788247,0.4813222333981324,0.3051024167849394,-0.5521880237640996,0.3959921112118002,-0.11149836739695727,0.7251529137618717
14.4,-1.482497003278054,1.47132382474735,4.2504877735631945,-0.23543164976821587,-0.16639794419709933,0.14967118215122951,-0.030877719401377866,-0.08420143038451831,0.9959701177627465,-1.688572161958516,-1.7682003909260877,4.168921410504803,-2.747809757721172,-1.3402432011533614,2.8077359199523926,3.0,0.47071281562818273,0.4808606992420718,0.30501575781061113,-0.5522106928551382,0.39600799854724816,-0.1115028990881668,0.7251262781598699
14.5,-1.4954568028131567,1.4848713132280176,4.2722600441933185,-0.23056321809672142,-0.17145135877604262,0.15377469869541346,-0.031200745028512333,-0.08478554382478835,0.9959095640092023,-1.6899803195272856,-1.7670695459162893,4.169133475807803,-2.747434345415801,-1.3399792327812936,2.807691592480513,3.0,0.4704831508061791,0.48064882350412075,0.30498642035082674,-0.5522148736686662,0.3959950595127165,-0.11149536594982787,0.7251313188053132
14.600000000000001,-1.4674861805966997,1.236224160332952,4.009261044013507,-0.23263361724778264,-0.17040959861757304,0.15534496332973757,-0.03216514110367601,-0.0865689868549599,0.9957264221130738,-1.691531097732849,-1.7659412614112604,4.1693291664123535,-2.747103178776326,-1.3396995912333125,2.807687282562256,3.0,0.47001457049149475,0.4801370503563959,0.30497926936850694,-0.5521742407088446,0.3960219330052139,-0.11151167943109258,0.7251450763998071
14.700000000000001,-1.5144884291038285,1.482553013372331,3.992109029065033,-0.22216581694604362,-0.15803467441495944,0.1596875472937556,-0.03190709535113659,-0.08602233239863238,0.9957820422265478,-1.6930660277099685,-1.7648326958020542,4.169618828708576,-2.7467508685047637,-1.339417180359744,2.8077006340026855,3.0,0.4698311615467707,0.4798994224455812,0.30491551888009083,-0.5521909235506858,0.396036737160019,-0.11153503412974176,0.7251206954221925
14.8,-1.3745117092131365,1.6684863968961694,4.159405356592998,-0.22818280463797744,-0.15486216822064544,0.16453459046685645,-0.03153988352870766,-0.08530183469383985,0.9958555892390712,-1.6943646866743252,-1.7637387020057538,4.169887056656273,-2.746379088906687,-1.3391792898637134,2.8076368675371413,3.0,0.46948016527727127,0.47956978490763186,0.30483195338653685,-0.5522230544430774,0.39604136691465197,-0.11153472480853192,0.7250937449708258
14.9,-1.4155308662906774,1.4075619311539933,3.959138607548612,-0.24211113953622698,-0.15433325964574698,0.17305365197147238,-0.031076003667049677,-0.08443481415452649,0.9959442752504261,-1.6958252731891668,-1.7625467899558827,4.170139560237052,-2.746059080163473,-1.3389297819152242,2.8076231570388104,3.0,0.4689732076769102,0.47910049732739696,0.30486509504300807,-0.5521695607129794,0.3960113733488108,-0.11151857407240419,0.7251533465669739
15.0,-1.1808605103261327,1.7634408205106138,3.7776031002259747,-0.23735999947140002,-0.147648972335928,0.17587406522369387,-0.030936488678200164,-0.08411369714916046,0.9959757838058559,-1.6959016252743673,-1.762488691028404,4.170159944446857,-2.746039906353031,-1.338924378242482,2.807617954595274,3.0,0.4687771394481576,0.4788784136831328,0.3048732503698927,-0.5521599595680872,0.3960011372315814,-0.11153229405831215,0.7251641371049403
15.100000000000001,-1.217084249108317,1.7844458342947802,3.957891820449214,-0.24007990692846554,-0.15030820779395332,0.17467658901314823,-0.030900054220124828,-0.08404077423392213,0.9959830832517719,-1.6959454788547932,-1.7624944424411177,4.170195989829086,-2.7460247478880824,-1.3389123787213504,2.807644106326717,3.0,0.46869423728833404,0.47879410964496755,0.30485945419718957,-0.5521471330966252,0.3960245864228733,-0.11153642967969196,0.7251604617021513
15.200000000000001,-1.4795662541853607,1.3974785229007385,3.9401041325712036,-0.23209793127429448,-0.1494560759935686,0.16430663050908095,-0.03097360436318959,-0.0842416281168329,0.9959638279749221,-1.6959922546049508,-1.7624866623036,4.170202686457344,-2.746028347402701,-1.3389213068876038,2.80764449762376,3.0,0.4686412107607275,0.4787739577029444,0.30481473737896375,-0.552194901395255,0.39601318636352784,-0.11152006678615721,0.725132830454739
15.3,-1.290884863256623,1.4155911876529097,3.840464315832564,-0.23761027806645987,-0.15153353387189342,0.16817562343576425,-0.031135713530396954,-0.08460954732071722,0.9959275523355281,-1.6959916010643394,-1.7624691618258506,4.170215129852295,-2.7460007831557567,-1.3389294783221644,2.8076241324828963,3.0,0.46864142971144773,0.4787743211562555,0.3047916494541699,-0.5522096783067604,0.3960156778044978,-0.11152471735352122,0.7251195015558506
15.4,-1.3803399975446684,1.44582670884638,3.8493172966237617,-0.24015694585674413,-0.14839864571695288,0.1656292474147868,-0.03141921142857108,-0.0851923179038711,0.9958689632743479,-1.6960149212009228,-1.762510972894907,4.170225848666215,-2.745999227077979,-1.3389175573932093,2.807647168129798,3.0,0.46862869700833076,0.47878377320608867,0.3047926079718364,-0.5522149749983076,0.3960003898270376,-0.11151518398012127,0.7251252832347882
15.5,-1.4423161956421096,1.2648234046262272,3.908652790301787,-0.2440506718330284,-0.1520238456851707,0.16529706935929644,-0.031645306242540194,-0.08563110015893292,0.9958242086790833,-1.6959911324590466,-1.7624724691359364,4.170211979382023,-2.7460093208236303,-1.3389355369188416,2.80762787418188,3.0,0.46863855860096154,0.47876465989798117,0.3047933374653857,-0.5522004536574342,0.3960236041773391,-0.11152062265198172,0.7251228272770266
15.600000000000001,-1.3835566426090955,1.5399066711919112,4.020524138739348,-0.24061376239094315,-0.15635653161281035,0.1633488173195316,-0.03177725276928842,-0.08586911911130725,0.9957995242307414,-1.6959804409227515,-1.762459364094142,4.170208400843511,-2.746022578215321,-1.3389346702423353,2.8076281547546387,3.0,0.46864237830380734,0.4787609737174583,0.3048297161430128,-0.5521836818567522,0.39599852970661986,-0.11152290614631595,0.7251489415051204
15.700000000000001,-1.271988105367223,1.4331734475095321,3.7963803379236776,-0.2385902698036391,-0.15704005396501236,0.15843174649027114,-0.031521442814011744,-0.08539432650950327,0.9958482995809124,-1.6960222668068947,-1.7624932782673612,4.1702385020393855,-2.746033578405096,-1.3389112356460302,2.8076188545668055,3.0,0.4686317890163929,0.4787716038012108,0.30481812770920763,-0.5521903124927438,0.3960111099870835,-0.11151555905528167,0.7251381521093427
15.8,-1.3428820255751177,1.537493213541053,3.8061517468387067,-0.23779990474990656,-0.15781593922878817,0.1626175401282868,-0.031233712515816133,-0.08486085483900356,0.995903122185141,-1.6960164504414459,-1.7624667964117882,4.170224277814614,-2.746021498084288,-1.3389501953687337,2.80761056251941,3.0,0.4686285473411027,0.47877766891116785,0.30479957411392583,-0.5522081085875908,0.3959928740097071,-0.11152003780601796,0.7251338702001114
15.9,-1.368494976465739,1.5222645500266299,3.8705743699499613,-0.2388004688268873,-0.15722447703804046,0.16245613449609136,-0.031372233725896224,-0.08511806902266901,0.9958768093281266,-1.6960040521894617,-1.7624697637525923,4.170169166253693,-2.746021077238416,-1.3389259488513314,2.8076050273971935,3.0142290716627325,0.4686211263830693,0.47877021763312855,0.30481341953109553,-0.552204082531979,0.3960038921737427,-0.11151338207229275,0.7251319426401384
16.0,-1.1837235275860398,1.3327501804281856,3.9074819050960334,-0.24168664283707397,-0.1621812590985642,0.16382711447099432,-0.03152779735025322,-0.08539847231213267,0.9958479167957297,-1.6959920374552409,-1.7624444764850875,4.170201663970947,-2.74605717281484,-1.3389186700132452,2.807638530731201,3.9744107466622713,0.468628549580832,0.47877408365090185,0.30479643540772167,-0.552206345013348,0.39600914338641635,-0.11151177143456381,0.7251275996077391
16.1,-1.3156091820295008,1.430187390281043,4.0615646457714325,-0.240826846452436,-0.15901994103775066,0.1581969786708521,-0.03164909656258618,-0.0856029761515771,0.9958265194319313,-1.6960214715021005,-1.76244767075822,4.170221891324676,-2.7460361919798792,-1.3389533201800745,2.8076185751353915,4.0,0.46862894839841013,0.4787755447715423,0.30480690863923676,-0.5521953087982383,0.396012622674371,-0.11151765738133139,0.7251331986028253
16.2,-1.1133416650324621,1.4102138330668024,4.039579491302378,-0.2379634406333034,-0.1586065944123014,0.15228327776646564,-0.0315654802990026,-0.08544398906436973,0.9958428169638559,-1.696020027391597,-1.7624456766455567,4.170213145303825,-2.746031598689164,-1.3389087220436584,2.8075934929987088,4.0,0.4686207412074866,0.4787703410524196,0.3048137054048249,-0.5521994395169408,0.3960108409648459,-0.11150708555456676,0.7251326518000818
16.3,-1.1205879979569624,1.4540549664630928,3.9211442339712237,-0.23840586087746482,-0.16219579510689058,0.1556916927954589,-0.03152335341400447,-0.08537957333099493,0.9958496872577485,-1.6960363388061523,-1.7624650344793296,4.170218593873408,-2.7460079607088406,-1.3389086236482095,2.8076157569885254,4.0,0.4686324643378625,0.47876239194657016,0.3048333771019868,-0.5521770213334606,0.3960093903106537,-0.11151350205385287,0.7251495285503375
16.400000000000002,-1.343919320049129,1.3965973641382097,3.8134344594915994,-0.24058125372483893,-0.15979616510533298,0.15288644668617365,-0.031666822234836224,-0.08567850823834891,0.9958193504177836,-1.6960148504896857,-1.7624750546869155,4.1702306994788305,-2.7460313559306284,-1.3389227381187676,2.8076281547546387,4.0,0.4686169086632503,0.47878229419137525,0.3048220494469468,-0.5521927187110589,0.396000364912771,-0.11149890481884708,0.7251447487334092
16.5,-1.3205506963965776,1.6381017724048306,4.161701916788422,-0.23690795970633813,-0.16041267144555574,0.15647110257827862,-0.03194783621475686,-0.08622165152910813,0.995763441918322,-1.6960248947143555,-1.7624691942533506,4.170200584610074,-2.7460184663165013,-1.3389413992511194,2.807595095551772,4.0,0.4686244680170649,0.4787639348400374,0.3047927043281221,-0.5522065674904079,0.396022847610514,-0.11152377670822017,0.725118099498045
16.6,-1.2800488162746275,1.3681224928894724,3.857664830018339,-0.2414662111881463,-0.1632747236103415,0.15675756197393953,-0.03209459280739053,-0.0864994329445089,0.9957347824787703,-1.6960248947143555,-1.7624461389471648,4.170195020188448,-2.7460005315074367,-1.338925332797507,2.807624111544404,4.0,0.46862762607678876,0.47876530596164923,0.3048143066153508,-0.5522004130635167,0.3960006875942216,-0.11151355739068228,0.7251364600924851
16.7,-1.2157120315769867,1.4058137577524916,3.8507586276594368,-0.23845039994893927,-0.16249711402621614,0.15224082650102827,-0.032001754637190856,-0.08630365147539136,0.9957547515145561,-1.6960176750993703,-1.762442251245016,4.170223930845653,-2.7460273909865216,-1.338905159627096,2.8076281547546387,4.0,0.4686302863359261,0.4787524172845066,0.30483678009133314,-0.5521808608666293,0.3960107626237896,-0.11152238340083821,0.7251444895876331
16.8,-1.3770068777702718,1.5343941406309745,4.065811840586298,-0.239672365963667,-0.16120490494690928,0.14898915012647784,-0.031895670000501815,-0.08609291326198167,0.9957763973647437,-1.696036705174417,-1.7624605389697459,4.170221386179176,-2.746012129184182,-1.3389593358789988,2.8075919151306152,4.0,0.4686297068051439,0.47875876708563286,0.30482399521237674,-0.552193691013112,0.3960047253601147,-0.11152003416083058,0.7251383778828309
16.900000000000002,-1.2534196109121925,1.4273907544657514,4.003867174015364,-0.2412418472208135,-0.1618410370424076,0.15381447711863702,-0.0317642136219697,-0.08585352751035506,0.995801254916871,-1.6960079002049808,-1.762454172173971,4.170217905061084,-2.745999182144016,-1.3389175573932093,2.807633491694617,4.0,0.46863400252468684,0.4787589086036656,0.3048048362077555,-0.5521974055687093,0.3960060639125596,-0.11153422295684887,0.7251326359619183
17.0,-1.2936867814015653,1.5346702857992336,4.03211359609958,-0.2366863754240844,-0.16134285927904388,0.15160958400646798,-0.03158417184727421,-0.08550777690117084,0.9958366538873913,-1.6960134506225586,-1.7624862019758976,4.170219508067276,-2.746012350121969,-1.338925977037403,2.8076083543259416,4.0,0.46861402553808756,0.4787736407490252,0.30480380321127576,-0.5521965825458034,0.39600760253896855,-0.11149997333269082,0.725137689616864
17.1,-1.2453222551860543,1.4212694703232693,3.798010344312675,-0.24041588485130294,-0.16341600983218718,0.15473680720725572,-0.031307306516899974,-0.08495005675955009,0.9958930603558697,-1.696019959449768,-1.762430330316061,4.170211899280548,-2.7460383079447688,-1.3389175573932093,2.8076466500759123,4.0,0.4686220095742595,0.47877819474206074,0.3048170775088387,-0.552203295114722,0.3959912894654691,-0.11151868768527765,0.7251386087010342
17.2,-1.4116725947604118,1.6759396703381777,4.015622898750128,-0.23514477407349782,-0.1602189441901879,0.15130898393246028,-0.031110159646745034,-0.08456052861010643,0.9959325648164256,-1.6960213492120428,-1.7624218185239449,4.170204504837338,-2.7460247478880824,-1.33896353654061,2.8075987334042933,4.0,0.4686348866180455,0.47875714787271023,0.304810759642917,-0.5521935605235453,0.3960167001614829,-0.11152295102799172,0.7251314889753087
17.3,-1.0504915145677869,1.3162239564613702,3.960305232000946,-0.24298783816777883,-0.16610732583234655,0.15365922060560047,-0.031079659194760228,-0.08452259522283091,0.9959367366943853,-1.6960368409372788,-1.7624536893555802,4.170192253631167,-2.7460252113937376,-1.3389294783221644,2.807628618260294,4.0,0.4686427758503958,0.47875117523416827,0.3048179014638948,-0.5521896719547709,0.39601074059156577,-0.11152837191155474,0.7251368710673594
17.400000000000002,-1.247517855899149,1.424172995337146,3.781186054148196,-0.23982742935044798,-0.16420575222914185,0.15302518521980948,-0.0309385157429309,-0.08424657009216166,0.9959643052669728,-1.6960469324935283,-1.7624448288549903,4.170210271326425,-2.7460030068029884,-1.3389100181529658,2.80761814100882,4.0,0.46861005968957364,0.4787724480707109,0.30484613837297836,-0.5521805156724601,0.3959927272913065,-0.11149808632044032,0.7251583377380204
17.5,-1.2136388479388311,1.3608271940187642,3.776966638308571,-0.23969440695031485,-0.16441338888617402,0.1513520560521543,-0.03054962270297187,-0.0834374147006917,0.9960442632493356,-1.6960348696721441,-1.7624333910119112,4.170202732086182,-2.7460589803270223,-1.3389429295990447,2.807629623888647,4.0,0.46863287407517085,0.4787452337335095,0.3047992537293774,-0.5522079642916103,0.3960144275151139,-0.11153424649946182,0.7251200240171204
17.6,-1.228524470994562,1.6400169170030499,3.6981447833220993,-0.2358041454613387,-0.16687247879671413,0.1486906919521769,-0.030329968035129128,-0.08299638108150945,0.9960881736916732,-1.696000099182129,-1.7624660931029261,4.170202732086182,-2.7460244269782703,-1.33892535376051,2.8076198110995216,4.0,0.46863443765327395,0.4787443511226415,0.3047879714396406,-0.5522079416232648,0.3960145660537937,-0.11154092403735846,0.7251189384827254
