xiamingqian9007/apple-picking-rnn/final_data/grasper_20191127_130546_noimg.csv
,/manipulator_wrench.fx,/manipulator_wrench.fy,/manipulator_wrench.fz,/manipulator_wrench.tx,/manipulator_wrench.ty,/manipulator_wrench.tz,/ground_truth.x,/ground_truth.y,/ground_truth.z,/joint_states.elbow_joint,/joint_states.shoulder_lift_joint,/joint_states.shoulder_pan_joint,/joint_states.wrist_1_joint,/joint_states.wrist_2_joint,/joint_states.wrist_3_joint,/mode./mode,/manipulator_pose.x,/manipulator_pose.y,/manipulator_pose.z,/manipulator_pose.rx,/manipulator_pose.ry,/manipulator_pose.rz,/manipulator_pose.rw
0.30000000000000004,0.13538694091599632,-0.817960267523543,-0.24573009073397029,0.039465020894504245,0.02894300081820369,-0.005588843512564434,-0.055975033252885914,-0.35394993405422803,0.9335878316966102,-1.984937518465137,-1.9209455308898398,4.176948173909425,0.6766802542199312,1.326898547252705,-0.5936416865028292,1.0,0.454733803723162,0.45943513375098183,0.294670090444448,-0.6547803633989677,0.337109639425039,-0.20301776164097046,0.6452933868963218
0.4,0.054684050907334664,0.13372949761127673,-0.15659796023075936,-0.004560900118362757,0.016437941881215352,0.00625522043720487,-0.055913080568009615,-0.3536141735190018,0.9337187278423336,-1.981702731862206,-1.923547956730222,4.176347971229162,0.6757228539573356,1.3274534942052794,-0.5936568419085901,1.0,0.4547844432635346,0.4595102516424592,0.29462346336717327,-0.6548047797541959,0.3370981638486886,-0.20303241901024952,0.6452699940116142
0.5,-0.002249372230803029,-0.09874683935581255,-0.21642812241983622,0.0027139936778037346,0.02220064031683599,0.04446260972979842,-0.05585726484904702,-0.3534789860586517,0.9337732881551916,-1.977273563521342,-1.926464452589458,4.175493484690715,0.6746906205257225,1.328515135940701,-0.5937195710144625,1.0,0.4553621878920395,0.4601154469330562,0.294366817718782,-0.6549187963892867,0.337144328003028,-0.2030331317868419,0.6451299246107111
0.6000000000000001,0.003020677178435024,-0.427326654884218,0.05084539355416667,-0.0016839959771760059,0.029134585501775445,0.07966133327552001,-0.055817222148172925,-0.35362944297493065,0.9337187116475013,-1.972986559818805,-1.929603016732887,4.174587072180957,0.6735269266315917,1.3293363187870433,-0.5938345442152341,1.0,0.4567987060682268,0.461602307754815,0.29442292259513647,-0.6547860861618687,0.3370537230070053,-0.20298373786953441,0.6453274915393354
0.7000000000000001,0.019742627500777155,-0.13707488595034564,-0.16793497323611306,0.008043529517932909,0.024178636176230124,0.10838519176613169,-0.05580796751395397,-0.35369672149097303,0.9336937930683317,-1.9690053857686842,-1.9323867037758409,4.173830026032466,0.6723614837218315,1.3300085067749023,-0.5939294139463581,1.0,0.4574445828665803,0.46223014281515556,0.2943460942105647,-0.6547917542592812,0.33705189852289885,-0.2029732264868861,0.6453259994651277
0.8,0.11196382666803578,-0.1703924235956411,-0.08839364287746873,-0.00699313855816266,0.027729774708000046,0.13055016901985608,-0.05581649824549079,-0.35338375793162674,0.9338117073020737,-1.9650603710267602,-1.9353991960285446,4.173074990300951,0.6714050697560559,1.3306667635641123,-0.5939908959302446,1.0,0.45878066966921505,0.4635636176381086,0.29413498568288543,-0.6548313820427946,0.3370907679278631,-0.2030157171830643,0.6452521164989492
0.9,-0.4528347304628695,-0.04402906049684974,-0.1320299850822269,0.006580827659191203,0.03576718248090137,0.14639080118862857,-0.055817950659078894,-0.3529083948159073,0.9339914374412435,-1.9613012520080373,-1.9379250880668069,4.172260761260986,0.6702959334244978,1.3314613863582112,-0.5940166806047354,1.0,0.4594983328563477,0.46424271378977194,0.2939728835107947,-0.6548432308041434,0.3371287365447764,-0.20305092032093122,0.645209176796593
1.0,-0.25845170293725667,0.1452323864285879,0.08913136148985368,0.0013315629211439791,0.03750561685169385,0.16982885317088692,-0.055854715724049986,-0.35273428282276176,0.9340550152512193,-1.957635728912169,-1.9407744737188248,4.171577378311065,0.6692516046711425,1.3322983996611553,-0.5940999299511388,1.0,0.4604141848486231,0.4651046109307791,0.2940472273735354,-0.6547303521425863,0.33712720058551987,-0.20305876728746483,0.6453220541995374
1.1,-0.15560912243486633,-0.10213127480750897,-0.2545010043345155,0.0008106492305271574,0.03711406741683432,0.18697793891407818,-0.05575824099048661,-0.35250294888489137,0.9341480861946592,-1.953882282703641,-1.9430329766918382,4.170945587817325,0.6682909744506406,1.3328510608283095,-0.5941354463234857,1.0,0.46132885284660413,0.4659907694911868,0.29377275962458427,-0.6548251409731547,0.33714621505736353,-0.2030407888892708,0.6452215917568196
1.2000000000000002,-0.12901032541465535,0.1188918504100607,-0.14902722741327165,-0.0015346525895578705,0.0372532957775474,0.20265681400526345,-0.055700936056733104,-0.35244777696325,0.9341723249634255,-1.950500639183387,-1.9457549179755635,4.170402813093712,0.6673652170249018,1.3334632670972828,-0.5942312551415362,1.0,0.46258956053917033,0.4673801164478209,0.29382049621143874,-0.6547406660398459,0.3370662677345978,-0.20300880965214643,0.6453591361349011
1.3,-0.2901513275763086,-0.19576679443151518,-0.19667552052971893,0.00593649469038766,0.03553390770144406,0.2114841568267394,-0.05572621069344485,-0.35267325833405305,0.9340857090115064,-1.9471011692660514,-1.9480296755274875,4.169815105337139,0.666332690674042,1.3339898230224916,-0.5942802946246648,1.0,0.4630407985162014,0.4678674753391647,0.29364859874954,-0.6548083135354376,0.33705653083036285,-0.2030139021889082,0.6452939818931439
1.4000000000000001,-0.32881704036497517,-0.21331595911317172,0.01518588954394717,-0.004393875804823373,0.03516522743177181,0.2245162280912308,-0.05580012822833678,-0.35308073934306416,0.9339272372399048,-1.9438536213721607,-1.9504740488666832,4.169145107269287,0.6654219799804706,1.3345782803382251,-0.594304641813198,1.0,0.4641735597593448,0.46900076229213045,0.29361835440947837,-0.6547301794870365,0.3370860889156517,-0.20302103844491642,0.6453555753824167
1.5,-0.13384452645592804,-0.28613164510415307,-0.34040868905273797,-0.0022807798532203647,0.03841143738970234,0.23849471650804896,-0.055951570777013536,-0.35377828375266984,0.9336542446724659,-1.9407890832249524,-1.952680664504047,4.168606281280518,0.6646213189475803,1.3353111482378879,-0.5943878332721155,1.0,0.4646743776579652,0.4694687252823183,0.2934678025387979,-0.6547960222808658,0.33711013284803737,-0.20304194263097505,0.6452696312929772
1.6,-0.20099943066734371,-0.22818357236118175,-0.2906343995886662,0.0006009919335455509,0.041548814010435524,0.24298684914326288,-0.055857866348437986,-0.3535868208360131,0.933732394837983,-1.9375871403206406,-1.9548507946904246,4.168018652342944,0.6637055198411695,1.3358964819003478,-0.5944471853157213,1.0,0.46545218509905134,0.47027035637875003,0.29336807072220744,-0.6547848660913121,0.3370800336258207,-0.20302011693202965,0.645303542675463
1.7000000000000002,-0.156419802734934,0.10409229346048132,-0.0171665577125803,0.0034087676665190175,0.036271486402630365,0.2535972479982613,-0.05577272153943729,-0.3532839661807736,0.9338521323429394,-1.9345783365893254,-1.9569978133275505,4.1674302065868405,0.6627932795863328,1.3363642783671938,-0.5944719721805606,1.0,0.46652987787077077,0.471353170088689,0.29324597015035125,-0.654788738736705,0.33705866636386667,-0.20300188021339688,0.6453165112426866
1.8,0.1368730558533528,-0.08829324496808597,-0.07480198493469978,-0.0005971602571227495,0.03207408732092159,0.26561396127262354,-0.05576234645035274,-0.35300322122834926,0.9339589222420951,-1.9317275695369336,-1.9592146331021518,4.166844291309497,0.6619269857554444,1.3368324200237394,-0.5945424318335814,1.0,0.4669446902092245,0.4717405167465806,0.29321092077464567,-0.6547801265075678,0.3370678199353227,-0.20303301913532598,0.6453106723397474
1.9000000000000001,-0.030283203690398212,-0.27716574782796677,-0.05308279446248943,0.0012313623249290062,0.03940623154247209,0.2707482675636173,-0.05612697837090093,-0.3542916471115739,0.9334488705250434,-1.928825547522868,-1.9611209952151527,4.166318368388252,0.6612073618122558,1.337264272291966,-0.5945785922390002,1.0,0.4680773671942941,0.4728100383179433,0.29297834161568115,-0.654799171194278,0.33715384330009346,-0.20306567452050608,0.6452361297872236
2.0,0.09159679433572378,-0.41316110348767987,-0.03995132299414518,-0.004115274084687339,0.03391477929411432,0.2786916842738354,-0.05599153820488284,-0.3533686846811796,0.9338068340399869,-1.9262273570302497,-1.9629313722494415,4.165956544547413,0.6604254077926864,1.3377777145381846,-0.5946139130049876,1.0,0.46852820234261244,0.4732262812087682,0.2929600861347182,-0.654771265999276,0.3371336594975194,-0.20309274393673107,0.6452664738042461
2.1,-0.03331730189396151,-0.17892979159033368,-0.08368542224461589,-0.00024108589256551394,0.03433997561365942,0.2805772624844312,-0.05596048268616652,-0.3534815328068396,0.9337660954450223,-1.9234671423646825,-1.9651104322185882,4.165466334529177,0.6595861583163498,1.3382592178660737,-0.5947120633759186,1.0,0.46909009222055814,0.47385122700905846,0.292988126765728,-0.6547204980971892,0.33710886587687156,-0.2030820500889615,0.6453343031718076
2.2,0.06788933836231086,-0.4177169694564641,-0.009196852184765987,-0.0002619935901675532,0.038275360468540055,0.2671253412211911,-0.05582978501461304,-0.3531191905293837,0.9339096932343859,-1.921006975777099,-1.9666283440797683,4.1650707768476085,0.6588536935993652,1.3387795530471311,-0.5946989741944312,1.0,0.470057571157015,0.4748812059452133,0.2926858726721155,-0.6548457384960278,0.3371070780702733,-0.20305430229663557,0.645216883696747
2.3000000000000003,-0.05692684397853788,-0.46525614849928354,-0.18727474835759844,-0.0034659212452002094,0.03560823895815684,0.2654645888199968,-0.05540411880995059,-0.3511416656349974,0.9346794453915784,-1.9183902109800277,-1.9683196303603683,4.164691030269292,0.6581121802844474,1.3391953853978285,-0.5947252250089347,1.0,0.4703759855382529,0.47525844384102794,0.29268813874296823,-0.6548335218089146,0.33709180305728953,-0.20301188097498113,0.6452506111658627
2.4000000000000004,-0.09233975838189733,-0.3785044498745195,-0.06151021705833348,-0.0026547123238345955,0.041620046641355254,0.26132519775402324,-0.05510201723910601,-0.34966276683169545,0.935253788938919,-1.9161215944063392,-1.9702624545033323,4.164278507232666,0.6574496564532161,1.33960081949102,-0.5947833516717205,1.0,0.47113401460362914,0.47606233446977636,0.292756892535633,-0.6547468034608072,0.33703545550791114,-0.20299559944753243,0.6453731569358669
2.5,-0.24241924131251133,-0.06294102515447786,0.13016644346491252,0.0014544105364988,0.04718925800558275,0.2598199005436342,-0.05506868200129042,-0.3492684332628993,0.9354030977988296,-1.9137851582598404,-1.9717653481140485,4.163849206718622,0.6567590477471267,1.3400075199198858,-0.5947980282190446,1.0,0.47155613910668903,0.47647279306264173,0.2926496933337119,-0.654764787927353,0.337060161908564,-0.20299479409270607,0.6453422605996613
2.6,-0.2653839753181605,-0.6392612414779679,0.09993841972106374,0.005732963892737558,0.04361234358361617,0.25373601485889646,-0.055013476672509706,-0.3486399274117536,0.9356406425480701,-1.911416181002305,-1.973141555042408,4.163453571337282,0.6560594838557681,1.3403359095624316,-0.5948546962692723,1.0,0.47226985989401193,0.4771426653691666,0.2924462185034475,-0.6548371156822117,0.3371044601042648,-0.20301768225805042,0.6452385261230014
2.7,0.023818582716288256,0.029950269044744487,0.0939667382740918,-0.00326786879144679,0.03942496853128348,0.2531743979399012,-0.05461520437891321,-0.3461580701851407,0.9365706235041582,-1.909468650817871,-1.9748485295430434,4.163141528189825,0.6553584772297363,1.3406699763184209,-0.594876856312764,1.0,0.4726578040716753,0.477507353016393,0.2925728075468544,-0.6547418034907765,0.33708665289914536,-0.20303685688955264,0.6453385111267637
2.8000000000000003,-0.09617343540456864,-0.3171751161862573,-0.07575184531535903,0.00429880129561117,0.04049358390880316,0.24938652481020956,-0.053410414789356174,-0.3393872778370848,0.9391025684636761,-1.9071471363238692,-1.9763225683004733,4.162768994316953,0.6547448040628122,1.340972279543767,-0.59491473833193,1.0,0.4732341835970804,0.4781287390148584,0.292415047823066,-0.6548099859440163,0.33708242143069017,-0.2030235340878675,0.6452757302710932
2.9000000000000004,-0.1694156128293275,-0.26105246574956326,-0.0248345106280091,-0.005460300351175784,0.04411431284697764,0.25153870224220903,-0.052015850200220294,-0.3313965105347562,0.942030527717336,-1.9051312307611978,-1.9777572529393925,4.162384500302381,0.6541624603713053,1.341363934176766,-0.5949285119766891,1.0,0.4737300417028149,0.478660962018229,0.29233951735280594,-0.6548030388952472,0.33708293093351865,-0.203021037013459,0.6452832993784964
3.0,-0.07868410141224154,-0.06275493960388812,-0.12636037247058737,0.006399696722102953,0.04152275165218664,0.2468899245151675,-0.05013714370509809,-0.32029342074038225,0.9459687734449217,-1.9031148545020247,-1.9790072644255032,4.161943286139285,0.6535467043754356,1.3417582666404786,-0.5949646567038804,1.0,0.47442568878723973,0.4793069668314453,0.2922821355011821,-0.6547685031549463,0.33710119379072384,-0.20303829931329628,0.6453033716269151
3.1,-0.06603793310858082,-0.21430836313357626,-0.1251919558813905,0.008060231257187847,0.03848060127950033,0.2487990036853224,-0.049247985906420946,-0.31510739151012557,0.9477733065607763,-1.9011611749598771,-1.9804826262173827,4.161650524737291,0.6529027980013914,1.342095618201559,-0.5949647054534247,1.0,0.4747348303414647,0.4795639086644276,0.2923505149018613,-0.6547056233713502,0.337092926223097,-0.2030495161853751,0.6453679568999122
3.2,-0.1784185954364946,0.09223241366299806,-0.016248747966170127,0.007140211688837023,0.038224804840101524,0.241506514317498,-0.048875954271610886,-0.31295663113516664,0.948508570091056,-1.8993421293314494,-1.9818353334303889,4.161315004582363,0.6523370331979512,1.3424279343577128,-0.5950339476214808,1.0,0.47537275538871854,0.4801994520263994,0.2921719746064861,-0.6547796964646432,0.3371087316085197,-0.20303808067538867,0.6452881449140524
3.3000000000000003,0.09471478567315256,-0.04941307626727448,-0.09823500204628997,0.007079472756640884,0.03846354101575229,0.25009314572378116,-0.04913027433315423,-0.3143933806741714,0.9480201938945824,-1.897466429425318,-1.9830605423486871,4.16106653213501,0.6518080724182551,1.3426922697310246,-0.5950146440145724,1.0,0.475686129068187,0.48051748618891876,0.29209019915044454,-0.654801470208322,0.33711928856629875,-0.203036961085035,0.6452608870239437
3.4000000000000004,-0.1508186818550607,-0.3058373474889643,-0.0976011538180449,-0.0007303674316476048,0.038514783887183594,0.2451684602246784,-0.04988083540961129,-0.31876848684382103,0.946515875241486,-1.895760310469591,-1.9842181889121115,4.160726961993531,0.6512853124626694,1.3429826380155765,-0.5951133666103167,1.0,0.47613094123173966,0.4809636979792509,0.2920696677131935,-0.6547750950857582,0.337115432207706,-0.20303642365876368,0.645289834795735
3.5,-0.08288940354667959,-0.36308491061701037,-0.18571835192046446,-0.003770013357760654,0.03674306237326986,0.24793974356528217,-0.05060319847184838,-0.32296678166986986,0.945048136960264,-1.8940421512117902,-1.9854275977757716,4.160505692745367,0.6508286820099974,1.3432373211633362,-0.5951002361041275,1.0,0.4766857683796917,0.48156099193944146,0.2920005145810532,-0.6547880084552324,0.337088866634163,-0.20304036428141792,0.6452893695443892
3.6,0.237960439198571,-0.5240955064907069,-0.11189642804145608,-0.007069505780718359,0.029937516763932144,0.252012698198495,-0.0512613810042144,-0.3267816920863086,0.9437045825613669,-1.8922526452189783,-1.9865050020768797,4.160218305496577,0.6502743061169539,1.343491899461239,-0.595120526050776,1.0,0.47693535371044266,0.4818040961144496,0.2919413688537076,-0.6547983563892823,0.3371012154897043,-0.20303870556159428,0.6452729399479966
3.7,0.08022821085154744,-0.5268443760363567,-0.11417172358117252,-0.0022330522520189596,0.03406520395379961,0.24850813028276642,-0.051490327378531216,-0.3280011140091921,0.9432730217781715,-1.8907859824573656,-1.9876351011308973,4.159970785679506,0.6497797469830062,1.3437584107763303,-0.595154110585348,1.0,0.4773061867260135,0.4821828113498654,0.29201401535696475,-0.654733277917793,0.3370776431249062,-0.20307359412022238,0.6453403076389043
3.8000000000000003,0.0535797450522128,-0.10825798929067189,-0.19089272243530164,0.0013699139255301685,0.03284930335014591,0.24895756369253902,-0.051479505558364703,-0.32790642715479396,0.9433065102143584,-1.8893100092366235,-1.9888165309077321,4.159735535632019,0.6492878454931544,1.3440021590945983,-0.595137297771724,1.0,0.47788151072067386,0.48277722190251987,0.29188031200716485,-0.6547759245516908,0.33708948866983085,-0.20306479802531224,0.6452936177111391
3.9000000000000004,-0.018960452670985645,0.012167316965942476,-0.087187671997528,0.0065071209040083325,0.032831732177039726,0.24842570764155567,-0.05143600937284352,-0.3276645574657581,0.9433929414130109,-1.8875612297641233,-1.989940016742358,4.159487263655352,0.6488513970741511,1.3442227382951475,-0.5952077041771725,1.0,0.47811166095343516,0.4829971243046873,0.2917921157950247,-0.654807546617654,0.33710685638347876,-0.20305310112095476,0.6452561370471277
4.0,-0.014852098210566229,-0.277238154066822,-0.1914061725387265,0.0020615587250038,0.03621722730450697,0.24198880144004825,-0.05136142465994245,-0.32730481760864216,0.9435218337610569,-1.8861384084184956,-1.9908290078060482,4.159241241773968,0.6483499861984093,1.344469455625447,-0.5952261129962366,1.0,0.4786269416839704,0.48354797227208135,0.29176464892960363,-0.6547607162013329,0.3371089947462139,-0.20305417096347836,0.645302203494649
4.1000000000000005,0.08850301931098131,0.10912375706129374,0.006707157532550134,0.010310529292187823,0.033560909413593486,0.24284348549983317,-0.05126904903342595,-0.32685278230004117,0.9436835373921477,-1.8848708683100237,-1.9918421816599423,4.159044394724979,0.6478961003197502,1.344720670886492,-0.5952294464943286,1.0,0.47883197192182303,0.48379758817044427,0.2917967057602879,-0.6547481878901132,0.3370797400552,-0.20304413108727482,0.6453333558169337
4.2,0.09401828373953663,-0.27082088324067044,0.00873942646298037,0.0025773094895378563,0.03323163939384756,0.24142132905268818,-0.05115535306927128,-0.3262273852427593,0.9439060649421425,-1.8833338229758245,-1.9927640660235038,4.158815692310666,0.6474839648707956,1.344970895090999,-0.5952618757831019,1.0,0.47910782838564975,0.48405162659462597,0.2916904286686296,-0.6547941690467078,0.3371045534046794,-0.20302738427131328,0.6452790074783246
4.3,0.11523898087221655,-0.4668673093872026,-0.06001771159550042,-0.0008561294419421168,0.03173951583387959,0.2399030137791852,-0.05117422650739997,-0.32630082137434807,0.9438796671504616,-1.8816966171100744,-1.9938472919900803,4.158570363884288,0.647050066585205,1.3451770178912021,-0.5952960523351927,1.0,0.4794247872301101,0.484361538126666,0.2916731652104436,-0.6547880690509389,0.3371011211675609,-0.20303340205708906,0.6452850969805832
4.4,0.13258000936993203,-0.475226496031391,-0.1104950453443021,0.00012230560189982655,0.03140976610287701,0.24318449671767253,-0.051249260431513226,-0.32667030479009995,0.9437478169095609,-1.8803060833008094,-1.9950384127012726,4.158319836058831,0.6465694147297363,1.3454546928405762,-0.5953078464930555,1.0,0.47983879552419323,0.4847799814589835,0.29168238144453346,-0.6547491157499391,0.3370889045397062,-0.2030456865460874,0.6453271379974049
4.5,0.09448470201254558,-0.24126041853494293,-0.03598483832535599,0.0013468709831012588,0.03655504706672346,0.2406642547612311,-0.05132802804529614,-0.3272893061199242,0.9435286867499358,-1.8790449530027233,-1.9960623674287838,4.158118724822998,0.6461170540665081,1.3456755190396208,-0.5953365260957589,1.0,0.4803484588806164,0.4853159220567873,0.29149249294969715,-0.6548188237631156,0.33709542437031625,-0.2030230384900771,0.6452601248770473
4.6000000000000005,0.059572937086022335,-0.20004635675904964,-0.3615416733203748,-0.00022133990165319403,0.036571748872982306,0.24070449288870832,-0.051408448915549736,-0.3280187925576416,0.9432709095405667,-1.8773774123650173,-1.9968682972473897,4.157897521234483,0.6456333134242557,1.3459129089231634,-0.595343317231371,1.0,0.4806812751598837,0.4856764424715218,0.29131533559875944,-0.6549131610715586,0.33710368818350683,-0.2029911723631418,0.6451700851798484
4.7,-0.0558735371369863,-0.19103595564708956,-0.32591147265294107,0.0035049983387815003,0.03757039710046629,0.2411656672616349,-0.05150496206615668,-0.32874635074665165,0.9430126853339131,-1.8758508993107195,-1.9977509387653523,4.157638153696678,0.6451285222403419,1.3461735976635563,-0.5953873243202837,1.0,0.4808806960769067,0.48591255911101033,0.2914457516428148,-0.6548240815923051,0.33707876546533044,-0.2029977139149837,0.6452714592979092
4.800000000000001,0.11355241261814483,-0.15254886841445323,-0.454832110501072,-0.0009140071855044463,0.03132738018818666,0.23953193611739002,-0.051672096481571075,-0.32946544678116346,0.942752499471552,-1.8744507272839876,-1.9987683116961574,4.157381488029916,0.6447107471772981,1.3464106815230232,-0.5954058806048792,1.0,0.48142396142793753,0.4863978207632554,0.29155097549933606,-0.654735448428051,0.3370660090889852,-0.20303960787056463,0.6453548758042432
4.9,0.012279667326126106,0.02330029247645604,-0.2707927934736769,0.005415167856007833,0.03548480896634423,0.23955275541972915,-0.05172180003323389,-0.3297526046940584,0.9426494955314816,-1.873088917813849,-1.999956355773373,4.157165457975019,0.644269640890919,1.3466241985778062,-0.5954027997005411,1.0,0.4815950560395439,0.48657901692076566,0.2915197154376982,-0.6547355507341774,0.3370667950856508,-0.20301913079599657,0.6453608035714125
5.0,0.1817269236288811,-0.30403505283909704,-0.22141419190393824,-8.250788450564641e-05,0.033693215463979666,0.24411808922236208,-0.05171695840198481,-0.32978700506827546,0.9426377243266175,-1.871495600258103,-2.0010410747923792,4.1569161984944385,0.64383183185482,1.3468431827947542,-0.5954355642097069,1.0,0.4820809640341685,0.4870708985149024,0.2912987209297195,-0.6548153124385433,0.3370929669307625,-0.20300640938331407,0.6452702038612377
5.1000000000000005,0.08546236638042931,-0.20284392905279075,-0.08421550834069451,0.001482952370868042,0.033977232476676646,0.23617071197792616,-0.05172721036463359,-0.3296033751463533,0.9427013819169208,-1.8700429158090563,-2.0019842012384372,4.156636454204322,0.643367857136938,1.347095432049085,-0.5954297224627894,1.0,0.4823749838351076,0.4873420150245818,0.29125773913917075,-0.6547935309549975,0.3370938942330131,-0.20304095693518096,0.6452809528392689
5.2,0.017413599222448575,-0.44716010291548114,-0.2277827005568645,-0.00473723103337902,0.036945259231989325,0.24508579764720115,-0.05163803826814297,-0.3288636654637479,0.9429642164842877,-1.8686181755065918,-2.002877736846441,4.156408391952515,0.6428785296627502,1.3473053798675536,-0.5954811110443832,1.0,0.48268116013854295,0.4876583363343545,0.2912319849604828,-0.6547870805482936,0.33710849244536184,-0.20303217353107236,0.6452826357337582
5.300000000000001,0.10719987188467683,-0.471947809490998,-0.39664513827982467,0.0033149124847976427,0.0360797493989536,0.2499185118800389,-0.051529791747633974,-0.3280501965234795,0.9432537748008946,-1.8670200746533065,-2.0037521423631772,4.1561666164087985,0.6424037024041898,1.3475124107774838,-0.5954808939101073,1.0,0.4831709785673677,0.48808249290501593,0.29126237948240324,-0.6547551823183634,0.3371109971887858,-0.2030558686461499,0.6453062381613761
5.4,0.049194567418680196,0.006079837805767568,-0.0213326574989271,0.004960547827795467,0.03439135918339906,0.24370762713202695,-0.05162775842616731,-0.3285885420707719,0.9430609755775988,-1.8655799101280615,-2.004876167388117,4.155951723777737,0.6419605597569308,1.3477123724539724,-0.5955109291103796,1.0,0.4833550242901795,0.488281103516863,0.2913557639102513,-0.6547014729070612,0.337096746627298,-0.20306038183190664,0.6453667531852693
5.5,-0.04760443536898944,-0.07814483009578357,-0.2678464772208874,0.004415079661203029,0.033505038344348446,0.24153822073342168,-0.05168873811704327,-0.32895151018171037,0.9429311267083248,-1.8642129950930835,-2.0060014360645906,4.155729112852712,0.6414729791828613,1.3479208893368482,-0.5955176084332127,1.0,0.48371937009638266,0.48867074939557603,0.2912258593976865,-0.654740374689443,0.33711404288976443,-0.20304290055769336,0.645323751593853
5.6000000000000005,0.20018841119023148,-0.2802792131965864,-0.17872440837677575,0.0011886901461789258,0.0321442844021903,0.24233603571701737,-0.05172831698153305,-0.32921300417147337,0.9428377011782492,-1.8626203921051296,-2.007034795743155,4.155532907579581,0.6410217691033636,1.348177433013916,-0.5955481393031243,1.0,0.484225474691376,0.4891894057529528,0.2910282392300353,-0.6548096945461369,0.33713229349438495,-0.20305333588318283,0.6452405934210292
5.7,-0.005010320648047212,-0.3282943852518502,-0.20038862436116628,0.001595449588172905,0.03810755095224289,0.23873125321823074,-0.051776371879947915,-0.3295239065983791,0.9427264113961368,-1.8610870711564638,-2.0079277816146277,4.15528223480443,0.6405611168140578,1.3484095778488014,-0.5955587956103433,1.0,0.4844147395393001,0.4893819319583382,0.29098979876684744,-0.6548187623633629,0.33712197073804956,-0.2030448987475168,0.6452394395844216
5.800000000000001,0.1180389198280801,-0.3478735633427667,-0.16827270469967476,-0.0011416683828947693,0.033125764106540875,0.2422277809008521,-0.051829538065685146,-0.32986460370527537,0.9426043489666087,-1.8597524345376475,-2.0088555424982046,4.155093792829832,0.640111719342016,1.348596622764609,-0.595593777606421,1.0,0.48491425973748054,0.4898899315600685,0.29110591081454706,-0.6547115608916093,0.3371023712962605,-0.2030471259464315,0.6453577519068048
5.9,-0.14632646721424183,-0.21116157788593348,-0.22407676566995277,0.005649516825619937,0.04071524134914795,0.23995512434359123,-0.051777627249018694,-0.32958192967224587,0.9427059669028038,-1.8583798230906863,-2.0098538073538257,4.154846850392763,0.6396885597585615,1.3488722284389438,-0.5956073057951401,1.0,0.48511575228482423,0.4901108719868741,0.29106313913467474,-0.6547332015579638,0.3370888074607245,-0.20304792035808972,0.6453426320185428
6.0,0.1726003452804815,-0.39694341052327997,-0.10602867898289724,-0.008215056620999452,0.03464899307903419,0.2385162931164359,-0.051665430325266194,-0.32896981553483806,0.9429260531206277,-1.856606089708597,-2.0109825483409214,4.154607541343648,0.6391574153895228,1.3491250840461513,-0.5956245519850566,1.0,0.4854579277980647,0.49043222615262744,0.2909574699007555,-0.654776247885265,0.337114182581527,-0.2030432099540159,0.6452871825778443
6.1000000000000005,0.2151697743258918,-0.24504338296712297,0.017167611889450568,0.00037195969450242274,0.03135502998479781,0.2413215631868315,-0.05159935789092864,-0.3288756965558226,0.942962499734426,-1.8551864125100186,-2.012025294569411,4.154417591323776,0.6386729913898925,1.3493889517563258,-0.5956571737872522,1.0,0.48593618923478094,0.4909712493017598,0.29092708077656443,-0.6547539020455749,0.3370747406610901,-0.20303295795040321,0.6453336849648115
6.2,-0.11652443894171105,-0.16888504463079657,-0.07209146126362027,0.0005076777783902242,0.038562988405380735,0.23945480334134878,-0.051640154893533845,-0.32926537467887423,0.9428239994700905,-1.8538839941489058,-2.0130222943641556,4.15414406113499,0.6381892276487015,1.3495802879333496,-0.595650481227417,1.0,0.48616095154994493,0.4912118217724315,0.2909243104434071,-0.6547445318706372,0.3370600609597371,-0.20303332873599908,0.6453507423980375
6.300000000000001,0.04432615256655778,-0.34260631089729365,-0.06853054241288976,-0.001921905056698116,0.03542685185786262,0.2391799503804332,-0.0517550424268861,-0.3299904600529741,0.942564211890838,-1.8524280795599721,-2.0140231805795685,4.153904305763292,0.6377707414728943,1.34981372398576,-0.5957032868501666,1.0,0.48652551738114425,0.49156233521857845,0.29073839681124963,-0.654832316959522,0.33709458652370866,-0.20302108872752753,0.6452474827023534
6.4,-0.062052313970810125,-0.15745732079267974,3.483935449860587e-05,0.0021760897024259516,0.04016881176739183,0.24155744130964354,-0.051703960511322825,-0.3296875113709512,0.9426726492249592,-1.8506956142053004,-2.0149511068465964,4.153728535478947,0.6372797971404038,1.350024008015363,-0.5957345590049848,1.0,0.4869572964786108,0.491991714012778,0.2906984357702517,-0.6548270023673819,0.33708831876521717,-0.20301621925656738,0.6452576826674423
6.5,0.01683734154224456,-0.08054644480870035,-0.09030653858323484,0.0017017892237336872,0.03441229370652903,0.23598697488562284,-0.05152578121758169,-0.3285973067568004,0.9430630687032362,-1.849330116633672,-2.015994211236471,4.153533991521431,0.6367879981289603,1.3502079740127515,-0.595749511816737,1.0,0.4871923938266794,0.49218517733465705,0.2907683768219122,-0.6547595643016103,0.33709671342762426,-0.20304458265315076,0.6453128049303437
6.6000000000000005,-0.16171582416657104,0.019344505693857296,-0.29145922301035027,0.0018410165410157032,0.04183081875641498,0.23535385521584623,-0.0514851504909623,-0.3283481556062738,0.9431524815982806,-1.8479730891497175,-2.017025774744114,4.15332891443381,0.6362814862543898,1.350445840201526,-0.5957700005943349,1.0,0.4876568268583872,0.4927504233833707,0.29070376027712763,-0.6547781690778899,0.3370658305377192,-0.20301836281799152,0.6453183086986038
6.7,-0.16856880851427472,-0.02903793301757856,-0.14506747008256043,-0.0006578008256037902,0.04416771953879841,0.23693305406637463,-0.05155387675129579,-0.32876767788923217,0.943002581400618,-1.846354815760389,-2.01796312040765,4.153100062277868,0.6358591572453759,1.350637647220725,-0.5957501389591419,1.0,0.4878448739909282,0.49294330417892585,0.29062100268790064,-0.6548052747490848,0.33708208754987357,-0.20301945622880224,0.6452819684497285
6.800000000000001,-0.20185520191612266,-0.05610012941949623,-0.16243758847281042,0.0005009662451819987,0.04582451163887535,0.23379326932805988,-0.05151305932828989,-0.32850995812152634,0.9430943722124409,-1.8447633694958427,-2.0189615294803303,4.152839776915975,0.6353069210103319,1.3508961585113135,-0.5957610474079358,1.0,0.488228229311844,0.4933071659658274,0.2906288589975274,-0.6547783977965781,0.3370745474254918,-0.2030416961939138,0.6453061822604402
6.9,0.04491109604192074,-0.41295914299455216,-0.10634541750646587,-0.010207282022469448,0.042653070566794675,0.23959977294731935,-0.05138162130038006,-0.32769198620210654,0.9433861032199167,-1.8433605202726446,-2.0200673650124314,4.1526499756864625,0.6348283603847864,1.3511033058166504,-0.595829598535391,1.0,0.4887564772332436,0.4938296672537388,0.2906187341584129,-0.6547446961290528,0.3370887442904583,-0.20302375547037546,0.6453386057553517
7.0,-0.061777039225978436,-0.1569717368896788,-0.11125079653678795,0.003973478817902901,0.04018360213050243,0.23854603370034064,-0.05128489588068822,-0.3271279223189089,0.943587361660205,-1.8419568048191708,-2.0211709995265474,4.152429220219585,0.6343834806829646,1.3513178391724796,-0.5958250204669397,1.0,0.48895752757122457,0.4940451227133637,0.2905025044906335,-0.6548051090133026,0.3370823016553378,-0.20303101214718697,0.645278388935586
7.1000000000000005,-0.03953284079005295,0.1407110187538261,-0.3757551076672885,0.0059487294202066575,0.03817398764015073,0.23182198531706016,-0.05122849778187799,-0.3268341825822041,0.9436922120027325,-1.8404097714762049,-2.022059985783354,4.152132400792514,0.6339276183378575,1.3515233993530273,-0.5958747484763371,1.0,0.48929370047643395,0.494388654634339,0.2903306812515609,-0.6548643972894502,0.3371069538611175,-0.20302952711499916,0.6452058074294306
7.2,0.053476029562100014,-0.09813589330061057,-0.145420813816033,-0.006602014975642206,0.038047044137808475,0.23865284620213462,-0.05150012332172995,-0.3281675449628387,0.9432145579159443,-1.8398285282052071,-2.0223678539108607,4.152057728898011,0.6337543815102222,1.351675552203693,-0.5958626930039024,1.0,0.48980888054426563,0.4948631423526618,0.29042748243034283,-0.6547712081057696,0.3370940505614969,-0.20304339044569766,0.6453027566251907
7.300000000000001,0.05243537271942822,-0.009764387282082641,-0.10077192468434626,0.0022113316021722847,0.041407449146342284,0.23101470249257008,-0.051212454566375194,-0.32654958840240644,0.9437908344559639,-1.8398339485914967,-2.0223845780447323,4.152032154048665,0.6337352319731848,1.3516758332218275,-0.5958488623248499,1.0,0.48990223798806687,0.49494288869709374,0.2904290359152043,-0.6547675080906487,0.3370961960007135,-0.20303577917647334,0.6453077849869886
7.4,-0.036609243945661396,-0.04846976765702092,-0.2188089657032486,-0.0015448292670762918,0.041434091489820066,0.2349057040563612,-0.051088587010461955,-0.32586446667971036,0.9440351059538625,-1.8398122787475586,-2.0224110088744105,4.152056961172998,0.6337074189192874,1.3516717182073885,-0.5958735779116028,1.0,0.48991286682822394,0.49495620599311607,0.2904322995216429,-0.6547657664330094,0.33708662013450624,-0.2030316049442222,0.6453158676396096
7.5,0.08989013486041474,-0.3252255049375338,-0.005329794281820266,0.0015418177804155818,0.03572611791634781,0.2344572586875832,-0.05112055245027553,-0.3260669131403153,0.9439634828917648,-1.8398007096317284,-2.0224310451021132,4.1520658164487845,0.633722405501411,1.3516783714294434,-0.5958767618321339,1.0,0.48992479858709403,0.49496240951334364,0.2903859023606464,-0.6547911583641175,0.33710050651745843,-0.20302811450105443,0.645283946922591
7.6000000000000005,0.019444192718805053,-0.12738648733379695,-0.15651077528760046,-0.0016422503789880801,0.03661662681791146,0.23748054543371772,-0.05107235855865142,-0.325851252321586,0.9440405434856983,-1.8397607929023867,-2.0224480625333103,4.15205689158904,0.6337228568460274,1.3517146110534668,-0.595860783253805,1.0,0.48991893870677106,0.494958989256335,0.2903868172686512,-0.6547850387204127,0.3371053787206648,-0.2030288776567121,0.6452873712873672
7.7,0.0753031219531414,-0.3132605381051287,-0.14695559353381715,-0.005743284316214615,0.036605090589405316,0.23361544306506102,-0.05118449272116075,-0.32652562569083005,0.9438006639656464,-1.8397645950317383,-2.022481078496875,4.152029514312744,0.6337339121052246,1.3517042583414258,-0.5958460556836442,1.0,0.48991447299706975,0.4949748200568897,0.29040096479359323,-0.6547881622207387,0.33708125280439016,-0.20303133948973,0.6452960303677812
7.800000000000001,0.09267646396969147,-0.25927188395130935,-0.05472406646309466,-0.0041881027242892,0.03713641661447516,0.23620657670734196,-0.05146100126996162,-0.3281124957794869,0.9432358454509245,-1.8397792266032922,-2.0224291208698166,4.152040318338979,0.633704755924281,1.3516907691955566,-0.5958592508116142,1.0,0.4899193926802431,0.49497645433452025,0.29039516108079927,-0.6547866055223356,0.337084017182401,-0.20303973085500632,0.6452935256788487
7.9,-0.03317168086371154,0.11778486779185476,-0.19591895479709548,0.0011012993719572116,0.040688747038676816,0.23544008041865774,-0.05142716927510754,-0.3279083633260419,0.9433087065174243,-1.8397832604020736,-2.0224366560519553,4.152021680860217,0.6337320345728046,1.3517022132873535,-0.5958792091528113,1.0,0.48991388133159486,0.4949794983700609,0.290413029597115,-0.6547774040377593,0.337086495734378,-0.20301493710831237,0.6453093683389373
8.0,-0.22574683806338725,-0.15911330548263786,-0.16223965836837842,6.964792290022092e-05,0.044541044196410265,0.23532195707778386,-0.051321389513848806,-0.3272827091408333,0.9435314064166859,-1.8397821592909518,-2.022458692590231,4.152035281897489,0.6336767144156635,1.3516717412480752,-0.5958424871504575,1.0,0.48992353864534255,0.49496868671038086,0.2903892813422118,-0.6547902810979439,0.3370976451671695,-0.20302903690954874,0.6452860416698984
8.1,0.141111248953337,-0.36779041097870724,-0.19369830518699527,-0.005804998362834539,0.03670365845281142,0.2320665769857075,-0.05114227500108898,-0.3262267202411891,0.9439070518954852,-1.8397678169495746,-2.022472808545484,4.152017855760503,0.6337115800924493,1.3516872787845673,-0.5958436537247205,1.4152112635853047,0.4899252443408328,0.494962349937268,0.29038792127973045,-0.6547832193414626,0.3370922732835177,-0.20303286808704005,0.6452948081595973
8.200000000000001,0.23125313790430418,-0.7289209873677264,-0.25855464274339207,-0.015397676116162653,0.03642182267360251,0.2355322397618675,-0.051142058365587,-0.32621952115611486,0.9439095895039703,-1.8397861574122525,-2.0224509700376943,4.152040475792188,0.6337421114949193,1.351703649574023,-0.5958928245014099,2.0,0.48992526155478205,0.49496430009891906,0.29040051478705103,-0.6547872973774114,0.33708739323005826,-0.20303445164267975,0.6452927211465398
8.3,0.14488733975384244,-0.27219193889094284,-0.19385277992193706,-0.006425011508057616,0.040499732742905,0.23398617952515768,-0.0511272227461607,-0.3261374082000457,0.9439387604324196,-1.839777788825696,-2.0224744564638564,4.152035179863833,0.6337133017105264,1.3517146110534668,-0.5958488623248499,2.0,0.4899239508959658,0.49495598253459966,0.2903910573640173,-0.6547796339769495,0.33709112201552643,-0.2030411309734302,0.6452964477822238
8.4,-0.22012097184179477,-0.32337256980367524,-0.20641664274983168,-0.011825112336470371,0.03181623939584906,0.2313231893777964,-0.05109555736614489,-0.325970853598704,0.9439980105991969,-1.8398008346557617,-2.0224534487823553,4.152026997284964,0.6337383392833669,1.3517332091035013,-0.5958395632998327,2.0,0.4899252713428237,0.4949620040237424,0.2903631376301247,-0.6548056169940988,0.3370900271585831,-0.20303881210052763,0.6452713834690103
8.5,-0.17058595730324247,-0.22149372199119338,-0.3992489039485816,-0.01706639162922309,0.045732280409886854,0.2298952357279045,-0.0513099328489495,-0.3272199332358568,0.9435503491701022,-1.8397540289355532,-2.022451452396816,4.152032550607777,0.6337173490976775,1.3517097430885052,-0.5958586619761401,2.0,0.48991267924343085,0.4949734062182396,0.2904038188100211,-0.6547838919067497,0.3370939802866062,-0.2030223558180504,0.6452965414381763
8.6,-0.17497820735018466,-0.01280584485071215,-0.13314940788443014,-0.004212742824567711,0.042220413281806646,0.23311539799056077,-0.05182874032932138,-0.33021709957426604,0.9424764136942732,-1.8397645950317383,-2.0224545946026153,4.1520242991621235,0.6337005931895731,1.3516959843461778,-0.5958727041827601,2.0,0.4899239733090415,0.49497017468814986,0.2903817542119705,-0.654806030570901,0.33709191249940157,-0.20302311721913413,0.6452749171710469
8.700000000000001,0.06667404577834057,-0.2609884964983131,-0.18763946808093118,-0.010699414195121503,0.043920111287937665,0.23539627887334252,-0.05209901547941322,-0.33177746511641687,0.9419178663687765,-1.839789041618529,-2.02247509753663,4.152025867400425,0.6337140661050695,1.3516783714294434,-0.5958646625423684,2.0,0.48992368327105523,0.4949811899172313,0.2904066389540366,-0.6547767234380456,0.3370932967160279,-0.20302945964642,0.6453019372886925
8.8,0.20757117170942357,-0.44788953089008726,-0.3903729634108781,-0.01464973127989162,0.03906805277161823,0.23599311199428685,-0.05202602231336843,-0.3313533476361792,0.9420711637450218,-1.8397744594452332,-2.022488442468534,4.1520149551430015,0.6337165599930348,1.3516848611751637,-0.5958311631704163,2.0,0.48993194516339456,0.4949742163292146,0.2904067674718612,-0.6547749788501576,0.33708403356849037,-0.20303160570930368,0.645307871072463
8.9,0.3194681321330927,-0.362606522237079,-0.20467189372101458,-0.014769087182347509,0.038737937987813366,0.2389709891887049,-0.0520225024979899,-0.3312749206672116,0.9420989598559134,-1.8397833871099627,-2.0224819612139178,4.152029514312744,0.6337186038001672,1.351674848558297,-0.5958584459490839,2.0,0.48993563796956724,0.4949663878793031,0.2904086303103025,-0.6547762397432209,0.3370934470786224,-0.20302275334511907,0.6453044594829228
9.0,-0.18839599197862605,0.20197977788019164,-0.19928325542612357,-0.0071712127722134734,0.0505050552931852,0.23591546925331472,-0.05211840834842908,-0.33169122310052956,0.9419471468541157,-1.8397695230642535,-2.0224916900875995,4.151994228363037,0.6337051104088268,1.3517418565290702,-0.5958521044515046,2.0,0.4899527501799752,0.49494702088756337,0.29041274316216276,-0.6547615827097676,0.3371094187581797,-0.20306424895092184,0.6452979314936014
9.1,-0.7056944491502779,0.01917607757515688,-0.03133752800137832,0.001542088051335655,0.008302738139612131,0.2216551305913838,-0.05219793586271598,-0.3321260839167081,0.9417894860246564,-1.839774265260288,-2.022467653688033,4.152018070220947,0.6337273031277025,1.3516783714294434,-0.5958679704883597,2.0,0.4899456117928137,0.4949635836576721,0.2904022757739533,-0.6547777079299837,0.33709231613571844,-0.20304929544417724,0.6452952093575756
9.200000000000001,-1.4945201633689345,-0.38179023617453406,0.04558153722438921,0.0005336115755452623,-0.07872533089643004,0.2133083926773963,-0.05225199398693987,-0.3325898042389818,0.9416227314385207,-1.8397723196495483,-2.022483011285299,4.152069938104748,0.6337298826750721,1.3517304064344915,-0.5958409646343376,2.0,0.489933822437808,0.4949686457317707,0.29039935478925705,-0.6547762583761145,0.337100135145838,-0.20303793580802862,0.6452961699672861
9.3,-2.3810398545998273,-0.495493675033799,0.25269739556159043,-0.013426098572139677,-0.20132608855031542,0.18180930422436964,-0.052306052111163744,-0.33305352456125553,0.941455976852385,-1.8397760391235352,-2.022463388656392,4.152046608145019,0.6337100702473144,1.351769519632081,-0.595865298702037,2.0,0.4899283192502057,0.4949797354282018,0.2904017312319888,-0.6547776885936386,0.33708805417335186,-0.2030177575698754,0.6453073782042902
9.4,-3.111433719338013,-0.3181062777445489,0.23599643302121068,-0.009027082898863715,-0.27098071448978983,0.16862913708807137,-0.05240413330234688,-0.33379876154885096,0.9411863808361887,-1.839746829930603,-2.0224836446975787,4.1520477815875285,0.6337048088144313,1.3517084904579708,-0.5958727041827601,2.0,0.4899145271355686,0.49499100590837514,0.29038487009045183,-0.6548025523280642,0.33706186980467623,-0.2030192546125889,0.645295355356737
9.5,-3.6874522352709853,-0.8570692500375516,0.5407808457810094,-0.025548349200596523,-0.3266860992265933,0.15971503545178295,-0.052486067854738666,-0.33433469708708313,0.9409917740422249,-1.8397573363519988,-2.0224754501605706,4.1520584952570285,0.6337445001582863,1.3517129757325843,-0.5958770639869865,2.0,0.489907614531773,0.4949850965741232,0.29039220628114076,-0.6547925765216868,0.3370689637438773,-0.20301177460217495,0.6453041258085952
9.600000000000001,-3.7920448567564082,-0.653676534784617,0.6605369606831532,-0.02532508873728431,-0.3709887418947143,0.1440277532450065,-0.05251012746823948,-0.3343680353214316,0.9409785848805816,-1.8397431596482965,-2.0224829022584476,4.152090549468994,0.6337078488862667,1.3517164481340667,-0.595865411089321,2.0,0.4899079208192378,0.4949960039798249,0.29038733793359445,-0.6547943881690809,0.3370859690634416,-0.20300909931080915,0.6452942462782801
9.700000000000001,-4.003600124572889,-0.8205722725350898,0.5369712049453396,-0.031136473083187205,-0.3909319239289797,0.14294787415406446,-0.05249796264858603,-0.3342528680331179,0.9410201810255173,-1.8397607352486394,-2.022458692590231,4.152042087198491,0.6337258708904353,1.3516825528611338,-0.5958567626464103,2.0,0.48990746248554884,0.49498972921631823,0.29038227798872174,-0.6548014726913192,0.33707507973843265,-0.20303574717958445,0.6452843616172927
9.8,-3.99856170134219,-0.8629503384619264,0.6821509053278239,-0.03383728690989687,-0.41409765916395586,0.14298019863210848,-0.052570061096720244,-0.33468363175365384,0.9408629423132372,-1.8397531509399414,-2.022459345630911,4.15205941402264,0.6337041530851331,1.3516779486774972,-0.5958488623248499,2.0,0.489919836233145,0.49498744822589613,0.2904051071825141,-0.6547955139895328,0.3370661974388437,-0.20304107443802535,0.6452933716491706
9.9,-4.19099405029124,-0.7937429269153314,0.6198086213143761,-0.036504834766080324,-0.4347090784551613,0.14202808704620418,-0.05262372078580689,-0.33502895792678855,0.940737126587481,-1.8397584321404201,-2.022452900819469,4.152048286403379,0.6337045101473833,1.3517268693698539,-0.595861120641237,2.0,0.4899094314149828,0.4949873026936075,0.2904058650573415,-0.6547869535955955,0.3370758769687612,-0.20301776542654673,0.6453043355564502
10.0,-4.153379379086254,0.3526346309552797,0.32693609073564106,-0.08024504072219152,-0.4194618382506133,0.13537714609335008,-0.052678432586368854,-0.3352865399790645,0.94064220484568,-1.8398008346557617,-2.0225129942278226,4.152054309844971,0.6337071225267,1.3517146110534668,-0.5958634925558403,2.0,0.48992157764123695,0.49499072488459767,0.29040542371908035,-0.6547884725326286,0.3370686813966185,-0.20303104301586358,0.6453023755045557
10.100000000000001,-3.815643659822909,0.4963219063830538,0.17499724890086749,-0.10685183053321266,-0.41202421641200304,0.14061363603081237,-0.05284683059936905,-0.3360364522973966,0.9403651361334797,-1.8397692119534472,-2.022479455467545,4.152054309844971,0.6336933400249125,1.3517049924665732,-0.5958739576584527,2.0,0.4899315137683636,0.4949797377730199,0.2903990946658537,-0.6547846172330607,0.33709317251773296,-0.20303942169378386,0.6452908579200068
10.200000000000001,-3.8391202276047953,0.4211042488492539,0.3664992062613116,-0.11262598159735696,-0.40931056962295975,0.13650209557103585,-0.05294307616852434,-0.33659587808156644,0.9401596773821841,-1.8397531509399414,-2.0224908792304346,4.152041912078857,0.6336820132862319,1.3516864773970825,-0.5958727041827601,2.0,0.4899276120906746,0.49497680246087045,0.29041467030405804,-0.6547700959739964,0.337096032672912,-0.20302884941812896,0.6453074247816598
10.3,-3.666294262748691,0.6584690478288029,0.41714283965214105,-0.12509530822454573,-0.39764620012538876,0.14226441448087382,-0.052953785500383904,-0.33684850779649783,0.9400685935064323,-1.8397554943042758,-2.022479087584108,4.152050229195732,0.6336895254280551,1.3516907691955566,-0.5958970228778284,2.0,0.4899113507752761,0.4949878431440075,0.29037650818877025,-0.6548056983876159,0.33708434870082443,-0.20301964686830687,0.6452802973944856
10.4,-3.4464511396509447,0.7226361724015811,0.18417882086404833,-0.13088504427054323,-0.39398139224966355,0.1425143064125113,-0.05300290236417644,-0.33711414310613863,0.9399705837409006,-1.8397592708684514,-2.022483011285299,4.152045227040134,0.6337131302115694,1.351661511579035,-0.5958873329910209,2.0,0.48990297002967204,0.4949882639766177,0.2904039539901815,-0.6547853888767561,0.337071339614981,-0.20302178856338415,0.6453070276172436
10.5,-3.3005183454059175,0.7572571827978414,0.10897446251347041,-0.12937153592029266,-0.3934950127847532,0.14732144445577106,-0.05303986094771166,-0.3372339110289142,0.9399255495531307,-1.8397429922187254,-2.022507371503544,4.152035443648427,0.6337157715316246,1.3516878045277154,-0.5958636338959601,2.0,0.4899219316917792,0.4949777998033013,0.290369342830198,-0.6547998711972137,0.3370971613419769,-0.2030216141132145,0.64527889838283
10.600000000000001,-3.42901941715914,0.9654439913253279,-0.08618775910658508,-0.139478267853738,-0.38307863537845793,0.14810180590446137,-0.053023886338526956,-0.3369911943004958,0.940013501943126,-1.8397526193829856,-2.022483011285299,4.1520359242544815,0.6337045430248132,1.351683476534584,-0.5958426989193336,2.0,0.4899449689197305,0.4949594264913921,0.2903932811597992,-0.6547767443086989,0.33710501745656357,-0.2030262435761168,0.6452968051505308
10.700000000000001,-2.8742057645255263,0.8957197648665145,-0.16569348504795559,-0.16461214849455505,-0.363685571750846,0.15430413848507624,-0.05304061554341309,-0.33696103005641,0.9400233807868787,-1.839773180700777,-2.0224858805421873,4.15202402526836,0.6337191219193813,1.351696258239941,-0.5958578057300987,2.0,0.4899439098950917,0.4949741672690913,0.2904046024635242,-0.6547767934732417,0.33710506216160424,-0.20301325526501082,0.64530081820855
10.8,-3.1138292703433095,0.8553259391502178,-0.15003513992856357,-0.13850428250926855,-0.36592042052111956,0.1499345360396874,-0.05308600442638003,-0.3371509570433089,0.9399526367633617,-1.8397557911817632,-2.02248002499594,4.152033916237731,0.63369422423053,1.351686836669804,-0.5958761598713544,2.0,0.48993601635882184,0.49495740577008285,0.29037621180016876,-0.6547796420098794,0.337116092567185,-0.20304878285083158,0.6452809871090607
10.9,-3.0806631867400567,0.8701890532324889,0.061439983541529325,-0.14115426840891301,-0.3657681538787231,0.147598525840624,-0.05318266687857301,-0.3377622281378818,0.9397276995098013,-1.8397493276147416,-2.022471090356344,4.152013676934421,0.6337081542707474,1.3517022132873535,-0.5958464802960424,2.0,0.4899429804210114,0.4949667355675662,0.29037433359299686,-0.6547861086567935,0.3371101529919418,-0.20303987065420095,0.6452803325567645
11.0,-2.9368573167318175,1.3311206100402824,-0.059965624653171984,-0.17097973812904813,-0.35247645985465365,0.1561690054577128,-0.05320194584174096,-0.33791676263343384,0.9396711203340138,-1.8397779672493861,-2.022481002820871,4.152041912078857,0.6337195862132603,1.3516941794296409,-0.5958508707892781,2.0,0.4899415530436534,0.49496028833916916,0.2903834241797519,-0.6547848862384952,0.33710384149738365,-0.20303987236100116,0.645284869676158
11.100000000000001,-3.039759172019472,1.1006169155376244,0.032209508433193534,-0.1700172978428869,-0.35245082094587077,0.1552500873992437,-0.053212107269960944,-0.33799090538190274,0.93964386570651,-1.8398008346557617,-2.0224893386722287,4.152029514312744,0.6336974154734557,1.3516688823051835,-0.5958671106407344,2.0,0.4899392537932139,0.49496111210713145,0.29035887803255556,-0.6548083005709074,0.3371029305602543,-0.20305004765379484,0.645258383795918
11.200000000000001,-3.199498789322628,1.0169603371228475,0.27043571159419655,-0.14998902264589603,-0.3573252799789962,0.15059490832765,-0.053266812127946435,-0.3382494773275958,0.939547716890438,-1.839762720119152,-2.0224797810138377,4.152013285631342,0.6336775377319108,1.3517260551452637,-0.5958577523402435,2.0,0.48995418180815103,0.49495939517897264,0.29036015036575885,-0.6548034341582893,0.3371051754132707,-0.20306022889868988,0.6452589455123507
11.3,-3.148320930473994,0.7337382443789219,0.11413211876258719,-0.14912255367741983,-0.3621520757481722,0.1528071252451888,-0.05326880674227629,-0.33827817024295187,0.9395372860759399,-1.8397442388544103,-2.022461741461597,4.1520266999699444,0.6337339121052246,1.351693583538356,-0.5958488623248499,2.0,0.4899344826230683,0.4949706009778784,0.29041158547380547,-0.6547728720332625,0.33708664413058326,-0.20302926609799615,0.645309381231827
11.4,-3.0080543279154632,0.17223112922019368,0.5993077630882813,-0.14001869690871774,-0.373543491913587,0.1544022680424503,-0.05327774361133318,-0.33833457683928986,0.9395164502302397,-1.8397645950317383,-2.0224927267594324,4.152031807985759,0.6336805352059498,1.3517066241969975,-0.5958660878182941,2.0,0.4899380580664458,0.4949638784317099,0.2903819049695699,-0.6547821835854003,0.3371180290842056,-0.20302425650172137,0.645285113571853
11.5,-3.352097654007937,-0.08394628524864838,1.2833211492429253,-0.09442323447961909,-0.36532844682119026,0.15342541934780748,-0.053366732057748396,-0.33877799392446656,0.9393515394026029,-1.839813783685232,-2.022471090356344,4.152024161960571,0.6337215143391113,1.3516886851793695,-0.5958306353694056,2.0,0.489945398432549,0.4949630960671428,0.29038160835903715,-0.6547835227891776,0.3371108507310387,-0.2030375081068248,0.6452833353690149
11.600000000000001,-3.1532779898653582,-0.00621364010334805,2.188538084857251,-0.09256159561284039,-0.3605538511461167,0.15093751509037595,-0.053447041351427624,-0.33934288543278385,0.9391429421046119,-1.8397794919136243,-2.022485009110726,4.15203392077715,0.6337119881597243,1.3517125333150228,-0.5958786316354343,2.0,0.48993145599004995,0.49497921578174003,0.2903841001532264,-0.6547928791751177,0.33709579999965805,-0.20303186698656364,0.6452834787844025
11.700000000000001,-3.2200985472691017,-0.17344618318525423,2.5883893620025633,-0.08841712183670654,-0.3620919270002323,0.1565353891639369,-0.05350627406996151,-0.3397561418108191,0.9389903283819696,-1.839759663189609,-2.022483011285299,4.15200662612915,0.6337123464821433,1.3516950052103953,-0.5958798829558216,2.0,0.4899392064113846,0.4949617576215398,0.2903965213541894,-0.6547798252424852,0.33710009278591174,-0.20303206912191088,0.6452944187014377
11.8,-3.1374874690411145,-0.41597148424502706,2.991610798598381,-0.09895324609285366,-0.3605082550977751,0.15430716844541895,-0.053489317794340886,-0.33962125751727906,0.9390400877804617,-1.839775199673277,-2.02249740873483,4.152046865120009,0.6337191368793587,1.3516972602462023,-0.5958558302126538,2.0,0.48992789101249135,0.4949760863123599,0.29036401592737504,-0.6548042211211174,0.33710145099987443,-0.20302591820462282,0.6452708890635901
11.9,-3.2814504821712736,-0.5712824828107704,2.929455556586594,-0.08924102941395323,-0.3652122160953842,0.15373995062216542,-0.05351389088097536,-0.33962153867774375,0.9390385895140075,-1.8397625263134445,-2.02246601202903,4.15200662612915,0.6336913067167185,1.3516954568823083,-0.595843979317817,2.0,0.4899489361613786,0.4949469321236946,0.2903839959247312,-0.6547765328133888,0.3371291610175439,-0.20303634385658237,0.6452812285676968
12.0,-3.057518090189984,-0.6608360635012656,2.86590978961409,-0.0818999523436549,-0.3752702477158072,0.15509043710224435,-0.05351580666468638,-0.33965285022208197,0.9390271558439691,-1.839760572170176,-2.022472082165272,4.152041912078857,0.6337295479481616,1.3516756495947353,-0.5958800933354205,2.0,0.48993663337670107,0.49495910163314943,0.29038392401695734,-0.6547910750721279,0.3371011864637866,-0.20303887615753322,0.6452802901524891
12.100000000000001,-3.320980262752982,-0.4451635210513248,2.7269131914704423,-0.07675479583064182,-0.3704612140071736,0.156746542783272,-0.05350534427090132,-0.3396951180573002,0.9390124575672264,-1.8397666865145428,-2.0224660243598067,4.152039501547399,0.6337079787645099,1.3516924709863198,-0.5958727041827601,2.0,0.48992706680509196,0.4949647833898388,0.2904197259034262,-0.6547650201239753,0.33708672506998244,-0.2030566165906701,0.6453087002841308
12.200000000000001,-3.476791886941449,-0.2974154865478974,2.921362812282811,-0.07040923631417403,-0.3697704916333633,0.1495347639032342,-0.05352811460818109,-0.3398552760599541,0.9389531954216191,-1.839787483215332,-2.0224876359372703,4.152041912078857,0.6336985760653338,1.3517022132873535,-0.5958461906998374,2.403043697544207,0.489931051520979,0.4949820538315227,0.29040400633923447,-0.6547795086895788,0.3370951645123704,-0.20303139900257777,0.6452975252406192
12.3,-3.33707112568876,-0.670249203531478,3.261613936223841,-0.08236980843359444,-0.3866470033182776,0.14774992017819374,-0.053657105721929166,-0.34062660645072135,0.9386642342374287,-1.8403734072755202,-2.022207094181447,4.152029514312744,0.6338628952217427,1.3516384480542658,-0.5958334319250399,3.0,0.4899318143909665,0.49495327923370863,0.29037012542496243,-0.6548005823844643,0.33709947338349416,-0.20303730736746195,0.6452720311391996
12.4,-3.8114426717587175,-0.14874891710940988,3.6064543537922096,-0.12385947589755913,-0.42165687658107553,0.14104132439048092,-0.0543249322184627,-0.3444982842372282,0.9372100587373995,-1.841665487905635,-2.021230897776997,4.152163028717041,0.634327383227686,1.3514694761747243,-0.5958417994584133,3.0,0.4898767738770548,0.49489785031183064,0.29038194104754167,-0.6547970379806763,0.3370878634528768,-0.20303638359917378,0.6452819835540712
12.5,-3.5335176134152553,-0.011994229906554715,4.421978752287254,-0.11488032651279444,-0.3949526775370145,0.14787947740197915,-0.05490922453298117,-0.3476996872621928,0.935995551893254,-1.8432363301583465,-2.0200856143895276,4.152422920826627,0.6348212811333724,1.351176622516745,-0.5958204324028025,3.0,0.489663819949172,0.4946106331168648,0.2904050516580715,-0.654802026107758,0.337116441431968,-0.20304162286702854,0.6452603435086838
12.600000000000001,-3.118203438865007,-0.12112618745755155,4.968776713603551,-0.1279416892912964,-0.3709988902143687,0.1520988311287286,-0.05519910307943492,-0.3492045652672625,0.935419193168413,-1.8447029665284012,-2.019058797980989,4.152781768976679,0.6352873246234947,1.350957322217686,-0.5958363931301824,3.0,0.48914185775393737,0.4940790563478644,0.29049212266500196,-0.654780037001392,0.3371085926442333,-0.2030682851055469,0.6452783674463082
12.700000000000001,-3.0619501386848724,-0.20157315916974822,5.151196034609642,-0.15062603228820362,-0.38809506275731326,0.10996478668291106,-0.0558131099737616,-0.352645535504715,0.9340823257139795,-1.8462735954362808,-2.0181170902647914,4.152924176284913,0.6357644001882333,1.3507176661704408,-0.5957346611658828,3.0,0.4888956358205406,0.4938713421330493,0.2905562173232787,-0.6547632121270887,0.3371077931250649,-0.2030777514502704,0.6452928782539502
12.8,-2.988076990581205,0.3774484610599349,5.14646011005896,-0.14959487780673447,-0.38059546480736106,0.11968144368360498,-0.05662483538508493,-0.35727938188826375,0.9322791271485414,-1.8478211659962567,-2.017169672908419,4.153196881336507,0.6362571832027811,1.3504938323566396,-0.5956983563327073,3.0,0.4885668721448216,0.49353213127601964,0.29057199699041486,-0.6547687572924703,0.3371354979714794,-0.20304261473190466,0.6452838345131763
12.9,-3.3450347771205444,0.6228334204925741,5.230797802033691,-0.17410503125177793,-0.3635563744495077,0.12227979355557038,-0.05660958174095789,-0.35741601905168163,0.9322014359975096,-1.849212402945397,-2.016127802846784,4.153449956202667,0.6367160516926269,1.3502460858165817,-0.5957524640128765,3.0,0.48804500532273004,0.4930521037564056,0.2905334301421622,-0.654825291045215,0.33713943264246027,-0.20301750684765546,0.6452323093882012
13.0,-3.175023136342379,0.936707754665099,5.521406824994751,-0.19320570586027572,-0.37703474621151767,0.12402851219508408,-0.05385086710032965,-0.3414020477361217,0.9383031054600385,-1.8505741347162226,-2.0151133572591067,4.153637409210205,0.6371587666368751,1.3499939507828402,-0.5957406202899378,3.0,0.48785717606447526,0.4928413645909241,0.29058264715881627,-0.6548165486394859,0.3371254680391321,-0.2030488455531031,0.6452386169060402
13.100000000000001,-3.243484504530703,0.7454947724144434,5.5754571717100365,-0.18706741031242818,-0.3945421185515238,0.12251022290611066,-0.052700372137722704,-0.3347557024228094,0.940829979517208,-1.8522224757308123,-2.0140986802094685,4.153897328712191,0.6376764882307785,1.3497863950557445,-0.5957092625075476,3.0,0.4873729419190481,0.49236075877728985,0.2907822429479456,-0.6547309082849637,0.33711026499319874,-0.20306640027024006,0.6453279352808527
13.200000000000001,-3.54435662129645,0.8741705315513744,5.627400183768914,-0.200246168819053,-0.38697573362514787,0.10996441909838171,-0.052609473434481586,-0.3342971446378144,0.9409981783844584,-1.8537969589233398,-2.013112754969211,4.15414069205533,0.6381902908262681,1.349525857817553,-0.5956929365741175,3.0,0.48717894695855846,0.4921550566349431,0.2907233226796463,-0.6547874431991545,0.3371116116164843,-0.20306669757639026,0.6452697744954966
13.3,-3.608619506017497,1.2729754662940007,6.013773151396099,-0.22300817437652298,-0.3850268968669372,0.09724885320597167,-0.052701034370084616,-0.33501563245988836,0.9407373858433501,-1.855095566608233,-2.0120618853450214,4.154396237232012,0.6386685760836203,1.3493223226012128,-0.5956249025831972,3.0,0.48678563543425324,0.4917920420596151,0.2906921656000114,-0.6548331065444765,0.3371080782202057,-0.20305804726081683,0.6452280028134346
13.4,-3.4237306340544684,1.0609357244961746,6.201058982857705,-0.22739726814062333,-0.3823754612134067,0.07510503442831995,-0.052478003507149096,-0.3336182549740026,0.9412459287968655,-1.8565234929806838,-2.011020820489674,4.154618475209019,0.6390877389386496,1.3491221902673312,-0.5955672639663541,3.0,0.4862513511533534,0.4912745388194642,0.29087574621833767,-0.6547406529441986,0.3371124307919528,-0.20303258881692476,0.6453275557932132
13.5,-3.8050960951100334,1.0412264340038704,5.876486478807689,-0.2224349076014183,-0.39727510310079156,0.07734279774603561,-0.05231464699928321,-0.33277653126460854,0.9415534483542493,-1.858233525633606,-2.0099890070801982,4.154872417449951,0.6395668221762643,1.3489189147949219,-0.5956055932933889,3.0,0.48603724277515514,0.49105699988028345,0.29092995334891386,-0.6547372633793545,0.3371038313532282,-0.20304212044565254,0.6453324880667495
13.600000000000001,-3.4744518842605543,1.0055194685380895,6.056077814968183,-0.23469899746056833,-0.4110711545933879,0.07882479429045365,-0.05230103534406874,-0.3330029849154887,0.9414739956724782,-1.8596787276495441,-2.0090488462077274,4.155106597491687,0.6399987620347926,1.3486818450547473,-0.5956058872942164,3.0,0.4856691185510964,0.49071731570215793,0.29092474316420824,-0.654791180814104,0.337078889721181,-0.2030211166880022,0.6452974181035934
13.700000000000001,-3.458714096930533,1.1364773797245693,6.30128366445272,-0.23933173195983343,-0.4083732505224369,0.08524925699545616,-0.05235608996534479,-0.3336426089117163,0.9412445792400517,-1.860979332722092,-2.008142066928809,4.15533596506718,0.6405043966536024,1.34847972723275,-0.5955815629169305,3.0,0.48517070892652353,0.4902351425204319,0.2909183614902522,-0.6548458976487133,0.3370827046556033,-0.20300952044301934,0.6452435471697565
13.8,-3.5029931610256395,1.1070666974054189,6.386473363197746,-0.24944602562750956,-0.39811485660373835,0.07584661553393846,-0.052224819834007695,-0.3328304327476744,0.9415390087139452,-1.8625146540416007,-2.0071105767871553,4.155555248260498,0.6410194279494145,1.348252800055515,-0.5955407731952578,3.0,0.48501319211884664,0.49007754903374473,0.29096707200899324,-0.6548066145792021,0.33708185513756267,-0.20302269579771184,0.6452797110024252
13.9,-3.4973071345434468,1.598962593016592,6.270487014177118,-0.25996657452334376,-0.3971766889850229,0.06833341760697412,-0.05211351524450411,-0.33213435470677577,0.9417912678382494,-1.8641885844775468,-2.0059872100761362,4.155777543491677,0.6414687842067215,1.3480187893410007,-0.5955587972700109,3.0,0.4846854609861973,0.48974390247326954,0.2910027330740959,-0.6548003172167925,0.3370715783211938,-0.20302089594235806,0.6452920358036426
14.0,-3.480924798947083,1.7683395355208098,6.461674446302198,-0.28838492333479737,-0.4026208735531029,0.05664208937699368,-0.05234804695295139,-0.33344928871061646,0.9413130665669939,-1.865531824073013,-2.0048894620629367,4.156037476598,0.6419218522745784,1.3477589840791664,-0.5955337936322728,3.0,0.4841390272935467,0.48917418521458966,0.2910654972053963,-0.6548233540903977,0.3370825980053434,-0.20301178941460316,0.6452657672761282
14.100000000000001,-3.429512613700589,1.9268871589063092,6.611136298033417,-0.28314452039944854,-0.3999697042079775,0.03796274804515613,-0.05248336355662521,-0.33414005911078193,0.9410610440478447,-1.8669682162944805,-2.0039004009735395,4.15622691265832,0.6423455797598852,1.347552714949416,-0.5954605062974985,3.0,0.4838876210543076,0.4889071293736494,0.2911772958692399,-0.6547823189989358,0.3370829375137041,-0.20301912499696623,0.6453049223808652
14.200000000000001,-3.429272440161454,1.4684478901090323,6.471809452519763,-0.28027710888375296,-0.41352310375332463,0.04659854506011416,-0.05253604238461861,-0.3343109541150974,0.9409974092648464,-1.8685030554697801,-2.0030580360459034,4.156483487860305,0.6428583101227107,1.3472787738916476,-0.5954893271075647,3.0,0.4834159215405327,0.488440602547051,0.291259615326287,-0.6547577507578315,0.3370790117064386,-0.20302047100341702,0.6453314776478107
14.3,-3.4295613485794427,1.1206653705540386,6.739395714116828,-0.28251193715310735,-0.4497411026466328,0.03557916296298903,-0.05251640584721549,-0.3341790222120124,0.9410452768729772,-1.8700362699360353,-2.002181192437643,4.156742572784424,0.6433145153844771,1.3470703504689054,-0.5954740727701845,3.0,0.4832520686023907,0.4882460446163977,0.2912275860120122,-0.6547667703421455,0.3371007322259984,-0.2030251907357754,0.6453094952928505
14.4,-3.769507422728812,1.5545887714197697,7.0562629885987596,-0.30018029995024154,-0.44597719663991847,0.033688644633558806,-0.052433589059605476,-0.33378251749409016,0.9411905615228608,-1.8714837671529274,-2.0010175908407946,4.156963600730096,0.6437391204884458,1.346797697456776,-0.5954445255774178,3.0,0.4827700542003823,0.4878047670986824,0.29109361608402673,-0.6548966533764851,0.3370960745898178,-0.20302461098854802,0.6451802982309404
14.5,-3.6891837249272266,1.8793263180625277,7.204944634612176,-0.3217117186767151,-0.4527597371473377,0.025604579945558772,-0.052356857518205756,-0.33341510500417976,0.9413251846996559,-1.8729286328103336,-1.9998680553831996,4.157149791717529,0.6441960226363381,1.346596456265395,-0.5954501363256894,3.0,0.48256446844930717,0.4875780601589418,0.29121151678058754,-0.6548406610558741,0.3370867190508782,-0.20303940225909173,0.6452373622146281
14.600000000000001,-3.594391211583541,1.9462751827061568,7.356180929786398,-0.3338738885603769,-0.4573850627265681,0.018034386020953523,-0.052508803171000644,-0.3341409480448958,0.9410591608578028,-1.8744077682495117,-1.9987380442889702,4.157343680443772,0.6446477609821777,1.3463635444641113,-0.5954104491071612,3.0,0.48223326504193836,0.4872107430833973,0.29136051986239386,-0.6547744777004468,0.3370976854768559,-0.2030313668852517,0.6453013233048265
14.700000000000001,-3.7809227384695547,1.5010706246481327,7.271421298429884,-0.3315017545854053,-0.47766262046071606,0.009466981030930292,-0.0525802658510588,-0.3344251376773923,0.9409543735796759,-1.8757836955404046,-1.997916250916764,4.157581806182861,0.6451415427249689,1.346115813889527,-0.5953612826596894,3.0,0.48170319967319397,0.48669249372159107,0.29151265788232056,-0.6547422362241034,0.33707210131018184,-0.20303893994010933,0.64534501740588
14.8,-3.8739412966806848,1.272277017006475,6.888808044803377,-0.3158249467862733,-0.4669903114737541,0.008377533497589294,-0.052575838444149856,-0.3342926061975827,0.9410017177435566,-1.8773344408699861,-1.9970116882494846,4.157803276756378,0.6455992874225798,1.3459109099548754,-0.5953571418562944,3.0,0.4814787809059992,0.486434844803832,0.2914895953193465,-0.6547474800117578,0.33709842921666233,-0.20303490461034912,0.6453272146343884
14.9,-3.867213870155907,1.8499177228119126,7.113893397068869,-0.3102922889536198,-0.4586033828304704,-0.001341167448043404,-0.05251758591627804,-0.3338286086945383,0.9411696771222691,-1.8788954161952192,-1.9960463185165502,4.1580253234772915,0.6460953843754349,1.3456915114736798,-0.5953575483582505,3.0,0.4810707534055027,0.4859889226651883,0.2914130766832763,-0.6548126694065464,0.3371194506398828,-0.2030557060582671,0.645243538690714
15.0,-3.892106286292006,2.2061161529903424,6.972354808177704,-0.3281724063887423,-0.46786047379282597,-0.0074398462159567256,-0.05256259287990103,-0.3341651908460421,0.9410477118383148,-1.8802604414900672,-1.9949001589519422,4.158293634319495,0.6464830174635379,1.3454318039586122,-0.5953137472256124,3.0,0.4808460344152157,0.48577090894740604,0.2913992837519242,-0.6548357738496837,0.33712849992486005,-0.20303845045045468,0.6452207928017956
15.100000000000001,-3.641040760127458,2.1980734553160226,7.516659641313107,-0.34535691622597936,-0.46760598294402206,-0.0048900209559080005,-0.052628266973638774,-0.33457463874892673,0.9408985440293892,-1.881551174644072,-1.9936496220030726,4.15852078249413,0.6468564457101695,1.3452092306396735,-0.5952781721932476,3.0,0.48041800924841144,0.48536218346038695,0.29155523992327065,-0.6547923192042389,0.3371163535572826,-0.20303018630425995,0.6452738382459289
15.200000000000001,-4.115543977896658,1.9434932803745653,7.2266198977454525,-0.31938927364319336,-0.4706820652044447,-0.012066549552712252,-0.0524288919255176,-0.3333435510072635,0.9413459921099868,-1.8831324227965704,-1.992730808731975,4.158804416656494,0.6473153712261732,1.3449520535988382,-0.595269799778016,3.0,0.4799702237491666,0.4849147783522953,0.29181559020530445,-0.6546889594701579,0.3370815031813183,-0.20305283675100222,0.6453897830367905
15.3,-3.902971908123708,1.3944211256469499,7.354599279392214,-0.2847474480267373,-0.5046220925740855,-0.025627655955944476,-0.052303297513468135,-0.3326975935207872,0.9415820049310359,-1.8848002176054865,-1.9920347047132865,4.159021262223448,0.6480161386677246,1.3447078356857822,-0.5952569728881906,3.0,0.47973400181651404,0.4846582528211486,0.2917905599108991,-0.6547213282773054,0.33708755982982497,-0.2030554110528318,0.645352972681571
15.4,-4.386853564752518,1.974976458231166,6.8464981959066415,-0.3123449320694127,-0.5230510702904638,-0.03413168482411235,-0.05228350931095909,-0.332744697513489,0.9415664609192043,-1.8849672149121761,-1.9919210668154896,4.159057729393243,0.6480774478563289,1.3446395294740796,-0.5952223187880676,3.0,0.47936522313199426,0.4843354964701886,0.29159191117215183,-0.6548249666530129,0.33710399332617114,-0.20301832230699784,0.6452508981311698
15.5,-4.228234659724573,1.663169976329836,6.5669437623709666,-0.31336429214747724,-0.5375871190842422,-0.03420652482662813,-0.05226221654572075,-0.3325939140675963,0.9416208922953205,-1.884934425354004,-1.9919058285155238,4.159101963043213,0.6481197112569725,1.3446359617793144,-0.5952054654728216,3.0,0.47926707626935683,0.4842215540321566,0.29157617142269904,-0.6548128356385967,0.33711827992563737,-0.2030276749098933,0.6452528022748935
15.600000000000001,-4.309424866488105,1.5866777441666529,6.704691497413789,-0.3155603963862991,-0.5373196446318136,-0.028707724559505248,-0.05222860730666369,-0.33230706666764226,0.9417240445732031,-1.8849552804794496,-1.991823546107426,4.159106368002534,0.6481034695805755,1.3446339426664116,-0.5952315959077229,3.0,0.47922993036175665,0.48420092501235745,0.29158316415767865,-0.6548088728031966,0.33711741949168084,-0.20303364696420678,0.6452553942230093
15.700000000000001,-4.110568132447586,1.6529730791623174,6.626468523605215,-0.3240595927649081,-0.5391654294973802,-0.025950999566718848,-0.05229982050282102,-0.3327688941105185,0.9415569141867596,-1.8849516172987806,-1.9918062027645014,4.159136387555769,0.6481048635941925,1.344615518464262,-0.595221854676855,3.0,0.4792304857354678,0.4841828391174299,0.2916526766327348,-0.6547749035013617,0.33711060474208565,-0.20304737675294826,0.6452891047499206
15.8,-4.131677955944747,1.6025909915772838,6.383132496625663,-0.31862756933636444,-0.5383608913582908,-0.02374883599461956,-0.05234943928663612,-0.3330903220077842,0.9414405836949504,-1.8849515159966435,-1.9917980633177699,4.159124527277123,0.6481145912108135,1.3445972885012003,-0.5952212191990063,3.0,0.4792027402835591,0.4842046883580722,0.2916579223286549,-0.6547827436497625,0.33708501883075354,-0.20303741356239197,0.6452976502299186
15.9,-4.026761208892063,1.8015507464691636,6.475491750615925,-0.3146158749281653,-0.5408564258987559,-0.022204519835673096,-0.0523572992258699,-0.3331328384823214,0.9414251031588957,-1.8849706649780273,-1.9918048288581731,4.159120263656653,0.6480918393805252,1.3446329860216386,-0.5952547365133114,3.0,0.47919983801417854,0.48419643445312993,0.2916741562779284,-0.654766972003721,0.33709472583165284,-0.20303261132048367,0.6453100936216223
16.0,-4.2098667374198815,1.6153949500343712,6.300271359411722,-0.31818470037119045,-0.5361620636360924,-0.020540065159339357,-0.05227771333379659,-0.3327342658420674,0.9415703999011478,-1.8849470088619702,-1.9917968764259268,4.1591267585754395,0.6480972009846191,1.3445945527543157,-0.5952041680848545,3.0,0.4791919062118864,0.48420728465564833,0.2916729631529668,-0.654766886342388,0.3370778115061006,-0.20303187815995716,0.6453192465676136
16.1,-3.9435637044241276,1.3256515436599112,6.338702419385968,-0.3245033449494803,-0.5400926047258883,-0.018347534895423852,-0.05222547456870529,-0.3324436231309204,0.9416760253087075,-1.8849439010388396,-1.9917835724646318,4.159123766253912,0.6480788888157012,1.3446200354568145,-0.5952401270122164,3.0,0.4791929975861342,0.48420139226317105,0.29166033134806185,-0.6547787946006147,0.33708913731291723,-0.2030418927032469,0.6452980965836504
16.2,-4.151797364705271,1.4256332818477973,6.1551163973951795,-0.3197203885739699,-0.536331629349089,-0.018524057274648988,-0.05223382659713732,-0.3324088638977779,0.9416878327243989,-1.8849849915332597,-1.991809984246725,4.1591285136607,0.6480894407672015,1.3446181896422016,-0.5952031618846298,3.0,0.47921079689655777,0.48419638616209604,0.2916846154419297,-0.6547623207644466,0.3370855412069183,-0.20305578650952705,0.6453123187894308
16.3,-4.061546983635666,1.4227531033076657,6.254143251059754,-0.31712460745784193,-0.538329860422985,-0.017237597502838646,-0.05225846725221583,-0.3326137519936861,0.9416140968631967,-1.884916558735969,-1.9917997955463178,4.159136539727831,0.6481167632894008,1.3445949762103815,-0.5952600742654119,3.36760618703865,0.47919031241066407,0.4842095113774925,0.2916511358956355,-0.654790604478639,0.337086151742139,-0.2030216146823765,0.645294052786739
16.400000000000002,-4.062906718150914,1.7110452367647813,6.243347628583382,-0.31235563557671503,-0.5388177219358086,-0.014204230940294174,-0.05226388786971638,-0.3327142327165207,0.9415783073728506,-1.8849689243410164,-1.9917876965290031,4.159162998199463,0.6481001849337807,1.3446351150141407,-0.595204902581545,4.0,0.4792135352832233,0.4841933443664025,0.29164807158781614,-0.6547743755131752,0.3371025207831571,-0.20303486795133796,0.6452977995072936
16.5,-4.216215328612966,1.3568389646843948,6.339039131263574,-0.31921583849599955,-0.5352094911009158,-0.014945989866235762,-0.05223021804537666,-0.33256053301122296,0.941634468125117,-1.8849573135375977,-1.9917873480268338,4.159168462326686,0.6481423769733599,1.3446370937621928,-0.5952268900226182,4.0,0.47920541260062544,0.4841928866460938,0.2916753398929217,-0.6547629371369424,0.337097820515568,-0.20303934619581132,0.6453104519933296
16.6,-4.201732951797848,1.4473491849927713,6.2267249599866075,-0.31700897550786483,-0.5340798526686842,-0.018279320387740213,-0.052177803612101316,-0.3322966318750796,0.9417304919782091,-1.8849561534515789,-1.991797459106302,4.159149972053423,0.6480525141576804,1.344579777652272,-0.5951904775836813,4.0,0.47917343460278855,0.48421770960465804,0.2916734289543206,-0.6547811302003708,0.3370822965092747,-0.2030080126556603,0.6453099594080026
16.7,-4.213869020681061,1.6398752565862342,6.115235855468371,-0.3109209459580116,-0.5327812790391154,-0.017057209866546148,-0.052090490339870704,-0.33182755697399224,0.9419007332204586,-1.884942726335415,-1.9917861423888148,4.1591267585754395,0.6481003440950049,1.3446235052763944,-0.5952346288889404,4.0,0.47918272940962786,0.4842091646636452,0.29167074213477834,-0.6547779441873712,0.33708120030749195,-0.2030206068258277,0.6453098026600042
16.8,-4.157740215062118,1.4901705811933639,6.165452989174798,-0.3151971914538374,-0.5338695670781978,-0.014676922105530914,-0.052022130068189926,-0.33134324270689114,0.9420750024149613,-1.8849681944685783,-1.9918159189412457,4.159137062432106,0.6480972009846191,1.3445945562348998,-0.5952332354356847,4.0,0.47920296762222264,0.48420684720934637,0.291660485286175,-0.6547734067561315,0.3370918676655643,-0.20302664645122293,0.6453069342487194
16.900000000000002,-3.8752408999862205,1.5849264831901515,6.13061504084408,-0.30987500598920803,-0.5405239871491367,-0.013737829390584592,-0.05210885115858488,-0.33191018740478856,0.9418705693976521,-1.8849370173606488,-1.991809984246725,4.159181657319583,0.6480865084860353,1.3446268365987346,-0.5952034995686978,4.0,0.47919808502134104,0.48420562811213813,0.2916448916903977,-0.6547837912181511,0.337084901886479,-0.20302261049445208,0.6453013058302189
17.0,-4.217735593790069,1.4519063535162964,6.185998575924017,-0.31460997614872965,-0.5334489634475967,-0.016673239680078035,-0.05208600882523679,-0.3317729085847031,0.9419202497885403,-1.8849482512397397,-1.9918203382059834,4.1591035926916975,0.6481209039924551,1.3446043509455738,-0.5952372191009494,4.0,0.47918662475523816,0.48420617322562975,0.2916577297873669,-0.6547871995107057,0.3370916899851068,-0.20301620130266643,0.6452963179102661
17.1,-3.983586910691433,1.5917026596817656,6.010421940827225,-0.3072460483634948,-0.5364425088423319,-0.008025325677910668,-0.052013663350640706,-0.33130259447579996,0.9420897033361941,-1.8849585983331383,-1.9917867600789785,4.1591159074662,0.6481074096960885,1.3446129096957355,-0.5952612333853315,4.0,0.47919918432926717,0.4842017192896803,0.2916538796743189,-0.6547931181159605,0.33709001149248913,-0.2030261562121816,0.6452880570053017
17.2,-3.915206044863919,1.5987928763519614,6.005667838333718,-0.31008431099593603,-0.539157133389569,-0.01259969535234326,-0.05198699801013121,-0.33111754655975584,0.9421562357191057,-1.8849716223583615,-1.9917742214598597,4.15915060043335,0.6480932118998936,1.3446362733016752,-0.5952057833858938,4.0,0.479213644095725,0.48419197775756495,0.29167032849996516,-0.654771615159474,0.33708512739770147,-0.2030402422034332,0.6453079953903408
17.3,-4.099423906717681,1.7513939139124273,5.965745519702005,-0.3073937563073294,-0.5360344712621294,-0.012382201648492906,-0.052086911028977126,-0.3317313056902663,0.941934799182609,-1.88498122218046,-1.991785218545727,4.159091405840781,0.6480857640153171,1.3446135520935059,-0.5952380339251917,4.0,0.47918943571488,0.4842008711674935,0.2916637830530078,-0.6547771240827371,0.3370901500887952,-0.2030163938645416,0.645307285185353
17.400000000000002,-4.160137336950085,1.6261686800851343,6.025917138201616,-0.30552326620709686,-0.5346661114704032,-0.012056943009402922,-0.05201427526052139,-0.33121175715940954,0.9421214346773432,-1.8849680190938862,-1.9917768325297358,4.1591408485513774,0.6480980365269794,1.3446029646691733,-0.595236258397676,4.0,0.47920372057488864,0.48419957295037774,0.29166535259614507,-0.6547738271418393,0.33708931373184603,-0.20302916083395048,0.6453070507199525
17.5,-4.138083331045857,1.6684365639079977,5.888753671139975,-0.3044009716763693,-0.5329079601302283,-0.008023479720937345,-0.05192950789268866,-0.33065188222845043,0.94232299087885,-1.8849609502785891,-1.9917872098205431,4.159138202667236,0.6481021508960743,1.3446259498596191,-0.5952477751957044,4.0,0.47921125610278603,0.48419536903905,0.2916756047470716,-0.6547652982180866,0.3370915797477658,-0.2030384001983313,0.6453116139954697
17.6,-3.8724081886177535,1.6811132037724172,5.9551452267605285,-0.3059110285097577,-0.5377461374991346,-0.005120641381828002,-0.05196285757129426,-0.33098515937638395,0.9422041420017789,-1.8849696903873756,-1.9918055985887924,4.159159517518564,0.6480927457130686,1.3446374426486987,-0.5952362587779333,4.0,0.47920176314842783,0.48419383581844566,0.291634841889819,-0.6548002302900893,0.33707948056450815,-0.2030445150532087,0.6452805646393005
17.7,-4.003868882813427,1.6229747097627443,5.957778201702468,-0.308828748010717,-0.5372008311653106,-0.009897684848830395,-0.05194056991700675,-0.3308445225423568,0.9422547693514051,-1.8849565865693645,-1.991784597581319,4.15913674873077,0.6481186352317463,1.3445912247527483,-0.5952271506762311,4.0,0.4792003988214776,0.4841923874952396,0.29164169050479366,-0.6547899818493925,0.3370916333625462,-0.2030461687236235,0.6452840953822592
17.8,-4.134325058806282,1.5527315952946839,5.901019896978322,-0.3056484832262671,-0.531750114860323,-0.007331405346043498,-0.0519611724321066,-0.3309500704996291,0.9422165652236238,-1.884956728725485,-1.9917742214598597,4.15915060043335,0.6480967786203155,1.34468562522203,-0.5952256361590784,4.0,0.47919115282745134,0.48419725719430007,0.2916620418602957,-0.654782384850289,0.3370840106655991,-0.203034017615675,0.645299609432859
17.900000000000002,-4.266025008663845,1.6685675863659315,5.785814981999552,-0.30276252658142633,-0.5283258788972377,-0.012572409458077303,-0.05194637456813564,-0.3308811476363983,0.9422415711046105,-1.8849706649780273,-1.991791625817507,4.1591243804190805,0.6481068903792344,1.3445971676986173,-0.5952238083495143,4.0,0.4791987174518853,0.48418931995118186,0.29165563195743816,-0.6547853260476973,0.33709146142592067,-0.20304629358042553,0.6452888702663321
