xiamingqian9007/apple-picking-rnn/final_data/grasper_20191127_115126_noimg.csv
,/manipulator_wrench.fx,/manipulator_wrench.fy,/manipulator_wrench.fz,/manipulator_wrench.tx,/manipulator_wrench.ty,/manipulator_wrench.tz,/ground_truth.x,/ground_truth.y,/ground_truth.z,/joint_states.elbow_joint,/joint_states.shoulder_lift_joint,/joint_states.shoulder_pan_joint,/joint_states.wrist_1_joint,/joint_states.wrist_2_joint,/joint_states.wrist_3_joint,/mode./mode,/manipulator_pose.x,/manipulator_pose.y,/manipulator_pose.z,/manipulator_pose.rx,/manipulator_pose.ry,/manipulator_pose.rz,/manipulator_pose.rw
0.2,-0.3096486796281236,-0.7338352328381265,0.06566688372116751,0.02217611060932244,0.011407914269974055,0.005103803047224283,0.09771780288445846,0.15686219033309148,0.9827743799047085,-1.609113164753217,-1.7835254207165765,4.129625056192527,-0.05132462182111097,1.3643215808551352,-0.10051791535999526,1.0,0.499862010823951,0.48672292011146767,0.4404473058747697,-0.6093926930791409,0.5236881705341072,-0.052808324218996665,0.5929608136779136
0.30000000000000004,-0.1463390810986246,0.043876916282089284,-0.2765032899558909,-0.008141612512807537,0.02143016232805613,0.05140229635131091,0.09783425257723309,0.1570046595290837,0.9827400358757061,-1.606503997362443,-1.7862183328409937,4.129248521950123,-0.051080156906996195,1.3647418949399552,-0.10061376836448814,1.0,0.4999000924724409,0.48676960657921275,0.4404215587151532,-0.6093933209070995,0.5236918552267442,-0.05280526442065159,0.5929571866943288
0.4,-0.2487195413113924,0.16005639710536543,-0.1365124707465598,-0.013105148997351906,0.02907305323893041,0.12944378647698823,0.09779743962006715,0.15696310970589472,0.9827503064478117,-1.6033246123394365,-1.7897071982798642,4.1285372286677715,-0.050756735498733455,1.3652844759922333,-0.10078475216106611,1.0,0.5004630632589733,0.4874107383809509,0.4400860673359915,-0.609442684078712,0.5237033136325482,-0.052797499631350366,0.592897021535698
0.5,-0.3259054565887341,-0.49801780850874666,-0.23283429913697784,-0.008944122656491964,0.03895914036999131,0.20225283105717845,0.09758995864674734,0.15671718026047124,0.9828101744285122,-1.5998465862884215,-1.793263828256155,4.127943603978064,-0.05042254984169331,1.365919634096576,-0.10101133843167147,1.0,0.5017220879113458,0.4885767308034716,0.43958083240795215,-0.6094177082894274,0.523716128296955,-0.05281414401714238,0.592909891953783
0.6000000000000001,-0.14717186818735978,-0.1802418765459175,0.005186207685946282,-0.002374214120626882,0.033203982240234096,0.2446445060322441,0.09772156544800488,0.1568227501217964,0.9827801558113299,-1.5966882078614952,-1.7967762988841662,4.127451955365527,-0.05007603892559493,1.36656755299629,-0.10121205810184561,1.0,0.5024577722173192,0.4892358480864394,0.43944966487891785,-0.6093383318021438,0.523672316981979,-0.05282426890704358,0.5930292559711895
0.7000000000000001,-0.2055774376112783,0.22371693746172736,-0.017724055951978047,0.0057964154046736055,0.03419722053580996,0.27313259732800443,0.09826488118379874,0.15735509858123553,0.9826409999199143,-1.5935920772172132,-1.8000295256506746,4.126932422702899,-0.04984648645434575,1.3671645622415818,-0.1013598180866767,1.0,0.5037234613987,0.49057961810082606,0.43880397012906136,-0.6094076744511148,0.523654610592592,-0.05274025831492613,0.5929811129185142
0.8,-0.05654343423984104,-0.043550564072143194,-0.04591937308175545,-0.008091501915854856,0.041623777596395406,0.2558634817921628,0.09795726736866152,0.15696043919346592,0.9827346767001456,-1.590555951868036,-1.803362004175379,4.126275507726352,-0.04957039773974614,1.3675978006032121,-0.10155944829557015,1.0,0.5042912834135166,0.4912025693115082,0.4385854189900121,-0.6094172500925612,0.5236099022941755,-0.0527068567043738,0.5930137205541277
0.9,-0.30974421719346906,-0.23599846028413746,-0.13827139978975,-0.0009985753093387627,0.03154899647146449,0.25007537285091513,0.09759614552201744,0.15650748782953766,0.98284299443146,-1.5875723949136145,-1.8064449818263915,4.125752772900593,-0.04934881702882876,1.3681158572968406,-0.10171268183148409,1.0,0.5052065884049074,0.4919964270832327,0.4381474470669953,-0.609415355273366,0.5236643916145931,-0.05275858317538513,0.5929629512990515
1.0,-0.2775975518092705,0.18325225430612213,0.06620920544607714,-0.0023607038275724004,0.043375751980535,0.24294150968343597,0.09787312899112594,0.15698102127849367,0.9827398365472785,-1.5847113848370182,-1.8097799252498394,4.1251749992370605,-0.04913854123469324,1.3685207333322456,-0.10183491804865281,1.0,0.5061588653489606,0.4928809251847648,0.4377691781132972,-0.609401541917405,0.5236740172700431,-0.052789358821241486,0.59296590790718
1.1,-0.14405368038131464,-0.17885923510072152,0.04831501297344548,-0.0014783188505596307,0.03336760344479202,0.24190424079138315,0.09773973411559377,0.15690157288724532,0.982765561358788,-1.5818004215677166,-1.8124796606313396,4.12464716585605,-0.04893430924125256,1.368976148074826,-0.1020029096060484,1.0,0.5073548800624725,0.4940246833779957,0.4371055403796032,-0.6094485514195448,0.5237346380457695,-0.052815418333651595,0.5928617239035818
1.2000000000000002,-0.16592491627316713,-0.05959021502814796,0.009774769049351192,0.005635126954694494,0.038461172101500886,0.23989810947704707,0.09697588296511962,0.15596572641450887,0.9829904264852287,-1.5792517872512857,-1.8155932616909194,4.124157297909748,-0.04878074480442078,1.3694799178828965,-0.10213611213391685,1.0,0.5081144020549238,0.49469604706552495,0.43694077239057344,-0.6093596530852566,0.5237214210747836,-0.05282919479448425,0.5929635422828214
1.3,-0.4154540816083068,-0.1739599429623238,-0.17695463490459837,-0.0004108176899359612,0.037408117039342104,0.2385867185571182,0.09768711243108225,0.15688524375461257,0.9827731925592332,-1.576483938360561,-1.8180010254792296,4.123745726228435,-0.04866160239610193,1.3700205253224846,-0.10225326219667608,1.0,0.5092658953591355,0.49582525246317577,0.43628121316348534,-0.6094409448844834,0.5237551029067845,-0.05282885329927815,0.5928502670459848
1.4000000000000001,-0.18262698474283667,0.0750799344039674,-0.09236697519547944,0.002775084506035228,0.03836207286074204,0.23731759224715937,0.0982582984865381,0.15757663007027664,0.9826061804039703,-1.5739973611336953,-1.820724211817241,4.12328509370832,-0.04850071351070822,1.3704154112807552,-0.10238456159216688,1.0,0.5096812844130758,0.4962056853639569,0.4363376269019019,-0.6093282818472736,0.5236968241023657,-0.052773136934047525,0.5930224931520605
1.5,-0.02168433978994996,0.04368952893675976,-0.09969536786820932,0.0013385806723049442,0.03609897654112835,0.2375792145297606,0.09838697068856458,0.15770066155331372,0.9825733928716368,-1.5715781131506839,-1.8232147975295496,4.122898861376737,-0.0483582776835938,1.37076399332804,-0.10253424011203009,1.0,0.5103383030225711,0.49688989780827686,0.4360278369840474,-0.6093678751616156,0.523678973896085,-0.052763306229037236,0.5929984473301273
1.6,-0.263663370803486,-0.15229853175269853,-0.1631493023174108,-0.002133722729754573,0.04201437210053871,0.23897329034786985,0.09849144344098577,0.15789939276572035,0.9825310032624986,-1.5690827211514364,-1.8259476328729038,4.122467299819304,-0.04820376662677837,1.3711244980879254,-0.10268361564073321,1.0,0.5113668874868146,0.49786723794814763,0.4356702844711446,-0.6093335782597791,0.5236677264123335,-0.05278776747515218,0.5930414440191005
1.7000000000000002,0.12415444715313745,-0.14336751326259564,-0.06730761231074728,-0.004568074827844212,0.029457371399382558,0.23935536703006438,0.09844328391159711,0.15787582953761697,0.9825395855343116,-1.566937257865602,-1.828304291116289,4.122143777593646,-0.048128758870595985,1.3714720310437598,-0.10279208818544561,1.0,0.5121339295832928,0.4986020608630649,0.43525266771694826,-0.6093688260981598,0.5236929419605768,-0.05280709294713308,0.592981236848941
1.8,-0.0840395298055494,-0.05161424288263115,-0.18448883936274882,0.007242240087553906,0.03125158116108087,0.23686807504489565,0.0981464609875214,0.15749011166213595,0.9826312094851232,-1.564483465959406,-1.8306257644805342,4.121832741020709,-0.048010572248368494,1.3718310159658667,-0.10288782587973869,1.0,0.5124821734815939,0.4989391417814443,0.4350330751915742,-0.6093839303560771,0.5237226383348685,-0.052803972275670935,0.5929397642520319
1.9000000000000001,-0.08982423939718097,0.05363909958472937,-0.06457273872407068,0.005390882077473525,0.03319610937427524,0.2363515898363498,0.09789897721515109,0.15709601207829021,0.9827189376161871,-1.5623969935985114,-1.8328938863375341,4.121448030433228,-0.047879822274175546,1.3721210356074063,-0.102972188184644,1.0,0.5131238105682274,0.4996327655177959,0.4348187156959123,-0.6093723469027822,0.5236897051527283,-0.052787218672916685,0.5929822468607484
2.0,0.27106429277487326,-0.338321607972213,-0.025927685784798774,-0.006428200179787978,0.03228793147248712,0.23590289712361096,0.09757037678232623,0.15661653375921633,0.9828281287502735,-1.560158103764417,-1.8352850817485067,4.121088455500497,-0.04780797330337265,1.3725009553988934,-0.10307866731752569,1.0,0.5141051336530268,0.5006230516576677,0.43437017551451423,-0.6093908846452778,0.5236811438372946,-0.05280166378973848,0.592969471053564
2.1,-0.39160610574488197,0.11082541026303297,-0.09174533216839062,0.0038544316662271535,0.03806881316685961,0.23312489857951696,0.09744757154851497,0.15645184239502555,0.9828665289189102,-1.5580925242556753,-1.8372679223187458,4.12075184561375,-0.047712837572530246,1.3728494120302634,-0.10320826225207613,1.0,0.5145155989702224,0.5010024788164319,0.43417754507101763,-0.609401021250225,0.5236856799726882,-0.052807991994796966,0.5929544838115346
2.2,-0.014600015967511945,0.06350839399735067,-0.10746251529371278,0.002436168997770723,0.034213012274674166,0.23787674922269117,0.09775758339846964,0.15683523743488414,0.9827747213331992,-1.5560260693375154,-1.8394722001570945,4.120395358432111,-0.047678453434243886,1.3731846518868165,-0.10330757820536739,1.0,0.5153529970122762,0.5018243831368989,0.43387220757860046,-0.6093873724262754,0.5236623096120084,-0.052776935804577305,0.5929919146719428
2.3000000000000003,-0.03884257523642817,0.03574481062829968,-0.2355973151378497,0.006982024889910926,0.034889495883683175,0.23864077315452562,0.09718416633894048,0.15604051942857491,0.9829567442387396,-1.554112424754686,-1.8415743135358151,4.120072832011766,-0.04762999136185253,1.3734849419997446,-0.10339910262669634,1.0,0.5157116457960083,0.5021377799845954,0.43372213105287405,-0.6093790447832923,0.5236843440023461,-0.052782081257329014,0.5929805557722614
2.4000000000000004,-0.12791776220128373,0.4327892064904419,-0.09403805629620034,0.006930435649596172,0.041124682018952884,0.22786883984124148,0.09566974630913441,0.15397490204680572,0.9834314369561135,-1.552268503660179,-1.8431995984467424,4.11973857736013,-0.0475754313563062,1.3737955522393606,-0.10350925127138311,1.0,0.5165131506778132,0.5029405867584088,0.43324191765651054,-0.6094422244363363,0.523703114224357,-0.05279832047363265,0.5928975970443495
2.5,-0.2542713498736869,-0.04949561127295432,-0.2865881965592246,-0.0022526115906597102,0.04277996392730183,0.23556711116003914,0.0954279385884435,0.1536076480287861,0.9835131915670438,-1.5502111113347314,-1.8452431366782425,4.119517238133976,-0.047472642080146,1.3740821087303456,-0.10358486513842712,1.0,0.5168417590904538,0.5032459076586728,0.43323930226313606,-0.6093758285950902,0.5236785638822619,-0.05277324867275158,0.592989751579893
2.6,-0.13567429285635427,0.05982189610532812,-0.12931855552586763,0.0024479843187382834,0.038247499112194314,0.233821350218083,0.09577639246242907,0.1540719511791818,0.9834057791235734,-1.548629026741817,-1.8471571287392243,4.119207125348445,-0.04744608819995122,1.3743549863416815,-0.10364330344740404,1.0,0.5173352334535921,0.5037580453102716,0.43307633629378844,-0.6093759773013036,0.5236507992105116,-0.052776160679747844,0.5930138578803865
2.7,-0.06702326056894894,0.12135285312581028,-0.10115308890055744,0.009458334617909132,0.03391346659519547,0.23264971529714468,0.09681937396875723,0.15556207185661333,0.9830683098574324,-1.5469982699506122,-1.848573752109199,4.118905712020923,-0.0473992231657965,1.374586447191187,-0.10374035191428237,1.0,0.5178951381861657,0.504281636772626,0.4326790324816469,-0.6094287663797233,0.5237112618173454,-0.05280161029595459,0.5929039407060193
2.8000000000000003,-0.007773368001049552,-0.09133925513204447,-0.20162500970669409,0.0018871966245435396,0.034567855407599435,0.2326767403955301,0.0977631143200706,0.15690175891648786,0.9827632807175022,-1.5450310994866527,-1.8504548875743152,4.118624213214371,-0.04739700132172819,1.3748493194580078,-0.1038439909564417,1.0,0.518644719210977,0.5049519765477849,0.43252064125330636,-0.609358569920473,0.5236752794687185,-0.05279328639667311,0.5930086035204508
2.9000000000000004,-0.18789666037524447,0.006180195582204451,-0.14113435106571076,0.007482666257439301,0.035982153701032096,0.227412484517961,0.09847081841770902,0.15788365300720913,0.9825354075302447,-1.543512975462992,-1.8522183596261852,4.118380069732666,-0.04734976709399419,1.3750503574571007,-0.1039151679626654,1.0,0.5189248987890203,0.5052256808403457,0.4324798383101134,-0.6093276983632955,0.5236563725595266,-0.05279186599011102,0.5930571459567529
3.0,-0.31175683233010026,-0.07525781498333842,-0.12868951501871778,0.004848968322805438,0.04300730833884029,0.22991713769621314,0.09873343820641585,0.1583083475717048,0.9824409185134841,-1.5420889926652517,-1.853702677219901,4.1181061818907665,-0.04730256021533208,1.3752910138174694,-0.10402328172792608,1.0,0.5196039374416817,0.5058885937023685,0.43200956095665405,-0.6093942507141235,0.5237019215943959,-0.05282085709440811,0.5929459516437576
3.1,-0.3282266295719791,-0.08156164700646164,-0.07182362456426747,0.008971406507674438,0.04111281024761774,0.22984552608217387,0.09900424245708771,0.15871315428449884,0.9823482701399088,-1.5403252530836755,-1.8551722965636195,4.1178879737854,-0.047279250495319974,1.3755073547363281,-0.10405657204024663,1.0,0.5198668355304749,0.5061269795697235,0.4318490758017643,-0.6094194891594613,0.5237171686706884,-0.05282925092962403,0.5929057966645239
3.2,-0.17237665471241784,-0.2602897688665149,-0.1782879669658783,-0.0031466760278101875,0.03944100426335677,0.2305183027938583,0.09939241604129971,0.15925051110162688,0.982221939287202,-1.5387792587280273,-1.8568956914669212,4.117682123891678,-0.047290639286377,1.3757004402511552,-0.10416217868515752,1.0,0.5202908286156059,0.50650082666348,0.4318702207553496,-0.6093162159243175,0.5236764998684851,-0.05282561368772414,0.5930481658648631
3.3000000000000003,-0.3250100512803071,0.07507605809075842,-0.20213649152930366,0.006642284818840499,0.04156090115594122,0.22549488126797324,0.09999584245594163,0.16004180004872862,0.9820318178301799,-1.5375347831320525,-1.8582734766282762,4.1174776162816045,-0.0472525016238048,1.3759026527404785,-0.10418211926837492,1.0,0.520922132850007,0.5071734869526008,0.43149872145489276,-0.6093645995984754,0.5236992968758082,-0.052803427887482074,0.5929802941171869
3.4000000000000004,-0.24918159793944644,0.08379139419114058,-0.2720356402956681,0.007064918413202666,0.04226455019687638,0.23034615691140936,0.10387632226569915,0.1653729693881726,0.9806585179803528,-1.5361547470092773,-1.859657147405323,4.117252826690674,-0.047253445460475225,1.37614107131958,-0.10429235735554927,1.0,0.521148062559464,0.5074275562218704,0.4313088315075168,-0.6094232136202737,0.5237034560964877,-0.052811034471097376,0.5929157034616513
3.5,-0.3096730075676948,0.2755902411983756,-0.13659839873361893,0.0076668099895585125,0.04073173208278374,0.23056366450376165,0.11696148067539623,0.18345588087376621,0.9759618737967425,-1.534673680861791,-1.860970646341477,4.117045735058031,-0.04724043662075523,1.3763419644613015,-0.1043538024236877,1.0,0.521521514418878,0.507768764905628,0.43113389392736173,-0.6094367208302487,0.5237101553691874,-0.052831382898074285,0.5928940895707531
3.6,-0.05395637292392724,-0.09569744676407094,-0.18308254980609723,-0.0008859553814534737,0.03745299347892587,0.23406353312257958,0.1624881867799718,0.245986048091903,0.952578557236669,-1.5332659110913276,-1.8622913937257148,4.116858005523682,-0.04722404530398303,1.3765577453859723,-0.10438822537370594,1.0,0.5220848404275239,0.5083341157729705,0.4310015361634404,-0.6093864673161408,0.5236764926914377,-0.05281494750560262,0.5929769352802258
3.7,-0.07984046242368917,-0.029687217893987483,-0.27311000641694766,0.0025380501295606548,0.037307605823394166,0.23141254387581628,0.21115146358713205,0.3127825338284452,0.9258386299020314,-1.5320732621788289,-1.8635988859689954,4.116664227447068,-0.0472288977748906,1.37679812339689,-0.10442326517395908,1.0,0.5223745711368543,0.5086185498630066,0.4309366041003794,-0.609361107940168,0.5236762101833079,-0.05277780524464472,0.5930065516430126
3.8000000000000003,-0.1479382923047568,-0.18427488933440145,-0.238151691695901,-0.002717130547518369,0.039038712216391186,0.23262915157447342,0.2301079859009369,0.3387712352408017,0.9122941286726185,-1.530824274537255,-1.8649187939711984,4.116496465035131,-0.047230080967285204,1.3769322859042112,-0.10451285175022859,1.0,0.522693973701113,0.508911879440666,0.43076704523313775,-0.6093641878189869,0.5236900554579146,-0.05279096114519169,0.5929899888190014
3.9000000000000004,-0.2643685055024093,-0.05256546271092938,-0.12820251360320326,0.0032333189273323856,0.03976100241590099,0.23491953538218724,0.22819645506512543,0.3361330940679544,0.9137486293479139,-1.5295813060232322,-1.8662131416427734,4.116293430328369,-0.04721641020781606,1.3771114349365234,-0.10456695933037388,1.0,0.5231793615787821,0.5094450291550171,0.43046996043183117,-0.6094230009550361,0.5236791689192015,-0.052786774786026586,0.5929395334726312
4.0,-0.31978930249363274,0.17628854239299574,-0.20111083940027805,0.006314007197888928,0.0414765097885545,0.23247247784237485,0.22671136546284573,0.33407706289053557,0.914873334182512,-1.528379745765326,-1.8672844577131047,4.1161121278950406,-0.0472258900051102,1.3772689793311852,-0.1046216285422275,1.0,0.5234238574332186,0.5096883102021375,0.4303593731424831,-0.6094163173797769,0.5236857298240839,-0.05277609779559578,0.5929415586643911
4.1000000000000005,-0.10903783976122727,0.10582522033755748,-0.19058817973996972,0.005553275282117041,0.037895783926835895,0.2299925164298985,0.22564861149100013,0.3326443080993501,0.9156575510355697,-1.5271894514604387,-1.8684267039751814,4.1159348487854,-0.04718074098503178,1.3774499002890512,-0.10465588258445824,1.0,0.5236952912188702,0.5099530127546936,0.4302557258603084,-0.6094243742989107,0.5236657583707287,-0.05278240934898814,0.5929503544005237
4.2,-0.03518198452106441,0.03866879690986136,-0.21308403966222417,0.0028313964415705205,0.03630455508672983,0.23191311604312778,0.2246667367662429,0.33133963784607273,0.9163723462206125,-1.5258981876110596,-1.8696735933996267,4.115748892672365,-0.047213774945204456,1.3776440724209003,-0.10470735141071938,1.0,0.524260362313246,0.5104076977121617,0.4301047288854835,-0.6093603732796284,0.5236990140680681,-0.052797914714596966,0.592985377848759
4.3,-0.22608376941026,0.10230379222279501,-0.15389443861925492,0.004676601505496972,0.04258943829071876,0.22835933640687353,0.2236393194030629,0.32996635216608405,0.917118721234816,-1.5246801376342773,-1.871126561609663,4.115575313568115,-0.0471986942658415,1.3777903363346673,-0.1048056305862079,1.0,0.5245845504422304,0.5107514620890401,0.4299432978087206,-0.6093707149259189,0.5236972574615774,-0.052800998133846214,0.5929760272675163
4.4,-0.40196387248084126,0.0869955144395997,-0.09244427819309442,0.0014320470347843508,0.046177759608847006,0.22785156478468813,0.22276834821282912,0.32879582207419605,0.9177500299175776,-1.5235404968261719,-1.8721595885052442,4.115407466888428,-0.04724510934926743,1.3779353777265368,-0.10484411706491223,1.0,0.5248122341120423,0.5109995974247892,0.42977341453827317,-0.6094207394464555,0.5236998538525187,-0.05281043979093858,0.5929214811899409
4.5,0.21585792799367248,-0.41727253028993627,-0.048325120159581576,-0.007054643057315738,0.031720415539287145,0.23678730178762752,0.22190271073651432,0.32762926217355903,0.9183777262107174,-1.522353172302246,-1.8732716328897419,4.115212601423264,-0.04724934071812825,1.3781224191188812,-0.10488909283746892,1.0,0.5251290713208022,0.5113104349282689,0.4295925287404037,-0.609437103792887,0.5237017438387293,-0.052818688620834546,0.5929022568292244
4.6000000000000005,-0.13968479597110117,-0.10652656654259508,-0.1559569018770313,0.0014034611333052982,0.040521762341039484,0.23459788049992372,0.22105968540350476,0.32647953379686195,0.9189901078707438,-1.5210502947307833,-1.8743536293246195,4.115031873648025,-0.047238341639235924,1.3782959716426402,-0.10492521646947063,1.0,0.5254949144803426,0.5116364314276937,0.4295380587286547,-0.6093918606862135,0.5236851851571873,-0.05282623208827378,0.5929627106147848
4.7,-0.040726844201100176,-0.08160175385591079,-0.030946137870203505,-0.0021234092593781072,0.03862591671110462,0.23094459955126317,0.22100460480726586,0.32633041358015785,0.9190567842976787,-1.519629686725827,-1.8757603027726175,4.114858071118295,-0.04725392282519536,1.3784681188667627,-0.10497115463455124,1.0,0.5259287070499726,0.5120655114719144,0.4294876420229979,-0.6093353866164768,0.5236616171487241,-0.052788423979536904,0.5930449221061492
4.800000000000001,-0.13014037684773305,-0.15475652803856246,-0.16545227316396377,0.0012420360260549422,0.03860283149243947,0.2313875974272412,0.2206676697371345,0.32588584453324576,0.919295084235859,-1.5186357498168945,-1.8771139922108453,4.114694144995838,-0.047228207431161434,1.3785747805500308,-0.10503850185024957,1.0,0.5261525301294752,0.512317087650819,0.4293842890728359,-0.6093365753407214,0.5236586170266111,-0.052788620102889254,0.5930463323834416
4.9,-0.09834187861795377,0.03177768826105243,-0.13848158018198298,0.0020724168644512893,0.03941262313043506,0.22934102427496295,0.22010654506795363,0.3251831750311962,0.9196787541342286,-1.5175101449285804,-1.8781041309994102,4.1145195960998535,-0.047243708306321665,1.3787644966818655,-0.10507784458331997,1.0,0.5266667733020088,0.5128076731807689,0.42892980535793035,-0.6094192270992707,0.5237225517685452,-0.052815780784716035,0.592902511135576
5.0,0.0006598822213106023,-0.03221464997231012,-0.1393431288781972,0.0009837769073182553,0.0401289801053355,0.232742050561644,0.2200869433534791,0.325142907150103,0.9196976812845347,-1.5163037978730167,-1.87914158005855,4.11435864400958,-0.04727824152026372,1.378944874438749,-0.10517553854240937,1.0,0.526859045306945,0.5129975722907727,0.4288679534799752,-0.6094156440826164,0.5237221214906083,-0.05281146954486252,0.5929069580408531
5.1000000000000005,-0.03996544872436551,-0.13100711425533973,-0.15895495247094843,0.004621790686825335,0.036672352720731397,0.23210977735658828,0.2199975525715747,0.3250012856594036,0.9197689863683327,-1.514770343946006,-1.8803990013211744,4.114186033616079,-0.04738853247402235,1.3791066333464221,-0.10515594137910901,1.0,0.5271596493666647,0.5132566734668191,0.4288283544993576,-0.6093819249530361,0.5236936328582995,-0.05281191878865424,0.5929667357264397
5.2,-0.1792124545908637,-0.21299482923159146,-0.21894530158398767,0.00029226102288481496,0.0441756091638148,0.22461535319428086,0.2195012712310662,0.3242687431498688,0.9201456700365138,-1.5136040102667223,-1.8817227659801954,4.11398251098366,-0.047376236542158896,1.3792670492527026,-0.10525939017450799,1.0,0.5276541400775382,0.513750562177499,0.4287367459103389,-0.609346673410734,0.5236810691874306,-0.05280629685299149,0.5930145566431366
5.300000000000001,-0.029184654539851834,-0.029611177343665973,-0.3698976466217989,0.006159195795349964,0.03259827468769773,0.22676122844420704,0.21932687960616168,0.3239907043817179,0.920284391407027,-1.5125045936722348,-1.8829424754562134,4.113776273841957,-0.04736264169726567,1.3794406559989434,-0.10526245304669361,1.0,0.5278384710070492,0.5139958482167112,0.4286338751348595,-0.609356084020487,0.5236690516371826,-0.0527808112985121,0.5930177680165257
5.4,-0.216021359403389,0.18472466394082734,-0.312601519224738,0.0034051466321966895,0.0432782833696568,0.22707516406860906,0.22126570901271797,0.3266965039240517,0.9188608791684831,-1.5114528067326776,-1.8841530528844166,4.113623117246649,-0.047360602481677866,1.3796113602900275,-0.10534883559214453,1.0,0.5281700877811799,0.5142895652458046,0.4284255454304488,-0.6093912671177855,0.5236792544713955,-0.05279834441959981,0.5929710421457464
5.5,-0.29122552199054785,0.19411379980703755,-0.21059074610673229,0.0020153416752615757,0.042321561435454076,0.22235768295937727,0.2214302999239983,0.32694089406285537,0.9187364966951898,-1.5099531123064232,-1.8851549822613927,4.113471377941442,-0.04737258555507909,1.3798165321350098,-0.10540291107162542,1.0,0.52869198674844,0.5147997977188323,0.42807489304090834,-0.6094416906823069,0.5237101792877997,-0.0528132192851843,0.5928905781317213
5.6000000000000005,-0.10081864550554784,0.04778668821046339,-0.10589640253455071,0.004025093577760258,0.04484111367147204,0.22617989824979112,0.220542989902451,0.3257222084089088,0.9193832737611564,-1.5086320071320036,-1.8865145066215756,4.113268489746549,-0.04738684301352983,1.3799477797323199,-0.1054466406451624,1.0,0.5288949764607535,0.5149615092375834,0.42815291824944884,-0.6093712521873174,0.523680739979792,-0.05280432126415928,0.5929897665539512
5.7,-0.31739182114786024,0.3045381710767534,-0.11700487030397264,0.004482438417095393,0.04944065938518756,0.2301974084627406,0.21971490184697726,0.3245582094317699,0.9199928766072688,-1.5075085092560063,-1.8877675800790772,4.113103158377051,-0.04741491515711469,1.3801552792561658,-0.10549685765157617,1.0,0.5293705858877216,0.5154455086577234,0.4280123306905558,-0.6093303884739376,0.5236569472219909,-0.05279858787385413,0.5930532762129151
5.800000000000001,-0.007615437452331453,0.28390769446935377,-0.08773268389347519,0.006241939092469657,0.045051675585874404,0.2306258965627671,0.21880046596693747,0.32328320776543135,0.9206593823304974,-1.5064461338370057,-1.888960376190527,4.112905946152163,-0.04747237652675634,1.380333485897606,-0.10555637547465306,1.0,0.5295727776254322,0.5156666794865218,0.4278780687450871,-0.6093604149663809,0.523652275933557,-0.05279455575159063,0.5930269078756867
5.9,-0.1590677374589737,0.0627084079453902,-0.1452085055474471,0.006488801175878705,0.04257363665470905,0.23238815174248334,0.21994775501579247,0.32485890956064983,0.9198302219969006,-1.5051111551803802,-1.8900834840688114,4.112734156290998,-0.0474902115393392,1.3805165106573791,-0.10557036398546192,1.0,0.530038751990075,0.5161087195228192,0.4274960161260943,-0.6094402704957756,0.5237059714703741,-0.05279385878066921,0.59289747901248
6.0,-0.26758009327670723,0.22051313147725551,-0.6676357505818595,-0.008306549403261938,0.026117449189059408,0.2329164349321085,0.2202347306232866,0.32524663518879426,0.9196255766087092,-1.5037607752419122,-1.891284289601531,4.112557149520519,-0.04750712335620122,1.3806394311220318,-0.10564726714072945,1.0,0.5302168503557453,0.5162875430439753,0.42746662424156795,-0.6094265966995729,0.5236923287062354,-0.05278601165001821,0.5929242827406386
6.1000000000000005,-0.6640210909934958,-0.0013515427326514506,-1.9676134478842018,-0.02268419026137107,0.001114235673745606,0.24497769368416972,0.22025495719965765,0.3252739845093229,0.919611073667269,-1.5024761053381626,-1.892454286614889,4.112371388006714,-0.047547864585510705,1.3808312749443379,-0.10570985475649053,1.0,0.5305612427423955,0.5166180632558184,0.42742357263704395,-0.6093781989886212,0.5236766816209605,-0.0527918775235401,0.5929873197559821
6.2,-1.405003185703584,-0.42925039029453915,-3.799617916222186,-0.051889303292360786,-0.045748337522432805,0.25818251876513126,0.22113343746031836,0.32646668077731733,0.9189766096741063,-1.5012832088688992,-1.8936636920536072,4.112213717932123,-0.047595974561637666,1.3810225064727757,-0.10575986949343164,1.0,0.5310735437870259,0.517076426521552,0.42728668506622125,-0.6093386769265413,0.5236695842713512,-0.05278517874289523,0.5930347951137124
6.300000000000001,-2.174558493176521,-0.71652249395397,-5.859654347145073,-0.07842354261765748,-0.11200646014374513,0.27843494535427915,0.22265914819196345,0.3285431696732464,0.9178670180207238,-1.5000802911271798,-1.8948722366018362,4.112068267511832,-0.04758581697402477,1.3811450004577637,-0.1058091384405247,1.0,0.531257256615756,0.517271231900547,0.42719611971001964,-0.6093631272042341,0.5236576255349072,-0.05278293210891913,0.5930204317736487
6.4,-0.7635821657903719,-0.0800122293738863,-3.2907264598280497,-0.05639043822783276,-0.03237074241738347,0.2568204353334315,0.22289990067619161,0.3289094137316911,0.9176783160721939,-1.4988726437554531,-1.896399922489226,4.111861222414543,-0.047803623527870674,1.3812502889289937,-0.1058872305741764,1.0,0.531578152667932,0.5175995800275199,0.42701931057061676,-0.6093672538814305,0.5236650523210095,-0.052787667731548846,0.5930092115727227
6.5,-0.22059830891411003,0.127404278236724,-1.6422226481367375,-0.04380208772635012,0.00883934338556199,0.24554162692405043,0.2226733612229785,0.32868223317999884,0.9178150005188817,-1.4976010104092685,-1.8974852349070144,4.111674061515115,-0.047743747293634634,1.3814590325789018,-0.10597590388146834,1.0,0.5321910908271843,0.5181920342783477,0.42645422482821316,-0.6094948843111618,0.5237739230103612,-0.05282691853841448,0.5927783567663337
6.6000000000000005,0.16662571999049575,0.47636690388582875,-1.0126947859589164,-0.042353761361429175,0.0196848875048211,0.23064509760671084,0.22284063959140096,0.3289164383583257,0.9176905884514294,-1.4962509005350837,-1.8985374461591427,4.11152823074909,-0.047775409246068976,1.381642702830794,-0.10599250357117125,1.0,0.5323714847782594,0.518367312108881,0.4264794839593237,-0.609450871738535,0.5237364912290282,-0.05281133534383592,0.592858065266423
6.7,-0.26686341558235743,0.07215588910182108,-2.2229440343029587,-0.045761553427109886,0.011131044010372609,0.24322488016330654,0.22352909500798185,0.3298052101425913,0.9172031384923909,-1.4948672120207487,-1.8996469547134014,4.111367702484131,-0.04790385187182622,1.3817888765555764,-0.10602794417545466,1.0,0.5327315878404271,0.5187035180947663,0.4265052652845032,-0.6093829533557715,0.5236861881323887,-0.05279304099813772,0.5929739347905059
6.800000000000001,-0.23564638243353275,-0.08286390778221621,-1.9387591503017632,-0.04320895371876165,0.010815851230160708,0.24832938306569677,0.22390890145150194,0.3302930841872591,0.9169356214282481,-1.4935484511066763,-1.9009151211406705,4.111231211342555,-0.048008698189466285,1.3819770570301928,-0.1060565153705042,1.0,0.5329954408536279,0.5189654763948764,0.42645693641381577,-0.6093679656508114,0.5236771237627443,-0.05280221327909956,0.5929965250817241
6.9,-0.4350584193738758,0.24114673654063298,-2.8712481968796033,-0.06364088124928464,0.005848854558481493,0.24544290851178088,0.2237867491845977,0.3301370757837664,0.9170216584392279,-1.492457923213195,-1.9024512883259284,4.111023792203755,-0.048034505253173876,1.3820900917053223,-0.1061326986265059,1.0,0.5333207195148707,0.5193196986491049,0.42640342538054826,-0.6093513955526119,0.5236534480061941,-0.05277835229370883,0.5930365829006421
7.0,-0.8962552148267323,0.016171944575831043,-4.112892565947433,-0.08213633207318483,-0.02263589453611477,0.2543369122565732,0.22416277647932245,0.33070718573833546,0.9167244936066519,-1.491357694246114,-1.9032990227152697,4.1108301692968565,-0.047949151401855516,1.3822720193868603,-0.10617451826147592,1.0,0.533871299091458,0.5198753832587965,0.4258670300675272,-0.609454271216362,0.5237311741306907,-0.052805995419295634,0.5928597434365048
7.1000000000000005,-0.6089733785866118,0.49510269006898205,-3.1568374842138516,-0.09599754455314742,-0.020399845424018542,0.25428372608835637,0.22447589905991405,0.33115556117923767,0.9164859826929187,-1.4912467902954132,-1.903462192756898,4.110828876495361,-0.04789619214095293,1.3823315816608108,-0.1062053464651078,1.0,0.5340491898015663,0.5200150900007151,0.42587801368527195,-0.6094154285555655,0.5236930636130295,-0.05281843214353662,0.5929322252904922
7.2,-0.7659782069802399,0.05292381289648841,-3.5127788529844475,-0.08878871251501806,-0.021253839403662995,0.2471026937102557,0.22426243334730206,0.33084781493750237,0.9166493757458692,-1.4912338582417424,-1.903466755489039,4.110808098807651,-0.047878579502441454,1.382283890738804,-0.10621196428407842,1.0,0.5341720338613316,0.5200956513593353,0.4258512069105605,-0.6093861086871656,0.5237015523670516,-0.05280953513570592,0.5929556539794563
7.300000000000001,-0.4821409503377448,-0.25292294046479297,-3.4944400728569707,-0.09562325005528,-0.02743955524160551,0.2478840486990243,0.2241495280408193,0.33069859656818157,0.9167308258784388,-1.4912154275466076,-1.9034841060989318,4.110797802267287,-0.04788801706795922,1.3822981910615915,-0.10619805587991751,1.0,0.5341756925785823,0.5200865496981081,0.42584346667268347,-0.6093897140430884,0.5237064839057284,-0.05280259954630375,0.5929482107357562
7.4,-0.686402854038262,0.09792667564026564,-3.528557009017697,-0.09107422312375255,-0.020143313981248353,0.24965255835244335,0.22404711485312837,0.33053932513035716,0.9168132909582947,-1.4911841917246984,-1.903537369788562,4.110796863264372,-0.04788643659194124,1.3822931806405476,-0.10620383660516783,1.0,0.5341788392756582,0.5200930823651241,0.4258216170896043,-0.6093935381890682,0.5237010871207917,-0.05282012624921943,0.5929474860600443
7.5,-0.9795728372695127,0.2577555909169254,-3.4594136137528673,-0.08459456501937386,-0.01662751282434309,0.24677586612172403,0.22395242395190915,0.33036051440782865,0.9169008687865566,-1.4911527633666992,-1.903549354516385,4.110834123986769,-0.047866658573486376,1.3822808265686035,-0.10621196428407842,1.0,0.5341731679104412,0.520133127853806,0.42586280664474147,-0.6093823438277866,0.5236777616581436,-0.05278023482158169,0.5929831429204784
7.6000000000000005,-0.8652946699598453,0.10770063918611311,-3.4179876113105156,-0.08270282787987521,-0.016801044640452567,0.24759370688091353,0.22414611164121628,0.33060604664022636,0.9167647757519084,-1.4911734842800124,-1.9035735491014918,4.110834522091012,-0.04786061449873344,1.3822952616441735,-0.10619008137756898,1.0,0.5341786443199089,0.5201146412367232,0.4258779511843431,-0.6093848184503671,0.5236750584386552,-0.05279508590949498,0.5929816650751466
7.7,-0.7261231315920804,0.15619110006746867,-3.453992157869009,-0.08416293330572183,-0.017473006137593197,0.24396366208060047,0.22469696925898117,0.331377146816402,0.9163516562363484,-1.4911572164774571,-1.9035365037444327,4.110792636871338,-0.04786427938892222,1.3823103457366672,-0.10620240517304189,1.0,0.5341723562698305,0.5201343296710704,0.42586076115366517,-0.6093867649699897,0.5236765764205311,-0.05279598395758463,0.5929782441758153
7.800000000000001,-0.625808515516868,0.08648351491842338,-3.3280834175478904,-0.08562526989703913,-0.02016770949789363,0.24714523024938248,0.22466086067030203,0.33133624982108373,0.9163753474033103,-1.4911331305270397,-1.9035493319477677,4.110783213108301,-0.0478645540643611,1.3823230662509993,-0.1062175716856577,1.0,0.5341786767970934,0.5201317950344965,0.4258672442723387,-0.6093695959539145,0.5236839492691865,-0.05279636149250965,0.5929893430896912
7.9,-0.697830575337234,0.07396104067811052,-3.5285986338081305,-0.0893594842949,-0.02054906421062121,0.24644601639848054,0.22466924437309965,0.33135712616238944,0.9163657207162667,-1.4911143094758692,-1.9035466133014953,4.110819646670371,-0.04785204282727069,1.3823294639587402,-0.10619042895409188,1.0,0.5341767090247708,0.5201446880794786,0.42584609720670913,-0.6093948809238203,0.5236770998648409,-0.05280037438895176,0.5929690503267258
8.0,-0.9229535873884127,0.2241535466221412,-3.5321679298458717,-0.08180426726252625,-0.014947079551435436,0.24593632781168967,0.22479429793064706,0.3315397067674455,0.9162689867940502,-1.4911767180520603,-1.9035054645934046,4.11079094273086,-0.04787126703895191,1.382303087113487,-0.10621440177190827,1.7485878529178027,0.5341863992368536,0.52011289888831,0.4258726617033436,-0.609375107407112,0.5236852085234373,-0.05280709953919208,0.5929816110846882
8.1,-0.6700993524538139,0.20741648306866622,-3.317084999790205,-0.08183984778377978,-0.01789735682563754,0.2450786827988416,0.22491935148819447,0.33172228737250153,0.9161722528718338,-1.4911548985452194,-1.9035390032359778,4.1108174324035645,-0.04785696178882328,1.3822875879672512,-0.10622913370911262,2.0,0.5341897408241371,0.5201241035263683,0.4258397994745555,-0.6093897038653934,0.5236868333762582,-0.052806122534961704,0.592965262721197
8.200000000000001,-0.8072787985113561,-0.026048639668144746,-3.485072640475135,-0.08856788718438849,-0.017966857054486998,0.24997415421634916,0.2247430027546251,0.33146679389926076,0.9163079516583506,-1.4911679592378417,-1.903543674352703,4.110788345468192,-0.047885794715178814,1.3823148074488425,-0.10623399264512434,2.0,0.5341834379003052,0.5201356173353112,0.4258222188174027,-0.609393551002387,0.5237001177362478,-0.052800640644047256,0.5929500645310025
8.3,-0.854602981049962,0.06126926402718981,-3.4993453158641334,-0.091317182394928,-0.01701103115856982,0.24069780738231175,0.22480801537076175,0.3315405050995827,0.9162652049417602,-1.4911820813504024,-1.9035655460753382,4.110812696544398,-0.047866658573486376,1.382307807881984,-0.10620513371797294,2.0,0.534181027774055,0.5201358135364479,0.4258453588107547,-0.6093806119284852,0.5236941485685609,-0.052792436094165215,0.5929693645138493
8.4,-0.8433013997240294,-0.021471510410836656,-3.3977732087374184,-0.08538113517193562,-0.012027797051662053,0.24350655913912045,0.2252747872119775,0.33216606818047556,0.9159240481622019,-1.4911237486244326,-1.9035293064513148,4.1108174324035645,-0.047857114250372375,1.3823079036424375,-0.10619529014344119,2.0,0.5341901650987827,0.5201393452578781,0.425816529030622,-0.6093892167029946,0.5237008612123826,-0.05279022050909826,0.5929547901401256
8.5,-0.5822848728658798,-0.10288387373826025,-3.3622158141374854,-0.09081844091389572,-0.021231964711405277,0.2473638792452801,0.22501884967355165,0.33180145532287175,0.9161190300398976,-1.4911437602243023,-1.9035370361244148,4.110799949326201,-0.047897711180034754,1.3822744677880567,-0.10620004335512334,2.0,0.5341648234039295,0.5201406535621194,0.42584768024341046,-0.6093863861241372,0.5236858900010307,-0.05277967623617852,0.5929718600378915
8.6,-0.3939398093889316,0.12940639778031507,-3.319600130601352,-0.09129637086505599,-0.022654596189329197,0.25354003267321296,0.2248921328747462,0.3316251708070194,0.916214032730249,-1.491164207458496,-1.9035585034448637,4.1108174324035645,-0.04789304403457909,1.3822833632838134,-0.10620248250436362,2.0,0.5341843964333147,0.5201207247847961,0.4258700412880116,-0.6093611032963813,0.5237014196675699,-0.05278842122723177,0.5929833483428731
8.700000000000001,-0.5696805068424478,0.24028147079555517,-3.402393387386429,-0.08576857757651932,-0.019511387807578294,0.251805162116459,0.2251233447222799,0.33195780251961254,0.9160367494651821,-1.491164207458496,-1.9035549779142997,4.1107953573880405,-0.047859969407421606,1.38230117661431,-0.10620934840263327,2.0,0.5341989679699226,0.5201085223054713,0.4258618348314816,-0.609355395290298,0.5237074824230059,-0.052810655613814775,0.5929818797723929
8.8,-0.8513303262801184,0.23643585232740227,-3.2850481468554844,-0.08307965862976086,-0.014767854227701238,0.24736386625995316,0.22523496708291077,0.3321206318641795,0.9159503681456944,-1.4911190448425649,-1.9035081854368823,4.110833145149012,-0.04785008911910242,1.3822907170373993,-0.10620731575864954,2.0,0.5341766605769274,0.5201461898734829,0.42583227177343774,-0.6093936157986579,0.5236872066545152,-0.05278872836421394,0.5929624615166783
8.9,-0.6288597455246006,0.4344400192103004,-3.427335697425613,-0.07787821488890062,-0.021807843343536977,0.2445876207034549,0.22514030136239369,0.3319905574963748,0.9160207898062328,-1.491137088647104,-1.9035608016274617,4.110823358158662,-0.04787582033409183,1.3823144173910114,-0.10618812242616826,2.0,0.5341765028062039,0.5201295716875455,0.42584998614859537,-0.609383395369089,0.5236803003849891,-0.05279912032086071,0.5929781389987924
9.0,-0.5745002155175318,0.05233220738010197,-3.2514221824704306,-0.08388536513468223,-0.02026571104341518,0.2428169020045121,0.22497383158308437,0.3317729957156998,0.9161404336581548,-1.491181497743144,-1.9035223231852405,4.110781192779541,-0.047866658573486376,1.3822808265686035,-0.10620498101800414,2.0,0.5341879246094582,0.5201265972250013,0.42586343424296136,-0.6093745774084588,0.5236824918519458,-0.05279356288591264,0.5929857602453958
9.1,-0.6302682074770989,-0.37277487965742295,-3.4274879882530986,-0.09420596156929743,-0.01973520702122945,0.24762041416389785,0.2246784206194354,0.3313983295760229,0.9163484676061178,-1.4911165237426758,-1.9035387409896953,4.110812260711169,-0.047866658573486376,1.3822808265686035,-0.10618563603559371,2.0,0.5341929036953197,0.5201018409446982,0.42584963669378023,-0.609372739398897,0.523701123772102,-0.052816668555987704,0.5929691365998477
9.200000000000001,-0.8039153316488843,0.10141303244629506,-3.5489899979304083,-0.08796581648917029,-0.015169011706307446,0.24665607422595048,0.22456846100401845,0.3312609639200082,0.9164251777359905,-1.4911473687763086,-1.9035227801127503,4.110807839824454,-0.04787971125061544,1.38229602952172,-0.10620274065031861,2.0,0.5341903997881503,0.5201184305704691,0.4258674130249679,-0.6093743718674552,0.523681018618834,-0.05280937923577838,0.5929858641773991
9.3,-0.7436647782823405,0.5553328603969284,-3.363979881986407,-0.1163262987950606,-0.020942906545590122,0.24455668995137994,0.22480828096775907,0.3315711704391251,0.9162541981603808,-1.491128921508789,-1.903558993988083,4.1108319598305405,-0.047873082188442516,1.382287507128158,-0.10619683154764527,2.0,0.5341858496653655,0.5201345517536755,0.4258391166379518,-0.6093826331660589,0.5236839499244437,-0.052805768304859516,0.5929751072522919
9.4,-0.8154251421212464,1.0320027105812148,-3.316839846950549,-0.13894729456570165,-0.0274257035809788,0.24727613282765754,0.22430049149587242,0.3308504184305591,0.9166390083631457,-1.491164207458496,-1.9035655460753382,4.11083142750953,-0.04789481998597441,1.382317066192627,-0.10620399236480006,2.0,0.5341724476252224,0.5201368469786589,0.4258490401017268,-0.6093900466704949,0.5236794172351027,-0.05279721607795704,0.5929722531094126
9.5,-0.9396856209446701,1.5076298521410179,-3.2733007956265006,-0.15625357498160505,-0.0323932085166818,0.25360641079844454,0.2249192365513743,0.33172320221680407,0.9161711025709202,-1.4911447249618681,-1.903573919413704,4.11082083809053,-0.047892113522118224,1.3823090277877959,-0.10621806818904188,2.0,0.5341895063211719,0.5201341613188741,0.425827617346732,-0.6093901046806266,0.5236890864246335,-0.05280447985057981,0.5929630072650208
9.600000000000001,-0.8123409652031132,1.659376935680032,-3.0330962927188003,-0.18014112284424152,-0.030312113119052683,0.2518731696831039,0.22554351985646645,0.3325945705867405,0.9157024448203258,-1.491164207458496,-1.9035774670042933,4.110835297196431,-0.04785997034320574,1.3823187892534443,-0.10621991798606358,2.0,0.5341942074564131,0.5201243275530586,0.4258342136231326,-0.6093955016820614,0.523695774368942,-0.052815544885798094,0.5929505684761586
9.700000000000001,-0.7267157220200682,1.6852978962496374,-2.7603235909611397,-0.1942609869447015,-0.031625247444402246,0.25241778894481975,0.2256160302700209,0.3326679757026852,0.9156579173297215,-1.4911745163558008,-1.903617001051029,4.110837712693051,-0.04789050043139653,1.3823082299949372,-0.10619732679876177,2.0,0.5341741459505948,0.5201542597999832,0.4258080958416497,-0.6094216688504237,0.523678281168104,-0.05280623765706405,0.5929399536486737
9.8,0.2867068959228466,2.4052078283440768,-2.27143226740532,-0.19610185732075078,0.02951527254044536,0.22812015052091628,0.2269905982747056,0.3345289043967589,0.9146344668410761,-1.4911783808368748,-1.9035757596848073,4.11082233493611,-0.04788368630717602,1.3822932243347168,-0.1061898297456542,2.0,0.5341743299098707,0.5201432751318232,0.4258272939624548,-0.6094100013868567,0.5236881205975011,-0.05280028024059978,0.5929437856671096
9.9,-0.04177811283143654,2.568935861930533,-2.0579606539137485,-0.22457671579711183,0.027195340211988446,0.24020154787158263,0.22868180492913553,0.3368245289568392,0.9133729586363852,-1.4911441578228726,-1.903574510183491,4.110801625606577,-0.04790289819750981,1.3823025470071957,-0.1062238852130335,2.0,0.534165905522343,0.5201539374153712,0.42582841192800364,-0.6094087898924503,0.5236806532115862,-0.05279334236861004,0.5929522436547963
10.0,-0.05982165282970274,2.504239871567548,-2.0796921646096713,-0.23186576496585387,0.027061139087940354,0.24107536502715987,0.22881553237693766,0.3370234160289857,0.9132679367598568,-1.491197050887495,-1.9035708107290508,4.110835266519594,-0.04789489592386666,1.3822863018084646,-0.10619477870141074,2.0,0.5341837367392567,0.5201407845029657,0.4258254874056756,-0.6094032961155234,0.5236880683826197,-0.05280450992536857,0.592950346528913
10.100000000000001,-0.1544547600484382,2.332830458780139,-2.167457894878412,-0.22232007419413005,0.026579016671881665,0.24164145411105123,0.22853189078573644,0.3366604250955339,0.9134728269420909,-1.4911465427692119,-1.9035593248909743,4.110823161491981,-0.047866658573486376,1.3822813333364634,-0.10618813709808086,2.0,0.53418932370564,0.5201450167042503,0.4258011795465459,-0.6094074852251254,0.5236942733140435,-0.052804855265174866,0.5929405301630919
10.200000000000001,-0.047600153885476226,2.534734346832929,-2.423577482054856,-0.24666744754174202,0.018359239965987498,0.24739513936075644,0.22922491917522805,0.33762079321125,0.9129408193483819,-1.4911413192749023,-1.9035655460753382,4.110816635579461,-0.047882498739606746,1.3823093845685088,-0.10624020866428466,2.0,0.5341807157678391,0.5201495648146763,0.42581031957163773,-0.6094006354393434,0.5236868370655108,-0.052810472814940466,0.5929536374553311
10.3,-0.37242463226872546,1.806673692064215,-1.8620226171572893,-0.19241884390268266,0.01559525425342417,0.23849607620118812,0.2320651163343846,0.3414768091956158,0.9107884010038267,-1.4911527633666992,-1.9035838192276913,4.110826203516694,-0.04787222727904344,1.3823027263739405,-0.10620917993129989,2.0,0.5341833867214126,0.5201329117021816,0.4258207850780284,-0.6093952785002179,0.5236896906838037,-0.052792303096473946,0.5929582406433982
10.4,-0.2696980174219809,1.9624679485304743,-1.8185038307975818,-0.20557487926010787,0.023238950822635426,0.24216000682902195,0.23391322534270714,0.3439516618467848,0.909383513186378,-1.4911863397195606,-1.9035536251463832,4.110807919847876,-0.04787303102085399,1.382314402921465,-0.10618812242616826,2.0,0.5341710930022852,0.520152414866182,0.42582368094146006,-0.6093975241026418,0.5236867452542346,-0.052777606229656354,0.5929598424372972
10.5,0.029233827316831495,1.786996771521222,-1.760919831568841,-0.21157776110300183,0.02016986436273715,0.24481160633184695,0.23438012456746551,0.3445976916108629,0.9090205610179648,-1.4911615127861049,-1.9035469535591014,4.110817648693731,-0.04787577255203383,1.382294169743167,-0.10617270141948099,2.0,0.5341703895975203,0.5201405194857651,0.42581495963091787,-0.609409579776213,0.5236809789023187,-0.052817228277586614,0.5929490170410622
10.600000000000001,-0.2962533224224647,2.5040706814452154,-2.007933807763892,-0.20876309227013298,0.027374540809316495,0.24126758919288854,0.23441545235315484,0.34467228918949305,0.9089831710290428,-1.4911489763050154,-1.9035452436692344,4.11079318514154,-0.04785859613925903,1.3823094091625139,-0.10619215364328194,2.0,0.5341653291674484,0.5201475779043333,0.4258348889750758,-0.6094016361722425,0.5236761278639394,-0.05278966760429478,0.5929639195855455
10.700000000000001,-0.012516627238843614,1.9585099258615317,-1.820830802058428,-0.22764987388189037,0.023711426871052505,0.24335186324885294,0.23461179810724594,0.3449537749308823,0.9088256087852018,-1.4911474325757228,-1.903568730086182,4.110811402659139,-0.04786984258433032,1.382331483378439,-0.1062175171913456,2.0,0.5341800365773929,0.5201395348746618,0.42580075712529214,-0.6094107434844667,0.5236889499025335,-0.05280509559248988,0.5929418616990706
10.8,-0.0766759123540516,2.211082652574033,-1.7651086880100657,-0.21268103672366484,0.028183857607455485,0.24122903327332076,0.23486048308925353,0.345302510102949,0.9086289842981722,-1.4911348771538662,-1.9035412273802699,4.110826246758278,-0.04788752260885803,1.3822932243347168,-0.1061791696809506,2.0,0.5341756613966337,0.5201426446784768,0.4258077554843424,-0.609408074471147,0.5236956231430256,-0.05279633891247619,0.5929394907304165
10.9,-0.059014439632103406,2.0940310657034003,-1.9127357635927251,-0.22250974186293646,0.026764008692030886,0.24278181477611088,0.23510942950144947,0.3456331765473904,0.908438852145039,-1.4911886914524066,-1.9035715891892369,4.110837499235931,-0.04790289819750981,1.3822838830324329,-0.10620298226265157,2.0,0.5341821199224002,0.5201406899199676,0.42583647186807366,-0.609377113569225,0.523690453820093,-0.052789517594811236,0.592976482558838
11.0,-0.005697889286356964,2.1278936744970096,-1.9841365467569008,-0.22609657117530982,0.027671109680663906,0.2443876465887878,0.2352640192961597,0.34584144874208506,0.9083196147764405,-1.4911541723791575,-1.9035655460753382,4.110830285507819,-0.0478581278740376,1.3823294639587402,-0.10616931078683453,2.0,0.5341741441567396,0.5201376542906174,0.42586271650617386,-0.6093698254532107,0.5236899586577962,-0.05278809666843628,0.5929845359520292
11.100000000000001,0.15080803421478872,2.0532342095805025,-2.0323811798974982,-0.2252387593423404,0.027456880508744952,0.24525611101505682,0.2351677176086826,0.3457239252274328,0.9083892944561591,-1.491170974600145,-1.9035476850579203,4.110831915402491,-0.047846723427921393,1.3822932243347168,-0.10619445348268837,2.0,0.5341794361484586,0.5201470809204225,0.42582829272500833,-0.6093976670382444,0.5236865531516925,-0.05280214540654026,0.5929576805278024
11.200000000000001,0.005819170841701526,2.1391084805041483,-1.8291013847314532,-0.21998707801146278,0.03419240261581838,0.2412127668439913,0.23529130689136823,0.3458365658073687,0.9083143885773851,-1.4911560936196768,-1.9035789808926933,4.110796244645397,-0.04788067338810067,1.3822896165606577,-0.10623072007996917,2.0,0.5341593855175075,0.5201671917023576,0.42581024793402245,-0.6094167952635601,0.5236871611527802,-0.05277437031790334,0.5929399571052564
11.3,-0.14661458531990107,2.0273050812791236,-1.9424910744828292,-0.21230062109728232,0.03502298702775905,0.24537286051684254,0.23546023042676242,0.34607491601956253,0.9081798274949161,-1.4911443935026554,-1.9035687483959143,4.110840320587158,-0.047881781823017576,1.3822868196935645,-0.10619132474674439,2.0,0.5341702706762073,0.5201377089539428,0.4258905753996244,-0.6093617368443153,0.523674097413604,-0.05278269337905237,0.593007336082598
11.4,-0.019255988082099593,1.8126032424984224,-2.0674920873167646,-0.2090210966022145,0.03882092412045838,0.24130656346220739,0.23523053772728816,0.34585126063583227,0.9083245316569547,-1.491144476629231,-1.9035502046791937,4.110808455104641,-0.047880633699119234,1.3822704034665905,-0.10619141133692736,2.0,0.5341797337509285,0.5201384966551024,0.42582833924147384,-0.6093958455787495,0.5236886694276291,-0.052814644217506625,0.5929565702989206
11.5,-0.045163777581555056,1.8246303073238344,-1.980634035766779,-0.20269720323252433,0.041958006162171706,0.2375876056141421,0.23527178279679858,0.34589701059294986,0.9082964338256624,-1.4911527633666992,-1.9035412273802699,4.110820423271576,-0.04788280611433399,1.3822925219305386,-0.10618427526763699,2.0,0.5341917365516683,0.5201331307361396,0.4258282007188005,-0.6093848701812847,0.5237011551796038,-0.05280965242250437,0.5929572671522808
11.600000000000001,-0.1488757446196956,1.3273110791056417,-2.354152513349729,-0.16816635546053385,0.03335781869231486,0.23446619446376468,0.2355196208387357,0.34619805848670715,0.9081172349318057,-1.4911432845735308,-1.903544470125301,4.110822640447224,-0.04784905276371325,1.38231083014449,-0.10620572823594139,2.0,0.5341837536992619,0.5201441035430253,0.42581435336253737,-0.6093912116025989,0.5236976078054348,-0.05278775484560255,0.5929558328735298
11.700000000000001,-0.2991901982092794,1.2407783487820538,-2.391383935010891,-0.1571950227999274,0.024876296682319925,0.2335624221513467,0.23614477030227524,0.3470824638652316,0.9076166710610225,-1.4911165237426758,-1.9035739313030973,4.110810078145077,-0.04788342902900462,1.3822911964399507,-0.10621549998527437,2.0,0.5341838119220865,0.5201373955030513,0.425836214354272,-0.609382138537022,0.5236990791538199,-0.05279491836741793,0.5929632200398811
11.8,-0.5292665791404751,0.7266971106143452,-2.5048645434011836,-0.14509945603452648,0.008621220339300803,0.22727330920479238,0.23663714516847933,0.34777625747505503,0.907223525626851,-1.4911619834197496,-1.903562510562995,4.1108174324035645,-0.047843568080017634,1.3822816079876226,-0.10618962515505109,2.0,0.5341778770447089,0.5201251261404445,0.42586802936904583,-0.6093797534319575,0.5236767658045307,-0.052812830664770535,0.5929837822241751
11.9,-0.5259778788922977,0.7963003638692624,-2.6117545592280367,-0.13811810898339036,0.013136687539339723,0.2287686190827251,0.23653363124424293,0.34761459063856986,0.9073124712217485,-1.4911367876160977,-1.9035252516296683,4.110800817622939,-0.047911362909968724,1.3822890073202045,-0.10618812242616826,2.0,0.534183490624316,0.520136485408054,0.42586132830420026,-0.609369348484654,0.5236859208303069,-0.05279690941318536,0.5929878074698655
12.0,0.6740013078715608,1.4674148802580713,-2.4387032117066263,-0.1613868905168453,0.08645684082252898,0.23571612348708684,0.23672009278745407,0.3478605920561209,0.9071694434372872,-1.491128921508789,-1.9035412273802699,4.110825515854928,-0.04789570209407194,1.382286028231279,-0.10619620789211862,2.761294772151258,0.5341762135169238,0.5201258842576162,0.4258793948843955,-0.6093743179791752,0.5236759079715639,-0.05280490061147579,0.5929908316904955
12.100000000000001,0.6698906236632378,1.777427330890713,-1.8737937907137934,-0.16983106980371024,0.0988428914603882,0.24252816406121314,0.23688247013916655,0.34808900162794293,0.9070394383629293,-1.4911933664971113,-1.9034273224748819,4.110825728958064,-0.04790289819750981,1.3822988024366858,-0.10618156505679875,3.0,0.5341816249119343,0.520128510670587,0.42585998124479785,-0.6093741843031827,0.5236965832456172,-0.052796288230061286,0.5929734767684179
12.200000000000001,1.251937271112878,1.6598372684348421,-0.9149310912354307,-0.15547549129591046,0.12059776748624076,0.2236057270452231,0.236378863696911,0.3474459512556732,0.9074173663452766,-1.492055195452892,-1.9024996426322291,4.110842227935791,-0.04788152431373817,1.382232661197795,-0.10618764558901006,3.0,0.5341965086481318,0.5201057931245957,0.42585790358120357,-0.6093663082557075,0.5237052759879067,-0.05281301968563601,0.592972403419354
12.3,0.9678330226372898,2.3464067098864083,-0.2013636162750894,-0.19092621932251025,0.13552284630959674,0.20321602208519182,0.2367563346976286,0.3479528602210758,0.9071246714744541,-1.493382600256428,-1.9013336554990057,4.111046314239502,-0.04780598229211597,1.3820492454742865,-0.10610329618434702,3.0,0.5339121114600318,0.519778330835795,0.4261019808551519,-0.6093277836141607,0.5236726616094977,-0.05281314556644498,0.5930407804308708
12.4,1.115832193512549,2.4848337905762508,-0.06507608882017979,-0.20671858052551415,0.1442357690124495,0.1955195408578184,0.23707472195063276,0.34841252567932796,0.9068650014531121,-1.494649818033299,-1.8999086153112617,4.111308032078598,-0.047756439301220054,1.3818338945018882,-0.10608185762861037,3.0,0.5337255906703852,0.5195788941754923,0.4261698511541275,-0.6093244375712653,0.5236743817388922,-0.05282964508307299,0.5930412298392471
12.5,0.955263770164388,2.750546723441849,-0.6247247898497785,-0.20572881988526293,0.13601813002391225,0.18729941788095616,0.2370394894024874,0.3483654951460755,0.9068923028418079,-1.4960050582885742,-1.8988997174550242,4.111462093268751,-0.047731110900657896,1.3816740174706903,-0.10604411760439092,3.0,0.5333127967198867,0.5192422084694989,0.4263333084331592,-0.6093523819215837,0.5236549335117893,-0.0528099321254748,0.5930314463198042
12.600000000000001,1.2561539784088203,3.345885669045221,0.9858523448048184,-0.2662160831660882,0.16268623407442473,0.1426672197114439,0.23686965985612546,0.34812666293020855,0.9070284087971948,-1.49732034198709,-1.8978516064085902,4.11163877652628,-0.04767511716408254,1.381514549255371,-0.10591659409470001,3.0,0.5328231096841448,0.5187984526339138,0.42639480626879733,-0.6094118625499306,0.5236909103698502,-0.0528174581491729,0.5929378789503019
12.700000000000001,1.9423635534182084,4.186110080054768,2.604576998032774,-0.3224468548528767,0.20168684316883814,0.1307792157649765,0.2371614873030071,0.34855682227270035,0.9067868703600674,-1.4985468733046816,-1.8966787976568036,4.111852583568532,-0.04767228914629444,1.3813262727538316,-0.1059261162984623,3.0,0.53263439539341,0.5186223711206691,0.42637011110928175,-0.6094474753138917,0.5237215761934643,-0.052821226483819046,0.5928738512497427
12.8,1.8441975282332193,3.799388282190939,2.6746633865112135,-0.30437200682043297,0.22023717439753834,0.10842499193631518,0.23650789148726784,0.3476431274106119,0.9073065486883634,-1.499770164489746,-1.895272731904111,4.11198091506958,-0.047590569858886766,1.3811515352151689,-0.105854251211239,3.0,0.5323261726407003,0.5183228913100651,0.42648402135389585,-0.6094541567542248,0.5237302577664235,-0.0528302590385394,0.5928585089587846
12.9,1.3467936397101925,3.706138747843179,2.598717946876119,-0.27507223613208126,0.2262929332161222,0.0946137011034477,0.235310662081955,0.34596057089924387,0.9082619474064165,-1.5010302619772804,-1.8940180189679723,4.112173850997056,-0.04756581073277996,1.3809836461869558,-0.10578471809545904,3.0,0.5317772958676104,0.5177733266919357,0.42690940179186565,-0.6093572509324758,0.5236931073232621,-0.052803332212837666,0.592993320523379
13.0,1.5598445070470062,3.300496277586143,2.5443567542776613,-0.26542326500799146,0.21950581584747306,0.07557419445054979,0.2345354535051961,0.34491106936648813,0.9088605038859708,-1.502196194412283,-1.8928887421914726,4.112331749679617,-0.04758345993799234,1.3807962902966993,-0.10576298649240884,3.0,0.5315658895524009,0.5175859685691879,0.42697849301739377,-0.6093784682945294,0.5236836785781074,-0.052809767561478205,0.592979270818144
13.100000000000001,1.65590588679742,2.8916425458318185,2.540651821022726,-0.23788952209423,0.21301995309292682,0.06445037400445135,0.23383599699366897,0.3439645817300567,0.909400402884137,-1.5034175103017684,-1.8917342211912183,4.112539951625853,-0.04752154767162243,1.3806530008197735,-0.10568118032081467,3.0,0.5311225432883226,0.5171570838102404,0.42716876724094965,-0.6093707927635187,0.523694910812422,-0.05281102199586163,0.5929771271066723
13.200000000000001,1.6234274252674807,2.5565247424083486,2.57602712222899,-0.21747115967727149,0.21080198401809094,0.05404645735877241,0.2338573686803827,0.34399833563626914,0.909382139322736,-1.5047009656975068,-1.8905115054652661,4.112721568417836,-0.047419510560658726,1.3804942429783833,-0.10562911875707293,3.0,0.5309009971084097,0.5169361577738597,0.4272526567076359,-0.6093742825722545,0.5236995480666591,-0.05280727499968162,0.5929697789950473
13.3,1.4904103925911822,2.4844588481178733,2.575276927567636,-0.19895348414699668,0.19803973792922588,0.034940328926543654,0.2336789638738775,0.34374965359753284,0.9095218590560294,-1.506008844174146,-1.8892883690066926,4.112867007356287,-0.04742224634204106,1.3803009830685826,-0.10558969179262334,3.0,0.530575685325306,0.5166251073303743,0.4273380308504297,-0.6093908959638026,0.5236966212118322,-0.05282228779866384,0.5929539533213858
13.4,1.3555995597531514,2.1106087098497808,2.561352953722334,-0.1892111507002087,0.20435598581137007,0.02725074959999915,0.23335960439986278,0.3433016955375213,0.9097730457713333,-1.5071500539921225,-1.8881799778980104,4.113025717706412,-0.04742224634204106,1.3801695704530925,-0.10554564395305623,3.0,0.5300882779465166,0.5161632731394946,0.4275643048665596,-0.6093914570351024,0.5236873452645451,-0.052805660764737056,0.5929630500238676
13.5,1.2929147400039804,2.1103710511732294,2.483647052801303,-0.1788371564820902,0.20438669150883026,0.01700335040229504,0.23297173945431743,0.34276581601095973,0.9100743951880301,-1.5082335901070778,-1.886869676940477,4.113206799177242,-0.04742224634204106,1.3800022280950905,-0.10547375613710151,3.0,0.5299100890463556,0.5159634360538501,0.42760533814341617,-0.6093961917814319,0.5237064685454627,-0.052811996313508025,0.5929407299986319
13.600000000000001,1.3800850208020325,2.0520048784603366,2.826056614601044,-0.18011414315189775,0.19643848704215305,0.019863760822068276,0.23253908448270044,0.3421713935581331,0.9104088468480621,-1.5096485445709016,-1.885578588590134,4.1133952140808105,-0.047414250866261394,1.3798304711685074,-0.10545016154589404,3.0,0.5295469625020313,0.5156052943002638,0.42792009177159707,-0.6093417975170936,0.5236739049201022,-0.05280943354064836,0.5930256139775796
13.700000000000001,1.2770620625342677,1.6346469951145761,2.6812193614578868,-0.1713608754045128,0.19448152149513212,0.02764209102247662,0.23218744546766423,0.34166579578369966,0.910688342155404,-1.5110059725682279,-1.8844642691808675,4.113571560927263,-0.047382058009582145,1.3796859105466568,-0.10533412297232383,3.0,0.5290416008004823,0.5151138015409561,0.42808879223094054,-0.6093693650084964,0.5236839865127929,-0.05279377066578026,0.5929897781902311
13.8,1.1702358393062686,1.7871167129288261,2.618454490323674,-0.1574517026923755,0.2002873328985338,0.029901053093314374,0.23203178639395963,0.3414470990528018,0.9108101495309613,-1.5121949250131284,-1.8834526900705153,4.113748452542863,-0.04738622119037446,1.3795102860792627,-0.10528317293563906,3.0,0.5288436793474266,0.514927550268048,0.4281105126523665,-0.6093964740011109,0.5236944624461485,-0.05280361102714397,0.5929517907391351
13.9,1.0339827642174555,2.131317597501578,2.42037524262415,-0.16745918265045423,0.21099354367840062,0.029731086206403266,0.23203429995064453,0.3414599560840347,0.9108046892138069,-1.513222046431335,-1.8820993062376277,4.113930549355134,-0.04734199105833118,1.3793110847473145,-0.1052708588622649,3.0,0.5284045263387865,0.5145183008989498,0.4281591175999865,-0.6094441936454569,0.5237382961776815,-0.05279465081960146,0.5928648216866762
14.0,1.0869161172986364,2.0133238684739942,2.6311273778720246,-0.1657505322678727,0.2081537481852424,0.034894108805270226,0.2319720115451578,0.3413638218912653,0.9108565637854447,-1.5143955421824948,-1.8808075788407899,4.1141000192156465,-0.047312136773508255,1.3791751662497205,-0.1052281895041872,3.0,0.5281947884578954,0.5142885557756742,0.42837267349698194,-0.6093984581010587,0.5236969383748177,-0.05280449017822341,0.5929474865600769
14.100000000000001,0.8909869416592009,1.5828554268683845,2.7386442994118414,-0.13314994345154746,0.19928206525850942,0.0315237128462284,0.23185472964106318,0.3411751934510289,0.910957095002982,-1.5158012154536962,-1.879586283540689,4.1142638848851005,-0.04734172411128261,1.3790004933609268,-0.10515144681974573,3.0,0.5278427607235793,0.5139676948926089,0.42862383700288353,-0.6093634224800665,0.5236721929849814,-0.05279063670416559,0.5930065786431455
14.200000000000001,0.9428406615112666,1.1606045378114445,2.7023112014500867,-0.10531027404736984,0.1990446318796468,0.02865996497041997,0.23159847384044385,0.34083447548144186,0.911149765523095,-1.5171159258590798,-1.878571562198675,4.114430068956355,-0.04731448114428716,1.3788407485247494,-0.10505916675797818,3.0,0.5273151930360028,0.5134373498340077,0.4288034297166376,-0.6093832458402288,0.5236835406913969,-0.05280183508825896,0.5929751892865852
14.3,1.1380619745225815,1.201043524517263,2.774428702091359,-0.09575825288309514,0.19048708770945413,0.02924426935842804,0.23126503209456004,0.3404143273784987,0.9113914810407807,-1.5181441497758466,-1.87746032760879,4.1146416664123535,-0.04730965290936085,1.3786573611349437,-0.10507155523525491,3.0,0.5271344569343172,0.5132804894989286,0.42876927483319077,-0.6094343830673578,0.5237071371499603,-0.052798399679451796,0.5929020966608152
14.4,1.1084923192798575,1.33971319845017,2.5555137619184376,-0.09201255766033539,0.19851896199724423,0.027556028382254606,0.23098006448403824,0.34005277165163905,0.911598771225271,-1.5192550440912016,-1.876020356446909,4.114809513092041,-0.047306554734077404,1.3784782926806942,-0.10498358917799616,3.0,0.5267071974925609,0.5128516001959343,0.4290093907083841,-0.6093928317196253,0.5237083134301024,-0.05280919229864188,0.5929428035668356
14.5,1.0570551904407937,1.1633260120474984,2.507544668349084,-0.06785942698888839,0.19401241610294534,0.031290680496359025,0.23117522562883022,0.3402748288440091,0.9114664024570727,-1.5206009689456212,-1.8746609748159173,4.114990279679419,-0.047320941098132396,1.3782880079721802,-0.10491895504561695,3.0,0.526448393221958,0.512599393457837,0.4292417855971194,-0.6093396523762845,0.5236833578053515,-0.0527940083092046,0.5930208440571958
14.600000000000001,0.910882195352855,0.9764299491046579,2.8198758084880797,-0.05566992055061261,0.20208027411689836,0.03291871618223885,0.2303040865634157,0.3390758058573236,0.9121317946758009,-1.5220057051551976,-1.8736405431340313,4.115164796663778,-0.047294757527972305,1.378133813692586,-0.1048958937274378,3.0,0.5261108645556585,0.5122461051623024,0.4294561693110902,-0.6093165614918608,0.5236626678512273,-0.05279261450044944,0.5930629629684168
14.700000000000001,0.9998545684023535,0.758366593355887,2.6421431755920817,-0.0423298958676821,0.20407615348863,0.02612838093231987,0.228896770222935,0.33718872323146953,0.9131864004428408,-1.523132370606243,-1.8725876220298294,4.11532549728471,-0.04726584375415044,1.3779625085524434,-0.10483255509686935,3.0,0.5256273837754356,0.5117973028621285,0.42940752277126604,-0.6094213480425094,0.5237295557812693,-0.05281219158547992,0.5928944639403742
14.8,0.8448644823346918,0.8395873760537536,2.7698125833754927,-0.035334916682014265,0.20816847187304763,0.025933553272223506,0.2283372472520048,0.33644019700684186,0.9136027586877564,-1.5242996626017666,-1.8713353363407965,4.115557247344175,-0.04722605150339221,1.377758878905388,-0.1047845759029491,3.0,0.5254444683361786,0.5116095886241441,0.42945969331259487,-0.6094144572453871,0.5237392823549282,-0.05280596853545902,0.5928935090770413
14.9,0.9357551656265783,0.7734980811107356,2.845811330966024,-0.03221418226142973,0.21560432610436786,0.026749959280283564,0.2281086053939063,0.3361130713785582,0.9137803136342639,-1.525424399151898,-1.8700199687892645,4.11571247241641,-0.04725439966235356,1.3775557639614848,-0.10469696942598311,3.0,0.5251124305448848,0.5113208709889754,0.4296200551111088,-0.6094187322833333,0.5237160168581788,-0.052807216255805124,0.5929095549404574
15.0,0.9492689944139033,0.5911832512928443,3.0982250626291297,-0.02602466188559684,0.21420841388276485,0.022784183978007494,0.2280981955218742,0.336066969565021,0.913799870966022,-1.5266747388239792,-1.868673778400646,4.115904170322046,-0.04729923099828652,1.377396583557129,-0.10466486180275744,3.0,0.5245878454109075,0.5108158507890715,0.43007966650759594,-0.6093232205664839,0.5236518035200992,-0.05279340306580286,0.5930656440406636
15.100000000000001,1.174238584710673,0.3904297374678637,3.2213395498422432,-0.02167825983913656,0.22048442062660967,0.028723013733784337,0.22790440965280856,0.3358057809625396,0.9139440964289945,-1.5279643767088362,-1.8677141925874161,4.116087357882157,-0.04733524670810384,1.377253532409668,-0.1046163883588625,3.0,0.5243576420373487,0.5105645489730133,0.43019816747326856,-0.6093274101427979,0.5236577859769912,-0.0528078090540762,0.5930547746517638
15.200000000000001,1.6587719354146686,0.5661648828073305,2.6852444947802128,-0.04080891263697699,0.23370609528661732,0.033817375877627204,0.2275011261207668,0.3352982828019753,0.9142309733485842,-1.5283040044966099,-1.867336711031916,4.1161594945309545,-0.04730256021533208,1.3771743373454357,-0.10461670087139484,3.0,0.5240783903816989,0.5103024875972035,0.43014504604681947,-0.6094015816161567,0.5237032321869983,-0.05281442563671376,0.592937832631113
15.3,1.0778597245628445,0.7157729741405938,2.550858090553169,-0.03989188685668653,0.2199257989524761,0.03514212188536428,0.2275759115352153,0.3353785098982458,0.9141829459324722,-1.5283152333735548,-1.8673473622893888,4.116147873568724,-0.04727824152026372,1.3772225438059285,-0.10461579517555919,3.0,0.5239025797653254,0.5101402377679914,0.43019521483510376,-0.6093978835369996,0.5237124317653559,-0.05280560042524654,0.5929342939304256
15.4,1.0511509414667117,0.9210141471531866,2.635749322551113,-0.03687511921424418,0.2217569302152449,0.032809284798783846,0.22717855999369227,0.33482524733805896,0.9144843520904357,-1.5283054960893159,-1.867304543331228,4.116159185316032,-0.04723445145315548,1.3771897320984572,-0.1045784191765424,3.0,0.5238524055523898,0.5100864082974959,0.4302541247872777,-0.6093819869255033,0.5236950030623568,-0.052803476669875164,0.5929662137338164
15.5,1.1214943391975447,0.963743469892861,2.8546183634375493,-0.04525654296826843,0.22888489643477705,0.03287171085425363,0.22751206679602842,0.33525927373764774,0.9142418414773329,-1.5283428130163927,-1.8672689295017921,4.116204780655757,-0.047243820074915996,1.3771868223386634,-0.10457027700660503,3.0,0.5238491663737822,0.5100883744663802,0.4302473713352228,-0.6093813952358274,0.5236955252545125,-0.05280034978675873,0.5929666390541988
15.600000000000001,1.0421799769866957,1.187293059214917,2.9420789189386403,-0.03817300469113362,0.22890266103043774,0.032468288039797316,0.22807782155962025,0.3359919838500509,0.9138323748109847,-1.5283483086501077,-1.867244591846638,4.116169309254109,-0.047237674508534534,1.3771931702723803,-0.10458432905222831,3.0,0.523809017964561,0.5100783538388282,0.43029511970163037,-0.6093793338585076,0.5236641758856546,-0.052782188930611776,0.5929980597707324
15.700000000000001,1.1867689155442551,1.1184998244392264,3.0383068558374595,-0.04250898080318188,0.22638019973391207,0.03301554984646244,0.22775244367790567,0.33550199987954815,0.914093480771719,-1.5283720665770069,-1.8672626943196535,4.116173340996816,-0.047249437079210484,1.3772028992568623,-0.10460169998254812,3.0,0.5238025429356044,0.5100761555298761,0.430282460241409,-0.6093804695060996,0.5236790272693682,-0.052779551031353,0.5929840122428791
15.8,1.3057886820166582,1.1300440361676216,2.94471325907392,-0.038350698652045226,0.22044004277030468,0.0330138847101228,0.2275612597516075,0.3352330403455303,0.9142399472223967,-1.5283669144728955,-1.8672336108302328,4.1161502511123,-0.04723552136304892,1.3772156893479475,-0.10460361497826634,3.0,0.5238058440539194,0.5100909166285601,0.4302901004318826,-0.6093713600654233,0.5236722732472925,-0.05276111552947067,0.5930009784579745
15.9,1.171670834215195,1.0083197082116995,2.904746047243454,-0.04282194281235892,0.22520851508680567,0.03215567568390971,0.22754991247564707,0.33526028114465656,0.914232782420303,-1.5283803939819336,-1.8672400913634242,4.116150179245731,-0.047246459585584606,1.3772255313919979,-0.10460883775819951,3.0,0.5238234142154437,0.5100630462162709,0.43029685688825353,-0.6093536754866102,0.5236915253576098,-0.052789268329172474,0.5929996438353478
16.0,1.2095346195530716,0.6901074591377504,2.7362819976125476,-0.04985701320931744,0.2221719032615067,0.035587925666103915,0.22783522635103884,0.3356875354630774,0.9140044807292822,-1.5283918380737305,-1.8672211808853258,4.116153473351329,-0.04723707051642845,1.3772270145964698,-0.10457039901604634,3.0,0.5238263249624188,0.5100700237232894,0.43024218204277603,-0.6093881917483319,0.5236972994665035,-0.05279023206421101,0.5929589882005298
16.1,1.1059845048267023,1.1058203694227444,2.9122131590012237,-0.04148030382065304,0.22386538105672094,0.03572603446324322,0.22853504654596446,0.3366737039867821,0.9134671981099378,-1.528367042541504,-1.8672594338208526,4.116174402516029,-0.0472533407843501,1.3772174420879764,-0.10457965995294356,3.0,0.5238233208362147,0.5100591884815305,0.43026467717981554,-0.6093819501528179,0.5236871984620977,-0.052804411237875576,0.59297306106491
16.2,1.23568816355214,0.9577472057889396,2.596111851723552,-0.04326751987999047,0.22193255470749343,0.0387231717313739,0.22816089428830702,0.3361579123359524,0.9137505259341807,-1.528389398044661,-1.867216249505514,4.116160467145268,-0.04724022139012996,1.3772177696228027,-0.1045611540423792,3.682292233857992,0.5238247260336729,0.5100605941761664,0.43026059079575446,-0.6093836347202161,0.5236874470100312,-0.052806290999605175,0.5929709429728908
16.3,1.0752112872191804,1.0976318842318853,2.7348768180870864,-0.04348464250913509,0.2266504123464979,0.03723923995091217,0.22824507426760046,0.33625649407304836,0.9136927762971185,-1.5283918380737305,-1.867228170434469,4.1161487620227355,-0.047268474246139315,1.377196876556367,-0.10462126596613285,4.0,0.5238172490166885,0.5100657485477181,0.430281018123942,-0.6093768692244853,0.5236837762942604,-0.052797053589555804,0.5929819599554519
16.400000000000002,1.1963172309150214,1.0429568117386196,2.8208780965102944,-0.044008342702926966,0.22142879940260884,0.0345956714927125,0.22916939740281794,0.33749057954672246,0.9130066155221874,-1.5283535635484198,-1.867228170434469,4.116156429500084,-0.04724690251629735,1.377230167388916,-0.10459739366640264,4.0,0.5238113039887908,0.510060745943088,0.430300426241602,-0.6093655466443719,0.5236784291722465,-0.052787750511567234,0.5929991456810231
16.5,1.1501370830699174,1.1903787694082177,2.678675989448027,-0.04310282942846475,0.2235412583473452,0.03608986800427807,0.22893760789271497,0.33720421440393417,0.9131707650682517,-1.5283878620774831,-1.86724851313329,4.116175174713135,-0.047243309789742685,1.377215153835798,-0.10457480738625478,4.0,0.5238202424133473,0.5100638827807807,0.4302540988327454,-0.6093933902154355,0.5236871938488998,-0.05280368033353347,0.5929613733656153
16.6,1.2140153153367266,0.9093250003770553,2.89090741709219,-0.048964028427242415,0.22391152587667867,0.03947294574673756,0.22985123768208368,0.33840035199024493,0.9124983213472917,-1.5284060574953482,-1.8672449727371816,4.116189800816299,-0.04725662799940488,1.3772013218641337,-0.10458959288561451,4.0,0.523796836638375,0.5100749742826183,0.43028954322777463,-0.6093913685560637,0.5236603511529597,-0.052783408294299915,0.5929889614221867
16.7,1.018134520411173,1.0602286456814245,2.840896823291826,-0.04392660396207633,0.22492722004576526,0.03747162405723374,0.22930101582322523,0.3376920530213083,0.9128991649785299,-1.5284072842050402,-1.8672592116853142,4.116154381220421,-0.04724872445201696,1.3772247610808104,-0.10456315506213568,4.0,0.5238167536370721,0.5100657704044553,0.430271768004739,-0.6093817051894418,0.5236854943829247,-0.05279812822345363,0.5929753772370487
16.8,1.1099496381498861,0.9265183886076286,2.7790280877344453,-0.04782011514298655,0.22378193125903645,0.04226940004309183,0.22968709135033472,0.3382429004141733,0.9125979041832013,-1.5283878090569172,-1.867204328576559,4.116178796542879,-0.04726632059130864,1.3772177696228027,-0.10459517557700664,4.0,0.5238141474394826,0.510074641124372,0.4302669040387227,-0.609392250446902,0.523681377948402,-0.052795874902548945,0.5929683761201752
16.900000000000002,1.3666738236311284,0.8901567187637148,2.72614258161957,-0.049943768133550955,0.21768997771181944,0.0463817317726962,0.230047934424145,0.3387376146461327,0.9123238319246353,-1.5283830441276685,-1.8672348276837647,4.116170121580661,-0.047235344646944594,1.3772099293510571,-0.10460883775819951,4.0,0.5238230824834497,0.5100505009362113,0.43025201352841574,-0.6093854553204556,0.5236964850284853,-0.0528160072455242,0.5929602244597283
17.0,1.2622561318931163,0.6590130543692463,2.898369329457891,-0.05478059671455121,0.2215138612120188,0.04840398389734135,0.2300245084268295,0.3386781028622184,0.9123518329819132,-1.5283718965925752,-1.8672373336038595,4.11619625881148,-0.047246179695341936,1.3772129836673255,-0.10454580957382732,4.0,0.5238260156436811,0.5100655032854726,0.43025578850604457,-0.609378540509696,0.5236964126072235,-0.05279339422237704,0.5929694084141934
17.1,0.8813359768554335,1.140528023693976,2.8193628481837085,-0.04369072838256332,0.23200758496181997,0.0422573237604701,0.22964743344133032,0.33813974785493456,0.9126462464344065,-1.5283883794231,-1.8672524891295375,4.116167723341921,-0.0472497637412546,1.377203112729442,-0.10458586269695713,4.0,0.5238084940621619,0.5100697036758529,0.43030610346406856,-0.6093632413937876,0.523673815286551,-0.05278292109739877,0.5930060189085012
17.2,0.9926808510341388,1.0776553182382569,2.751199975760282,-0.04283745467270314,0.2275294473096484,0.03691081372933713,0.22927564556674193,0.33761954491130314,0.9129324456221984,-1.5283816919895197,-1.867218532639722,4.116183006210832,-0.04725665134425613,1.3772035655596397,-0.10457079183712646,4.0,0.5238109998484722,0.5100616792106757,0.430287524652855,-0.6093709612455859,0.5236908615492089,-0.05278262213584736,0.5929830587132677
17.3,1.1312711728450915,1.1153843292331025,2.7188567451337815,-0.041930852385297056,0.22352074465756516,0.03663654718069118,0.2290425624178855,0.33730897685045425,0.9131057535936807,-1.5283918380737305,-1.8672524891295375,4.116142454206012,-0.04726000738468153,1.3772037719811414,-0.1046212355243128,4.0,0.5238059524432558,0.5100774586100647,0.43025919555896386,-0.6093921432647892,0.5236773664262084,-0.052789605203440476,0.5929725872268653
17.400000000000002,1.0999465093272736,0.9215144988656986,2.7270546189600187,-0.049061863575589865,0.2176215990688466,0.041271351285268834,0.22928187526018595,0.33764039329833523,0.9129231771558385,-1.528386788094124,-1.8672364975274502,4.116188495780198,-0.04724200189624028,1.377207248831956,-0.10458407259933929,4.0,0.5238171113478411,0.5100758616243779,0.4302451338890049,-0.6093997421762746,0.5236896685162366,-0.05278879673819374,0.5929539849463685
17.5,1.1426857801342125,0.7320770885946923,2.6962410683024083,-0.05056492560218658,0.22129294596981283,0.04211509961074567,0.22903221239646054,0.3372986151594752,0.9131120462549523,-1.528381464402121,-1.867237327609493,4.116173306318208,-0.04725217607416495,1.3772249805531114,-0.1045940752255245,4.0,0.5238083043809213,0.5100766945698438,0.4302646055826819,-0.6094038767877339,0.5236694799349545,-0.05279142830900091,0.5929673311724943
17.6,1.1168776251201251,1.1692682525349578,2.8725914333253986,-0.041739667280473416,0.21894829910218006,0.04310648245327414,0.22899928008980297,0.33726269221935523,0.9131334944707469,-1.5284080888468135,-1.8672212467182492,4.116170377388909,-0.04725612627732906,1.3772011284297614,-0.10459019300153385,4.0,0.5238152646513232,0.5100753605043139,0.4302493369617419,-0.609401750681875,0.5236773343975838,-0.05279410290204836,0.5929623414710878
17.7,1.3267746438044288,0.9958273737604877,3.02836354627054,-0.04490459173024217,0.21816095986283146,0.04595995475119515,0.2293899080416572,0.33782256218651147,0.9128286002698437,-1.5283918380737305,-1.867219459519652,4.116165087417739,-0.04726632059130864,1.377221436889922,-0.1045611540423792,4.0,0.5238115996808497,0.5100710206941077,0.43024979730610735,-0.6094029066730121,0.5236881223941349,-0.052801414539831074,0.5929509747225167
17.8,1.0861634593506566,0.8928267439351905,2.8951877754582642,-0.049067744134420964,0.22332186247130395,0.04323529220029846,0.22911611697247045,0.33744981788126266,0.9130352749731551,-1.5284090207927101,-1.8672226525237166,4.116158400264447,-0.04726058196412597,1.3772116227253284,-0.10458458762999762,4.0,0.5238167090260848,0.5100662418797867,0.4302476628687273,-0.6093977307269604,0.5236986422003446,-0.052798773264013055,0.5929472383645632
17.900000000000002,0.9422304034851889,0.7284907470408533,2.8020230963872907,-0.05433452432809248,0.22306671239387388,0.044398095974287934,0.22922436185144823,0.3375781621315258,0.9129606602008357,-1.5283727577746096,-1.8672400913634242,4.1161649689397315,-0.04726632059130864,1.3771961197576028,-0.10459520167369249,4.0,0.5238101272064564,0.5100694653656485,0.43025979039905116,-0.609390199539131,0.5236888496726804,-0.052789554754240714,0.5929644477900947
