xiamingqian9007/apple-picking-rnn/final_data/grasper_20191127_131630_noimg.csv
,/manipulator_wrench.fx,/manipulator_wrench.fy,/manipulator_wrench.fz,/manipulator_wrench.tx,/manipulator_wrench.ty,/manipulator_wrench.tz,/ground_truth.x,/ground_truth.y,/ground_truth.z,/joint_states.elbow_joint,/joint_states.shoulder_lift_joint,/joint_states.shoulder_pan_joint,/joint_states.wrist_1_joint,/joint_states.wrist_2_joint,/joint_states.wrist_3_joint,/mode./mode,/manipulator_pose.x,/manipulator_pose.y,/manipulator_pose.z,/manipulator_pose.rx,/manipulator_pose.ry,/manipulator_pose.rz,/manipulator_pose.rw
0.2,0.25982188609353796,0.6902584957459296,-0.0884101893594893,-0.00477645390033123,-0.011069026315741231,-0.00582347866866611,0.1635105082044376,0.3036633998019001,0.9386441390795446,-1.412564978894793,-1.7576256177008893,4.167937047909585,-3.1581753524197467,-1.3411556310682313,2.8308515332801303,1.0,0.4722476337313017,0.48282698023573895,0.3924171412669751,-0.5882609290081061,0.41939278575140926,-0.10673470585240358,0.6831299094819324
0.30000000000000004,0.06695484852318445,0.6323821380122329,0.28589806488954533,-0.014803049243789798,-0.020194003216738143,-0.008288183564285817,0.16363354652672052,0.3038731750027749,0.9385548221910003,-1.4082988501930283,-1.761126357815906,4.167173034337306,-3.158716283006488,-1.341945808294845,2.8308088652548316,1.0,0.4724878892034308,0.4831066100512463,0.3923565581730099,-0.5882846442148869,0.4194005648965625,-0.10672711798483225,0.6831058964992616
0.4,0.09318232772681184,0.4552776659407244,0.038693750184592424,-0.011413036970478683,-0.018681554106091187,0.001153143282520544,0.16379934642992228,0.3041893446635944,0.9384234336476781,-1.4040470606531334,-1.7648580145809438,4.166320325281389,-3.1593287617483576,-1.3427773924098871,2.8307728454150123,1.0,0.4736964391793769,0.48428026517693695,0.3924075240096203,-0.58822499734374,0.4193664791608227,-0.10673403067815712,0.683177103942606
0.5,-0.05214863615532368,0.5803340331148554,0.11635134577710539,-0.005452697206927838,-0.012811212273273377,-0.0015243159063838907,0.16369258520816024,0.3039715601179319,0.9385124204363562,-1.3998649270684869,-1.7684038369342514,4.165652818250226,-3.159912038155339,-1.343413122274955,2.8307363941433192,1.0,0.47446467938740006,0.48503629599152903,0.39231770609870953,-0.5882468999642887,0.41937751269479145,-0.10672090142446194,0.6831535228098327
0.6000000000000001,0.25494011726116733,0.17790920864849405,0.0694554901052483,-0.01975332191980112,-0.009048629449201899,-0.004946699586435587,0.16328059715268328,0.3031553899314301,0.938848339251596,-1.395894218349879,-1.7718976221280607,4.165012434856364,-3.1604906101859886,-1.344004238747308,2.8306843855769865,1.0,0.475373748076809,0.4859595125677387,0.3922756122643928,-0.5882363618844072,0.419385293179183,-0.10672689872342983,0.6831568835274122
0.7000000000000001,0.06073354466446063,0.4602829179586091,0.21554802647372023,-0.009514117075723043,-0.013837888177394335,-0.009222531666186012,0.16339382645718234,0.3034766160719815,0.9387248323781457,-1.3919955566898705,-1.7753215165759058,4.164449947831258,-3.1609991102811876,-1.3445961477616528,2.830662093089036,1.0,0.4768224961510325,0.4874595597590789,0.3921227597007402,-0.5882422697403514,0.41941591334420636,-0.10674858962700842,0.6831296087398127
0.8,0.22771463763792493,0.584678388201261,0.1970724006027406,-0.008930430226286859,-0.01659218165143844,-0.007355957768581093,0.16347248625768634,0.30362911366518747,0.9386618676909304,-1.388067567592802,-1.778745139365286,4.163835673303404,-3.1615308051211843,-1.3453066836302432,2.830618394764237,1.0,0.4774336079442494,0.48813178864581425,0.3920195691412857,-0.5882770128107128,0.4194180512218174,-0.10674802306829509,0.683098465873558
0.9,-0.35757014429769474,0.1966053243564062,0.039993523426617494,0.004224394195506973,-0.013420555875242232,-0.010018102682834523,0.16348503366248043,0.3035253843803041,0.9386932319946807,-1.384391454610505,-1.7816006171347556,4.163179815875031,-3.1620852274009756,-1.3459974250984705,2.8305809510570525,1.0,0.47869523146602155,0.489482131699596,0.3918622647779871,-0.5883330372687561,0.41938679412646457,-0.10672706606249345,0.6830726810084992
1.0,0.19851272694053795,0.7316191744318514,0.19607720093222342,-0.012172660861711065,-0.015590729325592424,-0.005198276455852936,0.1634553516078755,0.3033952818015148,0.9387404539687699,-1.380897396883852,-1.7848688399388162,4.162572286399967,-3.1627177513435107,-1.346595024199508,2.830601648060742,1.0,0.4792170915369491,0.4899832765855589,0.39195888411599666,-0.588271025632241,0.41936688755880847,-0.10670819228292132,0.6831412560521725
1.1,0.0667856785843097,0.828369686960102,0.2194910677680141,-0.006282795635220209,-0.010735049774008801,-0.006641706724932812,0.16337030177387832,0.30329357240675353,0.9387881158998661,-1.3772848341975303,-1.787488501875431,4.161978636886363,-3.1632275414959214,-1.3470489991025834,2.8305650024960904,1.0,0.479988848406928,0.49076876932086966,0.39179334026016766,-0.5883405417336451,0.41939321490959436,-0.10669806424388967,0.6830668059033191
1.2000000000000002,-0.06756883979817424,1.030870614904451,0.253865367048852,-0.00017335421891864072,-0.009639294581357741,-0.00996287455885,0.16321573571682504,0.3032314472089305,0.9388350583166063,-1.3739086710108388,-1.7905832289015031,4.161313778291834,-3.163779343521863,-1.3475220294307986,2.8305428512025586,1.0,0.48123758618868384,0.4919002936146813,0.3919181294439783,-0.5882099588099761,0.41940590356317725,-0.10675947115911485,0.6831618752030499
1.3,0.043248047330752895,0.20212502365818466,0.16079309721847387,-0.007824189463222464,-0.013642735757313146,-0.0071258013603028155,0.16306116965977177,0.3031693220111075,0.9388820007333464,-1.3706270956936202,-1.793237324151073,4.160882485214452,-3.164255918219177,-1.3480632574200195,2.830475625695932,1.0,0.48184163137240554,0.4924467351527939,0.39178647577205905,-0.5882316781713992,0.41945968862793176,-0.10680309855597714,0.6831033308004438
1.4000000000000001,-0.11176660130059761,0.4565714726451723,0.22234918580099133,-0.004991959619748241,-0.008994698242635898,-0.007473177427425537,0.1632484596999321,0.30337582772668664,0.9387827429199318,-1.3673931969101663,-1.7960401502925285,4.16039519253574,-3.164765020410055,-1.3486271953660578,2.830489335547205,1.0,0.4825483119768288,0.49323315831750364,0.39176236006579923,-0.588218972883433,0.41943345134095694,-0.10677447605763214,0.6831348557194181
1.5,-0.10750707543707719,0.4580764912933825,0.03153569721053193,-0.011765732900463302,-0.011371880171711878,-0.009393731986830831,0.16314032546505147,0.3030507075584157,0.9389064030870751,-1.3641951327040818,-1.7986014375115407,4.159895963316991,-3.165284024454074,-1.3491273864962443,2.8304691949625806,1.0,0.48371914858310855,0.49446517911335786,0.3916194993527503,-0.5882870660167983,0.41940044821333916,-0.1067426215579128,0.6831014600619307
1.6,-0.11676368212566311,0.6112930888346895,0.10815023441923745,-0.003004450623104199,-0.012828835339484718,-0.0073658629201101096,0.1630006463088465,0.30267175130072915,0.9390529212040223,-1.361272140391598,-1.8011393958989916,4.159459590911865,-3.1658035804186166,-1.349654658128592,2.8304420136177804,1.0,0.48413321772992807,0.4948778689201606,0.39166760777704507,-0.5882455502544096,0.4193930421051994,-0.1067506782174647,0.6831404991213338
1.7000000000000002,-0.20089684017890536,0.5283052665805257,0.18455960214753034,-0.008090512473942253,-0.006620642229074149,-0.006391511151130962,0.16304408316416152,0.3026891425019998,0.9390396454613794,-1.3581823048738666,-1.803697976122527,4.159077167510986,-3.16629478907866,-1.3500508767564032,2.8304423333582283,1.0,0.4850724384862038,0.49590381701093805,0.39153910534131775,-0.5882967249319747,0.41939356216533896,-0.10669873602310649,0.6831042257076528
1.8,0.10431395406166236,0.2687193646055874,0.2062675582147305,-0.013072851675568703,-0.010323471485969373,-0.008267141223652906,0.1633613371041797,0.30329920009459405,0.9387874267206708,-1.3555291471010962,-1.8059600534991591,4.158672301338092,-3.1667899900113623,-1.3504632155047815,2.8303851767043033,1.0,0.4854641303126122,0.4963265772823736,0.39152750891226507,-0.5882733685257079,0.4193939601700209,-0.10670695851732173,0.6831228111110815
1.9000000000000001,0.053684100215583355,0.43866372203171133,0.16608085523766702,-0.008981469288081459,-0.013116267227215393,-0.008686906871909034,0.16367859104419782,0.3039092576871883,0.9385352079799623,-1.3525245174978822,-1.808346228683762,4.158265886230431,-3.167257270731818,-1.3508508692529952,2.830369472503662,1.0,0.48601972318068026,0.4969021999233205,0.39148295019777246,-0.588287415421827,0.41939998969807135,-0.10671321877812812,0.6831060345477674
2.0,0.29185882869499713,0.3861462426964799,0.22251193745163625,-0.007230173766401003,-0.014248146693854073,-0.008294183504206142,0.16328010486823807,0.3031858420444775,0.9388382718066128,-1.3500114539140713,-1.8107015152259043,4.157767446712105,-3.1676923465667626,-1.3512290331127297,2.8303818702697754,1.0,0.4867060158527261,0.4976060805175141,0.391422396661297,-0.5882933188031566,0.41941051648248817,-0.1067257694677155,0.6830925265635572
2.1,0.07872142620452993,0.3250547384348432,0.3043851608108834,-0.004784963538924511,-0.007523244534604769,-0.016494078435548797,0.1630477747262562,0.30280947835273336,0.9390004099689526,-1.3472024346665217,-1.8125424840608946,4.157432503405117,-3.168161663884032,-1.351657480541115,2.8303537432915933,1.0,0.48740624503488456,0.4982997542709141,0.391390923288596,-0.5882614254514539,0.41942032570781085,-0.10674467168044975,0.6831110164364285
2.2,-0.052898309326985055,0.47550659716069377,0.3975802416727261,-0.0075239009155009615,-0.008908118609718413,-0.015295572316761742,0.16330991710881296,0.30333859014866055,0.9387840182199142,-1.3447272097459342,-1.814984253089931,4.157030607342347,-3.1686337597173404,-1.3520433200642479,2.8303007954956967,1.0,0.4879665555636284,0.4988023982815657,0.39142395130078356,-0.5882148259535112,0.41942077988997056,-0.10675653684551206,0.6831490099280847
2.3000000000000003,0.014464702748324218,0.621160696980335,0.36004534090557244,-0.011099720861117488,-0.012625037328337647,-0.014696532652651365,0.16364793461585803,0.3039365716462871,0.9385316426729645,-1.3421471404512633,-1.816864808679718,4.156607151031494,-3.1690707606344644,-1.352440480305187,2.8303059735811233,1.0,0.4887388355980863,0.4997115190421073,0.39126037384783435,-0.5883167877722587,0.4193825807266766,-0.10672572567653477,0.683089472680688
2.4000000000000004,-0.012050599559255734,0.43704680070771695,0.24902296189958867,-0.013906137700127812,-0.012682514792974636,-0.012984605974544077,0.16391424283863085,0.3045143959578535,0.9382977653066984,-1.3396903261113933,-1.818770618154978,4.156203023195409,-3.169525430216516,-1.3528179778891591,2.830299994775735,1.0,0.4892849712636084,0.5001769235508483,0.39129336403933507,-0.5882661001162167,0.41940502416256237,-0.10675333612224866,0.683115031592797
2.5,0.0523733006520012,0.6678758057284664,0.3222845758321564,-0.008184346011354957,-0.016684358591050573,-0.02107905575039647,0.16398056417144333,0.3046616409685916,0.9382384050056296,-1.3372874557723808,-1.8209305523403354,4.155920488961716,-3.16996889167365,-1.353206198087608,2.8302766879446883,1.0,0.4898318795256443,0.5007075612345238,0.39134234642131627,-0.5882471034512626,0.4193808843430793,-0.10674542750146992,0.683147445897549
2.6,0.06724016015824298,0.5996182446937223,0.15697334863610338,-0.006354959918837969,-0.011178712268239221,-0.011125107448505643,0.1636684255198569,0.30399404738912894,0.9385093049820465,-1.3351638582169498,-1.8226577814629052,4.155544660016254,-3.170388992723507,-1.3534824913476833,2.830261707305908,1.0,0.49057131940269394,0.5015026340936766,0.39124819652525195,-0.5882611169009495,0.4193894363671814,-0.10671607526437855,0.6831347145960545
2.7,0.03903153936076828,0.6146476411551017,0.16190992534001797,-0.0012040245639411047,-0.015127647628270523,-0.01182447629641428,0.16339372409067715,0.3034043218630449,0.9387482118035209,-1.3327950883188378,-1.824410444585133,4.155216693878174,-3.1707440423268225,-1.3537542515521543,2.830240781279551,1.0,0.4909276649300789,0.5018462969324742,0.3911871150358151,-0.5882727417022948,0.4194084543026972,-0.10673602264662778,0.6831099115801689
2.8000000000000003,0.009703835413540099,0.5229566080627779,0.05099280656115575,-0.011423086281501951,-0.013235173126814957,-0.00872327558325664,0.16319269496401453,0.3029678320317095,0.9389241596435886,-1.3308348455736714,-1.8262601487801557,4.1549620720648,-3.1711355556145424,-1.354030067043778,2.8302552507769674,1.0,0.4914128682152877,0.5023196969037452,0.3912967039686505,-0.5881964783360687,0.41938585772553105,-0.10671445615328003,0.683192820557108
2.9000000000000004,0.1179446968297,0.5178611693471293,0.27267405764667085,-0.005045428663486736,-0.013321798484809163,-0.019813379198335476,0.16319776309497794,0.30310092671777816,0.9388803317945819,-1.3287687680081568,-1.8278819523253382,4.154641628265381,-3.171504636804098,-1.3543093651005567,2.8302215878332917,1.0,0.4921560173629655,0.5030918747377494,0.3910985842721666,-0.5882664752601754,0.41941597297007827,-0.10675770375175661,0.6831073037174935
3.0,0.040419792741778905,0.40199819088553607,0.18578842162012152,-0.0059592830438150056,-0.01588215872032961,-0.015637714317915694,0.16333695449299793,0.3034866237200616,0.9387314118005298,-1.3266385591564924,-1.8294279349622053,4.154361824968617,-3.1718891911357217,-1.3546060905689081,2.830212155547742,1.0,0.4925041119760996,0.503436820229439,0.39108313678898,-0.5882596316175208,0.4194192555177351,-0.1067645338968338,0.6831101142655986
3.1,-0.17868737991796327,0.5511779019085905,0.25540563496602303,-0.005464595751177057,-0.01064871145577504,-0.013297380557929303,0.1636715558141244,0.30416139136666426,0.9384547451755075,-1.3249049986684338,-1.8310266023751904,4.154099971589828,-3.1722681923031155,-1.3548901716815394,2.8301713866633182,1.0,0.4928478985952436,0.5037758322496497,0.3911271045477023,-0.5882193204889569,0.41941604019346707,-0.10676067682426563,0.6831474029197262
3.2,0.06872967244364266,0.5426077524157098,0.0871227831647739,-0.0054800714779380585,-0.015364004732248424,-0.013486186421163377,0.1635580948342761,0.3039007965733549,0.9385589357015847,-1.3229100488559216,-1.8325704684075401,4.15381722709017,-3.1726159925128337,-1.3552067118349242,2.8301969371720546,1.0,0.49335473848720546,0.5042841473291567,0.39108475783793983,-0.5882263344848061,0.41942383165479324,-0.10676586898551851,0.6831357684079702
3.3000000000000003,-0.011208334272485743,0.3209097424527342,0.24147422014316983,-0.008642546204613296,-0.01409245162978779,-0.012951139220368005,0.1633265965873632,0.30340129741764954,0.938760845833445,-1.320918186612012,-1.8341671427219384,4.15357784297699,-3.172986098845471,-1.3554381671827143,2.8301568417283387,1.0,0.4939445364082375,0.5049090384887183,0.3910932740131963,-0.5882135860014978,0.41939980843247315,-0.10675429443695078,0.6831633029878963
3.4000000000000004,-0.10754424782156491,0.4584967718318853,0.28506834850123874,-0.008854182141729979,-0.009390430414035894,-0.01392778366970778,0.16306355374303383,0.3028538266378987,0.9389833451344294,-1.319415280428127,-1.8355873800445877,4.153399178590969,-3.1733429050989272,-1.3556855971113784,2.8301412061622835,1.0,0.49423486710101733,0.5052337615139092,0.3910409629970742,-0.5882349656483277,0.4193907553025311,-0.10675727425147866,0.6831499864230972
3.5,0.08146081949520512,0.30793150489101434,0.21448867772529323,-0.011651661497140045,-0.014020871216143729,-0.012388226684103176,0.16354981018246018,0.3037684155692232,0.9386025819876033,-1.317605435042768,-1.8368696998608505,4.153179437727542,-3.173630463644563,-1.3559295898972266,2.8301690273188256,1.0,0.49451641785413425,0.5055598247659417,0.390942477181179,-0.5882904315653847,0.41938702816273704,-0.10675103543935642,0.6831054861220676
3.6,0.2031033067973866,0.1801899688666323,0.14967081068580437,-0.012292085694122414,-0.018539428635521923,-0.012496658002073419,0.1639831088959883,0.30458506575916794,0.9382629615732455,-1.3157970084368156,-1.8382058754750945,4.152906965982729,-3.1739667033769,-1.3561653055414655,2.830144476663881,1.0,0.4948396647075321,0.5059120057841205,0.39090105529088776,-0.5883133656383469,0.4193797353263359,-0.10674042643209417,0.6830918699369714
3.7,0.14027217947367873,0.4908848553275941,0.21042067367995307,-0.009686536847648818,-0.01476733916560418,-0.0178223421730555,0.16376738564822865,0.30414910428489655,0.9384420535945291,-1.3142590978281055,-1.8398003909133798,4.152672048282996,-3.1743016423146146,-1.356418158500997,2.8301285298039462,1.0,0.49524810711332923,0.5062953121353042,0.3910191122248072,-0.5882272189264227,0.4193694632051506,-0.10673717377640837,0.6831728682985994
3.8000000000000003,-0.07835731749621068,0.4949936953821383,0.380830253338424,-0.008454987748958306,-0.012865987885552712,-0.01486817859549345,0.1634366316333586,0.30344972660178826,0.9387258689788562,-1.3125983217712307,-1.8410053142851774,4.152499769067373,-3.1745974026122035,-1.3566334313403439,2.8301242642211735,1.0,0.49591827723904025,0.5070186707498306,0.3907115852496522,-0.5883673294411261,0.4194190455518016,-0.1067266756092163,0.6830234012009679
3.9000000000000004,0.02561092057151239,0.4318998902789604,0.32744179303703475,-0.006260075903562755,-0.01603835738759122,-0.017254155731017847,0.16322534908795835,0.30299006451570937,0.9389112807042406,-1.3110341653302509,-1.84206752118425,4.152223031655733,-3.174880270041112,-1.356826646652623,2.8300929069519043,1.0,0.4961371827863689,0.5072623025807621,0.39075807718943106,-0.5883386199447174,0.41939702344783025,-0.10671562075311121,0.6830633801426658
4.0,0.025852003014393794,0.5245399922601887,0.31975555791492377,-0.005973872751119417,-0.010509204305986947,-0.011912135021919784,0.16343590703395103,0.30340305699199677,0.9387412101977993,-1.309487027140091,-1.8432128965888983,4.152004886741747,-3.175205364931893,-1.3570535869253264,2.8300929069519043,1.0,0.496538837644033,0.5076119827524923,0.390947800981682,-0.5882171556986063,0.41936509486030626,-0.10671804613872475,0.6831872024437964
4.1000000000000005,0.15299958109565104,0.36688260786801896,0.43466653186913623,-0.00844674349806172,-0.014421229998335797,-0.017922026976727616,0.1635591563689767,0.3036583556633948,0.9386373018186858,-1.3078794033180339,-1.844712940426901,4.151787467534691,-3.175521513024801,-1.3572451285265688,2.830069065093994,1.0,0.4967965115600616,0.5078744387501088,0.39098965051881496,-0.5881950783734672,0.4193525476674138,-0.10671675889704826,0.6832141127879234
4.2,-0.025893806578802317,0.6361457407920345,0.2373604059122651,-0.006325680598883811,-0.01371842423991824,-0.011210068032068147,0.16342919852193027,0.30345632024684865,0.9387252728617166,-1.3063420941015917,-1.846086555120785,4.151608943939209,-3.175809193736376,-1.3574324641108408,2.8300605128625196,1.0,0.49728423998258453,0.508416575751566,0.3907817623438372,-0.5882784469955845,0.4193971984385966,-0.10672574557421675,0.6831135147059729
4.3,0.3280104400634797,0.420741178594776,0.23307943051297966,-0.007700673408390016,-0.018934573026867504,-0.010712212523081924,0.16342308054432977,0.303503082401557,0.9387112249333348,-1.3048257723012657,-1.84711374335268,4.151380413994905,-3.176165248425682,-1.3576257864581507,2.8300814628601074,1.0,0.4975481819110329,0.5086866238766611,0.3906958435701674,-0.5883037229824355,0.4194264438885503,-0.10673370496626217,0.6830725465982258
4.4,0.046614975685494844,0.6890642265263004,0.24756660573554806,-0.0029502211112810224,-0.012868634621288733,-0.015892032532469274,0.16349612089537197,0.30368324799315116,0.9386402249834709,-1.3033112984371307,-1.848181552451411,4.151150177068723,-3.1765125584848284,-1.3578374897753192,2.8300444597881227,1.0,0.4978530464423111,0.5089441699399336,0.3907589780794782,-0.5882591138285775,0.4194167626563513,-0.10674304033251059,0.6831154496430707
4.5,-0.09075007243384389,0.486379874206277,0.356768975131973,-0.0023321951442689475,-0.015613573128234253,-0.021384487288724777,0.16358678562656634,0.30382391669747405,0.9385788599218228,-1.3015335545976214,-1.8495146158451283,4.150973796844482,-3.176799549701164,-1.358042073133673,2.830056667327881,1.0,0.49832087052957236,0.5094180560123669,0.39087164334749425,-0.5881969833489635,0.41939257216639514,-0.10672151716541284,0.6831871610069575
4.6000000000000005,-0.091639876787942,0.668944799340045,0.3619307126935316,-0.001884710722804962,-0.013751003244659764,-0.014856109205678045,0.16332980961556498,0.3032911135519894,0.9387958966309038,-1.3001299086362552,-1.850817829762566,4.150770664215088,-3.177117478411365,-1.3582614007776166,2.8300328254699707,1.0,0.4985423076976628,0.5096583048338239,0.39091178447424774,-0.5881733836073268,0.41937319722817973,-0.1067316654526597,0.6832177865455672
4.7,-0.1397760188102689,0.5093979695879938,0.24349038034726078,-0.008120984054156833,-0.009493596009462115,-0.0205338954517793,0.1634674104679552,0.3035873263269562,0.9386762102027403,-1.2987206250747991,-1.8521836092035806,4.150558732263542,-3.177416313956335,-1.358469721910032,2.830064463956466,1.0,0.498834819193507,0.5099581934859848,0.3908218722377401,-0.5882096139504438,0.41938807777222364,-0.10673630676479615,0.6831767348914923
4.800000000000001,-0.057932294138932285,0.3526249092195375,0.21466252554488574,-0.0068049498857349995,-0.01347805700767579,-0.015722270602961184,0.16359323924524047,0.3038612280359688,0.93856571078722,-1.296971423499976,-1.8533020900321373,4.150358574516382,-3.177728315392965,-1.3586651890690145,2.830024037613085,1.0,0.49928613859822607,0.510407775861413,0.3906330808095128,-0.5882859316525191,0.419428042771706,-0.10674447952170674,0.6830852037982258
4.9,-0.08559003242751337,0.3863342767820188,0.17668201697752467,-0.00968644961351935,-0.012496236701187836,-0.020129768080970046,0.16363678836561643,0.30396057733004644,0.9385259553067592,-1.2953508921868238,-1.854474245136194,4.150122165679932,-3.17802409068661,-1.3588736693011683,2.830040542049724,1.0,0.49963199959952675,0.5107763805276337,0.39068450322321235,-0.5882588304952846,0.41939392349436533,-0.10673813434195065,0.6831304823805788
5.0,0.11844210773387445,0.3037296064618805,0.16869338711858906,-0.0071058027293315435,-0.01642960372722592,-0.018662152731126147,0.16362867119930263,0.3039404403794338,0.9385338920166926,-1.2940017651430489,-1.8558652837986156,4.149935468175936,-3.1783513934240863,-1.359097231400995,2.830021567236555,1.0,0.500081590905491,0.5112007825590384,0.39073264724053836,-0.588207967122951,0.4193827723295228,-0.10674163119140749,0.6831805777807844
5.1000000000000005,0.05529863676914181,0.6639523215160825,0.05082173993518199,-0.019265532656644054,-0.01624673447247281,-0.01640145148636358,0.16323874774352573,0.3031578602658629,0.938854304493972,-1.2924025539131685,-1.8572115972149017,4.149710223792061,-3.1786633930602015,-1.3593239581612733,2.8299906000513437,1.0,0.5003016625636417,0.5114480153004706,0.39060173289507594,-0.5882661240006951,0.41941379536776724,-0.10673440678851472,0.6831125837048438
5.2,0.11595954675796502,0.7979988305595243,-0.0381938941729066,-0.027240754227846112,-0.019937144721990426,-0.012089595100953539,0.16278602602510236,0.30224456744084477,0.9392278366972566,-1.2906009352670091,-1.8583357870900588,4.149471465709755,-3.179023405114645,-1.3595417123840847,2.8299851417541504,1.0,0.5006170687052417,0.5117522347826147,0.39054746332414086,-0.5882753460771585,0.4194279982245854,-0.10673837991622956,0.683095300639651
5.300000000000001,0.034972617677785145,0.790424069650735,0.03295109786547812,-0.025410433888979067,-0.018035846237161524,-0.011538680137423853,0.16283691346356652,0.3023127050426386,0.9391970851646938,-1.289154947166115,-1.8595771934063356,4.149296283721924,-3.179331474709938,-1.3597529242298008,2.8300052017058888,1.0,0.5010754498694627,0.5122033437696185,0.3906325113876561,-0.5882181808710969,0.4193982227427584,-0.10673938953293217,0.6831626491363898
5.4,0.1915952638184994,0.8322534766680363,-0.16608814369168562,-0.04004459858710939,-0.00846262973198646,-0.01292363672787292,0.1628069827092602,0.3022727196236775,0.9392151407578064,-1.287706317999891,-1.8608123988264054,4.1491064579234855,-3.1796590290465296,-1.3599771999629886,2.829976110409234,1.0,0.5014149199140713,0.5125613795393588,0.39056956788413766,-0.58824975868755,0.41940395023291444,-0.1067429698372698,0.6831313829150186
5.5,-0.1107928719260228,0.7601072563928086,-0.4624047228714469,-0.04620149377404493,-0.015664744943675403,-0.011221652782228702,0.16278381430642686,0.3022611462266774,0.9392228440352559,-1.2859500004240547,-1.862043243044847,4.148867757712402,-3.18003048519277,-1.3601744482200957,2.8299660354191714,1.0,0.5018210574417452,0.5129806350693904,0.39049499786474223,-0.5882786264272699,0.4194243277490259,-0.10674099705679686,0.6830943203748974
5.6000000000000005,-0.14100139070572273,0.9815760294337651,-0.6560927845423414,-0.045898898446779066,-0.010098842262152456,-0.012701638461561967,0.16301358227463056,0.30269238477878774,0.9390439951511783,-1.284352355343742,-1.863313065725221,4.148701757692608,-3.1803687308202027,-1.3603356197661525,2.829959161968019,1.0,0.5020724839723282,0.5132447988266502,0.39054581293080204,-0.5882517472729692,0.4193985690452571,-0.10673837925666813,0.6831336915324475
5.7,0.16932556011448463,1.2788592118368634,-0.23357121111968387,-0.045380005341066135,0.005537447332332879,-0.011987916355467816,0.1632092386529603,0.30305315817249123,0.9388937784201258,-1.282879553673052,-1.8645931849244066,4.148501487810663,-3.1806603716669635,-1.3605323396500815,2.8299220613824243,1.0,0.502357058944071,0.513551808044715,0.3905290907280749,-0.5882535020455207,0.41939901168364624,-0.1067346099483798,0.6831324976672744
5.800000000000001,0.10121458650972733,0.673908898340596,-0.05400635718290389,-0.0388651676270774,-0.016238986475429623,-0.010379481808357972,0.16320551034234343,0.30300205766226823,0.9389109186767088,-1.2812328745246966,-1.8659771721221192,4.148279315914379,-3.1810309481727392,-1.3607072254185775,2.829934187407066,1.0,0.5028296531595262,0.5140663146267227,0.3904320370878046,-0.5882850253159241,0.419409404791732,-0.10672153127388573,0.6831010137043018
5.9,0.0656028595724559,0.9679985468936936,-0.31098298959631454,-0.04537116826685726,-0.0119683058079674,-0.007314665975775564,0.16321940629410348,0.3030616898171106,0.9388892489847557,-1.279609102345682,-1.8671137295165003,4.148101705647684,-3.1813663368461076,-1.3609104287259624,2.829927878444064,1.0,0.5031018194678588,0.5143744315440034,0.3903890648179348,-0.5882997762636386,0.41940832447025145,-0.1067218648354217,0.683088921136377
6.0,0.12464199759030592,0.5975405490584598,-0.4289611002804436,-0.052284396007492025,-0.008528203102776436,-0.018507849476205603,0.16324362904977396,0.30318620494374227,0.9388448388955175,-1.2780314428496682,-1.868268855823805,4.147896467446847,-3.1817223034300746,-1.3610897817023597,2.8298996569417354,1.0,0.5036109607152567,0.5148383010517665,0.39042723212902564,-0.5882470988746072,0.4194187136430012,-0.10674715512615815,0.6831239552117392
6.1000000000000005,-0.03671818379770551,1.0287251034485108,-0.611989656618497,-0.059708438181531466,-0.0035708703851029845,-0.016165707949814267,0.1633834553080337,0.30346847738491683,0.9387292187095598,-1.276268526923126,-1.8696017155669684,4.147701740264893,-3.1820116734734043,-1.3612886992664313,2.8298924851044234,1.0,0.5038026505762734,0.515002948081415,0.39048610978040443,-0.5882187943794036,0.4194049837195221,-0.10674623844006634,0.683156900096138
6.2,0.11772169930535387,1.0726375228619842,-0.6072465744739757,-0.06168736761455139,-0.0069621116287832685,-0.013685318420321124,0.1635940718545239,0.3038473531773465,0.9385699927230962,-1.2747743819986566,-1.8711342823832007,4.1475090980529785,-3.1823897907550864,-1.3615010420428675,2.829897232026086,1.0,0.50410708186869,0.5153472062284425,0.3904651860137289,-0.5882196803751338,0.41939842711959496,-0.10673547565496208,0.6831618440645629
6.300000000000001,0.29077222761518207,1.3662968888191325,-0.4831760834011719,-0.06506367796332915,-0.009689993169705006,-0.0026516685597333858,0.16383680271757234,0.30432518256713564,0.9383727042901937,-1.2732554172663297,-1.872233053246969,4.147321672301362,-3.182739862361803,-1.3617358641871224,2.8298924055191628,1.0,0.5046177280338661,0.5159131544596465,0.3902307729355368,-0.5883067843623926,0.4194434999509052,-0.10674003754403487,0.6830584471384674
6.4,0.0684873318684967,0.9455441957548396,-0.33120752134224585,-0.055032204115674346,-0.018576596155503874,-0.010466869739646108,0.1640999725017124,0.30486599024775957,0.9381511912925895,-1.2714509963989258,-1.8733382325265107,4.147081539635576,-3.1831163922101813,-1.3618907286973192,2.8298588906034263,1.0,0.5048562213533343,0.5161580009776393,0.39022347869517454,-0.588316955380592,0.41942883587202273,-0.10673555735185329,0.6830593915960305
6.5,0.30596607296395234,1.2026958471066354,-0.17038967735041718,-0.06557126255825828,-0.01064122346765608,-0.005467624622930713,0.16397092663174131,0.3046136701139523,0.9382555867095915,-1.2697717475633015,-1.8744744795419386,4.146888448356453,-3.183551685638665,-1.3621152579866131,2.829849057978319,1.0,0.5053404275905169,0.5165765058660889,0.390498423076829,-0.5881677503225788,0.41938301278510554,-0.1067502748327273,0.6832137036761643
6.6000000000000005,-0.15834450090113628,1.0381861424966774,-0.6877005987477178,-0.06064456076197278,-0.018436260093030774,-0.016982014657546483,0.1636218422519432,0.30391679630235663,0.9385426943119276,-1.2683924994872282,-1.8759924956989484,4.1467108828147,-3.183823858569742,-1.3623207955223018,2.82983022797444,1.0,0.5055199607657576,0.5167869820750356,0.39051464207181846,-0.5881813812747664,0.41936105122086254,-0.1067481957065247,0.6832157742280562
6.7,0.30394111415907454,1.0753910230133963,-0.45960596894762507,-0.06804445423771599,-0.01765111938571024,-0.006140509027409025,0.16402188893982286,0.30474094014485015,0.9382053766858833,-1.2668588098323565,-1.8773706902288663,4.1465231409555745,-3.184116644947173,-1.3625298245261848,2.8298606350684237,1.0,0.5058577327949342,0.5171628370589147,0.3902848557349536,-0.5882886748586869,0.41939524081473845,-0.10674859852127142,0.6831023376688902
6.800000000000001,0.16305200468287712,1.3171689325406937,-0.6822668578390527,-0.07192074648033805,-0.011832735639947658,-0.005232930693106064,0.16450467446939965,0.3057223791191393,0.9378012160916966,-1.265020032586524,-1.8783570706819173,4.146289957816173,-3.184494027641844,-1.3627646626999603,2.8298557843197027,1.0,0.5063660289644485,0.5176990123562893,0.3901380987222452,-0.5883145142479483,0.4194149860127494,-0.10674497034078677,0.6830685274114672
6.9,0.4628447442317277,1.0077087954737545,0.13003013700259058,-0.03680656432857203,-0.02537943189103909,-0.019316608576849262,0.16500437564159187,0.30672791411312306,0.9373854086484925,-1.263453654858005,-1.8794489748618195,4.146118640899658,-3.184938854526967,-1.3629386034344422,2.8298236071458693,1.0,0.5065942897266554,0.5178952247726306,0.3903176522838703,-0.5882082648325435,0.41939260661829936,-0.10674351220957366,0.6831739905015131
7.0,-0.0033455675397130458,0.28840743971205374,-0.01251390245087336,-0.03374211078473818,-0.020568556643318338,-0.011950470994194926,0.16451763447841686,0.3056975117779728,0.9378067459113854,-1.2625751398450502,-1.8802644215025843,4.1459641456604,-3.185192892784636,-1.3630763032365436,2.8298163414001465,1.0,0.5070172453401136,0.5183108659624952,0.3904113567488483,-0.5881780533307197,0.4193763494375012,-0.10674282638931017,0.6832100878404691
7.1000000000000005,0.15538561260298817,0.9548609734578288,-0.0001291032007361831,-0.05903007568230497,-0.012698157054589768,-0.011524799782123694,0.16406177623771717,0.30473362666248555,0.9382009988476485,-1.2625711225402807,-1.8802909390395113,4.145975589752197,-3.1852342091002406,-1.3630967157591125,2.8298401832580566,1.0,0.507153601371862,0.5184876021913171,0.3902472418859921,-0.5882901035120748,0.41940237506194034,-0.10672457962556224,0.6831004801681103
7.2,0.0273423732608443,0.8032077879794857,-0.12656002386058193,-0.06181918200352635,-0.00907158953847425,-0.011258659535255604,0.16436891341332968,0.30541312014075916,0.9379261047143965,-1.262434959411621,-1.880416830932345,4.145965181442121,-3.1852580509581507,-1.3630812803851526,2.829809308758203,1.0,0.5071832365264062,0.5184707830787693,0.39026513607685837,-0.5882752637064186,0.4194115887166964,-0.10673776219647545,0.6831055434430094
7.300000000000001,0.03879118319977959,1.0978175840760334,-0.24712609888378884,-0.05966154942244247,-0.014070033489768458,-0.010139104013592082,0.16433086768576605,0.305361066097953,0.9379496915158527,-1.2623412494059865,-1.8804377667985785,4.145967228370472,-3.1852467053346323,-1.3630839162360402,2.829809919087498,1.0,0.5071987536234934,0.5185046046737777,0.3902559233054145,-0.5882779321829151,0.41941079117991226,-0.10673151799983871,0.6831047107244125
7.4,0.17539370440557253,0.9553625698993286,-0.27713056732761926,-0.06545027155883246,-0.014879120538680405,-0.010827653318161498,0.1639969183528565,0.30468080158867555,0.9382295068308603,-1.2623716270948182,-1.8804229263450678,4.145942986057912,-3.1852337322630824,-1.3630601207826636,2.8298111832166444,1.0,0.5072235346423284,0.5185203910209514,0.39027802744800827,-0.5882560505993755,0.4194073653794668,-0.10673955438109156,0.683124401796046
7.5,0.13679592999399626,0.9340999495891579,-0.33418336734758985,-0.06306258714823489,-0.015757028524596275,-0.009599726035903224,0.1643034415332285,0.3052892791574165,0.9379779163486652,-1.2623449711220378,-1.8804280129248288,4.145948715419418,-3.185293813745016,-1.3630574385272425,2.8298365037357307,1.0,0.5072161274729863,0.5185236946801497,0.390292785090249,-0.5882532414653392,0.41940049713689453,-0.10674172718755402,0.6831306980248109
7.6000000000000005,0.12078075624457736,0.9783669414472693,-0.3921727433812686,-0.06142474280219452,-0.016043128042792218,-0.0118258543143125,0.1649440201529539,0.30655516208596906,0.9374519121335275,-1.2623777738479065,-1.8804203472533167,4.145959907376937,-3.185261477267173,-1.3630659331471755,2.8298248360200793,1.0,0.5072132265470028,0.5185454493275964,0.39031155404542384,-0.5882456251191411,0.4193815656373722,-0.10673634334930843,0.6831497200029845
7.7,0.18967294743374136,1.3163927499605708,-0.24663182556848526,-0.05512710372291342,-0.013184488418045167,-0.017131012044572166,0.1651941845527438,0.307048509557627,0.9372467594093764,-1.2623451734483309,-1.8804079494872035,4.1459527015686035,-3.1852497161701554,-1.3630499674002432,2.829836597117097,1.0,0.5072088046854645,0.5185384958617858,0.39030464584880825,-0.5882525142613849,0.4193958460413144,-0.1067271422912602,0.6831364584669671
7.800000000000001,0.05736627854295891,0.9479321414167152,-0.17389918665742132,-0.0632892188170678,-0.012607587749280894,-0.014047425600588073,0.1647299002797301,0.30613163332255605,0.9376286401775088,-1.262364387512207,-1.880432475917975,4.145967844563533,-3.185262265838914,-1.3630493706223834,2.82980089016329,1.0,0.5072036429572854,0.5185328453267427,0.39029684954739446,-0.5882582898296473,0.41940677928795245,-0.10673212866936288,0.6831239936085629
7.9,0.14207812499653338,0.9619331877912043,-0.36222442668359,-0.06364320710868003,-0.011243189768382804,-0.010831068791511774,0.1649229404324603,0.3065298641739604,0.9374645299353814,-1.2623818943027876,-1.8804186022634555,4.145956065603209,-3.185244385039334,-1.3630610828980656,2.8298048973083496,1.0779699482569884,0.5072094344798341,0.5185307968874151,0.3903035819839087,-0.5882518183447433,0.41939313380375787,-0.1067457293206199,0.6831358187097024
8.0,0.0821659696725708,0.8071719300518786,-0.44550642884633024,-0.06808129502365873,-0.010680326281254236,-0.012969909280973314,0.16513187562228687,0.30695247486753996,0.9372894468979064,-1.2623481909847154,-1.88042383249087,4.145938501158539,-3.185261198768048,-1.3630644090023487,2.829811867783456,2.0,0.5072102114405157,0.5185354275537771,0.3903220529686376,-0.5882377114680974,0.4193908097608237,-0.10673510789892118,0.6831510522840036
8.1,0.034623955147146966,0.968273765082101,-0.2804715470795419,-0.06541091732194088,-0.00858440451300084,-0.012947302483029409,0.16535148113704498,0.3073884771818029,0.9371078916583812,-1.262367974022046,-1.8804203472533167,4.1459658009726335,-3.1852389740851548,-1.363059231782162,2.8298011899314615,2.0,0.5072138298706078,0.5185419535051672,0.3902844324080988,-0.588256725773955,0.419396816400203,-0.10673661383418756,0.6831307563287512
8.200000000000001,0.19777145952351327,1.2434011426679652,-0.2204364846382742,-0.05795786605304353,-0.014593444966585056,-0.014350512374031878,0.16505202386374607,0.30682016818381364,0.9373467560005634,-1.2623728238935172,-1.880440380087378,4.14594030380249,-3.1852567387671304,-1.3630574385272425,2.8298125153560476,2.0,0.5072261000283679,0.518521490213172,0.39028083783776374,-0.5882686972113234,0.419404247838323,-0.10675598771825318,0.6831128573396664
8.3,0.12296659564391653,1.2542859011205587,-0.40889206476987955,-0.0571633731296207,-0.01020074348041817,-0.015139971770314401,0.16494087387206244,0.30660395390399475,0.9374371896322545,-1.2623767852783203,-1.8804355129488912,4.1459499083116835,-3.1852851375826803,-1.3630567274362138,2.8298228309333853,2.0,0.507223541552025,0.518529235339219,0.39027175191443403,-0.5882593855712737,0.41940803252402364,-0.10673375130169901,0.6831220270747405
8.4,0.13608936468508442,1.27667241913426,-0.29499756969708846,-0.054234213097475635,-0.010082841999618092,-0.01162575336598792,0.16506974087375526,0.30683766077406827,0.9373380524017018,-1.2623406151367633,-1.8804203472533167,4.14597584835522,-3.185269971887106,-1.3630655711819997,2.8298244740549037,2.0,0.5072212423186625,0.5185134185911113,0.390289599189274,-0.5882585019195359,0.419401335818807,-0.10673837066291313,0.6831261777014628
8.5,0.11471026250665098,0.9741373768946754,-0.3808221470701095,-0.06639435022577847,-0.012040210503626173,-0.00881190898082498,0.1652179347822326,0.30711896712537096,0.9372197777518843,-1.2623576624218713,-1.880418117471357,4.145967508205568,-3.185253135331629,-1.3630574385272425,2.8298401832580566,2.0,0.5072181330141159,0.5185277923429956,0.3903031043762784,-0.5882565973136922,0.41938308818070946,-0.10674100617998541,0.6831386086766085
8.6,0.31165861321331323,0.8339984330628589,-0.4679176532583071,-0.06975216153906266,-0.015715435909690524,-0.008615953160335763,0.16522750772592038,0.3071533987969778,0.9372068085801913,-1.2623603604010234,-1.880428242477052,4.145963673664746,-3.1852575741209925,-1.3630616238547073,2.829821000129229,2.0,0.5072108674480651,0.5185327291793288,0.3902899029306376,-0.588259840952769,0.41939651777116005,-0.10673579956970738,0.6831283843421112
8.700000000000001,0.08510023945296906,1.1151662079910782,-0.4561038377713276,-0.07050871150799315,-0.007982920197039212,-0.006793579060272748,0.16505897678060746,0.30686972515544847,0.9373294477236931,-1.262373315792992,-1.8804356042258568,4.145962576257615,-3.1852528021163655,-1.3630574385272425,2.8298354112534296,2.0,0.5072213991877543,0.5185137566898553,0.39030307830189137,-0.588243960903346,0.41940519341928817,-0.10674819988925807,0.6831347949080584
8.8,0.1576828314729004,0.9585970687868995,-0.26298569773022606,-0.07153391017128448,-0.007830993101477295,-0.013867854094125436,0.16508817082781635,0.3068866824105722,0.9373187600190077,-1.2623447400223278,-1.8804123016128897,4.145963915685695,-3.1852540383639076,-1.3630653264100139,2.829796193056977,2.0,0.5072242763575892,0.5185224324896414,0.3902759585578857,-0.5882543189332703,0.4194135575034642,-0.10673663578236088,0.683122547293314
8.9,0.31519382496184106,2.051474193237149,-0.41853785104128854,-0.1465277183268021,0.008817878255414744,-0.012443546444698717,0.16490664294107177,0.3064933468089515,0.9374790558886215,-1.2623891830444336,-1.8804361409915784,4.14597614890148,-3.1852619237674573,-1.3630615448991905,2.8298204477720947,2.0,0.5072239914340805,0.518523760356275,0.3903150573428917,-0.5882334556163052,0.4193974893470812,-0.10673357031153247,0.6831508563938261
9.0,0.5405070778417184,2.508814146183962,-0.4178784462260713,-0.19764186680103035,0.009023022392399313,-0.00583581388254267,0.16440775445548866,0.3054909517329056,0.9378940139481813,-1.2623736922364077,-1.8804203472533167,4.1459641456604,-3.1852710168336977,-1.3630563935806503,2.829860932074054,2.0,0.5072158608831926,0.5185293408339848,0.3903194398670995,-0.5882356204645602,0.4193952618589394,-0.10673662910157689,0.683149881910974
9.1,0.2974017349266543,1.8425432384375036,-0.6074296474460126,-0.1867611680845433,-0.0029430003319982356,0.0017826340144093964,0.16396204396693592,0.3046027200183347,0.9382606442880168,-1.2623705170427142,-1.8804243798391767,4.145982019291238,-3.185289781159156,-1.3630717719345686,2.8298224709306536,2.0,0.507232466142483,0.518527792826918,0.390269805356265,-0.5882673903573529,0.4194021661907827,-0.10674446050668752,0.6831170621407175
9.200000000000001,-0.41216432892363775,2.8366288665512855,-0.5117805524231681,-0.2569903874651761,-0.0870599342612246,0.0411077310757079,0.1637889551480241,0.30426926131858656,0.9383993036852192,-1.262365354332863,-1.8804161014148462,4.145979822444328,-3.185274054424097,-1.363061684365713,2.8297967585270465,2.0,0.5072203397472204,0.5185295779326896,0.3902881399905454,-0.5882627505008473,0.41938955966073577,-0.1067429215646142,0.6831290378227253
9.3,-1.0547671143579,3.0094179363211477,-0.5019323078563278,-0.2884791103668296,-0.1388796745240228,0.06601652590528653,0.16401585333680596,0.3047488475132446,0.9382040780606459,-1.2623851060558877,-1.8804321077971993,4.1459683822937805,-3.1852575741209925,-1.3630812803851526,2.8298208988036713,2.0,0.5072253485398543,0.5185235543782886,0.3902680884920393,-0.5882680146501831,0.41940560797123994,-0.10674575908702769,0.6831142085030446
9.4,-1.0899740968918843,3.502203628907297,-1.1047532205595088,-0.36688259005652835,-0.1768593767840956,0.08824888386207072,0.16425163637206722,0.3051506043400315,0.9380321269419044,-1.2623891830444336,-1.880419767192371,4.145971920466431,-3.185269971887106,-1.363077392982137,2.8298448062181385,2.0,0.5072012000239499,0.518542486011346,0.390294406115858,-0.588259320706095,0.4193885009636794,-0.10672383723493468,0.6831356230117798
9.5,-1.3853201269873765,4.026266883807726,-1.5580763764642476,-0.4233267376810179,-0.19369848869597142,0.09958299222665987,0.16448847931728763,0.30554307658071883,0.9378629523348994,-1.262380963450613,-1.8804283822000332,4.145992165690603,-3.1852899277627773,-1.3630335966693323,2.8298207042195433,2.0,0.5071889026594232,0.5185602257877503,0.3902771586743366,-0.5882767498680649,0.4193847686707226,-0.10671749467386082,0.6831238963044737
9.600000000000001,-1.308210929403882,4.1764696078293,-1.688870370036646,-0.4815548257025094,-0.2125480879307975,0.11440007566704291,0.16431686181467417,0.3052054209935253,0.9380028538113889,-1.2623804671282448,-1.8804161500913827,4.146007970268371,-3.185293813745016,-1.3630574385272425,2.8298448187822975,2.0,0.5071950759391378,0.5185505917889018,0.39025000031850043,-0.5882905943815688,0.4194041967061939,-0.10672836781818072,0.6830983471289326
9.700000000000001,-1.6105592212361435,4.326548665476468,-2.075072032500293,-0.48559299339852957,-0.224712474092581,0.1189949293524456,0.16409311489707853,0.3047745834673425,0.9381822008584423,-1.2623727884480485,-1.8804282292708097,4.146004262639428,-3.185277538623899,-1.3630455175982874,2.8298164608754144,2.0,0.5071894776344122,0.518547047103238,0.3902851326582768,-0.588273574374014,0.4193954825341304,-0.10672401982887986,0.6831190339280191
9.8,-1.648940916267642,4.178893711171674,-2.3846079499665382,-0.49240836968846613,-0.23375890393120968,0.1157415519472452,0.16425546005169994,0.30513151979459047,0.9380377045106401,-1.2623891830444336,-1.8804404704219257,4.1459879875183105,-3.185244196310759,-1.3630899594619648,2.829801870639275,2.0,0.5072083783425783,0.518533382194972,0.39028508066238,-0.5882637463306597,0.4193983273866383,-0.10673835885213284,0.6831235104195
9.9,-1.79273758313578,4.067661876299137,-2.1697665317466965,-0.4906212522933859,-0.23996002697326632,0.11417489974192678,0.16438576842894395,0.3054131519361464,0.9379233044292657,-1.2624055574916553,-1.880427132395371,4.146020698868465,-3.185250788978938,-1.3630744952430984,2.829788971268368,2.0,0.5072082951148056,0.5185400059771879,0.3902819011242424,-0.5882625369840819,0.41939463818240674,-0.10672809831651528,0.6831284198996852
10.0,-1.7914215083291598,3.813692029138142,-2.489530115150088,-0.49641063231242794,-0.2501074179290634,0.11729229187559675,0.16437331297991506,0.30538679095848026,0.9379340703785046,-1.2623769258805235,-1.880416363392258,4.145988128120513,-3.1852533090555273,-1.363058508427435,2.829844472699849,2.0,0.5071943556397243,0.5185569184626104,0.3902681676243957,-0.588291308328495,0.4193736242099164,-0.1067297910912196,0.6831162796741214
10.100000000000001,-1.7996849951870233,3.644359030603919,-2.2310120988184505,-0.5073432867837009,-0.2525277652436347,0.11590604654923851,0.16436085753088614,0.30536042998081414,0.9379448363277436,-1.2623767852783203,-1.8804282324965795,4.145972217031785,-3.1852379293762025,-1.3630656391802358,2.829820667794875,2.0,0.5072079642654286,0.5185437838187587,0.3902809603231154,-0.5882638219326065,0.41938862780631114,-0.10673287490353088,0.6831302570423955
10.200000000000001,-1.4611571316374306,4.539984406194357,-2.226613723213947,-0.5412402886827192,-0.24100036897382196,0.1267211792747688,0.16407383956523555,0.30479585538195586,0.9381785131253021,-1.2623924738972303,-1.8804520334206818,4.145987992361143,-3.1852575741209925,-1.3630616782115226,2.8298244994819797,2.0,0.5071987733498402,0.5185397762522557,0.3902779891759638,-0.5882665555355402,0.41939455890532357,-0.1067340939537891,0.6831240712980504
10.3,-1.3608132936416966,5.228139068638728,-1.823636139159039,-0.6006766685483589,-0.23233645143231735,0.13633177039625044,0.1639454898308681,0.3045587411366333,0.938278046310275,-1.2623924443548837,-1.880456110040182,4.145976583488047,-3.1852863374497993,-1.3630574385272425,2.8298251906060896,2.0,0.5072103889575448,0.5185330106949257,0.3902703211970132,-0.5882583973340842,0.4194187879761929,-0.1067315056813236,0.6831166254407177
10.4,-1.0397715545719215,5.412398556307244,-1.7560459943082825,-0.6457423261206162,-0.22903044599663766,0.1389011307218678,0.16419251946475724,0.3050878217157931,0.9380629804415171,-1.2623564548981496,-1.8804363997520934,4.145992284350925,-3.1852337322630824,-1.363049649168109,2.829816179194002,2.0,0.5072199976885248,0.5185241478869648,0.3902825681951976,-0.588248139928053,0.41941870439578005,-0.10673599217140417,0.6831248086911623
10.5,-1.0038133045391788,5.545007685057173,-1.5062187570123957,-0.6662754427858079,-0.22175798699174448,0.1460821229788467,0.16424768143815013,0.3051574888230679,0.9380307062140466,-1.2623891830444336,-1.880432406705123,4.1459718972433635,-3.1852662346184752,-1.3630698362933558,2.8297996357651902,2.0,0.5072078955867573,0.5185238749225541,0.3902688953100506,-0.5882579588580871,0.41942330832566993,-0.10672501410370826,0.6831152418427149
10.600000000000001,-0.7312112341461839,5.505651607967674,-1.4374111728156307,-0.6874469473893521,-0.21712568832253276,0.15229862047851597,0.1642198997430383,0.30507963964018436,0.9380608794027085,-1.2624079810048454,-1.8804595096708414,4.1459879875183105,-3.185262005196106,-1.3630574385272425,2.82979693061735,2.0,0.5072122727903835,0.5185333017717705,0.3902934841072532,-0.5882440192186589,0.4194059957379842,-0.10671757489515013,0.6831390369470961
10.700000000000001,-0.6443169212612007,5.628744158640031,-1.4723212770582033,-0.7050087853359996,-0.2155998593027468,0.15280179597476712,0.16409858085359336,0.3048792367727192,0.9381472657204621,-1.2624207720035383,-1.8804488776998387,4.145975696475311,-3.1852461300291957,-1.3630455175982874,2.8298361969738406,2.0,0.5072211019694702,0.518523263656015,0.39028659431702895,-0.588252727303439,0.4194042513751973,-0.10673598287283217,0.683129733439152
10.8,-0.7861748626673647,5.807707867509324,-1.4771554291457298,-0.718798635665949,-0.21164577559866554,0.14722127610840172,0.16410248300127628,0.3048947580697853,0.9381415426872259,-1.2623767852783203,-1.8804601938322651,4.145956622009003,-3.1852822232633553,-1.3630496013903706,2.8298401832580566,2.0,0.5072253239142197,0.5185400433837605,0.39028150394477923,-0.588255295150278,0.4194038072097036,-0.10673924796019256,0.6831272847504759
10.9,-0.9977163101625519,5.848634931316258,-1.7301600510575461,-0.7266274135525167,-0.22435664747226663,0.1482399849341783,0.16413295459176377,0.3049560942304814,0.9381162758601591,-1.2623725388370144,-1.8804401059945866,4.145983741077004,-3.18525004982117,-1.3630492722939618,2.829816983333605,2.0,0.5072215759387045,0.5185389980038454,0.3902552040830979,-0.5882746816349861,0.41941544143798515,-0.1067363117753666,0.6831039058439261
11.0,-1.0881269745560354,6.11030396348382,-1.4043837111919806,-0.73564511059332,-0.23066546755654013,0.1488374789179168,0.16408194690949035,0.3048461069115187,0.9381608516711265,-1.262393104170983,-1.8804717828844475,4.145979837639293,-3.1852575741209925,-1.3630780053070004,2.829820570152615,2.0,0.5072190744057551,0.5185359836523329,0.3902488888228623,-0.5882737349575304,0.41941129390753396,-0.10673880689893131,0.6831068777312359
11.100000000000001,-1.2198618544671567,6.143733960985292,-1.4887816171835293,-0.7491042544076866,-0.22686062761152648,0.15055649564204004,0.16384383882199305,0.3043427104299263,0.9383658067470939,-1.2623655878885103,-1.880456110040182,4.145968138650327,-3.185250536095689,-1.3630655105542688,2.8298008182712495,2.0,0.5072074371855869,0.5185461629899161,0.39027036817583116,-0.5882746753086515,0.41939353426049314,-0.10673475839365756,0.6831176041953836
11.200000000000001,-0.9631426125775226,6.156318965113487,-1.4389349328079033,-0.7503011212126774,-0.23114371368034745,0.1530403233380473,0.16379611580889747,0.30423635488400025,0.938408603445701,-1.2623763771344634,-1.8804364806526568,4.145960789511743,-3.1852430421848674,-1.363077236413583,2.8298317583172867,2.0,0.507210932424521,0.5185369554974038,0.39027866857233917,-0.5882638696614759,0.41939082697922275,-0.10673885812842578,0.6831279309631759
11.3,-0.9297576291872378,5.934993956541073,-1.5554375953849944,-0.7535930233919332,-0.23490054708965866,0.15483402694281356,0.1642046726381375,0.30508155384462365,0.9380627688448852,-1.2623809966343813,-1.8804482384920547,4.145996173928363,-3.185257661769389,-1.3630493397655867,2.829832084496401,2.0,0.5072178230463414,0.5185475509247304,0.3902594666962182,-0.5882643767153537,0.419402787779847,-0.10673478761517566,0.683120787125478
11.4,-0.8801862294184291,5.725327222013467,-1.6888223797946307,-0.7542638873230275,-0.23478287998023337,0.15685908171382124,0.16420065824236846,0.30510936699182695,0.9380545672243954,-1.2623767852783203,-1.8804322681822718,4.145956640203484,-3.1852493686316583,-1.363061466694235,2.8298048973083496,2.0,0.5072372003913597,0.5185201404073847,0.3902459536094248,-0.5882701358281796,0.4194136649996602,-0.10674829500896789,0.6831070387698595
11.5,-0.7896780885807959,5.749724900013303,-1.6055323672475639,-0.7501895426377645,-0.23538177460504803,0.15604244919055213,0.16414520688317527,0.305031644502554,0.9380895369124643,-1.2623922765528017,-1.8804322681822718,4.145932425392343,-3.1852658213906877,-1.3630615890236608,2.829800377952384,2.0,0.5072353247383317,0.5185245097047209,0.3902454679419463,-0.5882730474103612,0.4194130646508686,-0.10674822302218236,0.6831049112488505
11.600000000000001,-0.8823873736271993,5.7784571154338344,-1.7276933658155762,-0.7487146853406256,-0.23440375540304745,0.14893279836563525,0.16433371614333658,0.30542616600175027,0.9379281505580616,-1.2623767135797945,-1.8804639291715584,4.145963448431364,-3.1852777910184824,-1.3630730767899955,2.8298319079643734,2.0,0.5072327957904167,0.5185235496581608,0.3902693643602034,-0.5882609803370048,0.41941562092985524,-0.10674949158585699,0.6831135352041644
11.700000000000001,-0.9810765833292325,5.936961953887531,-1.766603138781683,-0.7443537238154608,-0.23385851570833988,0.15089099241086654,0.1645008258097201,0.30571991272813687,0.9378031325228792,-1.2623656032835855,-1.8804322681822718,4.145975589752197,-3.1852463921262575,-1.3630532740985664,2.8298163414001465,2.0,0.507231303815577,0.5185214477428091,0.39028230716853807,-0.5882488269590123,0.41941155632015736,-0.10674723668860961,0.6831268487373308
11.8,-1.0033527984460542,5.9537727503452755,-1.6375518147323616,-0.744382186507786,-0.23538146811010882,0.14938067016006645,0.16466029387484127,0.30597767369520873,0.9376911012853414,-1.2623891830444336,-1.880448350887493,4.145955822107868,-3.1852627771342603,-1.3630812803851526,2.8298327344714753,2.0,0.5072084752358509,0.5185475460367145,0.39026207971058224,-0.5882744062724029,0.4194007348755265,-0.1067281240836293,0.6831144516406527
11.9,-1.09039441476445,5.945465740610635,-1.4756056962659425,-0.7423138860159608,-0.2321661295082815,0.14828677623690473,0.16436348855954738,0.30541623092208214,0.9379260862226005,-1.2623252571914563,-1.8804403316850404,4.1459641456604,-3.1852461300291957,-1.3630576128524405,2.8298168312924474,2.0930488845427475,0.5072215093704464,0.518530050156966,0.39027703166186956,-0.5882513375498026,0.41941404712733366,-0.10673560327689016,0.6831249753421824
12.0,-0.9423643920399021,6.21569706135741,-1.0382739565977164,-0.7388114154880492,-0.2214593283153127,0.1471347302719557,0.16446618956511963,0.3056227830985691,0.9378407452958554,-1.2623809830160702,-1.880440152824929,4.145968020495246,-3.1852820807459996,-1.363065638555606,2.829844508451574,3.0,0.5072166199250995,0.5185294709569486,0.39028507134719903,-0.5882543262193443,0.4194044783347459,-0.1067324235500621,0.6831287733656918
12.100000000000001,-0.7493155372405371,6.271178412035973,-0.49786265843180755,-0.7371412333685639,-0.21460666856417662,0.14328905520030324,0.16465184305151553,0.3059863016678348,0.9376897087822337,-1.2629173380095693,-1.8799745975594793,4.145979917997567,-3.185140619257204,-1.363004162525553,2.829837062715049,3.0,0.5072124135217024,0.518535000613615,0.3902789986661504,-0.5882578381422187,0.41939936421717455,-0.10673982537579141,0.6831277324462964
12.200000000000001,-1.1553383971514295,6.252122992371089,0.027989318643344696,-0.7365091131905912,-0.2471665163986539,0.14905433855322964,0.16430325246707284,0.3053456100171601,0.9379596362184961,-1.264212092635023,-1.878795025893004,4.146032034183646,-3.184810994215758,-1.3628275092456645,2.8298445136577017,3.0,0.5071468634616364,0.5184227287029779,0.3902969519458917,-0.5882468754723646,0.4194087251692199,-0.10674874526792263,0.6831300316430646
12.3,-1.7925631055623175,5.002669471509056,-0.25238837280912696,-0.7169972007907657,-0.31886722985069077,0.17593035061288448,0.1643486002536904,0.3055832771632611,0.9378743483026224,-1.2660088250726773,-1.8777004257553152,4.1462981525988285,-3.184368749658102,-1.3626212037147736,2.8298565380960095,3.0,0.506957183848364,0.5181490012617348,0.39038069166630823,-0.5881976774391625,0.4194128093781625,-0.10677559689541655,0.6831656896334296
12.4,-1.7888859250881657,4.0934766872219885,1.7784181864616446,-0.6005128300279949,-0.3453198798783764,0.12118529417563524,0.16423690966534918,0.3053567361874937,0.9379676016366564,-1.2678850070267988,-1.8762930459149945,4.14658384464505,-3.1840157008400167,-1.3624373147485165,2.8298454225757625,3.0,0.506488119393902,0.51771072027841,0.3902250142383663,-0.5882875000389897,0.41943989199749077,-0.10677101310655507,0.6830724303170265
12.5,-3.027204004941823,4.954380077267522,2.623264852509654,-0.6126991084348472,-0.4403208568885102,0.15435809598437703,0.1638548491743543,0.3044935043574528,0.9383146831393723,-1.2694114315327765,-1.8747996556246111,4.146784623501003,-3.183689746828896,-1.3622227219922693,2.8298242621550207,3.0,0.5061502270722861,0.5174165839139528,0.3902254561299654,-0.5883027639032153,0.4194256544530174,-0.10676450151167136,0.683069044524388
12.600000000000001,-3.5055422698485215,4.928725272012819,2.3750859281638417,-0.6543935138497992,-0.5159286740210144,0.17552328346151105,0.1630202779771169,0.3026857337165356,0.9390450340890452,-1.270930290222168,-1.8736397228636683,4.147035538625329,-3.183345857511204,-1.3620418518228221,2.8298531133300258,3.0,0.5056740336270074,0.5169287621961064,0.3904874067909979,-0.5882068849718303,0.41937298417798446,-0.1067332406148869,0.6831888289201109
12.700000000000001,-3.8151668735956434,5.016766357223926,2.3457458128246937,-0.655906642749449,-0.539044198133917,0.167841856747687,0.16270715017020324,0.301964884310306,0.9393313110723432,-1.2727047463348395,-1.8725474306053844,4.147236350574325,-3.183009250584184,-1.3618185499666715,2.8298516239740152,3.0,0.5054071641407005,0.516692906057939,0.39050797176274127,-0.5882089191750167,0.41935731454582736,-0.10672316742315562,0.6831982696663101
12.8,-3.3926093450042316,4.5133662184742125,1.7369772581169824,-0.6395301318120727,-0.5437860126587136,0.17769483992957766,0.16195757977137074,0.30052038568444644,0.9399234683394635,-1.2743575595385113,-1.8712901026819326,4.147443795308104,-3.1826338740423497,-1.3616063723203007,2.8298801896877475,3.0,0.504959707797351,0.516231887868073,0.39028157839306854,-0.5883348324206238,0.41942416325052956,-0.10674609463024215,0.6830452163095657
12.9,-0.6110035562194187,2.5330348531671243,3.2667902820333947,-0.34406446289741494,-0.19017026449013547,0.02243648962452095,0.1610728065252108,0.29886452003893643,0.9406021437699937,-1.2758504457825304,-1.869890915395719,4.147503776053857,-3.182315011063036,-1.3613522678948229,2.829864025115967,3.0,0.5047450436461705,0.5160297210871599,0.3902529249942027,-0.5883527525879884,0.41942760598774076,-0.10673276297016555,0.6830297498398473
13.0,-1.314587685806969,2.925914900969214,3.3367098412447946,-0.3512747327388384,-0.21211243098923255,0.014368216752946094,0.16023746842785005,0.29729752623696326,0.941241730831933,-1.277411889054482,-1.8684804142689102,4.147807272972288,-3.1819737275100217,-1.3612148981522283,2.8298853925332277,3.0,0.5044404617160075,0.5156137115130591,0.3904061684512287,-0.5882735055665069,0.41943348874469993,-0.10676833145874724,0.6830888335827615
13.100000000000001,-1.2335680856660354,2.921220101492509,3.382819000698449,-0.3361796800972043,-0.22490627555041975,-0.0026429056095518145,0.16034872575429274,0.2974180723429367,0.9411853005668613,-1.27911436123752,-1.8674426322865487,4.148082848023408,-3.181634400970949,-1.360971752797262,2.829976591809317,3.0,0.5040026244922482,0.5151994656757999,0.39054605549429966,-0.5882300564600328,0.4193964481681117,-0.10674498010761489,0.6831526397246988
13.200000000000001,-1.1282730949535384,3.288932762810667,3.6371550233393903,-0.3612781393707038,-0.21438679412348607,0.0026563533995292614,0.16090744516232183,0.2983540068819447,0.940794173738915,-1.2806897821449434,-1.8662506542601527,4.148290300912432,-3.1812743920994193,-1.3607552687274378,2.829972743988037,3.0,0.5036369038965607,0.5148997422177229,0.3904728486139329,-0.5882804511660193,0.4194041439787662,-0.10671942246062951,0.6831085123602347
13.3,-1.1033262929072603,4.231090229651379,4.3102893938486275,-0.4032782313737036,-0.21566234761895575,0.021163854876132267,0.16081943162873144,0.298258425765978,0.9408395260072479,-1.2822780486318661,-1.8649586992571787,4.1484782404404585,-3.180898694876242,-1.3605355050706411,2.8298806684245887,3.0,0.5032148258263505,0.5144531081476246,0.39044068081390404,-0.5882883998045557,0.4194279604794747,-0.10673198021902436,0.6830850818323799
13.4,-1.1050006055805408,4.893739872782586,4.483683379586928,-0.4792827017676131,-0.23478615673523154,0.03446558426330257,0.16093861689136832,0.29853441541777903,0.9407315061884367,-1.2838700761593442,-1.8636242351927699,4.148687219762125,-3.1805912456908167,-1.3603261558330135,2.8299012184143066,3.0,0.503002973866562,0.5142538430631833,0.39048355006419255,-0.5882773898895653,0.41939373061983604,-0.10676423408877356,0.6831105397964039
13.5,-0.6922143281171573,4.853906729497299,5.572128836532665,-0.49768045876370653,-0.2292109298159506,0.015064283458899147,0.16113621482172974,0.29893720505629684,0.940569840455711,-1.2853616780729138,-1.8624172032593322,4.1488869997148905,-3.1802274139992956,-1.3600834051715296,2.829976716410598,3.0,0.5026464393003606,0.5138703840872739,0.390560913280986,-0.5882505113791154,0.4193878192958814,-0.10675303681777665,0.6831390649191692
13.600000000000001,-1.0378922199177916,4.56784755876397,5.4270505877929835,-0.48358989520127815,-0.24673858316316272,0.01618670825847354,0.16092107762057306,0.2984860877208372,0.9407498794700916,-1.2870331285988303,-1.8611921558574858,4.149113526404037,-3.179914485077031,-1.3599263100224697,2.829972743988037,3.0,0.5023027062174268,0.5135202928188204,0.3906166824435617,-0.5882323107761281,0.41939206506414517,-0.10674455440560413,0.6831534559855182
13.700000000000001,-1.2644088447552324,4.388533086187517,5.410161082763409,-0.4678269019120797,-0.2705686384498335,0.015114844517460837,0.16076789239156067,0.2981919505157089,0.940869393791437,-1.2886586400559084,-1.8599140867644544,4.14933317486,-3.1795720700068424,-1.3597031169734095,2.8299563357188573,3.0,0.5018179482666475,0.5130349599864418,0.39059566064688506,-0.5882504084978364,0.4194130913214318,-0.10673839494882262,0.6831259260005275
13.8,-2.559786334948744,4.005860883123459,3.5791702579327733,-0.4299907198356796,-0.36296960005586915,0.014910329363173339,0.16071295470725558,0.29810557216087347,0.940906071140656,-1.2900714325333524,-1.8585592877886148,4.149549961090088,-3.1792400305361483,-1.3595437309682807,2.829936770177093,3.0,0.5015483930476393,0.5127533724273213,0.3905813983274605,-0.5882757311520704,0.4194141909999137,-0.10675466388169125,0.6831009019646306
13.9,-2.8310195698895266,3.753319646489769,3.8620116716356168,-0.43700421240999193,-0.42789204007200954,0.017054539400078304,0.16126354777820026,0.2991095800848825,0.9404928726424894,-1.291740824102833,-1.857396268736079,4.149733218668995,-3.1788960098717256,-1.3593475657147431,2.829960346221924,3.0,0.5011046970921004,0.5123108389115293,0.3907777049299421,-0.5881956443505093,0.41935917880512796,-0.1067385079888066,0.6832061577820427
14.0,-3.4284515043270836,3.3694338848073326,4.131799649097217,-0.4195070415519876,-0.4571012675249317,0.01303276532241047,0.16096459267128493,0.2984282685162474,0.9407601612717551,-1.293523449772582,-1.8561236495138318,4.149948846411876,-3.178564041591512,-1.3591349760638636,2.829993608743308,3.0,0.5008778907160992,0.5121145839430836,0.39070917525048915,-0.5882440593139857,0.4193599854467873,-0.10672580811625745,0.6831659616592489
14.100000000000001,-3.228100667993467,3.3166379907682932,4.065545188736951,-0.40733543653509935,-0.47599482710888563,0.009390041125413586,0.16069247189604383,0.2978627712885856,0.9409864197584643,-1.2950242525969777,-1.854793540099208,4.150180969779951,-3.178220082263871,-1.3589153072634923,2.8299889618201783,3.0,0.5005351725280339,0.5117724178325112,0.3906233820205027,-0.5883032166087296,0.41938542060385364,-0.10672023760783181,0.6831002746286075
14.200000000000001,-3.3620271039524763,3.193504035932318,4.135726921030293,-0.39978455948270625,-0.4856968267983432,0.00038987004029948126,0.16092089886459446,0.2983380375944704,0.940796822931188,-1.2964025061587263,-1.8535953006236787,4.1503434991712345,-3.17788090328359,-1.3587359182952625,2.8299965858459473,3.0,0.5000006292163292,0.5112054850807916,0.39078521794447185,-0.588221193392249,0.4193589077164527,-0.10672398621019666,0.6831865959827288
14.3,-3.5816501244252,2.62146739338052,4.134996046764317,-0.3728447611265685,-0.5089604511070125,-0.006053894853943572,0.16078902762398045,0.2980921924027224,0.9408972817244706,-1.2982205701109721,-1.8524954944113168,4.1505446434021,-3.1774933319783436,-1.3585538691596684,2.8300174364216404,3.0,0.49982467628953625,0.5110207141877222,0.39083918559248587,-0.5882035548546585,0.4193327583751559,-0.10673933242094967,0.683215435074586
14.4,-3.4845874847823204,2.6658079539562856,4.091405459503997,-0.36507676537958283,-0.5098206304087401,-0.010589732513051564,0.1602801325657774,0.297074394726933,0.941305502097804,-1.2998492997300506,-1.851262310484961,4.150708962999841,-3.1771728001036585,-1.3583478351105265,2.830001524637992,3.0,0.4995159190247401,0.510687949294476,0.390685432128063,-0.588274158999903,0.4193804855985701,-0.10673388695213379,0.6831261959024508
14.5,-3.561290212938793,3.0381124755450597,4.08022575106793,-0.36105071079991297,-0.48990269482640525,-0.016078984105365086,0.1597198117176154,0.2959438278512275,0.94175731060175,-1.3012867275560307,-1.8498048908038769,4.150900273062192,-3.176813279970541,-1.358091179524557,2.8300524363075885,3.0,0.4990483216884957,0.510202015860044,0.39064622206960337,-0.5883013086744076,0.41940113147437996,-0.10672039914127471,0.6830922467259577
14.600000000000001,-3.276238467577256,2.9694254629420236,3.9574662713791735,-0.3571285900434146,-0.4874527545914818,-0.015753952723834355,0.15971333374571997,0.29602531920269765,0.9417327953641864,-1.3028315266780313,-1.8485538583588812,4.15113968942613,-3.1765418452008656,-1.3579355845190852,2.83004923661833,3.0,0.49878551460836823,0.5098882598528874,0.39080001145747495,-0.5882127949751303,0.41938533400365424,-0.10674156168553492,0.6831748593582186
14.700000000000001,-3.0761552045537273,3.455612261826039,3.86874709008474,-0.38764620212221257,-0.4554058983902353,-0.019679260689429927,0.15725407967982016,0.2910963949569998,0.9436475399493679,-1.3046481266533423,-1.847484027372119,4.151364316829988,-3.176282256609365,-1.3576749655155824,2.8300559081439753,3.0,0.49848474431679274,0.5095815358207737,0.3908490200387434,-0.5882035421503897,0.4193782931538973,-0.10674380544492414,0.6831867974662528
14.8,-2.5703290315026472,3.969832690150937,4.017685037169466,-0.4418928761664118,-0.4149865098759012,-0.014810889987990987,0.15265081497668326,0.2817882629019693,0.9472542295672741,-1.3060544035930362,-1.8463952211902488,4.151555604375164,-3.1759268719383593,-1.3574517739942435,2.8300443215291935,3.0,0.4979891795549641,0.509116421749323,0.39066647254337666,-0.588334327464541,0.4194096855921443,-0.10675052054410308,0.6830538493573609
14.9,-1.7931908075155452,4.740260923315485,4.278398909372385,-0.479663640900178,-0.37137405308725574,-0.012167886122029238,0.1489023889077363,0.27424790625386786,0.9500405647171702,-1.3075125920528363,-1.8449073554315731,4.151791095733643,-3.17569117825663,-1.3572313533318254,2.83008117530155,3.0,0.49773680543053506,0.5088609801943802,0.3906159645351592,-0.5883517008040229,0.41943500121087873,-0.10674516167166366,0.6830241770098141
15.0,-1.0304013634195954,5.075118203858472,5.193491485137542,-0.530991464277628,-0.314359400183338,-0.011319050718430894,0.1473484989860441,0.2711705158643587,0.9511858520026096,-1.3090276718139648,-1.8435406540839545,4.151983737945557,-3.1755110994471285,-1.3570036814627549,2.8300647617249943,3.0,0.49729031362042553,0.5083570240133974,0.39086133217230784,-0.5882470543484636,0.41940893352834907,-0.10677024974087439,0.6831263889627163
15.100000000000001,-1.3036126586559034,4.927660771024403,5.173674218990894,-0.5278694916380157,-0.31388002745016724,-0.015131531746566073,0.14744792231184023,0.27138441465009006,0.9511095867737518,-1.3093614016978954,-1.8432155920395286,4.152049917830256,-3.17541975853167,-1.3569405714618128,2.8300970699426315,3.0,0.4970215946991144,0.5080669107930657,0.39095429533416864,-0.5882147726688202,0.41941249412426085,-0.10675376974298391,0.6831545752114212
15.200000000000001,-1.7741388168217664,4.71980814412198,4.435299610667201,-0.5039784516451524,-0.3371505766842733,-0.017375480601889814,0.14717391887478654,0.27078973612322765,0.9513214970820004,-1.3093855938194447,-1.8432513210129577,4.152078151702881,-3.1754119090013315,-1.356948860393833,2.8300814628601074,3.0,0.49689181646499,0.5079609508361221,0.3909859487547306,-0.5882241974539726,0.4193989021281707,-0.10674837750909806,0.6831556472155447
15.3,-1.673525910438667,4.633685465038319,4.474236040559084,-0.49520703756133594,-0.3365291190712461,-0.01611368748371915,0.14694010888450856,0.27029688344804353,0.9514978686197205,-1.3093824134805787,-1.8433075673033301,4.152065779115857,-3.1754112379088864,-1.3569568677467714,2.830073615464238,3.0,0.4968532016495795,0.5079479326590141,0.39093851380694344,-0.5882619086975979,0.41939597738566203,-0.10675363185420338,0.6831241490491471
15.4,-1.6650270551783033,4.47273830300573,4.455888835923309,-0.49361560848416397,-0.34133612127656926,-0.015679349084961682,0.14733326967370008,0.2710593386663893,0.9512196852101453,-1.3093744247703083,-1.8432862255830613,4.1520613700600135,-3.175415370585936,-1.356964413319723,2.830135196691929,3.0,0.49684883082508946,0.5079587281685125,0.3909426829861346,-0.588262465463311,0.419388786017458,-0.10675455145494715,0.6831279408964933
15.5,-1.6064631361441688,4.3296174106601555,4.752719656474674,-0.4949670837349798,-0.33988590444398603,-0.019550176246969586,0.14773313509069733,0.2718352177514978,0.9509366409333038,-1.3093510056581261,-1.8433058463079948,4.152049522564454,-3.1754143439276237,-1.3569575994271545,2.8300929069519043,3.0,0.4968569219831145,0.5079548437647209,0.39092035067062203,-0.5882662837508588,0.4193960346230106,-0.10673956608628032,0.6831225443331244
15.600000000000001,-1.8052136581970286,4.3535157725275795,4.616348631282488,-0.49297223558885755,-0.3392948538975596,-0.018128764680937604,0.14777316407535251,0.2719252088925525,0.9509047126273839,-1.3093814849853516,-1.8432952001841882,4.152082119673367,-3.1754237614073695,-1.3569928234489412,2.8300733603792128,3.0,0.4968555481422001,0.507958293820434,0.3909257637723346,-0.5882682225528291,0.41939045290446475,-0.10674462560608283,0.6831235109783149
15.700000000000001,-1.8416949385462367,4.47898804038483,4.5934173822411575,-0.4901862777608444,-0.34273783769655264,-0.01683318547477794,0.1479356220983731,0.27226202324975146,0.9507830226519474,-1.3093690872192383,-1.8433193102259162,4.152054213250912,-3.17541588691659,-1.3569565388289435,2.8301128642291657,3.0,0.4968593305710067,0.5079560181763877,0.39091916761045475,-0.588271192073621,0.4193993445781248,-0.10674380358515843,0.6831156232585325
15.8,-1.955928194521306,4.451975845110897,4.380535510477283,-0.48815137142255666,-0.34057300509916877,-0.01825037891980961,0.148056261408815,0.2724959570083517,0.95069726310679,-1.3093937296560756,-1.8432949125514464,4.152066554515695,-3.175436158672662,-1.356964413319723,2.8300929069519043,3.0,0.49685669608754796,0.5079564581425012,0.39094603811821477,-0.5882522405006146,0.4193955222166297,-0.10674184898332109,0.6831345952052712
15.9,-1.7026723478149992,4.3102592590073465,4.4437062478214715,-0.4878149657335665,-0.34652823047454057,-0.008784391542188415,0.1481206503413696,0.2725942241021182,0.9506590606384707,-1.3093775252493969,-1.8433309921551135,4.152086589733039,-3.1754351837226236,-1.3569640670035585,2.8300929069519043,3.0,0.4968457196458745,0.5079600089371271,0.3909459428969162,-0.588260340224706,0.4193846753512782,-0.10673477252313279,0.683135385215589
16.0,-1.9135167268863629,4.555899062369475,4.449047416795504,-0.4832388715925901,-0.34367573122611733,-0.016342960564843405,0.14815807087538388,0.272658880777444,0.950634693507149,-1.3093942303405044,-1.8432909450926722,4.152065884744877,-3.1754237614073695,-1.356964067290674,2.8301054785125372,3.0605981690808335,0.4968520531597344,0.5079582272324182,0.39092145334907175,-0.5882777867844379,0.4193884374526572,-0.10673909368277879,0.683117376434534
16.1,-1.9128215169265008,4.451242620062978,4.323810219189578,-0.48510437517425065,-0.3445978005158424,-0.018084959987135038,0.1481616339114584,0.27268134122552956,0.9506276959609435,-1.3094015179118625,-1.8433109693703835,4.152082617896932,-3.1754356823363246,-1.356967897944196,2.8301130880842473,4.0,0.4968502562968468,0.5079621789430766,0.3909252129584237,-0.588273880738134,0.4193887759318311,-0.10674009531839787,0.683120375860006
16.2,-1.7808914480312183,4.487962156312729,4.377108257966727,-0.4820302361015557,-0.34936317518569016,-0.012528674720188673,0.1481522027983693,0.2727289032515855,0.950615520956676,-1.3093855590438297,-1.8433231829341787,4.1520623134100045,-3.1754317649724033,-1.356988487524895,2.8301207418264407,4.0,0.49686167639009643,0.5079422247394844,0.3909494634157533,-0.5882491359855627,0.4193974116087149,-0.1067474111652445,0.6831352394348194
16.3,-1.7484513032200093,4.443356101225559,4.414572845204956,-0.4810272764242816,-0.3494773640833077,-0.015028545008563484,0.14805377811990852,0.27256233737343494,0.9506785892214759,-1.3093593705273483,-1.8433014715088862,4.152076280352982,-3.1754190379780267,-1.3569662846696222,2.8301219490763154,4.0,0.4968690531733326,0.5079407356125725,0.3909354821331679,-0.5882532252296646,0.4194150048344034,-0.10674985323455347,0.6831205351627605
16.400000000000002,-1.902676884460215,4.418108633996085,4.386184460040038,-0.48034998801274476,-0.34799184032975805,-0.0145864371854726,0.14812849793348823,0.2726523337951505,0.9506410396853695,-1.3093537912734436,-1.8433109748311218,4.152101993560791,-3.175439694684239,-1.3569725221292175,2.830097512251765,4.0,0.49685319091447455,0.5079639781835917,0.39092285515582614,-0.5882727562620745,0.41939779538386307,-0.10674008771786204,0.6831158080010742
16.5,-2.0537212511020444,4.4423783230821146,4.447477437313429,-0.4796402869823673,-0.3465425889349347,-0.01259788787850059,0.14842658267051106,0.2731846352297652,0.9504418460716701,-1.3093565550240964,-1.8433074652913979,4.152078151702881,-3.1754635121978185,-1.356985055951061,2.8300929069519043,4.0,0.49684058029137845,0.5079791732352439,0.3909290443406037,-0.588275873910163,0.4193818636443297,-0.10672859364247109,0.6831247001247597
16.6,-2.0010855065474256,4.334920272539099,4.239367370295139,-0.4809291819107584,-0.346916161040236,-0.014332819001016031,0.1484533538067841,0.2732397636923685,0.9504218183002405,-1.3093739782143918,-1.8433152637877406,4.152090549468994,-3.1754394357218043,-1.3569691541794573,2.8300968104728033,4.0,0.49684456842441027,0.5079713290387022,0.39093940055723314,-0.5882577958620709,0.41939689979786826,-0.10672561986244754,0.6831315013322189
16.7,-2.0782544482113785,4.398248730178181,4.210706564222332,-0.479568751895134,-0.3458059690244406,-0.013224480855326229,0.148415341294947,0.2731944448866398,0.9504407812135273,-1.3093814849853516,-1.8433028577128403,4.1520585623372765,-3.1754516842109703,-1.356964413319723,2.8300814711688944,4.0,0.4968505343921702,0.5079569260771478,0.3909330759470297,-0.5882572557720097,0.4194091396075132,-0.10672262048190237,0.6831249204375038
16.8,-2.0165989296389863,4.329649661781154,4.158061037783348,-0.48183268889638947,-0.34845202460713465,-0.013536136177045022,0.14825185450104117,0.2729020123025493,0.9505502250071245,-1.3093616086769657,-1.8432909450926722,4.152057963788567,-3.1754237614073695,-1.356968228490133,2.8300929069519043,4.0,0.4968676007670141,0.5079443777254282,0.39094873174444783,-0.5882426459447987,0.41940852522661537,-0.10674075897362814,0.6831350443600678
16.900000000000002,-1.9361795202144922,4.513850100465691,4.340551421519726,-0.47717911746815694,-0.35638654361636996,-0.007448831827207696,0.14813234907033893,0.27265380947724693,0.9506401232737085,-1.3093814849853516,-1.8432943570015512,4.152078151702881,-3.1754139193625264,-1.3569733991769573,2.8301291465759277,4.0,0.4968505237686054,0.5079563755770752,0.39095265286981845,-0.5882455218841263,0.4193987764786361,-0.10673178213721948,0.6831399556118116
17.0,-2.1496114736279606,4.59616831987736,4.268406833105141,-0.47434801301850704,-0.35111703589164117,-0.018510545855518132,0.14831662434621,0.2729811829417043,0.9505174572105619,-1.3093500684464143,-1.8433070412898547,4.152086357607327,-3.1754276210638874,-1.3569605273155134,2.8301053047180176,4.0,0.49684543976964873,0.5079590564971004,0.39094707255451044,-0.5882495501240234,0.41939893022865044,-0.10672348928487024,0.6831376881250295
17.1,-2.1085575802192094,4.430327378734637,4.317396828661059,-0.4774354286158321,-0.35300496406463916,-0.017906093399371156,0.1483889103559798,0.2731527164860122,0.9504568993807633,-1.3093624825334784,-1.8433067827992855,4.152065753936768,-3.1754356823363246,-1.3569852920742913,2.8301255690378078,4.0,0.4968522460580917,0.507967693554866,0.390918213533849,-0.5882669853192485,0.41939899866607516,-0.10673516289970304,0.6831208084241546
17.2,-2.1272965792218317,4.249363452402946,4.1959811137711585,-0.48028139388285257,-0.3522188472080236,-0.013984243288890308,0.1483145630837339,0.2730162558008346,0.9505076998305326,-1.3093814849853516,-1.8432993366627912,4.152086066435841,-3.1754476032652796,-1.3569847017570384,2.8301167488098145,4.0,0.49685540477584883,0.5079559935051383,0.39094796156595557,-0.5882514214527942,0.41939408471945283,-0.10674715751202563,0.6831353535165652
17.3,-2.0013502067010847,4.1806636555037056,4.126541578080591,-0.4813898666022554,-0.35326403569016845,-0.008458170877884788,0.14823569858055058,0.27286669273757236,0.9505629602924298,-1.3093690872192383,-1.843315094530277,4.152054309844971,-3.1754275093737365,-1.3569768110858362,2.8300974702703567,4.0,0.49684657443862523,0.5079609416914802,0.39094600128373397,-0.5882555316612235,0.4193967075918078,-0.10673429079543417,0.6831322143622848
17.400000000000002,-1.8387790319490047,4.146038348137828,4.141845261226908,-0.4801703905838021,-0.35665336398302094,-0.007175227855796861,0.14819078530780375,0.27278186490828704,0.9505943105070043,-1.3093707829015329,-1.8433161933873683,4.152094762423076,-3.1754346081139424,-1.3569730508942244,2.8301038982812314,4.0,0.49684896774482484,0.5079611331742704,0.39092648465567853,-0.5882672223507908,0.41940158343639156,-0.10673978193545171,0.6831182956641588
17.5,-2.005938187615496,4.352300714004841,3.9561513833794533,-0.47694752875185903,-0.35241615966371426,-0.011372283735671092,0.1484472722406258,0.2732541736129984,0.9504184855371649,-1.3093696915644253,-1.843319248051567,4.1520622783726235,-3.1754357141988487,-1.3569604290558965,2.830109129611291,4.0,0.4968417703457849,0.5079747659265281,0.39092076952106997,-0.588273148315207,0.4193910022692642,-0.10673062661638882,0.6831211192233551
17.6,-2.080595383105203,4.345113623103801,4.070768204082201,-0.47830842865603684,-0.35206546089130497,-0.013414726090357725,0.14867358110906412,0.2736836162108081,0.9502596669857782,-1.3093611291070304,-1.8433271847166957,4.152054190227686,-3.1754079972789517,-1.3569768110858362,2.8301005933508296,4.0,0.49684582058266774,0.5079657498670488,0.3909377722214788,-0.5882633104238505,0.41938713816669276,-0.10673445122009911,0.6831313657505913
17.7,-2.229490424844187,4.420338887872816,4.004983425734707,-0.4775941296348982,-0.35173334862902716,-0.014013258746744084,0.14872913251675976,0.2738230597045032,0.9502108036285545,-1.3093406116119262,-1.8433033428587855,4.15209437129551,-3.175439493468965,-1.3569768110858362,2.8300882732025023,4.0,0.49684377223803416,0.5079662191879504,0.3909384375856111,-0.5882656665020286,0.4193891604720971,-0.10673948855737908,0.6831273082493065
17.8,-2.2757139524049537,4.697040453368,4.067786152279756,-0.4693793213243434,-0.35233578855796666,-0.011404889982408144,0.14868836249176784,0.27380865590881354,0.9502213372872643,-1.3093576431274414,-1.8433313954293162,4.152054712645224,-3.1754237614073695,-1.3569652929571347,2.8300929069519043,4.0,0.49685700681691924,0.5079590094669543,0.39092514462528644,-0.5882663058792491,0.4194030189484059,-0.10674708754211852,0.683117061977975
17.900000000000002,-2.181192444653554,4.333745677778085,3.977061633544633,-0.4760265382523778,-0.3511049699862124,-0.012414956238259426,0.14827455925025795,0.27295877520854744,0.9505303448196387,-1.309357764633122,-1.8432867960088453,4.152045975667161,-3.1754237614073695,-1.3569887320147913,2.8300763601019643,4.0,0.4968529720213169,0.507958032735241,0.39096218385226705,-0.588249737970256,0.4193882139141344,-0.1067496862079462,0.6831400122246849
