xiamingqian9007/apple-picking-rnn/final_data/grasper_20191127_112609.csv
,/manipulator_wrench.fx,/manipulator_wrench.fy,/manipulator_wrench.fz,/manipulator_wrench.tx,/manipulator_wrench.ty,/manipulator_wrench.tz,/ground_truth.x,/ground_truth.y,/ground_truth.z,/joint_states.elbow_joint,/joint_states.shoulder_lift_joint,/joint_states.shoulder_pan_joint,/joint_states.wrist_1_joint,/joint_states.wrist_2_joint,/joint_states.wrist_3_joint,/mode./mode,/manipulator_pose.x,/manipulator_pose.y,/manipulator_pose.z,/manipulator_pose.rx,/manipulator_pose.ry,/manipulator_pose.rz,/manipulator_pose.rw
0.2,-9.654497330821707,-4.375258827026983,-9.934371343968214,-0.10269552355139634,0.15089726794532773,0.2001487290323484,0.06555251663307561,0.07809264601213306,0.9947886235201095,-1.7135482246371065,-1.7238834809179866,4.147358305348371,-0.06303959122110878,1.3579180229790067,0.049759122448796614,1.0,0.476841545115676,0.47063992461579834,0.4163157276210886,-0.5860116782561309,0.5728363112510769,-0.01027073879913009,0.573012552553792
0.30000000000000004,-9.127845429618574,-3.5803195242231762,-9.98254544779071,-0.10850933579477826,0.16279281405215043,0.27048925830714093,0.06582409680310243,0.07839954301013347,0.9947464208932085,-1.7108526769210324,-1.7271862909706195,4.14676514351702,-0.06228780194350266,1.358425777039357,0.0495513444646395,1.0,0.4770577050707685,0.4709326040189545,0.41610009143006094,-0.5860593938340452,0.5728388021630185,-0.010256332452197835,0.5729615181492903
0.4,-9.170671974777365,-3.8351465932280826,-9.854425345073215,-0.09088998127916832,0.17279917038968362,0.3590991627104413,0.06609666057901166,0.07870746653442964,0.9947040709070637,-1.7080037728738635,-1.7306182441691191,4.145998842308514,-0.061564592820998264,1.359096405039624,0.04931461915411901,1.0,0.4780710519224609,0.47195982608562387,0.415572331119747,-0.5860458899758069,0.5728570450244606,-0.010276406179946632,0.5729567315987589
0.5,-9.12507360377465,-4.020402801843919,-9.773591306681402,-0.08400454301745436,0.1687593101291061,0.39732231348678,0.06619446182067712,0.0787797047668724,0.9946919169045416,-1.7049960839812666,-1.7342017089446358,4.145386219024658,-0.06086235345563184,1.359854600642383,0.04905392782212446,1.0,0.47887916882117004,0.47268108488112076,0.41524852523278544,-0.5860037591185557,0.572848415270469,-0.010276569192241855,0.5730084463135523
0.6000000000000001,-9.031513169501624,-3.994871200442715,-9.827106607701014,-0.08383946134379654,0.17014171243328247,0.3897433712846732,0.06610201670976348,0.07859537618237313,0.9947126342252217,-1.7024040877055238,-1.7376600388944967,4.144746576217335,-0.060046032088333534,1.3604597378662082,0.04883538114250207,1.0,0.4796660980317615,0.4734671465128439,0.4148710961833211,-0.586011135350949,0.5728222129034017,-0.01024047375050052,0.5730277430862376
0.7000000000000001,-9.301750416199994,-3.927194965858088,-9.66362303377791,-0.08947619688084864,0.17770029507349364,0.3850196891008645,0.06600957159884985,0.07841104759787383,0.9947333515459019,-1.6994262176152517,-1.7410988927113027,4.144090295971111,-0.05935995546885667,1.3609590293296672,0.048632598055253204,1.0,0.48096287782914826,0.47476453994610135,0.41423547978528086,-0.5859985935790031,0.5727943003681583,-0.01021750845791308,0.5730688792022254
0.8,-8.836003167680943,-3.865723387871273,-9.800019359774637,-0.08163902387297711,0.16780215990281164,0.3777406302207399,0.06638336669203665,0.0789009058955227,0.9946697329451938,-1.6970212544106578,-1.7443287074899916,4.143501087694497,-0.0587138557244203,1.3614823900929818,0.04839501546366473,1.0,0.4817562135592449,0.47550759471634085,0.41383746775931796,-0.5859785824302388,0.5728122894945655,-0.010241544266066343,0.5730709316551382
0.9,-8.821691014352607,-3.9550928894267607,-9.736206096242546,-0.08490287080598415,0.1675370781222838,0.37889993721110854,0.06571097255275293,0.07830398835692717,0.9947613031777524,-1.6942472457885742,-1.747661429024577,4.1429235661317305,-0.058157240276527765,1.3619128973770083,0.04815929248809236,1.0,0.48287991681921383,0.4765829416128101,0.4132025388796285,-0.5859974175605553,0.57284072420475,-0.010280145146601529,0.5730225562058642
1.0,-8.775602331177485,-3.8983590541715936,-9.649294975048512,-0.08373731217432007,0.16990991937922786,0.3761441646227972,0.06517036950749247,0.07779586267456522,0.9948369340264274,-1.6920109401479182,-1.7503663282035233,4.1424177671646225,-0.05755239267762294,1.3624630553454293,0.047968387603759766,1.0,0.48347713200225667,0.47715546630526623,0.41286381317543064,-0.5860092504091554,0.572866564658846,-0.010320902214511454,0.5729838885242331
1.1,-8.95094224756176,-3.7572814999484705,-9.602356890095777,-0.07496177872340723,0.1737626469264283,0.37189548656496635,0.06485443481130684,0.07746186533428931,0.9948836827637857,-1.6894337083226172,-1.7536077261226497,4.141865831694063,-0.056957514445927775,1.3630544878490978,0.04775093754860275,1.0,0.48420106935953167,0.4778688259286141,0.41248089440837316,-0.5860170017468456,0.5728590850976083,-0.010307892700203974,0.572983673094487
1.2000000000000002,-8.748591493569547,-3.765490647391459,-9.93161483623448,-0.07447837772842937,0.17910821149033948,0.38048841579870446,0.06501194458243002,0.07761160719372955,0.994861690208264,-1.6870895052240347,-1.756055060920685,4.141334056854248,-0.0564216925675768,1.3635671848506268,0.047613675887024864,1.0,0.4849884283014214,0.47868391297581064,0.412071672078489,-0.5860304530467705,0.5728321353497412,-0.010256614929409599,0.5729977789334287
1.3,-8.696200081581148,-3.556743790622402,-9.631024530803082,-0.07638223894767089,0.17450428677962743,0.38026622860191844,0.06520130799398438,0.07779389532964824,0.9948350726954823,-1.684804323230471,-1.7590849940831943,4.1407932468823025,-0.05594742426360871,1.363944233230182,0.04741617185728891,1.0,0.4859790619106061,0.4796281846350795,0.41163063421815826,-0.5860006469076751,0.572815472237774,-0.010244430130541835,0.573045136302633
1.4000000000000001,-9.078283374386316,-3.7607244870092567,-9.796766798582258,-0.07552060119161036,0.16875288851929351,0.3725735648883379,0.06520374211811356,0.07778164316773234,0.9948358779911581,-1.6826095254485616,-1.7614944282338312,4.140421739893589,-0.05547891784164184,1.3643371276021854,0.047244738023825436,1.0,0.4867937877387168,0.4803667724332754,0.41121496178925593,-0.5859860665158333,0.5728414088332155,-0.010289278942108054,0.5730333157104652
1.5,-9.027859787369904,-3.7338071967087334,-9.824212309356353,-0.07397109528220572,0.17207941924683737,0.37435384949424144,0.06495567108139727,0.07750868628013512,0.9948734327718293,-1.6803626521474364,-1.764257736429838,4.1399970731064535,-0.05501553969512365,1.364758291570667,0.047137626506000584,1.0,0.48755559773896184,0.4811604935505005,0.4108171249321215,-0.5859926509374811,0.5728315471844717,-0.010285646173459267,0.5730365058879775
1.6,-8.965662127706334,-3.8974024555236144,-10.071497628426163,-0.07815456985302924,0.17458022347318788,0.3739749041787888,0.06478428209782156,0.0773009402838043,0.9949007453799223,-1.6782791079472885,-1.7666755660520936,4.139608860015869,-0.05460055292163091,1.3651027872953942,0.04696956625269083,1.0,0.4881597191936172,0.4817858522671945,0.41051784612726966,-0.5859935155209811,0.5728259748263079,-0.010274398489669215,0.57304139385155
1.7000000000000002,-8.713132913208355,-3.913822838721063,-9.859459124523257,-0.0811985427760623,0.17136522340289825,0.37292928599977004,0.06462021959345376,0.07709942477061037,0.9949270794140028,-1.676324585679956,-1.769154946601437,4.139170671767191,-0.054166275898744363,1.365514151006825,0.04684003838270065,1.0,0.4888920656194357,0.4825278363931609,0.41011908834881766,-0.586004022924505,0.5728263501263636,-0.010268001381136892,0.5730303882560173
1.8,-8.928852846130734,-3.72230208032337,-9.86313227406487,-0.07609928154678368,0.17358863534799837,0.3727189464213869,0.06486412182049646,0.07735154336009464,0.9948915568705917,-1.6742210944412725,-1.7714178569347594,4.138790271019983,-0.05378385384868123,1.3659239314612048,0.04670066793528901,1.0,0.48950726020158153,0.4831377153674046,0.4098317137659749,-0.5859868553393663,0.5728222993452791,-0.010269262741983502,0.5730519705794617
1.9000000000000001,-8.935065140880806,-3.7116747089683964,-9.794263731860736,-0.06763070382740824,0.16843094563143662,0.3812470764525522,0.0651515071401637,0.07765201273136396,0.9948494413178312,-1.6727061751744563,-1.7735819033257816,4.138401610735617,-0.05333852815369691,1.366276584226904,0.04655816890667897,1.0,0.490102028588856,0.48373633012218936,0.40951098839228894,-0.5860019017828555,0.5728155688237221,-0.01027001190181147,0.5730432986045375
2.0,-8.884522534409308,-4.016393926401491,-9.71835341560955,-0.08098703133194535,0.17371977088513027,0.38105638871602254,0.06558672737142282,0.07811113474991098,0.9947848947496739,-1.670754931939337,-1.7756774158152282,4.138082901227841,-0.053083491765481605,1.3666656054676727,0.04642653839003602,1.0,0.49088424044934703,0.48450159406233345,0.40898177057499197,-0.586037240731822,0.5728598653814336,-0.010262757438402274,0.5729630030991171
2.1,-8.880681221206158,-3.6090298952157087,-9.645838314547728,-0.0815655023396507,0.17401881722989576,0.3748215278095669,0.06573344156139949,0.07821690373615048,0.9947669153213735,-1.6688080009627462,-1.7780300082044607,4.137706039895693,-0.05273737176066595,1.3670045935001118,0.04628319534445444,1.0,0.49127000221468115,0.4849066625688495,0.40887374720662556,-0.586007453948475,0.5728220545064926,-0.010235886467145355,0.5730317481745827
2.2,-8.810804951929045,-3.502126810960103,-9.67816309636178,-0.07622752482123199,0.1744211947859534,0.37950328584815407,0.06584042296357094,0.07827435326367456,0.9947553271162822,-1.667298735129206,-1.7799345656708003,4.137311414170191,-0.05239710265963797,1.3672988322589419,0.04617118835449219,1.0,0.49183391306506785,0.485497860513228,0.4085534764366938,-0.5860329487163567,0.5728131111753098,-0.010238012000460199,0.5730145772969071
2.3000000000000003,-8.812219145524221,-3.5530642123074228,-9.556178622274034,-0.07492393882172434,0.17579893216251943,0.37687884039983327,0.0661107551213338,0.07858164367082165,0.9947131138824521,-1.6654909661592598,-1.7817743297994608,4.136966884239262,-0.0520838613674542,1.3675971031188965,0.04603910446166992,1.0,0.49262555530197116,0.48622597886112057,0.4081653136475444,-0.58602517395498,0.5728148051877484,-0.01024327438080198,0.5730207411418167
2.4000000000000004,-8.83317147058097,-3.666414667007886,-9.601907651835322,-0.07677583594974027,0.17630391825433253,0.3780966216446947,0.06620246128715881,0.0787136560624043,0.9946965970413826,-1.6636629104614258,-1.7840886032102192,4.1366558064665355,-0.051803426151611376,1.3679204140849857,0.04592675033515672,1.0,0.49302435231407266,0.4865921574744584,0.40803791914345433,-0.5859879606735907,0.5728064787820861,-0.01024945113999912,0.5730670087888525
2.5,-9.000526458150338,-3.677233664839562,-9.889272845444783,-0.07567602165103544,0.18212407747518108,0.37251449265716874,0.06594343416490848,0.07847933852787263,0.9947322994397907,-1.6622255013844107,-1.7856351978328906,4.1363053790749005,-0.05151530556696129,1.368205268932265,0.04583826852250225,1.0,0.4935180429700304,0.4871002346242947,0.4077341944730473,-0.5860063771780633,0.5728203147330886,-0.010264468572210712,0.5730340771897056
2.6,-9.02216731118392,-3.574665899338365,-9.872004858073248,-0.07497390331627916,0.1740558918744894,0.37534107343154194,0.06566360949838083,0.07822819622954842,0.9947705933838494,-1.6606660204974004,-1.7874358392173535,4.136007677185484,-0.05125885096403459,1.3684581081091585,0.04569628569783069,1.0,0.49402917749377406,0.4875760640953915,0.40746010866936244,-0.5860035537056911,0.5728363116473165,-0.010278566881033548,0.5730207205376361
2.7,-8.904714926762146,-3.818233822255351,-9.698318451313437,-0.07908894968106785,0.1758652282650732,0.3748398302577942,0.06534519834447726,0.0779458382969634,0.9948136955226737,-1.659014529743286,-1.7895127735533656,4.135721079749656,-0.050983309264495964,1.368715849142029,0.04560362522084724,1.0,0.4946114723490413,0.48809513912673164,0.4072003167867805,-0.5859790926397024,0.5728435390930036,-0.010293826621439423,0.5730382359337302
2.8000000000000003,-8.82351358172629,-3.86039917113062,-9.672104287165398,-0.07384477538228966,0.17290386744475883,0.37238296148507427,0.06521985504156513,0.07785625119264404,0.994828977364514,-1.6574942030519932,-1.791069838307897,4.1353667278719755,-0.05072260950680583,1.3689750476463047,0.04550027847290039,1.0,0.4952998102225116,0.4888172357436145,0.40677915034716866,-0.5860149752139652,0.5728514930587282,-0.010300409407258935,0.5729934705486655
2.9000000000000004,-8.92998511004715,-4.023569620808242,-9.860139083102219,-0.08115761705246187,0.17249251418777312,0.3727747377340154,0.065465887122155,0.07813746813419525,0.994790745514621,-1.6561758294066782,-1.7926248803040117,4.1351119145710635,-0.05050661239530316,1.3692668810527155,0.045410844675574616,1.0,0.49564811483877236,0.4891269008782457,0.4066611655580883,-0.5859698835559358,0.5728598512731162,-0.010298652933522019,0.5730312592804523
3.0,-8.932125754898564,-3.8172625778152023,-9.668932569750933,-0.0826667737050886,0.18274514996950203,0.3702037988173509,0.06528223963560395,0.07792820497251231,0.9948185791082238,-1.6547481896190497,-1.7943973800683035,4.134893018340229,-0.050235034314080815,1.3695282936096191,0.04529835308237901,1.0,0.4959891979374957,0.4894385552336214,0.4065049133096612,-0.5859633043479773,0.5728571463003158,-0.010300050174974283,0.5730406659711433
3.1,-8.828236084299283,-3.8888933628065194,-9.636381981462614,-0.07681215017871858,0.1758690954313143,0.370479789384732,0.06423689491160688,0.0767353126548251,0.994978903084206,-1.6534029744442074,-1.7959146095171514,4.1346316854817236,-0.050030063457048454,1.3697908511615398,0.045189560368001265,1.0,0.4964049633835077,0.4898789768713635,0.4062637071029767,-0.5859890171703317,0.5728432391917058,-0.010285488836282972,0.5730285366257962
3.2,-9.09160183746556,-3.7502824196398516,-9.711751797770255,-0.07593703351939174,0.17799317037613602,0.3692317046525276,0.06363767590479313,0.07603403183464733,0.9950723147802011,-1.6520876740071837,-1.7973567308990552,4.134389111350215,-0.04982878554667775,1.3700494047839689,0.045122204539259796,1.0,0.4970111864096714,0.49054184353672514,0.4059404442122577,-0.5860041300444891,0.5728235992873489,-0.010253658347764791,0.5730332853864385
3.3000000000000003,-8.812059235942867,-3.87487339968526,-9.866966234067842,-0.07659132527549684,0.17954898026545799,0.3741726081207415,0.06397669533214562,0.07636664972031768,0.9950250045442757,-1.6507837337917752,-1.7988505641599817,4.134195045895047,-0.04961058786654896,1.3702421431784872,0.04504764854728997,1.0,0.4973650618468947,0.4908864133768013,0.40575846106939384,-0.5860050350581456,0.5728221178841337,-0.010257688110031443,0.5730337686243927
3.4000000000000004,-8.968061436447305,-3.3924033199329338,-9.789848459479595,-0.06996412459309202,0.17918866231505584,0.37056708064207833,0.06431571475949811,0.07669926760598803,0.9949776943083503,-1.649486839533676,-1.800221910396635,4.133963108062744,-0.04943446326332203,1.370450496673584,0.044960975646972656,1.0,0.49778452173889576,0.491313779048149,0.4055508503732951,-0.5860073146504637,0.5728109289079454,-0.010252720536951736,0.5730427109922615
3.5,-8.82714050559351,-3.6438287679942096,-9.752153579635012,-0.0726395530035484,0.17844106926823372,0.37094531338724995,0.06420785412522628,0.07659006461643311,0.9949931150764758,-1.6483671071818056,-1.8015748754413807,4.133723735809326,-0.0492585462382813,1.3706619285147286,0.0448750415190453,1.0,0.4981305246037916,0.49166248367607174,0.4053900407466199,-0.5859992626345394,0.5728086094675444,-0.010243298397938718,0.5730534320197072
3.6,-8.863751531363155,-3.635445630158373,-9.738113543344513,-0.07104588990704751,0.1730438981476773,0.37354217283743557,0.06425065745123705,0.07666079778490906,0.9949848969275578,-1.6471718982125545,-1.803060206884421,4.1335234308165285,-0.04905398309741216,1.3708646993003846,0.044823338571929834,1.0,0.49839174132341185,0.49191075219218,0.4052436457264496,-0.585998757729825,0.5728190604208375,-0.010248873012546292,0.5730434019859785
3.7,-8.937208023065299,-3.7529489021105276,-9.841149172476785,-0.07770488390298004,0.1818138561516631,0.3707530506595725,0.06435588726909058,0.07680087747166292,0.9949673027409088,-1.6461139152390698,-1.8043369325218679,4.133309949687547,-0.04894013473803893,1.3710503578186035,0.044745445251464844,1.0,0.4989149231441911,0.49243064206352255,0.4049009881882513,-0.5860290603943905,0.5728368439375179,-0.010265487368144753,0.5729943371186716
3.8000000000000003,-8.83537112106073,-3.889465005102258,-9.800029894851942,-0.07811566773873573,0.1756191061194147,0.37282563492789833,0.06436013333582072,0.07681226908792986,0.9949661540098288,-1.6448888778686523,-1.8054717769844157,4.133123874664307,-0.04874971699150639,1.3712309056802268,0.044626844795988795,1.0,0.49935194951264056,0.49286909744368923,0.40467682376381847,-0.5860285699768982,0.572838370429009,-0.010260040266920588,0.5729934101792014
3.9000000000000004,-8.91537911397989,-3.902632917211027,-9.890468706822425,-0.08021340031856117,0.17693914360011545,0.3754103420259371,0.06433830109288823,0.07679042795818856,0.9949692521964767,-1.6437131787779335,-1.806640937378259,4.132912804407747,-0.048617904650079785,1.371389447985985,0.044582856517403256,1.0,0.4996151756663726,0.49311672795144457,0.40463900783065815,-0.5859884161532164,0.5728191556360278,-0.010257016224783214,0.5730537363012631
4.0,-8.891559189540759,-3.7234051062674935,-9.964776673856848,-0.07861449020988637,0.18038075828521472,0.3721161844694777,0.06455421537096463,0.07701771534335114,0.9949376169850753,-1.6428314220486193,-1.807987858219506,4.132727997500222,-0.0484592136769685,1.3715837851144685,0.04451136936817523,1.0,0.4998749773434228,0.4933788257002414,0.40453332268314474,-0.5859755689161815,0.5728105964207637,-0.010254747976577331,0.5730754692057438
4.1000000000000005,-9.11961570820738,-3.4428245576239234,-10.088916925465636,-0.07038798892628426,0.18320201368232655,0.37267478042302554,0.06483487915687892,0.0773128520861403,0.9948965222433318,-1.6418310405927872,-1.80927838102135,4.13254497583888,-0.048298196201660204,1.3717824815651787,0.04443687737071122,1.0,0.5001778362847433,0.4936961802923674,0.40432907145185554,-0.5859982055852878,0.5728124579501299,-0.010260679810416512,0.573050355132759
4.2,-8.97961909856191,-3.774070674503045,-9.917949942032966,-0.07499370231900858,0.17634897527051255,0.36953153816681505,0.0651066893573483,0.07759557168869398,0.9948567535507116,-1.640782028653021,-1.810286661187643,4.132325023196344,-0.04813385567178724,1.3719605558087598,0.04437797209219735,1.0,0.5005883099218906,0.4941169430660226,0.403958874835724,-0.5860767236982751,0.5728431877448664,-0.010294918128739191,0.5729387147454063
4.3,-8.767489619141244,-3.915200915500762,-9.818651044227527,-0.08267705787052232,0.16601388897195152,0.36788069497464737,0.06517762429627302,0.07766261845837455,0.9948467914745134,-1.639493463742711,-1.8113967378265388,4.132170080851093,-0.04803355157885747,1.37213456601955,0.044316888408448565,1.0,0.5009551997766644,0.4944630343362977,0.40379901637980475,-0.5860528623049375,0.5728530090758206,-0.010270840489778887,0.5729537349669703
4.4,-9.174568277088508,-3.6523965596958536,-10.01587614231761,-0.07222554665368928,0.1810535492070984,0.36476528277869824,0.06466657649327541,0.0771074892263075,0.9949231748193569,-1.638376386629802,-1.8124998131067516,4.131974469979645,-0.04789030235964102,1.3723101761213947,0.04424300955460673,1.0,0.5011996728642154,0.49469789644007733,0.4037865912159476,-0.5860045038506522,0.5728281582551924,-0.010267462054820367,0.5730280986126842
4.5,-9.071510088607566,-3.60862764921057,-10.048899378048826,-0.07133045165294416,0.18942181517368528,0.36954890198515955,0.06433402401215328,0.07674979870429414,0.9949726461415608,-1.6373968634670917,-1.814116431403409,4.131740551794773,-0.04775238866869946,1.3725034878552176,0.04418230056762695,1.0,0.5016959968152893,0.4951976619824438,0.4036258961145172,-0.5859784298510449,0.5727960482805913,-0.010254318540571444,0.5730870926610642
4.6000000000000005,-8.852881390883374,-3.5970038441402963,-9.89380098089255,-0.07400448314340737,0.18175579254939192,0.37171917411722905,0.0645542715864681,0.07700357591553153,0.9949387709230778,-1.636472926288843,-1.8152525017160517,4.131569443891446,-0.04758961618457036,1.3726727866878112,0.044097900390625,1.0,0.5019768315138036,0.4954924865214831,0.40331359374887826,-0.586041850264392,0.5728408009542356,-0.010267056429843227,0.5729772718468544
4.7,-8.868638566144112,-3.822691668128479,-10.01054441972664,-0.07568285006589298,0.18540217228562067,0.3711118867531567,0.06486895655796211,0.07733725821997206,0.9948922715754455,-1.635401432043372,-1.8162732319541712,4.131337658041814,-0.047469930057861376,1.3728740706056348,0.04402591335187295,1.0,0.5022280373634497,0.4957308622702472,0.40312089586186267,-0.5860613630172915,0.5728621294105476,-0.010269988767695682,0.5729359360314545
4.800000000000001,-9.10486113280254,-3.725660972424941,-9.903495058828486,-0.0724252879158458,0.17888007285820226,0.3710939364067569,0.06521747757412476,0.07769956977917426,0.9948412491192719,-1.6341226890270526,-1.8173409901061,4.1311083683600796,-0.04731938981603304,1.3730731569803678,0.0439588234241192,1.0,0.5025299276590729,0.4960030402822761,0.4030185185507587,-0.5860396714619799,0.5728525458774983,-0.010265737733361044,0.5729677816275476
4.9,-8.89896281397177,-3.7311090147021044,-10.001615216260648,-0.07090391557947023,0.17768334228324728,0.36866564188020734,0.06536754788340993,0.07786208793154337,0.994818778365345,-1.6329769962489291,-1.8187097515925092,4.130903482860921,-0.04719030570729694,1.3732624866809513,0.04385228818764152,1.0,0.5028459096551362,0.4962912604179653,0.4030290637980758,-0.58596824471597,0.5728139472817011,-0.010244564016291088,0.5730797910345102
5.0,-8.93353010726765,-3.9339200177699585,-10.020167351763213,-0.0772161692699915,0.18217213100892185,0.3702712662040648,0.06480720346699152,0.07730938475491837,0.9948985171224816,-1.6319914492956942,-1.8199961532261146,4.130711319275738,-0.04705491022321536,1.3734225535557345,0.04381084442138672,1.0,0.5031752567617671,0.49658843005050496,0.4029064641254574,-0.5859414287345284,0.572819172209287,-0.010251265799260834,0.5731018666794934
5.1000000000000005,-8.809430187432234,-3.9060541717624844,-9.752220399563386,-0.0788438670253524,0.1814638464568019,0.36534964056772945,0.06462081302303967,0.07713112032158792,0.9949245899267547,-1.631056785583496,-1.8212738259628076,4.130558490753174,-0.046917275791503954,1.3736367107554108,0.043794611408169815,1.0,0.5035710352043337,0.4969885114047149,0.4026225454073371,-0.585985109957339,0.5728291196107135,-0.010264527487952164,0.5730470225991487
5.2,-8.768084292876631,-3.7959672692326896,-9.881295620185854,-0.07964981277625102,0.18029234085405535,0.37071277610710524,0.06459199272347914,0.07711063029684971,0.9949280499161783,-1.629982822322348,-1.8222842140002604,4.130362453674731,-0.04677857318488797,1.3737988832608508,0.04370955416277082,1.0,0.5039323023832519,0.49734663323426037,0.402303438766253,-0.586041336834612,0.572861143734175,-0.010280381543693652,0.5729572194117026
5.300000000000001,-9.05722525396167,-3.625239871606622,-9.927590784652953,-0.07731876232277476,0.1831568568691765,0.3742410441880147,0.06574222031254745,0.07834752133780946,0.9947553899611283,-1.6287875432968761,-1.8233973246017066,4.130106289570029,-0.046621451446980613,1.373993661844055,0.04358561772554617,1.0,0.5043923678807365,0.49774875439897637,0.40217123150923356,-0.585986078491668,0.5728502747794841,-0.01028052673360298,0.5730245974381081
5.4,-8.716868390728894,-3.6163369660101745,-9.786783830818992,-0.0722453922064914,0.1748498108244393,0.3691142452251994,0.06629976972421238,0.07892811573868189,0.9946731579143958,-1.6276713519457326,-1.824803968469137,4.129984378814697,-0.046529017879548266,1.374138666814067,0.043549548297289346,1.0,0.504686865903504,0.49803582292868365,0.40213626158243804,-0.5859409790173564,0.5728195326486307,-0.01026383361939157,0.5731017412674816
5.5,-8.794404465928492,-3.8508336010032442,-9.876599715947776,-0.08158927435915683,0.18182031202061189,0.3725491693710693,0.06633684999356501,0.07894235766094716,0.9946695552948083,-1.6265154215025792,-1.8260353101266213,4.129794499031443,-0.046389351029753785,1.3743219375610352,0.043459941793663706,1.0,0.5049665477473835,0.49835379744560865,0.4018693369433746,-0.5859923662632261,0.5728417659265267,-0.010266660310050033,0.5730269222100142
5.6000000000000005,-8.857315969141746,-3.763143312274467,-9.752517730671817,-0.08045224537995654,0.18338706400529506,0.36608186093081546,0.06629716963728115,0.07888243663021613,0.9946769093059514,-1.6255409429723708,-1.8271623784841229,4.129609375173382,-0.04628140825913107,1.3744688949385027,0.04345720691944884,1.0,0.5053757780358202,0.4987868645621899,0.4016491950208643,-0.5860122989106044,0.5728306910310691,-0.010273157241673495,0.5730174929080822
5.7,-8.71752097394508,-3.861241270541513,-9.801759333668892,-0.0827564565497777,0.17985706682829178,0.36922924143795804,0.06582854759556742,0.07840808982076176,0.9947454894419897,-1.6244979424993824,-1.8283408687122915,4.129444599151611,-0.046127421052425614,1.3746452331542969,0.04336955764495486,1.0,0.5056199217469439,0.4989958673748128,0.40152106833114287,-0.5860084955014004,0.5728343134675805,-0.010290603668269768,0.5730174482425938
5.800000000000001,-8.889248516696968,-3.8057218857728614,-9.71349447577914,-0.07810554188758416,0.18292930640338667,0.3692484314395635,0.06560464445660935,0.07818240188061494,0.9947781305690443,-1.6232829801488764,-1.829569017080246,4.129246726620142,-0.04601075248737926,1.3748185280835208,0.04328346252441406,1.0,0.5060523077489827,0.49945339305160796,0.40130661125385914,-0.5859970244593764,0.5728389200439055,-0.010264640460567109,0.5730250397355289
5.9,-8.714171396251615,-3.673124809290542,-9.746664271206214,-0.07520541751210533,0.1826843740494902,0.3702207032077312,0.06551690197574604,0.07809506678082805,0.9947907753694589,-1.6222040720565745,-1.8307505764103806,4.129049943610776,-0.04588492334399419,1.3749736911432204,0.043233149470525145,1.0,0.5063802347568956,0.49975896321053437,0.4011868457669709,-0.585977344246204,0.572833399520839,-0.01026954776653885,0.5730505953336369
6.0,-8.915496773620518,-3.951157958434122,-9.941432560641001,-0.08006697156270338,0.18198737479747365,0.3672657656426204,0.0658138692934769,0.07839520975392231,0.9947474149117526,-1.6211285568130271,-1.8319196956592074,4.128882771257453,-0.045756357719200225,1.3751324493077073,0.04314620470802076,1.0,0.5066621088709341,0.5000402271952491,0.4010449426071705,-0.5859819670376198,0.5728314620076481,-0.010274404628928948,0.5730477179523739
6.1000000000000005,-9.13708997414537,-3.688413276459881,-9.944093125028921,-0.07601598893733925,0.183937972097884,0.3718579270386112,0.06621241087255712,0.07880505659060681,0.9946887017319462,-1.6200808806980262,-1.8331346914199855,4.12870866185821,-0.04566874422314671,1.3753118628416905,0.04307985305786133,1.0,0.5070110317831393,0.5004230853932029,0.4008449101296014,-0.5859896125807673,0.572819388637532,-0.010269444820806483,0.5730520573660292
6.2,-9.07279911015346,-3.696276051187344,-9.984142574396492,-0.07708799832125063,0.1888539254068638,0.3714487725879135,0.06574587092117881,0.07839620903240653,0.9947519022890687,-1.6189000962389943,-1.8344976924748841,4.128535629956367,-0.04552232427048846,1.3754690351764207,0.04300753024199213,1.0,0.5073084057599302,0.5006770018736643,0.4006808010922458,-0.5859832911521791,0.5728387059748739,-0.010293032084439366,0.5730387883189072
6.300000000000001,-9.005131827015267,-3.7347741797020544,-9.848296627913108,-0.07344821029107061,0.19047918157622992,0.3687418560971454,0.06536895618099449,0.07798213908242993,0.9948092939888569,-1.61778868664022,-1.8355959768371315,4.128375070635838,-0.04541780539338202,1.3756811576165684,0.04299399226034626,1.0,0.5075824712990158,0.5009708622294442,0.40051676140397185,-0.5859917632540262,0.5728457291724393,-0.010282620906808334,0.5730232906912427
6.4,-8.885430082395876,-4.0705314421889724,-9.783347140233003,-0.08287382691382528,0.18602115222309218,0.36398111496085633,0.06511537121480293,0.07764358440056851,0.9948524619553074,-1.6167060258631705,-1.8367487382556178,4.128173402613215,-0.04533274591479497,1.3758307026814705,0.04291250887801866,1.0,0.5079824784778749,0.5014036934418706,0.400306924354744,-0.5859938630889455,0.5728449376675098,-0.010270916773151093,0.5730221444930729
6.5,-8.822556928997399,-3.8009847501236353,-9.871977081379839,-0.07985963251205985,0.18387963838921964,0.3739517619117372,0.06542765624973097,0.0779660480713538,0.9948066719528602,-1.6156765995305915,-1.837914470472641,4.127993780164136,-0.04521258295092778,1.3759991185373655,0.042872980568846364,1.0,0.5082786167793332,0.5017043844651575,0.40018438296954123,-0.5859870066437523,0.5728291207776468,-0.010265969235633037,0.573045056090231
6.6000000000000005,-8.945082075825216,-3.772424546261924,-9.986879732350587,-0.08098940323430989,0.1888147349315853,0.37028394411312016,0.06571901083539738,0.07826715656163474,0.9947639219962746,-1.6145686058795528,-1.8393648010854877,4.1278071583975535,-0.04509921081352367,1.3762064160574656,0.0427802661690497,1.0,0.5086626260763004,0.5020672470347545,0.3999235946934502,-0.5860177272318474,0.5728468063830283,-0.010272306634503743,0.5729958459737663
6.7,-9.171866390407837,-3.687773337771736,-9.961650961141535,-0.07804094234392855,0.19354056765915773,0.368048848554382,0.06582354842949892,0.0783776570756472,0.9947483062982507,-1.6132511454249747,-1.8405722787893921,4.127599457013729,-0.04499705255541997,1.3763554303764074,0.04270145102923148,1.0,0.5089720204543219,0.5023993354211777,0.39969937952157547,-0.5860518053971313,0.5728561805054795,-0.010281190385683694,0.5729514595248795
6.800000000000001,-9.049118605800158,-3.659426291104951,-9.95215638053925,-0.07536903641804306,0.18897913501965313,0.36776195616166263,0.06644722511787865,0.07902457024895682,0.9946551119353643,-1.6121785853646304,-1.8415949032682781,4.127424038495672,-0.04495441243170758,1.376566842345423,0.04263537287908164,1.0,0.5092601622480435,0.5026896231002637,0.39961353847998105,-0.5860204025340897,0.5728513648281841,-0.010263796433656611,0.5729887050466516
6.9,-8.980288129218046,-3.5743359642737405,-9.879719165736145,-0.0763660601078103,0.18416494482675244,0.3644222978881844,0.06731708007175848,0.07992084907637588,0.994525539630652,-1.611094387717869,-1.842676879818055,4.127203464508057,-0.04490347757672663,1.3767876625061035,0.04257631301879883,1.0,0.5096398830232358,0.5030444792490235,0.39950861363564144,-0.5859937960333199,0.5728322034181019,-0.010253955236590876,0.5730352468562716
7.0,-9.194891977164886,-3.9086713200322145,-9.653533226314298,-0.07929883006773107,0.18738040737557224,0.3751938131414877,0.06700903144251251,0.07954787919310005,0.9945762490491268,-1.6104076367879299,-1.843568797825,4.127102567527256,-0.04482765453297199,1.3769426345825195,0.04247965840658822,1.0,0.5099521859914286,0.5033392120218718,0.3993956729206487,-0.5859963247983081,0.5728113112756844,-0.010242196290538052,0.573053755255694
7.1000000000000005,-8.778669229321148,-3.4828957985418234,-9.683159966925805,-0.08046302538339803,0.1865557181462981,0.36727272663586646,0.06682094741322393,0.0793258788117327,0.9946066186195942,-1.6104083989147027,-1.8435525366703849,4.1270743306120075,-0.044823950411551516,1.3769025764421774,0.042476753281998646,1.0,0.5101239095538375,0.5035207389712778,0.39928576313384784,-0.5860150881587294,0.5728054060219439,-0.010240481540658392,0.5730405010295244
7.2,-9.012399960971397,-3.6475324455693294,-9.706289937983437,-0.07905242153743619,0.1835165779997843,0.3708790367505917,0.06509791189869937,0.0775294167855499,0.9948603039955447,-1.6102832871619994,-1.843702784391368,4.127065211922985,-0.04484112680468755,1.376921638652155,0.04248656491327552,1.0,0.510231799444328,0.5036177001517574,0.39920073408938117,-0.5860220131645901,0.5728224915395075,-0.010245338773621456,0.5730162530909619
7.300000000000001,-8.905426310384016,-3.668255007428359,-9.632600787049888,-0.08123416568712873,0.1831611111950445,0.36670673233458706,0.06451552312411951,0.07695326784965154,0.9949442667190529,-1.6102166042858779,-1.8437348804869593,4.127071857452393,-0.04483814017901098,1.3769125815661523,0.0424809455871582,1.0,0.51027259388395,0.5036274497766731,0.3991649456598361,-0.5860245394820078,0.5728348970623018,-0.01026637110370281,0.57300089132294
7.4,-8.716789206168999,-3.8063339404661356,-9.736214472753337,-0.07981832474940068,0.1843009528076164,0.36601594405664384,0.06564670680157916,0.07816912751709508,0.9947762971426791,-1.6102238973294964,-1.8437229595580042,4.12703805095065,-0.04480293089554134,1.3769168364394866,0.04250996905986116,1.0,0.5102955704476267,0.5036381098421425,0.39920663962228015,-0.5860024560005456,0.5728161519830193,-0.010265523778121833,0.5730422293428789
7.5,-8.781884199996565,-4.028862119818295,-9.864319595558843,-0.08537881569358628,0.18693333447629082,0.3643977020140985,0.06430485879344033,0.07674536369827696,0.9949748381195544,-1.6102228164672852,-1.8437348804869593,4.127060028933739,-0.04481089385029264,1.3768954277038574,0.04250478744506836,1.0,0.5102967180237313,0.5036385397575773,0.39920690818499627,-0.5859953257903577,0.5728282963425185,-0.010254716007488097,0.5730375745627735
7.6000000000000005,-8.641461824113813,-3.7996055590742808,-9.843984236872219,-0.07910533202785723,0.18051640672740943,0.37052368556192594,0.06535620013994689,0.0778919180798592,0.9948172762920238,-1.6102284761777435,-1.8437050132318213,4.127047880534362,-0.04483510140745977,1.3768828948776237,0.042493343353271484,1.0,0.5103040286037255,0.5036334925577963,0.3991985761724257,-0.5859949967365365,0.5728339183190896,-0.010268645315553902,0.5730320416401937
7.7,-9.035419668021657,-3.6660355133836218,-9.882378273784513,-0.07255832982216232,0.1859456585172002,0.3647570411132421,0.06513567675251523,0.07767346289814102,0.9948488190696086,-1.6102161867435076,-1.8437165330204257,4.127010367722151,-0.04482732079026629,1.3769183158874512,0.042493343353271484,1.0,0.510296317667096,0.5036426403231472,0.3991861717625512,-0.5860079022802687,0.572831864655741,-0.010278868204687746,0.5730207135597601
7.800000000000001,-9.036641118513863,-3.6953123185147714,-9.732283436603504,-0.0730347913895599,0.19111521068284898,0.36751038145917636,0.06490140833174791,0.07741872078453559,0.9948839263520198,-1.6101934261686028,-1.8437107579630667,4.127024173736572,-0.04480488718066411,1.3768830299377441,0.04249042879989414,1.0,0.5102898438975184,0.5036449291397493,0.3991912570799677,-0.5860042446567546,0.5728319769853911,-0.010268399011621888,0.5730245294653735
7.9,-8.85473789613573,-3.83218574769146,-9.727403376614449,-0.08018150871475847,0.18698841089165627,0.370813279857465,0.06466623313739729,0.07716317066936003,0.9949191526503252,-1.6102143669105529,-1.8437468014159144,4.127011775970459,-0.04480627136460202,1.3768917833014895,0.04251987593923313,1.0,0.510295141467475,0.5036376225026331,0.3991970455485445,-0.5859945978839454,0.5728340277699648,-0.010267302223733857,0.5730323641686557
8.0,-8.95496168812347,-3.6564600794103486,-9.804302144584536,-0.07435708902631809,0.18715657710746547,0.36523609326045864,0.06432541821092672,0.07681348782801077,0.9949682443803215,-1.6102252255320362,-1.8437424576529116,4.127020463496464,-0.04482920587573247,1.37689959771634,0.04249609991906278,1.9819033915139848,0.510304112990745,0.5036280375685009,0.3992068529377507,-0.5859862961900401,0.572840889235147,-0.010270098825717468,0.5730339443417597
8.1,-8.921559169645148,-3.633214964831071,-9.817883595915797,-0.0744608454753525,0.1860289032368778,0.3672423465579512,0.06418905975744915,0.07664306594427928,0.9949902531493799,-1.6102078683714582,-1.8437180424212192,4.127019059914316,-0.044836209667902374,1.3768928642113145,0.042507350937611287,2.0,0.5102940215815929,0.5036353181037674,0.39922364223896195,-0.5859978771661974,0.5728220062565885,-0.01026354740599546,0.5730410951227947
8.200000000000001,-8.816670810532207,-3.634966092481671,-9.8174954326773,-0.07692557906302903,0.18587126985471586,0.36906115602689393,0.06444692356277108,0.07688941500798384,0.99495446422867,-1.6101965141071535,-1.843721389945603,4.127029142368518,-0.04483056846180245,1.376877647253136,0.0425036946698255,2.0,0.5102876887329866,0.5036496933881756,0.39921989191341656,-0.5859977708508265,0.5728223524266949,-0.010255956974088768,0.5730409937035525
8.3,-9.017511547597238,-3.702330143711388,-9.894459974066375,-0.08105092220580452,0.18635291497949905,0.3660561896735812,0.06490012661432099,0.0773801048517638,0.9948870698459342,-1.6102094650268555,-1.8437254644847392,4.127035617828369,-0.044833913876842525,1.3768974557934341,0.042459608655983014,2.0,0.5102837383055047,0.5036589187718217,0.39921547326097173,-0.5860051804220457,0.5728184334380859,-0.010265927736178876,0.5730371554792746
8.4,-8.800789761821616,-3.727254993792369,-9.797300841523022,-0.07576133623805298,0.19057071778487183,0.3659619892780014,0.06522599912996295,0.07774473959990574,0.9948373326588438,-1.6102188147989318,-1.8437274546407332,4.127043340708444,-0.044814057149431326,1.376900335556535,0.04249892591807432,2.0,0.510290171210316,0.5036464317941162,0.3991941655870241,-0.5860035444335645,0.5728260722513795,-0.010270502763247416,0.573031110528344
8.5,-8.769265447982134,-3.9770779410122654,-9.764046548540277,-0.08391292091877181,0.1841767111070587,0.36777168752248524,0.0655455271390056,0.07813135263647329,0.9947860405827678,-1.6102059534029702,-1.8437222716275063,4.127041458987567,-0.044835510305459,1.3769248724943668,0.04251134405198395,2.0,0.5102980202548749,0.5036338204287025,0.3991772959124147,-0.5859978971339413,0.5728483207147534,-0.010278589067916889,0.5730144994811727
8.6,-8.805251495846171,-3.6846937958334722,-9.824924141660553,-0.07810193308601945,0.1866265536121182,0.3708307037470432,0.06552289940596047,0.07805904196601843,0.9947932099905131,-1.6102348753972728,-1.8437343453519843,4.127033991018045,-0.044853582868617646,1.3769183158874512,0.04251617323904842,2.0,0.5102874274277283,0.5036484506724238,0.3991726623489855,-0.5860150344022821,0.5728407598212404,-0.010267251793909419,0.5730047354800104
8.700000000000001,-8.951610694859262,-3.6936197509422453,-9.813845983507665,-0.07531437334838169,0.19518356333630177,0.3663076501224019,0.06517877466752298,0.0776667680561514,0.9948462514158538,-1.610192493609528,-1.843699117700094,4.127042027658491,-0.04484006893789361,1.3769064823549186,0.04247460692676147,2.0,0.510286707388593,0.5036499878601269,0.3991857573040293,-0.5860079770308335,0.5728385902737883,-0.010259606295106898,0.5730142588348379
8.8,-8.773004292423973,-3.63205852954406,-9.871051232998084,-0.07931960100893021,0.18610319546754575,0.36747784831535446,0.06445912440383955,0.07690626339125456,0.9949524254527627,-1.6102379775790876,-1.8437084968291177,4.127012392219994,-0.04484112680468755,1.376892784231929,0.04249842695313412,2.0,0.5102829530938894,0.5036511455189944,0.3991926585019638,-0.5860155636775405,0.572822902925582,-0.010265579374736359,0.5730220753964941
8.9,-9.380326252564267,-3.9991517689793707,-10.083394860445868,-0.06935930831641123,0.1732102192830146,0.36085533579614654,0.06462042826987616,0.0770949103969835,0.9949273299245839,-1.6102153860150388,-1.8437057520324571,4.127046613949281,-0.04482920587573247,1.37690406920674,0.04248488444797954,2.0,0.510281146610086,0.5036468944390501,0.3992071787412929,-0.586003103912558,0.5728282223931871,-0.010263331988326605,0.5730295401209317
9.0,-9.468695353642367,-3.8971108453029184,-10.20588882588719,-0.06459342195394714,0.1569988027684572,0.3605028008979827,0.06485219347702532,0.07735947338672942,0.9948917350647245,-1.6102002976967658,-1.8436811170298173,4.127038838782185,-0.044801790109687836,1.3768830299377441,0.04252337935313419,2.0,0.5102869224537102,0.5036512124370689,0.39919596959281606,-0.586008394737281,0.5728322986252401,-0.010272425420716543,0.573019891648741
9.1,-9.428872977376386,-4.210725535466837,-10.076574332685738,-0.060676183102959594,0.12788568803633285,0.35964905134452524,0.06466821566689131,0.0771757594089488,0.994917628865616,-1.6102089488151792,-1.8437265542554124,4.127035617828369,-0.04481321341221112,1.3769034208861426,0.0424809455871582,2.0,0.5102969229286075,0.5036532461560073,0.39918517580406654,-0.5860138437777324,0.5728312208635677,-0.010285040588437013,0.5730151701699495
9.200000000000001,-9.864960033081612,-4.316675075282953,-8.742615860798391,-0.04135760929251081,0.1190978336076389,0.35240207863864,0.06390247008500108,0.07636475144982412,0.9950295664956667,-1.6101980209350586,-1.843728242034887,4.127014077300511,-0.04483661265727844,1.3769024461609394,0.042487672551924725,2.0,0.5103011038838131,0.5036442755615156,0.39918350854987855,-0.586014171428336,0.572830735846962,-0.010268769238231834,0.5730156117703261
9.3,-9.824937185996125,-4.10196340089326,-8.207749752412052,-0.041722109418649615,0.12248142418329293,0.35531253332964885,0.06319739836689553,0.0756130293463514,0.9951322634011751,-1.6102134087941957,-1.8437246073883127,4.127040321664913,-0.04485139990333419,1.3768978259561453,0.04246737682789469,2.0,0.510310403464187,0.5036271202088001,0.39917627156313285,-0.5860019939919181,0.5728424176179681,-0.010278973762883925,0.5730162042328989
9.4,-9.805689195762852,-3.6701420983857407,-7.822520873952036,-0.046274824276365645,0.12654394114268905,0.35783858316523315,0.0625817839465465,0.07494871806709494,0.9952213358200384,-1.6101726594240922,-1.8437718883529015,4.127028568711046,-0.044853047733642626,1.3768954277038574,0.04249563124824635,2.0,0.5103078986367064,0.5036364818176311,0.39916858367416574,-0.5860109890510589,0.5728458290021395,-0.010272054466856188,0.5730037188389631
9.5,-9.815145402805074,-3.374515349669482,-7.338542634956365,-0.05578553578938448,0.12514190190861438,0.3555806007303361,0.0623398212855912,0.07468083365565226,0.9952569846031656,-1.6102272554389832,-1.8437329296293579,4.12701455596456,-0.04483169398982911,1.3769113107673523,0.04246172765810022,2.0,0.5102942938845086,0.503652156761958,0.39917094180988394,-0.586026557794306,0.5728280853794159,-0.01026886904655637,0.5730055920222894
9.600000000000001,-9.87401269523515,-3.4504428333668518,-7.0592456610720005,-0.06307750999153083,0.12835204970954808,0.3562164797598862,0.062467853899915673,0.07481515331174879,0.9952388661833137,-1.6102094650268555,-1.843737188496755,4.127038402675323,-0.044860162203017986,1.3768780312197813,0.042490368066329214,2.0,0.5102909295459507,0.5036529879152737,0.39919348345832145,-0.5860115299012864,0.5728268117111899,-0.01026349977560082,0.5730223304373948
9.700000000000001,-9.983588480490479,-3.4365420741997217,-7.001181299526949,-0.06743217342115854,0.11892718426388882,0.3575931622705932,0.06227750280279251,0.07462701611077166,0.9952648936793088,-1.6102394334129666,-1.843727535294285,4.127035617828369,-0.04485762346992342,1.3768956202354985,0.04249563597250677,2.0,0.510298550411824,0.5036451047254445,0.3992043127573731,-0.5859957402084727,0.5728336997591326,-0.010266626537614214,0.5730315360059387
9.8,-9.928256248442134,-3.2236625568131383,-6.912694013946741,-0.06290540475379981,0.11771947837237433,0.3537619106272486,0.062087151705669356,0.07443887890979452,0.9952909211753038,-1.6102082064105152,-1.8437693322151367,4.127034988520199,-0.04482986140507638,1.3768947459533398,0.04245909653845353,2.0,0.5102953390782443,0.5036590796983895,0.39917883845523516,-0.5860142263954154,0.5728319240205925,-0.010274233281312207,0.5730142698184143
9.9,-9.847497367401843,-3.5173438497486167,-6.831586918989716,-0.07397355794458177,0.11470697262544735,0.3598805552448552,0.06232193840810031,0.07469836212381432,0.9952567631196754,-1.6102228164672852,-1.8437488346095101,4.127048015594482,-0.04484112680468755,1.3769045478198678,0.042500322125852114,2.0,0.5102982239063542,0.5036541860120506,0.3991696470829385,-0.5860163389907495,0.5728330842258368,-0.01027723679074752,0.5730108955823977
10.0,-9.750091535379608,-3.4893838373696666,-6.707578537178916,-0.07478849744063062,0.11499125579822375,0.3588289680795364,0.06269669545274868,0.07510107001032498,0.9952028528877384,-1.6102130447233072,-1.8437493264371982,4.127043129722494,-0.04484112680468755,1.3768879158097331,0.0425192333953073,2.0,0.5102990207295595,0.5036463383484889,0.3991936251078225,-0.5860002114015896,0.5728340650032768,-0.010280479157797546,0.573026350142295
10.100000000000001,-9.708940130018954,-3.2493774647273534,-6.998300026905955,-0.06885867687182186,0.11264070524637866,0.36245293383770283,0.06320890980101194,0.07564143591712712,0.9951295906255415,-1.6101944293511299,-1.8437203136404396,4.127038271753886,-0.04480224126309958,1.3768998797093248,0.0424885203473484,2.0,0.5102909682409746,0.5036485064350286,0.3991859974385159,-0.5860037065856094,0.572837222105032,-0.01027646767782147,0.573019691678204
10.200000000000001,-9.743010250744684,-3.4976319663776385,-6.869411563093031,-0.07309384517243696,0.11101904786213664,0.35766716517289965,0.06314550637148053,0.07557935970698423,0.9951383606603598,-1.6102175693495566,-1.8437348804869593,4.127024173736572,-0.04482688462799595,1.3768755044952359,0.042483079437832985,2.0,0.5102858022262147,0.5036572659448921,0.39919149683872973,-0.586000258886497,0.5728317294411681,-0.010264542765202687,0.5730289220381641
10.3,-9.697560031071209,-3.4226088905630956,-6.896383088152006,-0.07083512807855187,0.11029523104433053,0.35940070910459704,0.06299101062008303,0.07542194618562646,0.9951601124214056,-1.610220092387451,-1.8437447405965492,4.127057689280761,-0.04479296625170903,1.3768685092453807,0.04248785341260763,2.0,0.5102972912941302,0.5036436759172893,0.39920388984837035,-0.585994506011981,0.5728338215542068,-0.01027169559582914,0.5730325855280518
10.4,-10.036221040798736,-3.229623417770479,-7.107786135577123,-0.06588172982999495,0.11618546567464773,0.3560121237924984,0.06240235779631282,0.07478956359296804,0.9952446601590039,-1.6101910149852579,-1.8437322056871628,4.127028611878568,-0.04481680810961919,1.376909439603459,0.042492139981099714,2.0,0.5103032704948754,0.5036369973254372,0.3991813485087287,-0.5859993008786246,0.5728464338039694,-0.010269585215179542,0.57301511172686
10.5,-9.782703024111338,-3.6746486587271496,-6.892225903686077,-0.07988293945125785,0.11045934290735647,0.36179335375496835,0.062210270465149806,0.07457521179653022,0.9952729207626654,-1.6102018031062308,-1.8437275635628514,4.127025772145194,-0.04480949118551118,1.3769046880331037,0.042487624837785315,2.0,0.5102945215519772,0.5036369120677441,0.39919141178634215,-0.5860082278691889,0.5728215474469166,-0.010279973976987876,0.5730306743841601
10.600000000000001,-9.744860341816828,-3.343848984913195,-7.054086790428901,-0.0669861588302541,0.10947071782141521,0.3593356891285649,0.06264010552005957,0.07502207287498591,0.995212489093667,-1.610205308482532,-1.8437084835197293,4.127035617828369,-0.04481680810961919,1.3768975059760191,0.0424762626773406,2.0,0.5102978899160538,0.5036455478628358,0.3991881769582105,-0.5860066294147471,0.5728330775992394,-0.01026903051748625,0.5730209791119187
10.700000000000001,-9.790890098291994,-3.239888692076877,-7.057548512097713,-0.06398143682985162,0.11061888502944214,0.3584120830369927,0.06254965540282716,0.07492072151900113,0.9952258144537803,-1.6102094650268555,-1.8437254816509223,4.127050399532097,-0.04484112680468755,1.376904065439203,0.0425097943593177,2.0,0.5102960124827985,0.5036510900603334,0.3991901164439726,-0.586007298445607,0.5728295982081568,-0.010269082958684344,0.5730237722122451
10.8,-9.790185491144502,-3.3192437092555855,-6.997103598425878,-0.06841164643759813,0.11065379689683444,0.35706056835828814,0.06281490330831337,0.07522323679647434,0.9951862141196053,-1.6102051990013673,-1.8437274033345545,4.12704339406687,-0.04484860395709244,1.3768884072778316,0.04249760937875966,2.0,0.5102969649897154,0.5036386819534472,0.3991790746288965,-0.5860018214887441,0.5728354714105909,-0.01027676282525134,0.5730233643155522
10.9,-9.738903141088388,-3.5124371756958968,-6.989718630990013,-0.07356655553786799,0.10800606148419416,0.3555533268957732,0.06279697426153254,0.07521657259924122,0.9951876645156829,-1.6102158834607345,-1.8437649125292896,4.127036554105413,-0.044823705341301506,1.3769183158874512,0.042518104090952274,2.0,0.5103016256744343,0.5036404561709665,0.3991737826137942,-0.5860007858733217,0.5728482880945781,-0.01027818204615736,0.573011585185489
11.0,-9.870351028982466,-3.5574845921708667,-7.031888357347761,-0.07336709290512483,0.11168578260716577,0.35272648879163043,0.062004701840125485,0.07435737357732844,0.9953019900768734,-1.6102120258568187,-1.8437246187879444,4.127034143411118,-0.04482039817267752,1.3768982172522861,0.042489394896546066,2.0,0.5102954295540166,0.5036451171217633,0.3991989596816052,-0.5859977951735575,0.5728342453744386,-0.010270237153205604,0.5730288244118648
11.100000000000001,-9.901081394031367,-3.5304744694688197,-6.947458445217933,-0.07018013427608483,0.11409710106711153,0.35276797511054814,0.06259742164161455,0.07498218047429765,0.9952176696632746,-1.610191392580505,-1.8437060222360875,4.127028989473816,-0.04482398882705223,1.376916904581578,0.04248973826618305,2.0,0.5102997193537604,0.5036385257676724,0.39919637944006664,-0.5859929363404968,0.5728387257410354,-0.01027077671608572,0.5730293046573425
11.200000000000001,-9.830765984984057,-3.504830414566313,-6.88939518839237,-0.0703660187778323,0.11138621152083207,0.3566313479042455,0.06317084219897796,0.07558785022009781,0.9951361107472946,-1.6101947819616529,-1.843727920053005,4.127042856679681,-0.044860008167596846,1.3769207926635627,0.04248322394346974,2.0,0.5102948568415074,0.5036472500839988,0.39917678798513234,-0.586004441646333,0.5728438878142582,-0.010259457834139717,0.5730125810918676
11.3,-9.731738187568986,-3.5480758898131795,-6.915748029366491,-0.07419747610774491,0.1077116122316097,0.3581971004031779,0.06294064873173966,0.07533603604958884,0.9951697969832902,-1.6102346486843868,-1.8437114429262418,4.127024101196606,-0.044810471531988014,1.3768838385321294,0.04249983772357229,2.0,0.5102929769407176,0.5036525665431558,0.3991823466422754,-0.5860099704070094,0.5728329335615716,-0.010266228564000342,0.5730177565851617
11.4,-10.057145614189256,-3.2753514121241505,-7.038882421942751,-0.06675017449878345,0.11350088065471436,0.3545066786880483,0.06281669932442975,0.07520730330804203,0.9951873684000442,-1.6102068350463752,-1.843745009588516,4.1270254887268125,-0.04482207524242866,1.3769068717956543,0.042484218310538155,2.0,0.5102897523708168,0.5036496550224929,0.39919673103512304,-0.5860047731512378,0.5728287566693022,-0.010261509147101465,0.5730273316402035
11.5,-9.908053229197382,-3.2362290785103176,-7.165111239340748,-0.06753640853705058,0.1101096628822159,0.3548967117170975,0.06272040541943331,0.07511060886346636,0.9952007451030314,-1.6102026160903724,-1.843727746178123,4.127021066503208,-0.044826572814661216,1.3769022766403405,0.04249793850858538,2.0,0.5102825079299683,0.503650870567104,0.3991878735741319,-0.5860137588565002,0.5728295036697869,-0.010258761075997217,0.5730174447409841
11.600000000000001,-9.99582824049204,-3.6780826011703396,-7.237575385240492,-0.0767211055456476,0.11751485337244008,0.3524700837549634,0.06278145171393681,0.07518315826375066,0.9951913159338072,-1.610234260559082,-1.8437233904596615,4.127035617828369,-0.04484112680468755,1.3769068717956543,0.042486920401353045,2.0,0.5102948170018304,0.5036411354543165,0.3991973130372121,-0.5860066398808726,0.5728303107537182,-0.010290359105660044,0.5730233517116073
11.700000000000001,-9.852495189836592,-3.366967141232021,-7.196040952619395,-0.0716824416593945,0.11102713305620643,0.3585233900623824,0.0632382200147804,0.07568136820127569,0.9951245283429175,-1.6102228164672852,-1.843728239414756,4.127035617828369,-0.044835846947935826,1.3768752388443593,0.04248643663818,2.0,0.5103102429302094,0.5036294308735831,0.39919244289958317,-0.5859915272325859,0.5728459944688552,-0.010286729419716402,0.5730231930999438
11.8,-9.94774077536819,-3.480024946706749,-7.188888301021959,-0.07301417791389855,0.11475444430179209,0.35597754441848584,0.06347009046341695,0.07593350489092324,0.9950907025382297,-1.6101960689876085,-1.8437159824542297,4.127057903244843,-0.044809831005844666,1.3768954277038574,0.04249489979470725,2.0,0.5102979312240383,0.5036409118227482,0.39920939601441474,-0.5859920428173515,0.5728317777711439,-0.010274253043852532,0.5730371016388809
11.9,-9.84686492254408,-3.4224327904145517,-7.036542259545284,-0.06942041364068724,0.11116024851718392,0.35448868738370476,0.0631013029665765,0.07552842831660918,0.9951449111837823,-1.610190051025287,-1.8437039712004863,4.12703326095329,-0.0448362733042954,1.37689716479487,0.04251718521118164,2.0,0.5102856140386269,0.5036563418840393,0.3991978047102186,-0.5860198866743457,0.5728157024812524,-0.010270788781387884,0.5730247588986925
12.0,-9.651413300983005,-3.1268384498282664,-6.747744026021197,-0.07229696033866147,0.11948898813096395,0.35767261522571325,0.06287315953150062,0.07527493442849667,0.9951786909805496,-1.6102361644156815,-1.8437318947984185,4.127050078105799,-0.044830990304790264,1.3769135457698525,0.042466038969662195,2.9930161658822767,0.5103037235670369,0.503634441337716,0.399225646172451,-0.5859838032065198,0.5728331040535756,-0.010271589600343236,0.5730442493621677
12.100000000000001,-9.555871383969635,-2.8144223493457825,-6.078581417236647,-0.09380117881832262,0.13172946234065655,0.36133168771028806,0.06305911629431844,0.07546774747695703,0.9951523218437706,-1.6104948957251568,-1.8432540092574918,4.127042544274431,-0.04484665409112369,1.376874939381979,0.04251718521118164,3.0,0.5102950771746718,0.503639683778024,0.39921175813782156,-0.5859889579591205,0.5728345133041635,-0.010268487752957876,0.5730376250097663
12.200000000000001,-9.570605887624156,-2.6172256002298613,-5.23835380545629,-0.11592589677828362,0.12755978071595242,0.3523535915515223,0.06337956434623511,0.07586952463334616,0.9951013888250637,-1.611463763437088,-1.8422199253665068,4.127127054356671,-0.0449255269816895,1.3766955324564853,0.04252958297729492,3.0,0.5101483185607059,0.5034293841677973,0.39938156108817585,-0.585948720754085,0.572821141436046,-0.010279021445676322,0.5730919457544978
12.3,-9.914710742136256,-2.868623197844519,-4.940881972510774,-0.10264966322373255,0.10969419943740885,0.33475148500777635,0.06333103530642127,0.07586642790058885,0.9951047303021234,-1.6126054826899703,-1.841169415681563,4.127315028077891,-0.045026899406235645,1.376512713193379,0.04264603607719165,3.0,0.5099728043189976,0.5032220708999858,0.39950611539420816,-0.585932953814445,0.5728150771850392,-0.01029237959142832,0.5731138873785236
12.4,-9.89303187660396,-2.9905085184028337,-4.880966757148053,-0.09912221854460804,0.09562000350129661,0.3152576612242254,0.06299160495750451,0.07552979647290953,0.9951517717635984,-1.6138711359096958,-1.839866030328473,4.127600081049085,-0.04512492654320922,1.376338356989293,0.04270557423367035,3.0,0.5097251892815051,0.5029804759477017,0.39953730084487277,-0.5859696891636452,0.5728404413205995,-0.010314796326859495,0.5730505711940417
12.5,-10.293436483206568,-2.75526594552696,-4.907041196318817,-0.11075571250428062,0.08399967155428882,0.2855020184918642,0.062304910474421646,0.07477877940298253,0.9952518196942697,-1.615120823589031,-1.8384735907103797,4.127778236674103,-0.045208225702987076,1.376187801361084,0.04275042429505985,3.0,0.5092130690626575,0.5025439735859435,0.39970613166192587,-0.5860216910875863,0.5728339427978801,-0.01029731393562947,0.5730042031950479
12.600000000000001,-10.120684866450933,-3.0243757139535137,-4.941713322687851,-0.13876752543613033,0.0730067683766252,0.26470560176345875,0.062089242746559366,0.07450658715649282,0.9952856758266118,-1.6161627091935467,-1.8372151125747294,4.12797212600708,-0.045348169417876935,1.3759822167924236,0.04284095764160156,3.0,0.508904904558061,0.502238277231362,0.3998910816524523,-0.5860051772829001,0.5728249576186173,-0.010282669817247618,0.5730303367434358
12.700000000000001,-10.142320425977704,-2.9417844626045633,-4.881598460166777,-0.12761861146629067,0.06471334131236965,0.24543310650559144,0.06200435313882833,0.07437918740103104,0.9953005063512329,-1.6171329013153763,-1.836235041369796,4.128211498260498,-0.045457080788791765,1.3758282661437988,0.04290585414292984,3.0,0.5086269639267126,0.5019592690166138,0.40007896967742484,-0.585988543202127,0.5728162352813326,-0.010279404093950506,0.573056124376525
12.8,-10.234345573191383,-3.01015047878737,-4.6276277289171635,-0.1279039659165371,0.05890966957138552,0.22217942904181423,0.062426504559823286,0.0748131639180598,0.9952415725206146,-1.6182948637625025,-1.8350424110862105,4.128415584564209,-0.04555847512309008,1.3756044620240477,0.0429985621280872,3.0,0.5082037694768111,0.5015649092595525,0.4002812074626053,-0.5859905925135279,0.5728260353095493,-0.010270911149920191,0.5730443849662412
12.9,-10.261811832994583,-2.9002945918250855,-4.520493559414597,-0.13021033610013139,0.05745119153001175,0.20741852545139344,0.06265816831807355,0.07503758849991532,0.9952101744211092,-1.6194310693834786,-1.833797061140248,4.128580054218543,-0.04569525442022919,1.375455951621088,0.04305850765094203,3.0,0.5079137903401828,0.5012988194534528,0.40039063014739434,-0.5860007255020919,0.5728385470252386,-0.010262137756450157,0.5730216726108209
13.0,-10.368569978791763,-2.9273386523732885,-4.605571938063582,-0.15713577854938196,0.05357453978323114,0.20504257558157235,0.06275924686759535,0.07512211755275233,0.9951974365670825,-1.62058816220961,-1.832511704697027,4.128783826252051,-0.04580876130088371,1.3752779960632324,0.04314576662948575,3.0,0.5074907871625287,0.5008954991679118,0.400613805448372,-0.586003683270191,0.5728260113777395,-0.010263525774054176,0.5730311544074416
13.100000000000001,-10.506794128937628,-2.36316962460429,-4.312150481554689,-0.17577491331796105,0.05221426108696444,0.21363647666640695,0.06265622631894188,0.07499796194148835,0.9952132902451782,-1.6216323286126744,-1.831342305721989,4.128997808731682,-0.045916903367971634,1.3750806712745436,0.043172734580159224,3.0,0.5072215632813348,0.500630247322778,0.4007347118407972,-0.5860008510050603,0.5728398506540502,-0.010249718013755373,0.5730204633384652
13.200000000000001,-10.485459027539656,-2.164424366455158,-4.093068462736192,-0.17906353619251036,0.04266560648256719,0.21459118001949995,0.06249999107642234,0.07484805004560414,0.9952343879906035,-1.6227720359465838,-1.830174144490607,4.129164363807092,-0.04606061382621115,1.3749001266259373,0.04327279715416026,3.0,0.5069315720144241,0.5003493767070352,0.4008772993020714,-0.5860127638026227,0.5728322292679758,-0.010257984523152975,0.5730157515512253
13.3,-10.343716362463523,-2.4926331774047643,-4.1921349888684905,-0.1884600191048815,0.036975265802618,0.21934860649025806,0.06239948861150631,0.07476477894755727,0.9952469514469696,-1.6238394354419208,-1.8289721044902953,4.12936391125057,-0.046156907732096644,1.3747111693276455,0.04332523698640926,3.0,0.5064878553918772,0.4999088970006071,0.40108029038527765,-0.5860272454428689,0.5728317115871855,-0.010284024264121509,0.5730009918348087
13.4,-10.481863770618952,-2.3814754857227585,-4.096189984403443,-0.18341122065729373,0.03541368094244504,0.22359883839647846,0.06267548709091453,0.07504941894720525,0.9952081719702386,-1.6249361038208008,-1.8277627855179555,4.129617108111907,-0.046295003300048876,1.374529849125331,0.04343297749625439,3.0,0.5062341319885052,0.4996774535622352,0.401224225616544,-0.5860192551347845,0.5728211838232546,-0.010280049560769992,0.5730197593064534
13.5,-10.409409737170495,-2.3786501834821436,-4.024006881420388,-0.1832315593423618,0.03317650299617611,0.22741750657071733,0.06300321106636099,0.07539977692897441,0.9951609489073253,-1.6260024547792375,-1.8265731278404522,4.129789350477754,-0.04643171443099695,1.3743578214425605,0.04344775673495231,3.0,0.5059202825697497,0.49938144565637343,0.40138631464482044,-0.5860196398848174,0.5728160950886179,-0.01026981778503716,0.573024636223748
13.600000000000001,-10.292947231072121,-2.2836434453818963,-3.8608883776611282,-0.19007472294213712,0.03092259839488029,0.2255464934860264,0.06321649177453387,0.07563129072698406,0.9951298602590218,-1.6270317645804862,-1.8253998212185607,4.129929321686576,-0.046526166775602576,1.3741368607480948,0.04355227069052556,3.0,0.505497403713561,0.49894484672107686,0.40159405095244105,-0.5860144060619831,0.5728335107687254,-0.01028266075268627,0.5730123486592965
13.700000000000001,-10.595047890168372,-2.295281956090253,-3.8251432526718516,-0.19472336133148554,0.03469217719971163,0.2236434488806741,0.06265338987170121,0.07502318175020706,0.995211429272966,-1.628184812973098,-1.8240681663646268,4.130154132843018,-0.046684208435337715,1.3739614486694336,0.04358590089036921,3.0,0.5052194816122204,0.498691623694963,0.4017656323758359,-0.5860003846843074,0.5728262441100033,-0.01027298687168367,0.5730341254667167
13.8,-10.721769641905254,-2.161116801679108,-3.9861272799454808,-0.1864258153011913,0.030269641547282414,0.22517401452736413,0.062048135113004464,0.07440675964554737,0.9952956720698376,-1.6292990898489743,-1.8228382445994578,4.130347177262064,-0.046807000595059885,1.3738053211544943,0.043682925589448245,3.0,0.5048059671835704,0.4982633150829374,0.40198213994022713,-0.5860014809339433,0.5728234391125089,-0.010280646863115864,0.573035671007154
13.9,-10.65820411224475,-2.1641490403961265,-3.902773736320008,-0.1745935269490407,0.02080543290063788,0.22339791175333817,0.061529795078367026,0.07384039891839994,0.9953700622406381,-1.630366569533291,-1.8217760525145472,4.130537509918213,-0.04691159573755239,1.3736251410986802,0.04372816090267922,3.0,0.5045304857368011,0.4979928233335657,0.40213891563399773,-0.5859951675254021,0.5728177455193022,-0.010267072541853613,0.5730480619254201
14.0,-10.477390120151139,-2.256966843847896,-3.638526926939153,-0.1865895125208461,0.02403561624194602,0.22464167574659058,0.061646900682975354,0.0739297247124164,0.9953559103994696,-1.631375184268771,-1.820683002968962,4.130771602944792,-0.04703730374438277,1.3734725518032918,0.043787479400634766,3.0,0.5042463263420337,0.4977354201382073,0.40221666756278035,-0.5860312558322238,0.5728201604796327,-0.010267990050352418,0.5730087253403042
14.100000000000001,-10.415078990834699,-2.0915636498606127,-3.5433689555415784,-0.2129445568754376,0.034751917198860366,0.22994044801741204,0.06211727831391455,0.07440526905580294,0.99529105424249,-1.632364833100819,-1.8192524714980056,4.130937710045345,-0.047186676273923304,1.3732704991152318,0.04386307711374134,3.0,0.503816593177602,0.4972990639725089,0.4024636389763029,-0.5860093071831705,0.5728285412374929,-0.010277482683438144,0.5730226239758056
14.200000000000001,-10.614435454759969,-2.093705364538449,-3.5710262715017898,-0.19854157754127233,0.029167312131869832,0.23127279881954527,0.06258765594485374,0.07488081339918946,0.9952261980855104,-1.6335849440690164,-1.8180069144315079,4.131105406909996,-0.04730667703310867,1.3731064211131845,0.04391908645629883,3.0,0.5035250069688377,0.49700628692550936,0.40272847453210975,-0.5859565489109231,0.5728074214734941,-0.010235128353766167,0.5730984407943105
14.3,-10.758636714543531,-2.407895011834383,-3.5415110853064307,-0.1847818399590645,0.021377620672791108,0.22653666876064893,0.062012164813298784,0.07427547201097508,0.995306910488054,-1.6347541206119476,-1.8169122720873936,4.131307834454046,-0.04743004848678566,1.3729401048900443,0.0440001901866752,3.0,0.5032470090068394,0.4967312019163869,0.40286774068285336,-0.5859617609553043,0.5728003521919167,-0.010232915208153856,0.57310021695452
14.4,-10.622720203947278,-2.1940259307155423,-3.666905694776343,-0.20748320418001545,0.03781467541109616,0.22605112548735332,0.05978128492919562,0.07193893683281914,0.9955976428511863,-1.635945707674498,-1.8158572996572016,4.131472110748291,-0.047525510165045866,1.3727789666207018,0.044064856654740345,3.0,0.5028421782120641,0.4963245347304976,0.40294396948566413,-0.5860121816421605,0.5728277827403745,-0.01024765567797678,0.5730209767895476
14.5,-10.07588645630296,-1.5567209075782846,-3.627472835678296,-0.2627153679331013,0.06900634309823839,0.23264885352387085,0.048799075981754356,0.060376096890893426,0.9969244201790575,-1.6368817651647534,-1.8145977389449184,4.131664752960205,-0.04771120965991216,1.3725825022462816,0.044131692685505416,3.0,0.5025429039258748,0.49604818448740307,0.4029621056075265,-0.5860630063027301,0.572854493878799,-0.010263599468609066,0.5729420040564481
14.600000000000001,-10.05065728713594,-1.5172397696551947,-3.098710651714697,-0.27286218097834314,0.05229982660297402,0.2343114656070994,0.04413046098990112,0.05544501292384736,0.997485921880588,-1.6377822998674147,-1.8132198462466778,4.131864389386339,-0.0478695638059795,1.3724079136599325,0.04418961192007781,3.0,0.5022852879643804,0.49580559293213483,0.4031470399875799,-0.5860457077857415,0.5728393653783079,-0.01026012662493032,0.5729748857153576
14.700000000000001,-10.43148615877843,-1.2752801858042242,-2.9606199626581353,-0.27174457773916416,0.029525684277122433,0.2380885557466391,0.04381815139282407,0.05508976239389418,0.9975193924222171,-1.6388396606776545,-1.8118849648265483,4.132046955815272,-0.04807618137285543,1.372260404495703,0.04423870812621716,3.0,0.5019177185853085,0.49543207854231963,0.40349948763485777,-0.5859888150515609,0.5728024705611354,-0.010243373351383284,0.5730702501926893
14.8,-10.857107529215561,-1.4163041647548011,-2.844898518108353,-0.2450269257623094,0.01662522396081596,0.2387470655634139,0.042837259966377994,0.05406220976607189,0.997617091353889,-1.6400909423828125,-1.8109179619843654,4.132227420806885,-0.04816658914599614,1.372073618759369,0.044332472671722536,3.0,0.5014307406791012,0.49489096460788995,0.40383755972573143,-0.5859569664656628,0.5728027139975113,-0.010241675592838947,0.5731026019557878
14.9,-10.671807822281613,-1.8484189707007368,-2.946891387474593,-0.24288876730645825,0.012332108292314455,0.23642712936678373,0.04147629436296177,0.0526572518907869,0.9977509333855314,-1.6413304398840494,-1.8098169533535768,4.132426064174789,-0.048263387089111376,1.3718762397766113,0.04442806943116842,3.0,0.5012407431166878,0.49472872706303717,0.40382292444424644,-0.5859941208578002,0.5728265571134912,-0.010248229979273625,0.573040661356496
15.0,-10.582503333691577,-1.7496174033565977,-2.911233456554309,-0.26246714364071544,0.014865263068713101,0.23619098169634906,0.04132614336274005,0.05252828119330217,0.9977639450446606,-1.64226340327087,-1.8085361942810583,4.1326172043643545,-0.048366381614104274,1.3716731071472168,0.04448270797729492,3.0,0.5009438397324065,0.4944306328554636,0.40384109739430685,-0.5860356247826338,0.5728540073856278,-0.010275009659703589,0.5729702931953351
15.100000000000001,-10.761529200367209,-1.931444572264681,-3.036043632930136,-0.24734154035246347,-0.0010803875172025008,0.23671129322134835,0.0412094491658139,0.05243183587165673,0.9977738517137719,-1.6427413656648282,-1.8077871501013352,4.132735918633705,-0.04843644168507555,1.371546814597286,0.04454139095228334,3.0,0.500456279787712,0.4939421034308599,0.40419943743354275,-0.5859865023378235,0.572824027198958,-0.010268480733630524,0.57305061839673
15.200000000000001,-10.715663799815353,-1.8928881942202125,-3.6189799443687773,-0.24226977256344773,0.004239887887490646,0.23740207783955394,0.041563777551457445,0.052793300003927734,0.997740044690211,-1.6427526586291534,-1.807740003004066,4.132764087020879,-0.04843075693164067,1.3715464143273952,0.044571203292830014,3.0,0.5003211035536748,0.4938128630093869,0.4043498906936605,-0.5859489767791477,0.5728024394867419,-0.010257630849083429,0.573110759747949
15.3,-11.030546231154368,-2.1289929004994397,-3.7702016734403667,-0.22143471576005697,-0.01527861556358361,0.23421742346698335,0.04240248944456217,0.05367372853517295,0.9976569812438123,-1.6428219266592885,-1.8077549948432958,4.1327223497457775,-0.04844809255219174,1.3715322742827785,0.04454697115352741,3.0,0.5003002515919288,0.4937849276884193,0.40436966039008415,-0.5859403226370874,0.5728066018934233,-0.01025170982712174,0.5731155534278192
15.4,-11.05578713864518,-2.4521693125344473,-3.9040488997635827,-0.21599564485534198,-0.022081828319847344,0.23629956022478907,0.04359380175447093,0.05493318659516295,0.9975379250135272,-1.6429097318464407,-1.8077584606022246,4.132739973903025,-0.04842408619773849,1.3715157608576352,0.04455423355102539,3.0,0.5002864037456948,0.4937829986897991,0.4042906981791254,-0.5859794757000171,0.5728238995401671,-0.010261338621949051,0.5730580591036263
15.5,-11.018514866334682,-2.435202992440871,-3.8221296576502852,-0.21660659470493965,-0.026951534417691696,0.23599846651372483,0.04383501708954982,0.055203541859303845,0.9975123347727849,-1.6429147720336914,-1.8077717724371136,4.132746777490147,-0.04845226418192588,1.3715291023254395,0.044534764245517756,3.0,0.5002665905128817,0.4937948500073114,0.4042789568321017,-0.585989261267875,0.5728186559606301,-0.010242914961812156,0.5730536238043281
15.600000000000001,-11.234479663931921,-2.63934161202698,-3.826895469239567,-0.2198877723739841,-0.02147178064479051,0.2363025742357749,0.044076232424628714,0.05547389712344475,0.9974867445320426,-1.6428984042305028,-1.8077726318161158,4.132767433155385,-0.04844828356378701,1.3715155181995955,0.04455755994480332,3.0,0.5002781807675725,0.493779469254313,0.4042648874442914,-0.5859937990867483,0.5728289314135158,-0.010259552905227039,0.5730384143682817
15.700000000000001,-11.069994449827735,-2.312348301344276,-3.8485977615567295,-0.21057820818388456,-0.025271128166101543,0.2362751510069256,0.044151867850312075,0.05555250297840567,0.9974790830829084,-1.6429407743007618,-1.8077793212706164,4.132748973604465,-0.04845635291328804,1.3715206993136022,0.04453696035983642,3.0,0.5002791206521213,0.4937821171665652,0.40427949408203856,-0.5859874335516515,0.5728260910379442,-0.010257135195216325,0.5730478063157775
15.8,-11.095323925158155,-2.3257659060507723,-3.9059241716257866,-0.20885967423423393,-0.0265522923116326,0.23803868763993943,0.04407990000290249,0.055460177223898253,0.9974874039370238,-1.6429346489832322,-1.8077451191344203,4.132758767612227,-0.04845142104382555,1.3715415000915527,0.044530391693115234,3.0,0.5002762821684056,0.4937916551306189,0.4042666967596018,-0.5859874841841968,0.5728317375605259,-0.0102584614544377,0.5730420864050494
15.9,-10.986544517871346,-2.3147994276574444,-3.84583975040245,-0.2081081469307495,-0.029748738254385364,0.24110242066976248,0.04402250701582241,0.0554038954541159,0.9974930709644517,-1.6429171886777896,-1.8077556333616622,4.132780504290878,-0.048457678745590586,1.371510727865695,0.0445430830779383,3.0,0.5002849472112202,0.4937917370144491,0.4042696945434948,-0.5859750552351874,0.5728325925870472,-0.010261633802996047,0.5730538843632546
16.0,-11.12506590806366,-2.3499269706281947,-3.8629895212958245,-0.20863242235256313,-0.02548998368467043,0.23712905411327234,0.04398381446979375,0.055376728722062826,0.997496286154758,-1.6428977223987615,-1.807780872771488,4.13277817631564,-0.048449245669076386,1.3715298218766925,0.04453623024177914,3.0087267142175627,0.5002902797936462,0.4937841270196093,0.4042488754954255,-0.5859851405761664,0.5728423935745836,-0.01027498345088696,0.5730335346755513
16.1,-11.33219404527399,-2.231029188994942,-3.915242489961284,-0.20499382384783943,-0.022522201200943004,0.2362952873552611,0.043950036363919566,0.05534528959073551,0.9974995203971344,-1.6429081964504317,-1.8077740323553901,4.132784814435983,-0.04847891748461919,1.37151895959932,0.044530391693115234,3.984793176873058,0.5002907617775331,0.4937794834656823,0.40424663246090303,-0.5859917720700067,0.5728401964716547,-0.01027380489601033,0.5730289707384157
16.2,-11.108633477908104,-2.462084885849201,-4.048116104561262,-0.20791589899685892,-0.02575933306118537,0.23551953607301024,0.04356121253357751,0.05495326114087148,0.9975382486182393,-1.6429281816454577,-1.8077570400633753,4.132766742887009,-0.04844739789231339,1.3715358071313226,0.04454328555058281,4.0,0.5002893545800159,0.49377823843846547,0.4042552612844366,-0.5859837898311889,0.5728363731055829,-0.010279498469254503,0.5730408533547491
16.3,-10.90237590192495,-2.5499171270530283,-4.065180601820111,-0.2090265756641389,-0.029670841350127267,0.2358664902657608,0.044199636478906706,0.05556512319857673,0.997476062438148,-1.6429259781160384,-1.8077743485319202,4.1327426429471945,-0.04846470485611343,1.3715239302874331,0.044543458471845654,4.0,0.5002742887414915,0.49379178270364243,0.40427272752793897,-0.5860005267602608,0.5728085289440754,-0.010267620077223882,0.5730517845566587
16.400000000000002,-11.15061691260301,-2.311035865207816,-3.9573778170942684,-0.20441476238387338,-0.024042710247646377,0.23613796449591634,0.04440025496311904,0.05576670227570146,0.9974560758516455,-1.6429253375997945,-1.8077882054163041,4.132775104004148,-0.048460050402292114,1.3715037659268985,0.04454667189213911,4.0,0.5002754543546047,0.4937921377719744,0.40427031015447407,-0.5859952738454488,0.5728135220179856,-0.010261541121117393,0.5730522740535702
16.5,-11.236221210703718,-2.2756252182588215,-4.1418655458327365,-0.20289144470255124,-0.02476460272820689,0.24149788919441487,0.0441221479455245,0.05551930192973073,0.9974822491681611,-1.6429205486792644,-1.807781723666269,4.132765293121338,-0.048418244506210725,1.3715404317579196,0.044530391693115234,4.0,0.5002932603570269,0.4937940031787696,0.4042376038842004,-0.5859923785465521,0.5728436208859572,-0.010269455972778925,0.5730250051870718
16.6,-11.042929434280834,-2.6022204830086397,-4.049944447250826,-0.21003422121638624,-0.027326703151571756,0.2431686474799581,0.044689437401015275,0.056101182346036595,0.9974242508618812,-1.6429221593272316,-1.807779824259879,4.132752629189555,-0.048448479828905225,1.3715107986039266,0.04456334931476325,4.0,0.500288370222109,0.49379525595333096,0.4042513049858465,-0.5859902575247853,0.5728281297698196,-0.010269138929374803,0.57304266561583
16.7,-10.997877302678248,-2.5842412295091135,-4.03941366179348,-0.20852505490152673,-0.028404647465519465,0.2395677762702282,0.044975583557106846,0.056387586953047,0.9973954225198597,-1.6428949718912491,-1.807782607036446,4.13276027069736,-0.048451092213067946,1.3715415000915527,0.04455250843586479,4.0,0.5002799981873705,0.49379647084065886,0.40424625550586707,-0.5860068112959147,0.5728216193342988,-0.010273849772475932,0.573032161007459
16.8,-11.08925093136955,-2.355887769792183,-4.033413177741826,-0.20111408012847312,-0.028974417489426387,0.2386309151145869,0.04490908053948349,0.056305330226332675,0.9974030656271565,-1.6429459756502105,-1.8077808819212855,4.132770748796134,-0.04846938390350523,1.371565341949463,0.04457425881443986,4.0,0.5002801391272974,0.49378621569559134,0.404263142472024,-0.5859895288440164,0.5728284426831876,-0.010257629733143944,0.5730433040971509
16.900000000000002,-10.297969135972604,-1.7035770519044768,-4.133608208640437,-0.2397803001644458,0.014898835003924513,0.25248643474235355,0.04465678915565368,0.05603378190706167,0.9974294672830273,-1.6429230575937048,-1.807795973477024,4.1327900886535645,-0.04842623382412605,1.3715381485404687,0.044530391693115234,4.0,0.5002798739797,0.4937906287980292,0.4042502434420298,-0.585993341412578,0.5728348170609787,-0.010252441156510616,0.5730331261220153
17.0,-9.451573298027567,-1.2019596854539487,-4.841646910272897,-0.2670654832610614,0.0866524689475295,0.25792946412530493,0.04418326695033517,0.05553683123683997,0.9974782060162708,-1.6429164100657223,-1.8077990690624477,4.132777690887451,-0.048437133747703094,1.3715415000915527,0.04453594949316218,4.0,0.5002904207530968,0.4937847788950432,0.4042478672767397,-0.5859940320348795,0.5728385931882103,-0.01026407432700139,0.5730284367741851
17.1,-9.310648504689423,-2.5074212311427586,-6.152698630488831,-0.1947965744052476,0.133842620986076,0.2446700158597585,0.04370974474501665,0.055039880566618266,0.9975269447495144,-1.6429033279418945,-1.807768026315308,4.1327900886535645,-0.04842714303297861,1.3715017911248137,0.04452898017893461,4.0,0.5002869217815744,0.49378355087221315,0.4042524683647094,-0.5859939741886222,0.5728335267990367,-0.010259206121236004,0.5730336477724183
17.2,-9.235821326117112,-3.7893606774071795,-7.523679425040589,-0.11680203945294351,0.14879030826624537,0.2353658792082213,0.04373344957982942,0.05509579348269541,0.997522845945082,-1.6429101788489175,-1.8077569248088963,4.132748071661493,-0.04837705512410333,1.3714814242141506,0.044536058416863755,4.0,0.5002842314985422,0.49377841022645086,0.40424920733649766,-0.5859872978515461,0.5728408342660182,-0.01026640380645281,0.5730330412000157
17.3,-9.151491638458314,-4.047250834992272,-8.267405888964737,-0.08953170263956944,0.15760124801253644,0.2378166409713796,0.043786227569566995,0.055184032654988426,0.9975156576990167,-1.6429267225799788,-1.807742570526099,4.132737103832436,-0.04840739191088872,1.3715151096253213,0.04455850865501664,4.0,0.5002903404340168,0.49377993811627846,0.4042745354454109,-0.5859762033929353,0.5728287778515255,-0.010278420752669744,0.5730562227121875
17.400000000000002,-9.110609130221839,-4.504116998345425,-8.664339160639873,-0.08981444668504288,0.1638103463214913,0.23535765015125568,0.044270303212852524,0.05567391144574032,0.9974667968288208,-1.6429147720336914,-1.8077385372273957,4.132752655859851,-0.048418836002685595,1.3715528685334495,0.04456081545804985,4.0,0.5002930070912378,0.49376654957871435,0.404289170136981,-0.5859662686749384,0.572834259283864,-0.010286603102916339,0.5730607552105451
17.5,-9.176938413391829,-3.9948318851332916,-9.30251689164448,-0.09439451070700602,0.17613698802076444,0.23619047850820452,0.04478718677209939,0.05619434212737486,0.9974147660087326,-1.6429047547377549,-1.8077180366416414,4.1327290534973145,-0.048460292968342616,1.371559915914164,0.044543798867758215,4.0,0.5002821422382718,0.4937737456056086,0.4042720699942793,-0.5859867559642236,0.5728293632664666,-0.010266044804225775,0.573045068679888
17.6,-8.986179188842216,-3.978271635006296,-9.8420626085442,-0.11189945180064122,0.1867139351390034,0.2372609393058467,0.04470576225264604,0.056111838805104765,0.9974230889145369,-1.6429147720336914,-1.8077570400633753,4.1327368406739655,-0.04845189355397947,1.371544205327124,0.04455693878659675,4.0,0.500268246838465,0.4937925727653062,0.40425788667817,-0.5860019106499287,0.5728245944901831,-0.01024142390921937,0.5730347789603194
17.7,-9.036506648209825,-4.059087858061915,-9.836188874330258,-0.11175597125809675,0.18814641926817935,0.23368023565978088,0.04456897110336531,0.05597354077607248,0.9974369968734587,-1.6429229045085945,-1.8077956946434302,4.132734272462841,-0.048445569653785374,1.3715384219067372,0.04453540799680402,4.0,0.500283398539196,0.49378102680947134,0.40426167967788573,-0.585992008310767,0.5728333305026028,-0.010263505378543772,0.5730357773460174
