xiamingqian9007/apple-picking-rnn/final_data/grasper_20191127_120244_noimg.csv
,/manipulator_wrench.fx,/manipulator_wrench.fy,/manipulator_wrench.fz,/manipulator_wrench.tx,/manipulator_wrench.ty,/manipulator_wrench.tz,/ground_truth.x,/ground_truth.y,/ground_truth.z,/joint_states.elbow_joint,/joint_states.shoulder_lift_joint,/joint_states.shoulder_pan_joint,/joint_states.wrist_1_joint,/joint_states.wrist_2_joint,/joint_states.wrist_3_joint,/mode./mode,/manipulator_pose.x,/manipulator_pose.y,/manipulator_pose.z,/manipulator_pose.rx,/manipulator_pose.ry,/manipulator_pose.rz,/manipulator_pose.rw
0.2,-0.30108388425709043,-0.5681734940390896,-0.28259648496928347,-0.022510263703333432,0.009500932612596163,0.018000256677338906,0.05166141748103562,0.40164182108911034,0.9143385226576269,-1.7006780335039546,-1.7623005330763932,4.16184675517179,0.0509034616056706,1.3542843452220035,-0.6180223915177321,1.0,0.4758969571427364,0.4859301470042694,0.42253260429730644,-0.7179246821070162,0.3392273526820402,-0.19900600334362545,0.5743740633481558
0.30000000000000004,-0.2257457945452816,-0.4628708890443441,-0.23362385521263238,-0.0072208379244423655,0.008851253656158976,0.09855569163876426,0.05177818697161156,0.4026596413184642,0.9138836267201058,-1.6977352344262209,-1.7657223550113186,4.161180710389581,0.051202459926269484,1.3548105595928963,-0.6181569121312567,1.0,0.4761612504282493,0.4861968757754457,0.4224286906516001,-0.7179158268017766,0.33924868218507653,-0.19900929253645577,0.5743713944368662
0.4,-0.4323548872562704,-0.5576795602335524,-0.22265736180152468,-0.0035857298039768167,0.01842088584402478,0.1662375209529135,0.05181087219568874,0.40326740626354335,0.913614219142761,-1.694050965217191,-1.7694152049468235,4.1604736573505665,0.05148141229102029,1.3554210824151998,-0.6183374563800257,1.0,0.4767464678471943,0.48680450955163596,0.4222297060131681,-0.7179010604086236,0.33923584271830015,-0.19901685642217937,0.5743948131200457
0.5,-0.45320435550023674,-0.6266481646882885,-0.160368819039919,-0.010145942013741444,0.021582363725928182,0.22716156010786276,0.051683776321640194,0.40258707251810605,0.9139213351235353,-1.6908166105065066,-1.7731802656736348,4.159735940256865,0.05178772459832842,1.3563001866690056,-0.6185192064887569,1.0,0.47790177129613015,0.487891824448523,0.421725251854415,-0.7179078035534755,0.33930393496195943,-0.19904175495905738,0.5743375358612506
0.6000000000000001,-0.30049529747133663,-0.36262061873391555,-0.10161302989128504,-0.00498828669666381,0.01976526185088088,0.2543731538002242,0.05167505889991003,0.4020120179438028,0.9141750406199391,-1.6874619647189304,-1.7765076715504227,4.1592154688448515,0.052015944118164015,1.3569291568446804,-0.618683859931557,1.0,0.4791815180158704,0.4892467199618263,0.4211440430129674,-0.7179709656577542,0.3392683771363864,-0.1989868092722416,0.5742986248315131
0.7000000000000001,-0.3566134019593763,-0.16122799185097536,-0.01990068677505521,-0.005145700656662067,0.01977821416590828,0.24905098431573844,0.05172486192518764,0.4022221389744582,0.9140797970774495,-1.6843771154399045,-1.7800207373650496,4.15868963580352,0.05224179496364943,1.3573591355279704,-0.6188569350781621,1.0,0.4800345816644942,0.49014349090162224,0.4208190905370436,-0.7179786149820755,0.33925093534949424,-0.19897490356867625,0.5743034903626741
0.8,-0.1401465529453509,-0.5124437301996446,-0.08580511059482426,0.0026723773448228214,0.02061464202752186,0.24245630383516473,0.05174868947715682,0.40248965394508246,0.9139606654214026,-1.681362947755822,-1.7830604256959568,4.158126378677289,0.05242309627209749,1.3579168442000948,-0.6190253349087225,1.0,0.4809709625186954,0.4911302764706568,0.42043905170061857,-0.7179778112097501,0.33926173013896044,-0.19898633033161917,0.5742941593075199
0.9,-0.2808537955853395,-0.41294864070431114,0.1419363736023626,-0.013150656398222499,0.017011289689408494,0.23939728701872925,0.051772376244291415,0.4027784197156555,0.9138321094762051,-1.6783773992790392,-1.7861374304056767,4.157455921173096,0.05261279927856348,1.3583804837164393,-0.619164228993424,1.0,0.4815512098309041,0.49173517832743935,0.42027948960379585,-0.7179473593037453,0.33925009900967074,-0.19899759826411306,0.5743351943558935
1.0,-0.4519771425772986,-0.5739033438843228,-0.21646992794355358,-0.004504289959421769,0.01895128493934201,0.23142851507410325,0.05181029245205333,0.4030846695374318,0.9136949226381984,-1.6753722080187137,-1.7891273392620672,4.156950781054439,0.052779104656351265,1.3589659083852954,-0.6192877600528154,1.0,0.4825634217462546,0.49277124293516317,0.4198704246223465,-0.7179601777795842,0.3392461032992875,-0.19899083885231103,0.5743238725421489
1.1,-0.22007459433400084,-0.43255247575573674,-0.10168746012375177,-0.009615825561704816,0.017148774985682305,0.23100635256372504,0.051804718128641805,0.40329505289075057,0.9136024104703919,-1.672666884830702,-1.7920786049920436,4.156328838377743,0.05291840730239039,1.3595357815730373,-0.6194614490126333,1.0,0.4836371199533323,0.4937761707564748,0.4195676617956567,-0.7178970547559951,0.3392561637563065,-0.19901954241254882,0.5743868869184965
1.2000000000000002,0.10770517199495218,-0.4647196950233592,-0.16745534101003834,-0.005710650032086077,0.010523441792103107,0.23176193155631628,0.051774974891583586,0.40296461337941647,0.9137498118993497,-1.669905978789624,-1.7949867498852319,4.155817394453204,0.05308251459675875,1.360100234136572,-0.6196330581199185,1.0,0.4842403652125272,0.49437275193562763,0.4192899616293297,-0.7179195542841937,0.3392685297946636,-0.1990168202350201,0.5743524036085284
1.3,-0.2180192006579695,-0.4592512546536233,-0.07036632324925,-0.004502210219478798,0.016815246093389424,0.22998769652674472,0.05173004085785826,0.40247998380026545,0.9139659498042149,-1.6672924407768563,-1.797697241522038,4.155313884496183,0.05326623573546746,1.360503096161715,-0.6197288590114974,1.0,0.4850562455823691,0.49518111089781075,0.41897394253859543,-0.7179280318868416,0.3392589972427899,-0.19900046033170168,0.5743531062061681
1.4000000000000001,-0.14591388711505043,-0.7767158636803445,-0.20863387082084747,-0.015305297409371867,0.015435166672951191,0.2336872664171999,0.051654276188053246,0.4019687355902158,0.914195207165962,-1.6646540920315913,-1.8003613995116352,4.154857158660889,0.053348368348663175,1.3609431061417074,-0.6198899838732221,1.0,0.48609620308009027,0.49622389837244685,0.41857989581960847,-0.7179117796876311,0.33927043056513884,-0.19901668863177263,0.5743610442708728
1.5,-0.0728254192743141,-0.6838457441183862,-0.15366307304911683,-0.0007815912808527212,0.01770521556448687,0.2268407826430065,0.05159362043257629,0.4016344282368353,0.9143455533600608,-1.6622077755385094,-1.8029681521593794,4.154427405480489,0.053499051083442106,1.3613075349602375,-0.6199953618177914,1.0,0.48668899185799847,0.4968199555639019,0.4183530532660691,-0.7178999036141678,0.3392844406806737,-0.19902222636477573,0.5743656937140127
1.6,-0.10792775808409205,-0.4050414647650553,-0.021013522146144464,-0.006896477721384327,0.015056884632429936,0.22750148210306992,0.05153753087735197,0.4013535957637066,0.9144720511037794,-1.659909931334364,-1.8054803501009307,4.154016948116554,0.05355799422032102,1.3617143837318806,-0.6201020232345603,1.0,0.48750270310792726,0.49765515180255665,0.4180368265298521,-0.7178998181609867,0.339278089606705,-0.1990369941843619,0.5743644347827442
1.7000000000000002,-0.14929283793463038,-0.6931520587383886,-0.21603398895096398,-0.006898253605923792,0.014388654926175979,0.2258478614589395,0.051600378059526816,0.4023851818140809,0.9140148195275265,-1.6574237690097333,-1.8078349370365971,4.153595775950832,0.05367136967612311,1.3621064716687974,-0.6202608180311664,1.0,0.4879872867162909,0.49813298943451767,0.4177624898485145,-0.7179383602666595,0.3393029974218726,-0.1990500542853556,0.5742970160876255
1.8,0.001968643210060683,-0.41495469500698845,-0.013356591161496928,-0.004393550411307934,0.013191482456079217,0.2241129046458355,0.05162688181374851,0.4025970104375669,0.9139202841321797,-1.655259170640996,-1.8103909300327756,4.153258721260335,0.053743210892079354,1.3625066697068224,-0.6203377882586878,1.0,0.4886759002249922,0.4988493880759792,0.41758736920337214,-0.7178898504460461,0.3392905211597363,-0.19906661865826336,0.5743592832136286
1.9000000000000001,-0.32680854968921674,-0.11422881261481688,-0.03622136076161474,0.003334833703304045,0.017961417622792592,0.22351650820748348,0.051682387898838895,0.4026539897831015,0.9138919041521985,-1.6529291911368522,-1.8122912098905453,4.152895657423767,0.05379788457836909,1.3629392428641471,-0.6204246300681914,1.0,0.4894841895706449,0.499755899892261,0.4171001248106752,-0.7179856073648064,0.3392770376216704,-0.19901391729739518,0.5742658096052728
2.0,-0.25247169172311046,-0.05206468059777239,0.09028645517711073,-0.0031449882604825757,0.018494056710622733,0.21996581932207568,0.05190382478406804,0.40350014143972124,0.9135060612248287,-1.6507695818338803,-1.814813189700827,4.1525034160789,0.05383412420239253,1.3633683869828355,-0.6205350746250681,1.0,0.4899581259241802,0.5002858547334306,0.41702284867808453,-0.7179408119236219,0.3392382197069186,-0.1989775351858318,0.5743573463932556
2.1,-0.10434693675461029,-0.36085373819090777,-0.07702312957331643,-0.006125181281854378,0.01397564986274341,0.22419168196641265,0.05189646476587047,0.40333082884473065,0.9135813013255852,-1.6485772593797574,-1.816769396724679,4.152124881744385,0.053908764986105306,1.363671348887814,-0.6206071736221119,1.0,0.4907403869123035,0.5011126466727621,0.4166890314103916,-0.7179590270279069,0.3392286266575387,-0.19895907831812137,0.5743466370755428
2.2,-0.12236405198009191,-0.6771280872383161,-0.051026194363199134,-0.007133739823362908,0.014564924530582193,0.22392149086637422,0.05181137198169232,0.40287392699962277,0.9137878147105785,-1.6467194396533418,-1.8186548740152466,4.15179482678448,0.053923153101545954,1.3639712471896328,-0.6207087675677698,1.0,0.49128963246430346,0.501627017329812,0.4165168395923136,-0.717936266786984,0.3392430739942363,-0.19898106120315373,0.5743589390454167
2.3000000000000003,-0.07328853571780901,-0.6783822306317505,0.00942129178907896,-0.015036378657239197,0.014437000261165159,0.22056286574325362,0.051747602899822824,0.40271141271982985,0.9138630592603029,-1.6447332490300126,-1.820873102861976,4.151399315514665,0.05396855040420621,1.3643069686040945,-0.6208060066801772,1.0,0.4918723531611984,0.5021590018255735,0.4163759664235724,-0.7178913139167629,0.33925899743348664,-0.1990129667594201,0.5743946666926003
2.4000000000000004,-0.11051522139299313,-0.71184458088611,-0.05636344237089663,-0.00918157555050578,0.01656867643857611,0.22306047316240638,0.051748794558900434,0.4030310904881393,0.9137220233287435,-1.6427649375409057,-1.8226312456796097,4.1511153009651744,0.05404268220145924,1.3646035601527005,-0.6208885351764124,1.0,0.4923294000319932,0.5026135699668894,0.4161814998553337,-0.717899304295031,0.33926835973579095,-0.19903378395351645,0.5743719368319119
2.5,-0.1361161486002104,-0.2356088159453814,-0.10957968925719425,0.0022057112482975843,0.010992176362442811,0.22050240600873902,0.051733654300590404,0.40292671614709796,0.9137688988126146,-1.6411132004263531,-1.824506940113925,4.150778874466699,0.05405284724373781,1.3648810417958712,-0.6210045518201257,1.0,0.4928942228429978,0.503215738167589,0.41596844882332973,-0.7178936084621054,0.33926248229494155,-0.1990349102815317,0.5743821371922652
2.6,-0.2365369515690064,-0.1859572778559422,-0.165895359813738,0.0015272840811803483,0.013006496244950413,0.21811824461466517,0.051698115945747775,0.40254828464165815,0.9139377017437108,-1.6391311645507813,-1.8264768489353047,4.150481972327599,0.05406449156947674,1.3651686815115123,-0.621068302785055,1.0,0.49343795777562094,0.5037601578209987,0.4157332898090648,-0.7179019939219231,0.3392705690529365,-0.19902882145039313,0.5743689897004287
2.7,-0.26284333985224395,0.022555702349909,-0.23360096060580784,0.01118688139752347,0.01643832575554003,0.21971886335955226,0.05165168294595808,0.4021077697275196,0.9141342122991721,-1.6373056499519445,-1.828135321808406,4.150158405303955,0.05410541067897104,1.3654771189799644,-0.6211677743222657,1.0,0.49407359024730024,0.5044264794979649,0.4154296242676347,-0.7179377425234346,0.3392648006998435,-0.19902195420726856,0.574330092028939
2.8000000000000003,-0.10955885788008919,-0.517545309015649,-0.14706689701936806,-0.008536019345471818,0.012694934011733314,0.22284426778813599,0.05163577499455598,0.4020038594347783,0.9141808581083296,-1.6358671953685604,-1.82980109632497,4.149866155247703,0.054088177360091305,1.3657614301364625,-0.6212443184774998,1.0,0.4944580999540351,0.5047978214129206,0.41537398110032686,-0.7178948014432289,0.3392585382597421,-0.19903265701209472,0.57438375649156
2.9000000000000004,-0.08238595514359577,-0.49730801169710326,0.021065567723621198,-0.008097026360956721,0.014742468092448726,0.22157772211337526,0.05163356328354017,0.4020509797891061,0.9141602613184009,-1.6340797452837508,-1.831487318078512,4.149543171018084,0.05412902960200025,1.3660574327005404,-0.6213043739438474,1.0,0.49499041788212333,0.5053226406763304,0.4150935942897728,-0.7179194745977799,0.3392751483994228,-0.19902148877560938,0.5743469758580935
3.0,-0.23739534854130895,-0.605335014994028,-0.19331835861368962,-0.007022697947728231,0.020218656839234118,0.21840148383019256,0.05163954803693098,0.40205662406291603,0.9141574415550808,-1.632354403482587,-1.833009714782548,4.149314709742484,0.05412117140946326,1.3662975687585186,-0.62140002834289,1.0,0.49537142995732536,0.5056896561591366,0.4149396086743595,-0.7179268767435041,0.3392888212579507,-0.19902550054263785,0.5743282559237883
3.1,-0.13925516854063255,-0.15100048763074375,0.07936500385174129,-0.0044146903240257634,0.01721611143807663,0.21761086862973034,0.0516547391681696,0.40218591128721287,0.9140996483717557,-1.6310102850424277,-1.834717228748612,4.1490831477191,0.054128750283704556,1.3665413856506348,-0.6214597268094822,1.0,0.49586969394917985,0.5062018584115943,0.414810438150086,-0.7179006690176148,0.33927364978660934,-0.19903330044303189,0.5743672738755998
3.2,-0.19325660344806528,-0.20509261263349357,-0.06694176065219258,-0.0012838278143709814,0.015514636945534406,0.21812368713505687,0.05169121398499695,0.4028360764399343,0.9138113090171525,-1.6295690125512148,-1.8361791095340734,4.1487847664591415,0.05411657543997135,1.3668128696335748,-0.6215117613421839,1.0,0.49639274890916935,0.5067400047655778,0.41451419076321816,-0.717939161829782,0.3392837474091953,-0.19902816494125125,0.5743149730028301
3.3000000000000003,-0.03877991127466327,-0.4066055349458296,-0.04408529442071262,0.002489417021408114,0.012746172243271158,0.21781327358156619,0.05170569796256665,0.4026939096694045,0.9138731455443335,-1.627903977668907,-1.8374862608279683,4.148597861975038,0.054140399195856295,1.3670300375753457,-0.6215764656578021,1.0,0.49666605306621125,0.5070425537774111,0.4143591652507418,-0.7179690293299636,0.3392801377866489,-0.1990042340406666,0.5742880600015553
3.4000000000000004,-0.13734001397049161,-0.31097507464175117,-0.17374880646719232,-0.00024288393869469923,0.015000893601821054,0.21823529013115434,0.051668030098746945,0.40196554790743677,0.914195719326267,-1.6264659566146544,-1.8390493193801174,4.148363291549728,0.054156942958496046,1.3672395450004504,-0.6216431694099253,1.0,0.49703588351017536,0.5074033724468829,0.41437226097923874,-0.717895522138931,0.33926941172484165,-0.1990272003002619,0.5743783240177076
3.5,-0.12216483262909067,-0.3163551530704963,-0.07153919009190264,-0.004102222029517615,0.020029612353676455,0.21523570310314535,0.051629713300132114,0.4016598206756139,0.9143324113740615,-1.6252120132512125,-1.8405639686397075,4.148123980861679,0.05411807943690507,1.367468776082146,-0.621716379737852,1.0,0.4976387142588651,0.5080575015275592,0.41409111772130286,-0.7179161966293965,0.33926836845648345,-0.19900554822164793,0.5743606015031489
3.6,-0.2475204210761134,-0.23839541114371218,-0.17058604172232567,0.005212199928407952,0.021154640980754848,0.22009218620736065,0.051587953344430816,0.40138311865639464,0.9144561849941406,-1.6238600702942505,-1.8415897583158796,4.147937188364605,0.05413611844978415,1.3676549764771262,-0.6217580750985058,1.0,0.49798236244187344,0.5083962408900284,0.41387501828031187,-0.7179550022322018,0.33928358665909364,-0.1990193349570043,0.5742983257043086
3.7,-0.15871731282389137,-0.3688966033778339,-0.3039571306678549,-0.005910374887643233,0.016199567450445145,0.21656027834951616,0.05156456566280373,0.40111148265207697,0.9145766620305913,-1.6225428260774937,-1.8427261373448258,4.147752817351287,0.05411427189888212,1.3678481199703596,-0.6218269272395751,1.0,0.4983128757800452,0.50874060691414,0.413831487917627,-0.7179096142769437,0.33927127846405836,-0.1990188514882241,0.5743625005955746
3.8000000000000003,0.1192630285791182,-0.5279669171849919,-0.1292096108197342,-0.004162872421520654,0.006949518365775242,0.2177375430317101,0.05170701136335179,0.4021032986041344,0.9141330486358001,-1.6212497781440256,-1.8440010600013512,4.147532680947424,0.054097338313720655,1.3680269979120452,-0.621856566797622,1.0,0.49852382890860375,0.5089520809119754,0.4138480467353606,-0.7178673997813507,0.3392536015815852,-0.19901932363218525,0.5744255382258641
3.9000000000000004,-0.0337003617421533,-0.45299843033439197,-0.0584197959842615,-0.0054901389546027565,0.015075840755664689,0.217707281555679,0.05162250990253435,0.4014292428998373,0.914433944294341,-1.6201081375398825,-1.845483891097479,4.147340755520304,0.05405015045088755,1.3681905364701947,-0.6219122755933572,1.0,0.49885577150766974,0.5092696870822027,0.4137521505081699,-0.7178626339482339,0.3392604536919301,-0.1990239128066234,0.5744258572459909
4.0,-0.18903327926861957,-0.26213714376823777,-0.1322246565662752,-0.006303713646165582,0.015870590598275863,0.21896105929133894,0.051690134375422206,0.40241844964410106,0.9139946733791089,-1.618868165955893,-1.846580715168912,4.147128873811117,0.05406760894392925,1.3683879155541863,-0.621992965418207,1.0,0.4993822820847577,0.5098753340442088,0.4133020170360747,-0.7179731996059533,0.3392699422342965,-0.19900394212230169,0.5742889707836211
4.1000000000000005,-0.09374087424854273,-0.4049349366799323,-0.24362641579416813,-0.010386466205791776,0.019312374095997613,0.21829918013062843,0.05170330626672727,0.4027792570058706,0.913835567113436,-1.6176005872188135,-1.8475761630522278,4.146952457418981,0.05406173445382901,1.3685544999819177,-0.6220493158026899,1.0,0.4996916655647476,0.5101505862864526,0.41322148049697,-0.717951468305193,0.33929186552139157,-0.19901892631787926,0.5742979941778572
4.2,-0.0476025389994723,-0.47569411749829205,-0.1341209018595353,-0.0063755644426165894,0.018125880442241477,0.21921489811966618,0.051655423334476716,0.4023274021798694,0.9140373844220623,-1.6164064407348633,-1.8487247825057231,4.146765682538842,0.05394592229392312,1.3687410319465163,-0.6221116365468414,1.0,0.5000421438030154,0.5104571395969401,0.4132644631701247,-0.7178576336894227,0.339294843912892,-0.19903437575182864,0.5744081683933724
4.3,-0.081689165799267,-0.47146570724240844,-0.0016794867198532135,-0.01043353058945527,0.015647484651162558,0.21998150864347124,0.05163909124534987,0.4021305369188773,0.9141249387519924,-1.6152732872690991,-1.8501031817008802,4.146585941314697,0.05395939140888189,1.3689464509260518,-0.6221473378623132,1.0,0.500261568345254,0.5106932110650603,0.41318411246180103,-0.7178612622982199,0.33928170561769416,-0.19903407222530922,0.574411499204329
4.4,-0.14958201694722442,-0.3352898518514894,-0.026247298302381997,-0.0024972756095358664,0.017099527866495986,0.209981405858,0.051646988927321225,0.4021327828584121,0.9141235088796846,-1.613928498229091,-1.85135649316089,4.146376958548422,0.0540418727405809,1.3691618863887316,-0.6222005104820166,1.0,0.5005923909744018,0.5110653054009485,0.4129631804187982,-0.7179321166150476,0.3392789263783883,-0.19903346837224642,0.5743247900934452
4.5,-0.05649324097646247,-0.46564253630964786,0.011928524159388817,-0.0015758245199949113,0.017896427186673936,0.2157873960023593,0.0516734045791128,0.40228720255094186,0.9140540714820544,-1.6125678960744358,-1.8525847494141916,4.146184914288164,0.05404297754883137,1.369323491994802,-0.6222541995659523,1.0,0.5010595871247626,0.5115404496060189,0.41279688963769096,-0.7179033968507289,0.33927239102286777,-0.1990270705386939,0.5743667666853615
4.6000000000000005,0.07753966988920916,-0.43901460709077395,-0.09362489787280094,-0.01134195741118504,0.013716891871338106,0.21957261565640554,0.05171513233996952,0.40263333051297157,0.9138992212069947,-1.6115230881765987,-1.8535929133135867,4.145962606922964,0.05392367100607056,1.3694980685630542,-0.6222899595843714,1.0,0.5013464819017335,0.5118568802815461,0.4127169063333418,-0.7178759996593856,0.33926305961562864,-0.19903425797101235,0.5744040299712463
4.7,-0.18174049163255082,-0.23842421566319308,-0.26100995864473275,-0.002503960323197097,0.02006870519722928,0.2154688934228463,0.05176648600087903,0.4030977521148211,0.9136916482703498,-1.6103884276533178,-1.8548070355208026,4.1457764542442925,0.053934187145216174,1.3697250441234379,-0.6223566784665038,1.0,0.5016869292379164,0.5121846365397618,0.41256491307528903,-0.7179027963862499,0.33926116220630154,-0.1990259663432991,0.5743745324092533
4.800000000000001,0.15571432782619038,-0.5797089935315506,-0.1112397013840559,-0.009041723228792596,0.015329245174956338,0.21686228996627266,0.05176724916511746,0.4028837328375075,0.9137859676182909,-1.6090828955575538,-1.8561929513166606,4.145610061220372,0.053942834241478124,1.3699338240120857,-0.6223862806903284,1.0,0.5019144587574351,0.5124193184627783,0.4124432410726703,-0.7179217017165143,0.33927012361678244,-0.1990097616299386,0.5743512237311874
4.9,0.14494144964773978,-0.8071512867725716,-0.168441009411036,-0.013482343226834542,0.011225814628124898,0.22321572701162565,0.051769835794852545,0.40269717998725973,0.9138680722917841,-1.6076593399047852,-1.8573745904392218,4.1454243659973145,0.0539300769502603,1.3701153035640163,-0.6224679946569817,1.0,0.5023278694359844,0.5128688529873213,0.4122068658917838,-0.7179614299392041,0.3392605660260096,-0.19898731052650903,0.5743149864915523
5.0,-0.10086568019784224,-0.5978843510738793,0.002148424091873574,-0.013700401395726845,0.019141757857331326,0.21897111136000424,0.051816374214678454,0.40318577463545013,0.9136499758908228,-1.6065091651303662,-1.8584918523970035,4.145214850981814,0.05389352356970208,1.3702704366898093,-0.6225487194736661,1.0,0.5027358239818216,0.5132838403021879,0.4121700783575737,-0.7178920722689566,0.3392546395314783,-0.19901153847642722,0.5743967876677198
5.1000000000000005,-0.12065593746623027,-0.5337809958967976,-0.08409396816297346,-0.005375108608856352,0.018335817734896682,0.22202217546541683,0.05174977402663608,0.4025506691505769,0.9139336278271584,-1.6054003515300734,-1.8596823238323028,4.145017333152698,0.053855666536601794,1.3705038093910586,-0.6226044129741447,1.0,0.5030262825183458,0.5135653578493069,0.4120754084095052,-0.7178814426132942,0.3392596925625331,-0.1990119775410355,0.574406936021004
5.2,0.08043249369751214,-0.3462188114955823,-0.10363862764954532,-0.006569719041307879,0.01434115891003978,0.219464505909267,0.05168012239111371,0.40187924260814256,0.9142329744411816,-1.6042062777019264,-1.8609043548831787,4.144858072472616,0.05382916449316292,1.3706650716559745,-0.6226185009659736,1.0,0.5033731650119845,0.5139483409787239,0.41183678338965757,-0.7179462844416469,0.3392529326412187,-0.1989961128596307,0.5743353788663239
5.300000000000001,0.29286414380894,-0.49741661877179655,0.03078136356961855,-0.009548927309375899,0.01340005706733255,0.2195946591145631,0.0516078537024431,0.4011761173478773,0.9145459807508315,-1.6027209332209722,-1.8620533392732046,4.1446543650695915,0.053761644954345655,1.3708107912447414,-0.6226874624952677,1.0,0.5036399258859386,0.5142252807289837,0.4117008268338994,-0.7179606947583967,0.33925632987860105,-0.19899321723528218,0.5743163613494688
5.4,0.004998504965587056,-0.4858073952062407,0.10768629365675747,-0.0036526743823469777,0.02163958704737372,0.21692789928330453,0.05166361276006153,0.401756972518679,0.9142877006103387,-1.6014983463868238,-1.863305349611422,4.14446496963501,0.05371584810816112,1.3709974983722866,-0.6227120994258682,1.0,0.5039791755801686,0.5145480386077865,0.41167892251289057,-0.7179053257371918,0.33925398356963066,-0.19901769488876403,0.5743784771659508
5.5,-0.09192379261844853,-0.3330065373745942,0.08212175838592362,-0.0036770476745120947,0.02414028879711547,0.2141654388610281,0.05167908077747848,0.4019700886770556,0.9141932485695868,-1.6003457821013027,-1.864539191959245,4.144272327423096,0.05369011938061519,1.3711874953716452,-0.6227841629043888,1.0,0.5043084318995609,0.5148806437339226,0.4116404767553582,-0.7178657480614457,0.33923664080065213,-0.19902642362542428,0.5744351590887731
5.6000000000000005,-0.0636988422255163,-0.1867518944609137,0.1207630761791911,-0.008041715680311898,0.015851997209991066,0.2130386191765713,0.05165322087596064,0.4018060021616202,0.9142668406992377,-1.5992498397827148,-1.865849015999569,4.144070538117583,0.05362821773764149,1.3713653860915795,-0.6228218615767372,1.0,0.5047507866588001,0.5153719244176228,0.4113361667927727,-0.7179321890165419,0.3392488801451988,-0.19900389997422302,0.5743526939861903
5.7,-0.1342848987931197,-0.5119763331584496,-0.024198776150281737,-0.008139000375637629,0.02223468274292688,0.21239452925045366,0.051606300157375946,0.40145404318011585,0.9144240521629875,-1.5977918685794943,-1.8669290890774413,4.1438445060789055,0.05361793380334075,1.371546556088355,-0.6228606292039061,1.0,0.5050039319208875,0.5156020493032635,0.41116403971492926,-0.717964987593763,0.33926019477396,-0.1990101783266589,0.5743028345340235
5.800000000000001,-0.1536247062406186,-0.3467831771099636,-0.05198689672082102,-0.004077643017639586,0.019819810575636046,0.2161634316928545,0.051609028415409826,0.40153867670765275,0.9143864909858901,-1.5965171307392,-1.868053533795046,4.1436693401692075,0.05358187734570308,1.3717261195923232,-0.6229375044452112,1.0,0.5054556342904372,0.5160335040773444,0.41109120755554246,-0.7179193399802881,0.3392622985736172,-0.19902476465230057,0.5743535993653293
5.9,-0.10842628816487698,-0.2515436372231262,-0.1295686601041724,0.005526317978679788,0.017624648465408753,0.21780542961539034,0.05169092019590918,0.4023225620121732,0.9140372065402752,-1.5952999970118584,-1.8692521539260598,4.1434454917907715,0.053526363645891605,1.3718896816173003,-0.6229860514350887,1.0,0.5057371501257033,0.5163060425549756,0.4110484661146074,-0.7178861484656208,0.33926235864949694,-0.1990360187080138,0.5743911499158392
6.0,0.12680550074915925,-0.36295638465210456,-0.15286503595021753,-0.00782611657240909,0.018014220725855058,0.21570768668567394,0.051732601407347825,0.40287539638634634,0.9137915977245336,-1.5941216093572044,-1.8707248231278246,4.143277645111084,0.05348253433366008,1.3720738112432442,-0.623033192713165,1.0,0.5061113561716916,0.5166888379094955,0.4108821060182759,-0.7178975687979194,0.33927065147692737,-0.1990349020187407,0.5743723648808741
6.1000000000000005,-0.10036326242165784,-0.5013107339690229,0.07127471841250776,-0.010140684240804715,0.02208560654265337,0.21590105807865603,0.051727522920961055,0.40315954837333395,0.9136665502745717,-1.592814506348896,-1.8718819226485524,4.143105706411553,0.05346697831466556,1.372241835215664,-0.6230810909426099,1.0,0.5063714387393481,0.5169696881627812,0.4106629915921088,-0.7179495036712739,0.3392856975764236,-0.1990313692227254,0.5742997820507842
6.2,0.0980941797879962,-0.4130177732037035,0.06320982293841704,-0.008130207369085138,0.016679953946837023,0.2175012109450493,0.05171745405889131,0.4030514445931288,0.9137147509884969,-1.5915145740623569,-1.8729217809380914,4.142934160862488,0.05335879830300899,1.3724053144370738,-0.6231337798497206,1.0,0.5067107080748067,0.5173464611005056,0.4104326603227659,-0.7179907274765575,0.3392858710665668,-0.19901692341079294,0.5742531472690309
6.300000000000001,-0.06591071067826489,-0.5132544819637248,-0.06807455832207357,-0.004092466055170194,0.021325907199789294,0.212849241771456,0.05170140696484434,0.4024734371183611,0.9139704947370837,-1.5902387148068275,-1.8739854298033656,4.1427552762182,0.053314603904602915,1.3725857734680176,-0.6231851052465719,1.0,0.5070948731939284,0.5177359256208444,0.41049681454854253,-0.7179047387334991,0.3392535319445835,-0.19902786961829594,0.5743759520403987
6.4,-0.004570944155354029,-0.5016228003658553,-0.02708191149911124,-0.007651166293546459,0.016185196275904732,0.21916661907890644,0.051686531557297674,0.40221904255923857,0.9140833332123853,-1.5890127204214592,-1.875307791279331,4.1425672023669255,0.05328700235745808,1.3727903366088867,-0.6232514584717234,1.0,0.5073976503749719,0.5180361258935723,0.41042715330410123,-0.7178886318567598,0.3392490916591311,-0.19903114735550315,0.5743975700171755
6.5,-0.06490816482028064,-0.35687664017303633,-0.11141541324108586,-0.0020872107710831252,0.018876027469851602,0.21636962446954938,0.05166625717149756,0.40207887081512983,0.9141461469436868,-1.5876866236203557,-1.8767101315505024,4.1423871101168235,0.053247137660644484,1.3730010426862145,-0.6232676183507863,1.0,0.5077702783834852,0.5184127358403862,0.41024021723788456,-0.7179020384009269,0.33925664646504544,-0.19902536645341462,0.5743783549170091
6.6000000000000005,-0.1466675046348513,-0.5245916587043236,-0.07252635234732746,-0.0032647856502410416,0.02065788895623026,0.21491573831612587,0.05167342380723685,0.4022711966900992,0.9140611232379083,-1.5864743823590486,-1.877782502234681,4.142155097878498,0.053206570221109084,1.373181036244268,-0.6233480430978801,1.0,0.5080623610429577,0.5187153676038083,0.41005430044990304,-0.7179277145700285,0.33927495179104317,-0.19901843267222585,0.5743378510912649
6.7,-0.13710932016728095,-0.45689529037314214,-0.18704885884923278,-0.010037817706541137,0.019529583264503735,0.2108654449025739,0.051768476185069294,0.4030735986306383,0.9137021508992254,-1.585246793097534,-1.878804115984396,4.141986883083887,0.0531459248344115,1.3733763694763184,-0.623392407094137,1.0,0.5084339340965808,0.519106357117454,0.4099126210445531,-0.7179279545092939,0.33927039500171047,-0.1990128690870773,0.5743421707895171
6.800000000000001,-0.19230087799799497,-0.20855328590071687,0.031768951935554665,0.002912417987047708,0.02249984573213495,0.21334413556450396,0.05165438682501696,0.4017201626657483,0.9143043532700357,-1.5840463638305664,-1.8799360352352443,4.141771925940826,0.053071451129152354,1.373552388675369,-0.6234608052650334,1.0,0.5087627935422947,0.5194177464127407,0.4098847480208386,-0.7178828555731517,0.33925626238639933,-0.19902029945972644,0.574404312752532
6.9,-0.04596275272856487,-0.36088775113693494,0.16545396597734396,1.845400018050036e-05,0.013856631876952227,0.21407499847820205,0.05178918332953491,0.4029371460353805,0.9137610380103376,-1.5826205589163727,-1.8813642927663545,4.141620059542932,0.05303249912828676,1.3737359046936035,-0.6234763304339808,1.0,0.5089451288752975,0.5196075891684562,0.40984726237794566,-0.7178746016830092,0.33923974073547947,-0.19902184517183386,0.5744238502261063
7.0,-0.0759660317244888,-0.4376795771934627,-0.04815222351986462,-0.008024257980617257,0.017196863652112277,0.21376084043042823,0.05178812989257299,0.4030800349254785,0.9136982398495392,-1.5813820494545832,-1.882533815370501,4.141432285308838,0.053035296130374436,1.3739070918824938,-0.6235544085449936,1.0,0.5093998125942539,0.5200373511625338,0.4096542940804228,-0.7178762242744078,0.33926102446372497,-0.19902435892370168,0.5744083812553172
7.1000000000000005,0.05654135475603665,-0.8904049784174335,0.048355270262865256,-0.00022504134563374508,0.007302276519663827,0.21945641825300813,0.051748468319703346,0.40278198013401617,0.913831833226109,-1.581054723201148,-1.8830611534560393,4.141348361968994,0.05304709682957668,1.3739712625074205,-0.6235538598165385,1.0,0.5098336863305706,0.5205244123645231,0.4094202127921443,-0.7178979902192932,0.3392613790275234,-0.19902053496576802,0.5743822934260616
7.2,-0.0914446457174975,-0.6780496114980419,0.030699848600364343,-0.008001593487470674,0.01718733877581978,0.2118635482450671,0.05170483001520815,0.40239392169859073,0.9140053160199278,-1.5810617240954674,-1.8830885658627698,4.141373157501221,0.05304400503124995,1.3739678096803418,-0.6235448376301087,1.0,0.50998512603336,0.5206840167388669,0.4092555742912343,-0.7179260415080642,0.3392804842075229,-0.19900246253907022,0.5743422079769658
7.300000000000001,-0.02623841183697971,-0.504105404162603,0.005369383662900594,-0.00994817820779083,0.019288873712949274,0.21392844245598092,0.05170360723171179,0.4026159978693337,0.9139075893376929,-1.5810797167477393,-1.8831128183372705,4.141370311251498,0.05307058366773987,1.3739688497155456,-0.6235507022574341,1.0,0.5099679300526139,0.5206799330116891,0.40925023080571316,-0.7179384184215766,0.33927149031473547,-0.19901561633285797,0.5743274916540184
7.4,0.04432476655006866,-0.5256668645710306,-0.12215956847920625,-0.008928998384755837,0.01569304718065529,0.21814556619912573,0.051672212608445525,0.40233803063837775,0.914031724723971,-1.5810279964483287,-1.8830825291075648,4.1413705682258035,0.05307033657706116,1.3739595354062069,-0.6235410140420743,1.0,0.5099788536231786,0.5206759019868195,0.4092429176302287,-0.7179424298767595,0.33926584600298526,-0.19903141654086956,0.574320336004453
7.5,-0.08293116609416366,-0.4758508397856609,-0.260510236740988,-0.008322698471113804,0.019431467690133222,0.21305902760947412,0.051625051522533695,0.4019176905765181,0.9142192865542419,-1.581007619032778,-1.8830778504110002,4.141373157501221,0.05307742846983291,1.3739551601113595,-0.6235554815033286,1.0,0.5099795195564388,0.5206683762844508,0.4092609568377286,-0.7179335958492512,0.33926363784411534,-0.1990280751208186,0.5743338413339776
7.6000000000000005,-0.14751322369678743,-0.1865532105224284,0.03961071556409129,-0.003570912461156402,0.02311711957565663,0.20970948287818506,0.051557544560668654,0.4014099602070879,0.9144461634304129,-1.5810077383906216,-1.8830750382130002,4.141350665586877,0.05309292282651987,1.3739403872665645,-0.6235284441841914,1.0,0.5099844509500011,0.5206567001063227,0.4092600608125882,-0.7179318217054105,0.3392704991902885,-0.19903372247798942,0.5743300489078365
7.7,-0.03612541605351506,-0.5647029229702852,-0.10197915643436486,-0.005841448689462183,0.022306535437072453,0.20984005188568378,0.051658840552702624,0.40238360728375433,0.9140122898772784,-1.580998420715332,-1.8831142569920667,4.141343050928789,0.0530777503669335,1.3739340487463183,-0.6235419874323013,1.0,0.509985418331387,0.520662698097602,0.40925538006196843,-0.7179353440212555,0.33927206734263693,-0.1990293646362821,0.57432622971497
7.800000000000001,0.10456320789202368,-0.4957933660504822,-0.13446478019807795,-0.008136537899381312,0.015775003533530552,0.21418482455296717,0.051649815964133254,0.40213793537002,0.9141210541766618,-1.580998420715332,-1.8830981845479187,4.141380867081619,0.05310659647341341,1.373940025594609,-0.6235602537738245,1.0,0.5099751495458447,0.5206725139589222,0.40928370115828766,-0.7179251988168707,0.3392571784021552,-0.19903022587933913,0.574347407927279
7.9,-0.0870787038801503,-0.4150918838915991,-0.07914500672296566,-0.005585238959044878,0.02159414955446669,0.21205346171430967,0.051614833136382265,0.4018316426652072,0.9142577477106302,-1.5809849604282415,-1.8830744854772512,4.141352394359581,0.053065908239839366,1.3739523425181428,-0.6235602537738245,1.0,0.5099822669564622,0.5206754890690113,0.4092851860171724,-0.7179174303493912,0.3392769021005605,-0.1990240615150846,0.5743476036683826
8.0,-0.10166336684059737,-0.31932856481450345,-0.1608905092407198,-0.00552714983657053,0.02201456477562877,0.20967657041708887,0.05160944101644562,0.4017820259367331,0.9142798637322471,-1.5810058520862686,-1.8830747880961725,4.14136293329224,0.053060105877767695,1.3739422635662444,-0.6235520359252739,1.4662287390029325,0.5100016444507497,0.5206533178058533,0.40926937540536945,-0.7179176930984692,0.33929790286376055,-0.19902973732594512,0.5743329023383491
8.1,-0.012047629727385177,-0.5849443626525498,-0.13616714187165374,-0.009233080051310905,0.019139326352931457,0.20914149482733005,0.051611429397052315,0.40178063843918344,0.9142803612287378,-1.5809759833859889,-1.8830613882661298,4.141351171026129,0.053024214698052456,1.3739565234736415,-0.6235602537738245,2.0,0.509981867142346,0.5206664583271594,0.4092830907025655,-0.717919226423729,0.3392664697174012,-0.1990308353870746,0.5743491737800009
8.200000000000001,-0.040059804016888856,-0.3746731778782726,-0.18828605602638765,-0.005678729316349451,0.019815086528469333,0.21044127022309003,0.05156608877604503,0.401272488096332,0.914505897307192,-1.5809646125516335,-1.8830621941635848,4.141349577699157,0.053075091932875136,1.3739289774995047,-0.6235478560077112,2.0,0.5099724973596088,0.5206679272448596,0.409316889361973,-0.7179087190632221,0.33925131415063225,-0.19903412863866354,0.5743701181094996
8.3,0.06739457151214522,-0.46671404526542015,-0.20502490051849812,-0.014174576230607049,0.020392089352034688,0.2082189269745099,0.051529639328019766,0.4008367331430469,0.9146991852652115,-1.5809848545411793,-1.8831073911973768,4.141386723675374,0.05304914700003536,1.3739525218785986,-0.6235591927326466,2.0,0.5099776787558463,0.5206667307118948,0.4092861111634263,-0.7179254882649119,0.33926789436211263,-0.1990215321642032,0.5743437288677392
8.4,-0.05865531588620444,-0.6122280537860463,-0.034398718795753104,-0.015609684878125757,0.03103191850794228,0.20835509008406705,0.05155436598155567,0.40099399658315543,0.9146288606746789,-1.580976271697002,-1.8830825291075648,4.14140763657208,0.053078074978535096,1.3739389639252633,-0.6235602537738245,2.0,0.5099830794418143,0.5206865539156036,0.4092565528145794,-0.7179380477380467,0.3392716814315969,-0.19901379392220128,0.5743284736258085
8.5,-0.06300414921592899,-0.34802579093261893,-0.13591331377617252,-0.003276818089103528,0.021732062128166994,0.207772900941503,0.05164771353883254,0.40186342342376846,0.914241475823728,-1.5809869766235352,-1.8830935729066782,4.141394361595518,0.05307976781811519,1.3739840131048184,-0.62352668062452,2.0,0.5099703588252648,0.5206878721162221,0.409288174607721,-0.7179239769383075,0.3392612396381516,-0.19900813391764843,0.5743541914627983
8.6,0.035690319352379665,-0.22037078460718568,-0.028303879871216114,-0.0007675504754894855,0.016988030020114373,0.21406208626824216,0.05172399160354645,0.40267657500366677,0.9138797533859953,-1.5809635881944135,-1.8830825291075648,4.141362129809183,0.053033935553748864,1.3739394907517866,-0.6235597723964464,2.0,0.5099871312192292,0.5206728767393508,0.40926364860770426,-0.7179265610289176,0.33927516692612536,-0.19901752087633492,0.5743394818926166
8.700000000000001,0.029792857494168566,-0.13730857226783247,-0.19512685909936803,-0.007952144005834154,0.018287831550770794,0.21739992201781153,0.051683659250117746,0.4026419334428338,0.9138972982698195,-1.5809715390617025,-1.883088604275521,4.141373157501221,0.05304692791174932,1.373941123444401,-0.6235478560077112,2.0,0.5099900224165078,0.5206758595093804,0.409236852333071,-0.7179375761295586,0.33928158343699166,-0.1990344939212394,0.574316040304655
8.8,-0.05447663531158853,-0.17988142028503226,-0.35641706872779244,-0.013402185027545099,0.024344866609211216,0.22009215267501053,0.0517296967265313,0.40295498467026153,0.9137566812568892,-1.5809857667555938,-1.8830825291075648,4.1413960456848145,0.053080165800990606,1.3739508634783553,-0.6235716978656214,2.0,0.5099778242444158,0.5206880032392793,0.4092843573852305,-0.7179239969590889,0.3392652605195525,-0.19902545066037292,0.574345790952038
8.9,-0.2795797432614855,-0.26540447182167437,-0.04416414275796743,-0.013924126958883476,0.02337656009808681,0.21192819189692716,0.05164524512401012,0.40200118964126397,0.9141812128169376,-1.5809869766235352,-1.8830944500365199,4.141360759735107,0.05305476842365554,1.3739725638171498,-0.623559073086544,2.0,0.5099771593710566,0.5206719320800853,0.40931074605730455,-0.7179006394706012,0.3392745040357129,-0.19902820541574034,0.5743685717446708
9.0,0.06495381882158326,-0.281208520802717,-0.07909154241943117,-0.013841072590351342,0.019362681892888037,0.21617465200422914,0.05157605503765112,0.4013084826334775,0.9144896406365709,-1.5809621810913086,-1.883094262239144,4.141372766882679,0.05305648935233293,1.3739617452211108,-0.6235478560077112,2.0,0.5099696065159582,0.5206875601670171,0.4092979804187621,-0.7179132723826468,0.3392654061227709,-0.1990192640295807,0.5743612539946571
9.1,0.17288313536527788,-0.3799674045593607,-0.5473593770442855,-0.029891179821283934,0.016225354111415076,0.2130514019072188,0.05157622435160976,0.4012856871939176,0.9144993540628807,-1.5809909416261179,-1.8830776086541343,4.141360759735107,0.053032084102294874,1.3739266395568848,-0.6235429355542809,2.0,0.5099721494185245,0.5206782780321199,0.4092893331185232,-0.7179248496694444,0.33926353366452267,-0.1990222231277159,0.5743468635361981
9.200000000000001,-0.005521051104076996,0.6576157587117949,-0.6934790258179241,-0.09510587085414718,0.027142282749874597,0.2236299514468503,0.0517275933595491,0.4026476227654815,0.9138918661824078,-1.5809405544497985,-1.8830822747644027,4.141395801515379,0.053067338202836024,1.3739380836486816,-0.6235247873530136,2.0,0.5099712923382038,0.5206861835413537,0.4092742911831597,-0.7179294095821209,0.33926132246889,-0.19901551969387854,0.5743447926591677
9.3,0.34636387388396356,1.318029329643427,-0.28743765243763575,-0.1631241165841224,0.029373719704247528,0.21834565023541957,0.05172537467783037,0.40248822955682123,0.9139625523051486,-1.5809396627688215,-1.8830943575712433,4.14137287640678,0.053056018425481674,1.3739503852509072,-0.6235602537738245,2.0,0.5099569972907261,0.5206931994701591,0.4092891540749656,-0.7179225352100281,0.33925663891186664,-0.19900991604838286,0.5743580936195161
9.4,-0.6583854526588101,0.1355276287387206,0.15731472319851036,-0.09692747520301803,-0.01317613632981925,0.21719164741140684,0.051699148648934955,0.40235848395434276,0.9140212420094134,-1.5809392080357543,-1.8830464610658177,4.141373157501221,0.05305621947451446,1.3739740180178233,-0.6235478560077112,2.0,0.5099660715781947,0.5206923263500582,0.4092998941652073,-0.7179110562676276,0.33926651790796786,-0.19900841399958052,0.574367126734002
9.5,-0.4693093423885858,0.6200122323597108,0.2975104059121414,-0.1510627406276499,-0.0463916436628331,0.2175166921093276,0.05169013959236618,0.40241964075027314,0.9139948140561952,-1.5809404573056685,-1.88311829189443,4.141384223950438,0.053054745827143965,1.3739615478640121,-0.6235371152118172,2.0,0.5099805165561115,0.5206758096865842,0.4092875254927159,-0.717912191494773,0.3392784237042511,-0.1990259889088303,0.5743525853087055
9.600000000000001,-0.7875480427145175,1.1983375998093668,0.7046409409617704,-0.177487234953814,-0.05664695486120166,0.21890159135895612,0.05167952553628231,0.40204053873607587,0.914162220732173,-1.5809750149342667,-1.8830829484122233,4.141408122439082,0.05307850990413953,1.3739619255065918,-0.6235478560077112,2.0,0.5099661435832765,0.5206809614096487,0.409298483917381,-0.7179253627824175,0.33925284486430674,-0.19901904129110023,0.5743536383873447
9.700000000000001,-0.812154190096293,1.0287593924668395,1.1107359697088115,-0.18279798675454906,-0.05358354055114663,0.21170034373791838,0.051559874842762345,0.40075017137764096,0.9147349707086179,-1.5809621810913086,-1.8831158036796645,4.141386326755255,0.05306784688916011,1.3739389462298004,-0.6235725604467401,2.0,0.5099584653581756,0.5206870532012635,0.40929298332392366,-0.7179309177733816,0.33925659475883124,-0.1989988330093619,0.5743514818285266
9.8,-1.9350800886027597,-0.9296231486503559,2.145091385299791,-0.0257237484250808,-0.14154143862998542,0.23687720134986667,0.05072462019970089,0.39281640507306237,0.918198536411027,-1.5809154535131276,-1.8831013910819367,4.141398117316366,0.05308227644775696,1.3739152776065475,-0.6235270419189923,2.0,0.509968460008018,0.5206716733261725,0.40929689946497655,-0.717911511721049,0.3392726337154483,-0.19901631170553458,0.5743602084278705
9.9,-0.917648425932415,-0.3458491173418069,1.2626526495573127,-0.07065577850144392,-0.07306786617587191,0.2221753824184033,0.04925892523894982,0.3786861098869183,0.9241764126853168,-1.5809715267296993,-1.8830913154188589,4.141416716720118,0.053088595374378496,1.373950481414795,-0.62357070798636,2.0,0.509987770372134,0.5206648101248412,0.40929396768371895,-0.7179087783626337,0.33927529317238947,-0.1990385941645422,0.5743543326428932
10.0,-1.2066140049495164,1.2178628939088827,1.8786829258451483,-0.1377997354961828,-0.07563151196678287,0.21944886899129723,0.048605868352469765,0.37223162918755565,0.9268660043751009,-1.5809599219550317,-1.8830932734030423,4.141385731161156,0.053076237917682526,1.3739481281478398,-0.6235478560077112,2.0,0.509990272720972,0.5206680525703447,0.4092960810312495,-0.7179101777017787,0.33927097722323574,-0.19903960002686863,0.5743547844210368
10.100000000000001,-1.007276015892554,1.4584422560159225,2.298975472138557,-0.16701111361002652,-0.06923492026570591,0.21494486683012728,0.04858294997969629,0.3715964867613775,0.927122285836398,-1.5809830986218785,-1.8830963144603932,4.141390269441593,0.053054061536331666,1.37394002264951,-0.6235545859252495,2.0,0.5099659376764567,0.5206900617767015,0.40927474215897586,-0.7179321609251879,0.3392481500304486,-0.19901991613686965,0.5743476107646671
10.200000000000001,-0.7433689428964037,1.6886884544443042,2.6435341634876686,-0.20928910885372307,-0.06450966093010733,0.2189194796431686,0.04857292826336583,0.37138207211014523,0.9272087226032374,-1.5809608196909701,-1.8831077890908277,4.141409397125244,0.05302725380010279,1.3739423947497535,-0.623549330858078,2.0,0.5099595206868519,0.520701843828761,0.4092636162543322,-0.7179391233590833,0.33925292755430375,-0.19900358946866809,0.5743417429325601
10.3,-0.5893559937724411,2.022626855406278,2.921786832493928,-0.2546108508458292,-0.05987139136559165,0.22009137740786278,0.04857615978517248,0.37140728003992196,0.9271984582691793,-1.580968613889068,-1.8831096516923322,4.141362432262524,0.05305270956132536,1.3739365397772194,-0.623565265067862,2.0,0.509977098517563,0.5206916032671725,0.40926507106216004,-0.7179323009746502,0.3392717849933096,-0.19901157901327163,0.5743363635913558
10.4,-0.6451076278584299,2.3399118658298037,2.8892751455427925,-0.299288124975565,-0.052673114321093166,0.21977329509077306,0.04868043836795797,0.37233227300489535,0.92682161799922,-1.5809745788574219,-1.8831489287328977,4.141407332941092,0.053025692238032884,1.373974323272705,-0.6235258571713654,2.0,0.5099506954021406,0.5207166329117969,0.4092768397008465,-0.7179299494738803,0.33924585776834915,-0.19899945485525275,0.574358818686334
10.5,-0.8048931131430844,2.0836641924636017,2.2349703758817436,-0.2943564216363344,-0.05493674736171504,0.22274218791697661,0.048626296298397556,0.37187092393729526,0.9270094972041268,-1.5809834615480853,-1.8830825291075648,4.141384601593018,0.05305592596020503,1.373930019437125,-0.6235584962360996,2.0,0.5099638479277644,0.5207053445828224,0.4092428860715632,-0.7179434803052148,0.3392632923090272,-0.1990043816069883,0.5743298996918889
10.600000000000001,-0.965565324600458,2.0676652051868745,1.0147324397668904,-0.3028884534809733,-0.07058524508274643,0.2384514639526474,0.048315209446699064,0.3689678829154215,0.9281807533569858,-1.5809765855002509,-1.8830602170553254,4.141366470949313,0.05312359260541831,1.3739400902915107,-0.6235478560077112,2.0,0.5099714523924439,0.5206925920846406,0.40925615627089623,-0.7179290308935409,0.3392595101288298,-0.1990178116409959,0.5743455423671682
10.700000000000001,-1.100978016158436,2.689449589658188,0.7382890847202068,-0.37431402701385247,-0.08062035932434362,0.2453145112972871,0.04792724043003463,0.36526668481750785,0.9296676537838049,-1.580998420715332,-1.8830735642851928,4.141404781573132,0.05307976781811519,1.3739597952517708,-0.6235695676108003,2.0,0.5099727052334537,0.5206820312233322,0.40927045342957863,-0.7179208747582095,0.3392566896514121,-0.1990253393363578,0.5743547948918165
10.8,-0.8093757993053183,2.8841713997941874,0.9286640094485008,-0.39356637848605014,-0.08599609357298539,0.24352272419657947,0.047609240703465124,0.3620215374557523,0.9309500717269158,-1.5809485820253575,-1.8830389478746639,4.141430130334684,0.05306560212441619,1.3739642600619255,-0.6235308382346226,2.0,0.5099620676133473,0.520677265495633,0.4092822040674544,-0.7179303963497907,0.3392554020622097,-0.1990176860225301,0.5743463056544184
10.9,-0.534426523139446,2.7346855306095583,0.9722971363806054,-0.39441770577135665,-0.0865239803539572,0.244626663605466,0.047489925091576644,0.3608587662938416,0.9314105429553687,-1.5810080864127114,-1.8830916712952424,4.141417136228671,0.05307976781811519,1.3739706182843352,-0.6235148719621234,2.0,0.5099593767133015,0.5206645206302425,0.40931797664415753,-0.7179148238350317,0.33925803719617076,-0.19902097455357848,0.5743630747214352
11.0,-0.7013979118039448,2.5496923437862344,0.9779003144888548,-0.3964229523815552,-0.07874764808958255,0.2475248711564039,0.04748115215155785,0.360837843396383,0.9314190436116548,-1.5809869766235352,-1.8830394425041281,4.141386989333978,0.053032084102294874,1.3739267774308161,-0.623552692594115,2.0,0.5099534347783521,0.520670138855588,0.4093249213406422,-0.7179045239197646,0.3392565476990682,-0.1990249189585953,0.5743754617080807
11.100000000000001,-0.742714588622363,2.6536893081790867,0.7350529842769704,-0.39214321660488194,-0.0838520032181611,0.24710881903368517,0.04743658572926368,0.36042768389376173,0.9315801166980593,-1.580979801088799,-1.883057210783454,4.1413871082640785,0.05307863316862729,1.3739380836486816,-0.6235412617547609,2.0,0.5099590724050306,0.5206800236200912,0.4093067865511747,-0.7179148282776193,0.3392589429209514,-0.19901508994447034,0.5743645732125799
11.200000000000001,-0.7039900572562474,2.7972403402338077,0.9424599991819959,-0.39410135045398537,-0.08031651916066307,0.24344255161624054,0.04742807984041981,0.36025868038774467,0.9316459941490662,-1.5809567758064325,-1.883055871997115,4.141384601593018,0.05306155646528431,1.3739380836486816,-0.6235325725175216,2.0,0.509974989054317,0.5206633786528231,0.4093151829080318,-0.7179055835769881,0.3392702446437152,-0.19902624332574426,0.5743655879629448
11.3,-0.6514186664656132,2.761768685544427,0.8766135381921644,-0.3983568934839428,-0.0831531818812838,0.24507595898587572,0.04745110830853513,0.36030056392504467,0.9316286245468446,-1.5809679108214894,-1.8830650988226667,4.1413636246001975,0.05305868063817652,1.3739292840477375,-0.6235518795527911,2.0,0.5099667398480477,0.5206774302391599,0.40930938633670216,-0.7179025915609925,0.33926674990708106,-0.19902047313391313,0.574373391367541
11.4,-0.7000768413749179,2.908052222494159,0.9260498068594057,-0.4083667142805667,-0.08036323856634714,0.24072115478587836,0.047417239535417564,0.3600429702916092,0.931729839842523,-1.5809869766235352,-1.8830676833368307,4.141376036249117,0.053044078885196196,1.3739590467586955,-0.6235389337744814,2.0,0.5099641290832856,0.5206779814402459,0.40930882977564004,-0.7179020023936387,0.3392674960458864,-0.1990201343164129,0.5743738044363059
11.5,-0.8216377593392423,2.7223860224062144,0.9929967093936154,-0.41015007218484517,-0.07871457218656122,0.24504035115151093,0.047332653880451304,0.35951157241111004,0.9319393965620804,-1.5809809180949346,-1.8830674385598534,4.1413815587590115,0.05304400503124995,1.373942907794054,-0.623542401101019,2.0,0.509972436843664,0.5206783307577548,0.40928712433066217,-0.7179123941672856,0.33926980119809164,-0.19902674310483492,0.5743571639886499
11.600000000000001,-0.7019778636744591,2.777111654218148,0.7848173802534874,-0.4129103537629702,-0.08014543669776916,0.24066156695591676,0.0472881821443167,0.3587266157558038,0.9322440895171481,-1.5809806540766969,-1.8830794914979274,4.141369998387198,0.0530767302084777,1.3739621728341551,-0.6235809365177117,2.0,0.5099471850775028,0.5206798055826036,0.4093260901098575,-0.7178988560782837,0.3392536892245438,-0.19902042196606595,0.574385792329056
11.700000000000001,-0.9779052852564482,2.7735606500265093,0.8305218472324285,-0.4145757075158108,-0.07171983886893249,0.24194914434103076,0.047240707635479974,0.358311207601853,0.9324062380562673,-1.5809808731079102,-1.883102355494669,4.141405221035606,0.05304011504390673,1.373959998080605,-0.6235518714785172,2.0,0.5099629641511413,0.520681026834831,0.4093141412069752,-0.7179131629741533,0.33925760269831473,-0.1990172921228543,0.5743666832920634
11.8,-0.4006496833951435,2.5786981540118616,0.930738273792068,-0.41736662379211314,-0.08589869816045013,0.24615801630287745,0.04726663296016918,0.35853508262154876,0.9323188289584401,-1.580989137782018,-1.8830647944426244,4.141414489736352,0.05304095143476505,1.3739380836486816,-0.623527067746286,2.0,0.5099679041167767,0.5206865213667125,0.40930066973667606,-0.7179178707489793,0.3392635391976103,-0.1990141069156604,0.5743583960202252
11.9,-0.5919836787203876,2.918698352912213,0.8241524299473915,-0.4068241500794312,-0.08035121878239569,0.24243615035549987,0.047293028206160784,0.3587630504677148,0.9322298221396897,-1.5810036480644187,-1.883065163023311,4.141370343880119,0.0530537186917347,1.3739709558704036,-0.6235478560077112,2.0,0.5099631800011456,0.5206843821569305,0.4093095233878317,-0.7179075532839589,0.33926858380210534,-0.19901104371179063,0.5743693737165112
12.0,-0.5942674927680912,2.8838329695379636,0.794159801026151,-0.41000365430716246,-0.08275788498390396,0.24603790855762087,0.04725440560520493,0.35830550067068556,0.9324076675428562,-1.5809758958815339,-1.8830774655737224,4.141358785209565,0.05304400503124995,1.3739416494941403,-0.6235635453234786,2.473935285141958,0.5099587289040497,0.5206838267259135,0.409315684705873,-0.7179061144287398,0.33925969945975615,-0.1990074041823879,0.5743776808589387
12.100000000000001,-0.9064714576799667,2.744706835373766,0.8206540533031033,-0.4083313000538768,-0.07425579935159177,0.24362073789837882,0.04724274159354286,0.35829322097861777,0.932412975048777,-1.581003671340478,-1.8830211564173447,4.141377636433615,0.05306784688916011,1.3739380836486816,-0.6235531493112337,3.0,0.5099614889768217,0.5206822745345162,0.4093171656610144,-0.7179077772900946,0.3392561481218651,-0.19901432610819328,0.5743753017597578
12.200000000000001,-0.6320080752193049,2.868053570255111,2.2783532281477994,-0.41112974229650956,-0.07494003443945567,0.23469781955176225,0.047261801509939104,0.358781888170633,0.9322241499627839,-1.5817441975065678,-1.88225982985608,4.141414564757192,0.053076348905409375,1.3737824385807307,-0.6235442409406287,3.0,0.5099489887474763,0.520641508017051,0.4093166158366709,-0.7179068696775541,0.33926826562813317,-0.199027328357943,0.5743647734446754
12.3,-0.5659457441948412,2.8710679197825293,2.161992080110268,-0.3917625223762547,-0.07700283700045393,0.23882282136915228,0.04718501168051172,0.35847131456492354,0.9323475134870433,-1.5829388273016307,-1.8809896908202113,4.141581320196222,0.05312758885089133,1.3736666365928754,-0.623515401604172,3.0,0.5098498519277354,0.520489911276902,0.4093846537074298,-0.7178938987205095,0.3392811796907122,-0.19904759533607058,0.574366334388144
12.4,-0.7033762150207785,2.3576528187470513,2.201991634074771,-0.373633952658117,-0.07795510210420561,0.21032691617619076,0.047153245796928776,0.35829878302209117,0.9324154310915451,-1.584450471486394,-1.8798550659011042,4.14182145389165,0.053170833248038625,1.3734866787178868,-0.6233919302569788,3.0,0.5095779431458213,0.5201398274320224,0.40955501088484764,-0.7178675486738808,0.3392931276737224,-0.1990695466443074,0.5743846025731942
12.5,-0.6829455726242831,2.2114451046487873,2.477265977460946,-0.3433458406389187,-0.07605021836694388,0.19110030588279217,0.04710037237482212,0.3577486321630669,0.932629018649666,-1.5855798721313477,-1.8787441963712992,4.14199686050415,0.0532556524585586,1.3732872859132759,-0.6233880988451053,3.0,0.5091058188454243,0.5197296184321906,0.4096106475146613,-0.7179293959333408,0.33928799489662376,-0.19903869745425457,0.5743210216329637
12.600000000000001,-0.6953069543997994,2.2755379098477566,2.413092689323219,-0.3212162590113262,-0.06545446453839977,0.16999739329452468,0.047018546328661155,0.3567173239480335,0.9330283394441982,-1.586830231952632,-1.8777563730416185,4.142245023610074,0.053295298213623,1.3731079676518412,-0.6232952826019306,3.0,0.5088460748665801,0.5195312234684661,0.4096606812742936,-0.7179585406160253,0.33927241208157605,-0.1990270425220813,0.5742978327503684
12.700000000000001,-0.570880894960113,2.0968936847077093,2.6173972688644374,-0.3068525205845845,-0.0659148497836686,0.1519937506329754,0.04704678791907881,0.35696434623768586,0.9329324634658496,-1.5881005128635526,-1.8763607183151654,4.142421794481744,0.05334298192944331,1.3728957176208496,-0.6232390377272389,3.0,0.5085157182678892,0.5191987562637994,0.40978026596608436,-0.7179644486399156,0.3392704864245777,-0.19902408043165898,0.5742926109038361
12.8,-0.38025456873708596,1.9249421849451773,2.846558906129041,-0.29301369695532864,-0.06801427670851284,0.13372636899354554,0.0470256544835173,0.35655646913476896,0.933088942604231,-1.589399329222627,-1.8749195512464787,4.142611862727973,0.05339596970913351,1.37275153878349,-0.6232397014932527,3.0,0.5080795251832575,0.5187449573734777,0.41001747958706464,-0.7179273898402151,0.3392700808658974,-0.19902561951405373,0.5743386439405853
12.9,-0.7073835514684846,2.0639834625898192,2.692494213319756,-0.29352589608369417,-0.05989393795634318,0.10328260988443932,0.0469251882329746,0.3551152232575372,0.9336438857231144,-1.5906476974487305,-1.8738109889828325,4.142788410186768,0.053427081314907386,1.372592969191939,-0.6231296978466822,3.0,0.507744243915438,0.5184016097511088,0.4102106106495574,-0.7178984878662754,0.33925925393227674,-0.19901578419605948,0.5743845727223684
13.0,-0.19582118030592402,2.747741014861789,2.7545533829137114,-0.34242476866788846,-0.05573374046111564,0.11285412862708184,0.04627736952610096,0.3487487955039973,0.9360704404092608,-1.5918992814266595,-1.872827728117959,4.142948907333843,0.0534631448933105,1.3724011847505817,-0.6231108805026259,3.0,0.5074157691658621,0.5180484284722089,0.41034463612011884,-0.7178981456424591,0.3392618690310884,-0.19901383868480232,0.5743841299309992
13.100000000000001,-0.15526051743001085,2.2853080506218,2.7666030265213077,-0.33463965072067325,-0.061965710728083365,0.09841301465534803,0.046143989088946305,0.34763345239386556,0.9364943601841159,-1.5931331400636461,-1.871610794065571,4.143181240331947,0.05351082860913081,1.3722269932041513,-0.6230854166696744,3.0,0.5072037974955509,0.5178261133180901,0.41038959848730405,-0.7179163840317692,0.33927057995534204,-0.19901649105218824,0.5743552693279568
13.200000000000001,-0.31645423966278047,2.2375597468682913,2.90453493490418,-0.3263828388664494,-0.059560248020980255,0.06769901582073327,0.04609058307971028,0.34729614441915596,0.9366221118975752,-1.594416089222472,-1.870282322709679,4.1433462891080275,0.05356925657638909,1.372056007385254,-0.622983057809198,3.0,0.5067663461796597,0.5174082050096075,0.41047330921861386,-0.7179497725326089,0.33927267701086217,-0.19901324481031582,0.5743134189136861
13.3,-0.3363077667183937,2.253638541807248,2.755019269528347,-0.3283674837220312,-0.05136010655288512,0.06816698394763243,0.04606288294178725,0.3470239346649312,0.936724384612087,-1.5955665199333966,-1.8688883850412101,4.143571905886606,0.05358205473614929,1.3718449531512031,-0.6229610018440853,3.0,0.5063807276864374,0.5169854909991723,0.4106962953026218,-0.7179128873716834,0.33928413225662246,-0.19901814566368184,0.5743510611473729
13.4,-0.40314986538947517,2.172827987700496,2.991946763605261,-0.29857019613525315,-0.05073938078165706,0.05468027044871267,0.046074268106878015,0.3468277161315288,0.9367964874120074,-1.5967870269712126,-1.8678596087583172,4.1437688943209166,0.05361859380688472,1.3716991203276472,-0.6229673881491741,3.0,0.5060389219361741,0.5166622166099888,0.41092127535674816,-0.717876319487037,0.3392579357542814,-0.19901887837185234,0.5744119854243115
13.5,-0.5119377427699686,1.933738903012747,3.0465555636568125,-0.2739377865277091,-0.058250117745467976,0.03960615778972657,0.046110564668500706,0.3470810845314122,0.9367006026069234,-1.5981307210843207,-1.8667714056617974,4.143934119581957,0.053671923114395205,1.3714818416050125,-0.6228341610778542,3.0,0.5057122776100704,0.5163239532265678,0.4110325836680011,-0.7178928406828258,0.33925450402740753,-0.1990244372020889,0.5743914381237347
13.600000000000001,-0.43926981939704174,1.6122401808175069,3.006055826943451,-0.2612109815004878,-0.06321503840872089,0.036042490066061174,0.04619037682961593,0.3481197981005584,0.9363112745446659,-1.5994476595011666,-1.8655743511425842,4.144130094545546,0.053726359004638624,1.3712953040906835,-0.622811471408209,3.0,0.5054845764307322,0.5161019921498283,0.41101328663568776,-0.7179396468773576,0.33926689006277877,-0.1990170633033832,0.5743281720957477
13.700000000000001,-0.28575212805547795,1.3163964498784482,3.0710315945883204,-0.2789231596847442,-0.06718376009375622,0.03799873614624417,0.04626677099901249,0.3488887136245273,0.9360212142497141,-1.6005466608544836,-1.8642716283155694,4.144330459063884,0.05373448648258425,1.3711371846739089,-0.6227491962602334,3.0,0.5051279859106812,0.5157797701706266,0.4111476419153816,-0.7179323623886769,0.3392646286923449,-0.19900574650910235,0.574342535086523
13.8,-0.4568484364604709,1.7985034084699625,3.2137538407662682,-0.25364016480083434,-0.059528361605838215,0.04284859733600421,0.04628593988792391,0.3490865627351195,0.9359465109268197,-1.6016788951049252,-1.8630209403885216,4.144483136285345,0.05376334581144409,1.3709277542615017,-0.622686481608462,3.0,0.5046891390508002,0.5152930436815334,0.41142124271750435,-0.7178858529302854,0.33925923440443484,-0.19903124064113453,0.5743950202454093
13.9,-0.7139231325912996,1.538700640666046,3.233951723343034,-0.22674122344391373,-0.0627358168741885,0.04424081666572299,0.04619439833313401,0.34826067547314454,0.936258724588402,-1.6030590783356886,-1.861931060335625,4.144680252588577,0.05375279446675477,1.3707421075104933,-0.6226563840257825,3.0,0.5044824685843191,0.5150590433047676,0.41155330942272544,-0.7178595125652071,0.3392660440060916,-0.19903848764638848,0.5744214063207765
14.0,-0.742400079162058,0.8655594118121112,3.2732966191754422,-0.20605544090720707,-0.0667525784173913,0.038497280794200756,0.046167514099052016,0.34822408370819125,0.9362737556193741,-1.6044368678769403,-1.8607005876463079,4.144850254058838,0.05383412420239253,1.3705390651295788,-0.6226104525260453,3.0,0.5041653723920317,0.5147023979861768,0.4116044005209008,-0.7178969912667249,0.3392870972096224,-0.19903127326190725,0.5743646297092083
14.100000000000001,-0.8676863402190488,1.8795579826203717,3.383148837757734,-0.2185495505211337,-0.06990198110547308,0.04979518279067366,0.046291728254738894,0.3496931931560573,0.9357196096912479,-1.6056440628638704,-1.8595352782142867,4.145078019010111,0.053936411930525945,1.370352588123125,-0.6225293318377894,3.0,0.5036689008126447,0.5142200701381283,0.41166134649172154,-0.7179494734159106,0.33929872570467934,-0.19902554071678946,0.574294142839179
14.200000000000001,-0.645766743732237,1.7464535803558687,3.165463326410169,-0.2681811046272835,-0.08150797145887981,0.054172161395485634,0.04618691704363928,0.3485771928616168,0.9361410744342843,-1.6066522598266602,-1.858318022863982,4.145252196215506,0.05395902639842954,1.3701433212688958,-0.6224990223246891,3.0,0.5033984053355463,0.5139306727157728,0.4117917848219882,-0.717932532516268,0.33930323648821525,-0.19902734558943874,0.5743120303206458
14.3,-0.4987898291511707,1.4608053671244166,3.5146587542072085,-0.2404637410938587,-0.09068448839206585,0.05368167255225406,0.04614736713988619,0.3478024788269803,0.9364314197764629,-1.607889507928401,-1.8571181939578723,4.145437855988589,0.053821249599121046,1.3700049806710741,-0.6224212398996254,3.0,0.5030342563475942,0.5135787258241871,0.4120906431016769,-0.7178575063997283,0.3392679746922598,-0.19903875593658943,0.5744226801659134
14.4,-0.48486732652185155,0.8864310861906275,3.6026335359550754,-0.2065536571460646,-0.09756760956025319,0.054448414530369166,0.046125297841070376,0.3472693155866429,0.9366303550811949,-1.609323382185455,-1.8558978618123825,4.1456686831519916,0.05379544069184844,1.369805724570855,-0.6223659852607399,3.0,0.5027814053062519,0.5133592216285092,0.41216594470692003,-0.7178810453262547,0.33926098717167474,-0.19901991989709245,0.5744039160980183
14.5,-0.6355250691749345,0.8349087490903394,3.4784203373388816,-0.20330295091526784,-0.09056064238611956,0.054881518059072126,0.04608726110873838,0.3471263931630967,0.9366852358268623,-1.6105513559951325,-1.8545938293829933,4.145833459151035,0.05395937359107795,1.3696211027816927,-0.6223436515454634,3.0,0.502384533295364,0.5129596169345076,0.41224430142237917,-0.7179293498793218,0.33927621190553103,-0.19900157021576512,0.5743409054460139
14.600000000000001,-0.6551484572053354,1.031615013133886,3.621730930520647,-0.19877477209404562,-0.08959545813850715,0.05258931617323195,0.04602094336456649,0.346605305993706,0.9368813903868849,-1.6116387636770135,-1.8534660425447682,4.146019979254488,0.053946830856907275,1.3694527792981779,-0.6222602225953839,3.0,0.5020157012487837,0.5125313349087163,0.4123908784245194,-0.717924865879248,0.3392651484645716,-0.19903569108036961,0.5743412223284481
14.700000000000001,-0.8577140757348019,0.8103997296090248,3.681015775826909,-0.1806890164165607,-0.08368900446949713,0.04822587669440571,0.046099939668861015,0.3471652094972269,0.9366699096057066,-1.6127978490476187,-1.8523639949691324,4.146254174578624,0.053958522737665215,1.3693029012405995,-0.6222060362445276,3.0,0.5017775178849471,0.5123034429450463,0.41257807799647894,-0.7178843045601105,0.33925092537763823,-0.19901908975814275,0.5744060730950735
14.8,-0.7902288755925816,0.941860022543609,3.6080654330076647,-0.17646132686064514,-0.08494620379417042,0.04681923295640738,0.04614838144118146,0.34751268876699204,0.9365387316123239,-1.614201545715332,-1.8511043722094118,4.146434378609409,0.05394832440229888,1.3690910385345134,-0.6221762096640464,3.0,0.5013904765181082,0.5119131130886152,0.4127085035015613,-0.7178977890292668,0.3392649652458011,-0.19901433857126757,0.574382573644689
14.9,-0.8431751183319386,0.9177123183110322,3.664221723894879,-0.1878942245520756,-0.0922315722531302,0.05060560288008429,0.046006776693149745,0.34635521963956045,0.9369746093419278,-1.615585946555441,-1.8497967150238535,4.146626112122729,0.053972268966300564,1.3688975132600416,-0.622134033833639,3.0,0.5010062069562538,0.5115173730082367,0.4127586654127118,-0.7179424677120558,0.33926707626472885,-0.19901314721119748,0.574325892900016
15.0,-0.7816803621417088,1.0600341097521964,3.8267390625500024,-0.20248856562273243,-0.08857323148703697,0.05199717502389486,0.04600967875312668,0.34611584335634293,0.937062917164625,-1.616613974587191,-1.848615118157522,4.1468305517075335,0.05396791396817603,1.3687122237562621,-0.6220501104937952,3.0,0.5006982428662595,0.5112218362011142,0.4128724866233207,-0.7179518730068892,0.3392622319563573,-0.1989985986930407,0.5743220383479088
15.100000000000001,-1.0321349739664705,0.8609285630487996,3.857029669822546,-0.1800269800053319,-0.08376956158243742,0.04798648601724307,0.04601574952660275,0.3460489691708017,0.9370873287576812,-1.6177568031100797,-1.8475394706144372,4.147023023854772,0.05396114880340375,1.3685393131150985,-0.6220402423735875,3.0,0.5003085311485902,0.510822337540113,0.41311839573354914,-0.7179050768857754,0.33925237600134506,-0.1990100439018194,0.574382388644766
15.200000000000001,-0.9966708032459665,0.9009147313499389,3.944091138126902,-0.17493916336108375,-0.08420403278380671,0.04624743927998654,0.04603008328482121,0.34634109853115674,0.9369786019303281,-1.618739128112793,-1.8466672338665833,4.1472037628782745,0.053969686130637046,1.3683629035949707,-0.6219785849200647,3.0,0.5000622297943371,0.5105864465875551,0.41317508074907955,-0.7179291327754562,0.3392567783603689,-0.199007745572555,0.5743505165410356
15.3,-0.6551197998687033,1.0993259954414225,3.7159807360140555,-0.18741259659365392,-0.08793002106853767,0.05321262968883117,0.04604715611609391,0.34674728317773523,0.9368275661202848,-1.6187162399291992,-1.8466607532896937,4.147184271025205,0.05397143063754026,1.368358244923827,-0.6219708458250952,3.0,0.49983208571336063,0.5103480667819168,0.41322497198429337,-0.7179419410078496,0.3392711583097155,-0.199014834990092,0.5743235550932345
15.4,-0.735399626419414,1.2886657428043846,3.7700679290456844,-0.1940484377249455,-0.08579659915912456,0.05696578352290692,0.04578925478297311,0.34444977534553,0.9376859354466969,-1.6187482519459284,-1.8465145044497606,4.147191336041935,0.05398157910745158,1.3683390617370605,-0.6219804079899843,3.0,0.49971755177775284,0.5102315447924929,0.41328538776713447,-0.7179349617369795,0.33926612138265877,-0.19902709239791921,0.5743310074245679
15.5,-0.8998333831682099,1.4968342385509457,3.7683756811320204,-0.19178878700617139,-0.08316340986122,0.055598169036054405,0.04573529972950473,0.3439298850413689,0.9378807018972719,-1.6188203927103557,-1.8464333019652308,4.147182701357334,0.05396178094340079,1.36834311651376,-0.6219666639911097,3.0,0.49971419819876384,0.5102026123836142,0.41331513267289716,-0.7179185187202742,0.33926678270850125,-0.1990361477978122,0.5743480325542323
15.600000000000001,-0.9477188484614847,1.1924741103135703,3.6656962309166756,-0.19996657154216194,-0.08171936327142937,0.051399811885364285,0.04581618106968424,0.3446332407459925,0.9376186298672603,-1.6188287526179006,-1.8464332091415205,4.147194976070067,0.053965319672881096,1.3683467120122264,-0.6219625540230925,3.0,0.49969501959294976,0.510160083197796,0.41336735828241594,-0.7178999919082085,0.33927826054935806,-0.19902709881645847,0.5743675456304089
15.700000000000001,-0.8932324554082862,1.1631357034478738,3.9036470766820357,-0.20008413958007365,-0.08623495730213475,0.05601795691374806,0.04588039672639044,0.345153639740828,0.9374240254737011,-1.6188677425456268,-1.8464007863195193,4.147220545772325,0.053996545073744254,1.3683176698648818,-0.6219530902318453,3.0,0.49967713459112933,0.5101757375844747,0.4133592751115304,-0.7179139419525418,0.3392653383031634,-0.19902669071249834,0.5743578836929415
15.8,-0.7762624783559692,0.8943963943512586,3.8266212522242773,-0.20560782084232626,-0.08499392328552124,0.05567200317144623,0.04582466088625027,0.34452904478884344,0.9376563351198405,-1.6188473691588459,-1.846417296874848,4.147179541485494,0.05396525442089839,1.3683258975589883,-0.6219832912004808,3.0,0.4996875201415429,0.5101606218448664,0.4133604212364216,-0.7179070121917216,0.33927590585548545,-0.19903143560792716,0.5743586590204262
15.9,-0.9563531013333697,1.0689909829509048,3.8643853816805556,-0.19974883832189558,-0.08244951702096609,0.05888110177176951,0.04580126174009665,0.34420825997463395,0.937775411102963,-1.6188478469848633,-1.8464586595416415,4.147183426466688,0.053994418501812774,1.368337207917541,-0.621993537286021,3.0,0.4996707451263148,0.5101907646227741,0.4133300435511374,-0.7179366461804756,0.3392456801088474,-0.1990161271368329,0.5743447760170471
16.0,-0.959622334929169,0.8293027650745258,3.6959871038080903,-0.21058617670898683,-0.08167817282802607,0.05865647103612436,0.045874835515323724,0.3448535121266366,0.9375345429719449,-1.6188855160109217,-1.8464333019652308,4.147204319894897,0.05396445007715782,1.3683340750277568,-0.6219655310313471,3.0,0.49966810923920557,0.5101766686482351,0.4133529834360891,-0.7179173139486372,0.3392609198692195,-0.1990144610299704,0.574360516473073
16.1,-0.9918871531701888,1.351733823084803,3.733268118768891,-0.19549766935110266,-0.08074399308876977,0.05794143890184313,0.04569929897062743,0.343426009046277,0.9380667482780837,-1.6188518385155377,-1.846424610620458,4.147190462555374,0.0539736114831799,1.3683486481282765,-0.6219773555911304,3.0,0.49969135614071614,0.5101561128348682,0.4133641885770482,-0.717901992771051,0.33927354324282066,-0.1990321780452483,0.574366071189255
16.2,-0.7946080327398046,1.0207846392274513,3.671838440851795,-0.20437215846791154,-0.08256579107906653,0.06562282300199175,0.04563155399498496,0.3425403467190782,0.9383942540877546,-1.6188665677899086,-1.846436344446767,4.147204994983975,0.05397133426602525,1.3683691046942805,-0.6219542662249964,3.469962702089769,0.49967325390854916,0.510178999469757,0.4133506825080143,-0.7179226097360185,0.33925361619876954,-0.19902157063191744,0.5743557475546728
16.3,-0.5761565824707386,1.0147122655971161,3.696619522171053,-0.2047001791766974,-0.08915353769250453,0.06849392109811031,0.04564026629660899,0.34249782801046164,0.9384093920328896,-1.6188251899484611,-1.8464352971570779,4.147222995758057,0.05396525442089839,1.3683473713855603,-0.6219576618719017,4.0,0.49965284520419234,0.5101985620840038,0.41334713891531505,-0.7179270311366288,0.3392497784636518,-0.19900190649450583,0.5743593012977688
16.400000000000002,-0.951152415477787,1.1048079373394621,3.5971544735711136,-0.20073242943102565,-0.08343516813792312,0.06421984667609923,0.04565181937566281,0.34270727552422947,0.9383323641430894,-1.6188465775763243,-1.846425792555425,4.14721155166626,0.05393660307319593,1.3683579017255867,-0.6219592680943804,4.0,0.499674070294218,0.5101767294788266,0.413346170203589,-0.7179189696920161,0.33926392687091034,-0.19901679553164806,0.5743558617937125
16.5,-0.7030118821123463,1.0476854358045646,3.775676250961206,-0.20166456009932254,-0.08810702885855994,0.0650304735198092,0.04573160304169997,0.34357254856875236,0.9380114817347787,-1.6188338936198157,-1.8464422838091379,4.14722017423641,0.05394745532184712,1.3683449399071568,-0.621984463090161,4.0,0.49966560968009627,0.5101821752172506,0.4133371569075258,-0.7179223006442548,0.3392537988007575,-0.19901971977737618,0.5743566673911342
16.6,-0.7445304766843843,1.2299536108524938,3.8326377336918704,-0.19841042497956876,-0.0866838179807657,0.06103609930337841,0.045821695410864435,0.3445346991817455,0.9376545553646694,-1.618834979823228,-1.8464495278464526,4.147194143389167,0.05396525442089839,1.368336885413345,-0.6219590480144211,4.0,0.49967585408721743,0.5101748932996343,0.41333556237489727,-0.7179173821611831,0.3392665672453433,-0.19902044335404181,0.5743550224970233
16.7,-0.7802900152581911,1.1125028633361496,3.7638108061058184,-0.204310058198375,-0.08755774449891071,0.06516355946395587,0.04571888357777971,0.3437019544699057,0.937965035844429,-1.6188341737345278,-1.8464233191208677,4.147193815136072,0.05397717534985347,1.3683553356723577,-0.6219590031868908,4.0,0.49968163702476504,0.5101632374470921,0.4133641032888466,-0.7179049055505922,0.3392712872172326,-0.1990303597469601,0.5743643931820229
16.8,-0.9249188897738929,1.0808581810575675,3.732333032351699,-0.20317733239355287,-0.08103271659984214,0.0625677855642857,0.045693138981882965,0.34356760660825997,0.9380156789700609,-1.618867750995366,-1.846430856204369,4.147204402519125,0.05396290272776195,1.3683604578341089,-0.6219786533156122,4.0,0.4996925258134294,0.5101557438188258,0.41334687354476923,-0.7179085875341519,0.339282508654432,-0.19903229646065035,0.5743524912729758
16.900000000000002,-0.9614919201893818,1.26383939546394,3.7656538081645956,-0.19642862117409862,-0.08282018794940835,0.05911756367551551,0.045667271798537766,0.3432798212684265,0.9381221657576081,-1.6188364028930664,-1.8464333019652308,4.147184665628801,0.05397499774023679,1.3683314089229541,-0.6219807625296814,4.0,0.4996904628195994,0.5101570456408756,0.41333110282473756,-0.7179191688244397,0.33927853028697563,-0.19903102335364178,0.5743420563249197
17.0,-1.006175120494162,1.296293886622608,3.8059216298909684,-0.1969009875365201,-0.08227549817497448,0.05979018692136937,0.04561889512745772,0.34268944484641967,0.9383404820172919,-1.618858919890869,-1.846445222894186,4.1471991539001465,0.05400926478617599,1.368330814158648,-0.6219563820069616,4.0,0.49968099299911445,0.510165974477004,0.41333441290140616,-0.7179202385660328,0.33927270976122714,-0.19902255094958093,0.5743470933869921
17.1,-0.8266765838067157,1.020737691390546,3.711993971017173,-0.20557490934936087,-0.08661001157695417,0.06422622903571164,0.04563118677508184,0.34262974755644904,0.9383616834751138,-1.618861198425293,-1.8464185521008756,4.147193906512689,0.0539676065191403,1.3683413197513727,-0.6219737202858354,4.0,0.4996663531626502,0.510179345140139,0.4133476252203388,-0.7179191139327941,0.33926030578527855,-0.1990140195676774,0.5743587822815521
17.2,-0.9467170239805285,1.3202492428620876,3.6276165003913814,-0.19533517877326073,-0.08278675033335388,0.06452856739088815,0.04554211905368712,0.34158012085631245,0.9387481523077431,-1.6188395636116242,-1.8464333019652308,4.147222995758057,0.0539610288713537,1.3683439042130896,-0.621971337445157,4.0,0.49966943211441933,0.5101848206711123,0.4133348942761036,-0.7179239525833379,0.33926005355257416,-0.19901129363100478,0.5743538276863278
17.3,-0.9577406588514217,1.1330244070876756,3.6905835743863276,-0.1999558521852962,-0.08300600229631272,0.06274879693044239,0.04574812120790218,0.34342416385917374,0.93806261153644,-1.6188478469848633,-1.8464403845674178,4.1472098964492075,0.05395810815651722,1.3683473227191414,-0.6219666639911097,4.0,0.4996581297002431,0.5101891644856769,0.41333977000310873,-0.7179243317482665,0.3392525635648941,-0.19900563264566096,0.5743597393391646
17.400000000000002,-0.7335610145539568,1.1436200984043885,3.745102904373777,-0.20031124497512093,-0.08528283261245463,0.06628617796970172,0.045918416104486624,0.3451234998745566,0.9374333132574038,-1.6188695400307047,-1.846443731314193,4.1472070172630815,0.05396674600089127,1.3683196349559292,-0.6219573090481819,4.0,0.49965317616579263,0.5101867943864385,0.4133495861260893,-0.7179217930384388,0.33925016672658015,-0.19900477230868796,0.5743646263958357
17.5,-0.7326314162188995,1.2941208673197304,3.632084116497431,-0.1975382101864188,-0.08768787519177472,0.06696567792880745,0.04586689866911832,0.34479558409574423,0.9375564920063927,-1.6188303387104264,-1.8464209041991175,4.14720606415892,0.05395333349194331,1.368319254811018,-0.6219583549559555,4.0,0.4996646880278233,0.5101888678541023,0.4133376207219168,-0.717928567644966,0.3392598049391571,-0.19901151607977757,0.5743481287333677
17.6,-0.7115717005093137,1.0731332174347108,3.618740391038842,-0.20512072061182635,-0.08751125996625182,0.06989575197998056,0.04578235218785831,0.34406390965740985,0.9378292251410415,-1.6188589525782988,-1.8464229896284692,4.147201239329498,0.05397717534985347,1.3683350512959995,-0.621928609749605,4.0,0.4996668520307843,0.5101840935621231,0.41332283810367726,-0.717938746598203,0.33925971584245374,-0.1990138836166511,0.5743346371822939
17.7,-0.8287510156588509,1.2096660588285115,3.659725783975757,-0.20176098737309256,-0.0862073495871213,0.06812340341202348,0.04596833243907408,0.34594485035054884,0.9371270679451963,-1.6188829139140115,-1.8464114752467724,4.1472192822242855,0.05394629879163505,1.368359190061199,-0.6219439948280747,4.0,0.4996705495546021,0.5101711327000518,0.4133361423518417,-0.7179275573115655,0.33925244820958345,-0.19902418267210675,0.5743493480001113
17.8,-0.7582163587311033,1.0816009272571643,3.6024182977969232,-0.20448644543422637,-0.0856460026111246,0.07115383055999808,0.045828117611000196,0.3445560452115916,0.9376439491919065,-1.6188419870986674,-1.8464394060133513,4.147202328005169,0.053944464587048546,1.368357154303046,-0.6219519782053804,4.0,0.49967390360122227,0.5101715158492593,0.41333144936568295,-0.7179273623567045,0.33926337897169917,-0.19901763734250727,0.5743454031285152
17.900000000000002,-0.9068086200490697,1.505926912908119,3.5997955042147805,-0.19494896438412895,-0.08060953969148886,0.060370822314446626,0.04573924234699986,0.34366436613612134,0.9379770051004366,-1.618861198425293,-1.8464279565505477,4.1472184872557865,0.05395333349194331,1.3683459973265877,-0.6219832812765957,4.0,0.49967284430244585,0.5101725711783892,0.41335267989939767,-0.7179142575811155,0.33927063041872746,-0.19901029018310545,0.5743600460497504
