xiamingqian9007/apple-picking-rnn/final_data/grasper_20191127_130326_noimg.csv
,/manipulator_wrench.fx,/manipulator_wrench.fy,/manipulator_wrench.fz,/manipulator_wrench.tx,/manipulator_wrench.ty,/manipulator_wrench.tz,/ground_truth.x,/ground_truth.y,/ground_truth.z,/joint_states.elbow_joint,/joint_states.shoulder_lift_joint,/joint_states.shoulder_pan_joint,/joint_states.wrist_1_joint,/joint_states.wrist_2_joint,/joint_states.wrist_3_joint,/mode./mode,/manipulator_pose.x,/manipulator_pose.y,/manipulator_pose.z,/manipulator_pose.rx,/manipulator_pose.ry,/manipulator_pose.rz,/manipulator_pose.rw
0.2,-0.381986420832597,0.6496784071608734,0.08379724254891162,0.008004680054459637,-0.024963882929193795,0.0006213839912867355,0.22890073272088532,-0.42850077488490745,0.8740660239991377,-1.9723102077684904,-1.857040775489224,4.1745907972235425,0.48917565796366796,1.333014755449797,-1.2185672768322642,1.0,0.45556963291601055,0.46029508991192314,0.3033018834963564,-0.7631627171624022,0.11525539031067426,-0.37478932847742463,0.5136456184930176
0.30000000000000004,-0.02819365315773592,0.4982886919018126,0.08534043972110195,0.012310708276660236,-0.018851889643334684,0.028330076857046554,0.22874860492966653,-0.42808740376967125,0.8743084379729216,-1.968559907074916,-1.860127603571896,4.173859646931772,0.4888869959064941,1.3337037904007705,-1.2186491988867096,1.0,0.45598218826583625,0.460834420708998,0.3029543683910391,-0.763268545088649,0.11523265739732938,-0.3746995608248915,0.5135589565619899
0.4,-0.01900745781925353,0.3724077235172788,0.03437776590078323,0.001466976485285703,-0.02289187584598564,0.023669626840916388,0.2286121515113731,-0.4279450702292721,0.8744137898014557,-1.9647704399615378,-1.8634113087476245,4.172975232116873,0.4884605346941614,1.3344062914885602,-1.2188636371547397,1.0,0.4567555223338557,0.4615975981458525,0.30283682868482825,-0.7632157067795688,0.11524601065385826,-0.3747248441326512,0.5136160366880054
0.5,-0.1812284532048905,0.6360923177755075,0.11213968381213918,0.0042690826814928045,-0.01699051932584458,0.0232608065909202,0.22871138491932744,-0.4282124266099865,0.8742567109796139,-1.960920792930531,-1.866929638209418,4.172146123310305,0.4880578414285649,1.3353270167449736,-1.2190229958842929,1.0,0.45755226724866577,0.46231789832955245,0.3027124370602577,-0.7631669589916708,0.11527487220661692,-0.3747954192641601,0.5136304997172153
0.6000000000000001,0.17550114278577084,0.27814780706975795,0.1343530611693875,0.011503094734019961,-0.015086575164604384,0.022919606645044763,0.22907729330315074,-0.42893905095584867,0.8738048008922862,-1.95727042705319,-1.870082050713908,4.171365393763003,0.48764834073961294,1.336137064484051,-1.2191908995257776,1.0,0.4587540934973957,0.46347422556645496,0.3023980010452449,-0.7631618346368876,0.11526442144178416,-0.3747909804925786,0.5136436977562968
0.7000000000000001,0.1709039177247581,0.26271369055134347,0.3243258225511252,0.004128357747940586,-0.022531126550266983,0.016860618811275475,0.22777964047856913,-0.42634089770046296,0.875413735704935,-1.9535672563312994,-1.873420139791371,4.170769852762335,0.48724766677588555,1.3367096641781777,-1.2193254046236848,1.0,0.45973100111583887,0.4644777471104166,0.3020505798188315,-0.7632047949693002,0.11524802767119612,-0.37474513124443753,0.5136169970535992
0.8,-0.05087929568426425,0.61663312745431,0.17490359427792534,0.004151362213322938,-0.018788274659908354,0.020076020365399645,0.22841338099080097,-0.4275868567185921,0.8746398603573344,-1.9502308781914937,-1.8762708975916647,4.170143775178288,0.4868173827689992,1.3373327672349655,-1.2194701862295914,1.0,0.4607230087348084,0.46551697443575457,0.30177992640096607,-0.7631973582618274,0.11525797357833147,-0.3747656145222357,0.513610870251551
0.9,-0.07439391554701016,0.5457151203565052,0.23157555647679645,0.0025699481325519723,-0.014817412764512353,0.017692716787593415,0.22876102306102003,-0.42828811901588637,0.8742068438620327,-1.946847195466339,-1.8792085484059784,4.169460306388084,0.48642254579583094,1.3379043754146906,-1.2196257069571115,1.0,0.4614262904734867,0.4662649576552943,0.30164565074007044,-0.7631656371119162,0.1152493475024689,-0.3747782862228577,0.5136506929886064
1.0,0.2973720365033915,0.23671341749953548,0.05308082342342438,0.006267234947983952,-0.01591571974565883,0.020078853036020063,0.22858702063444922,-0.4279828602889586,0.8744018694106724,-1.9434697077687628,-1.8819088002707565,4.168752511994877,0.4860129400607953,1.3386953678298383,-1.2197246395777819,1.0,0.4625759566914448,0.4673889001140805,0.30135948105485977,-0.7631556226785672,0.11525871559314732,-0.37478842136031587,0.513656074886834
1.1,0.2055753326139464,0.17745180645009284,0.11982975153087794,0.005942582193823925,-0.01594434832694391,0.01743476524515503,0.2287243443803642,-0.4282048577597391,0.8742572323001001,-1.9405479408663577,-1.8847247619940692,4.168208561505285,0.48562429117260003,1.339338934035518,-1.2198676676367335,1.0,0.46334405046184124,0.4681454659635165,0.3012075531952623,-0.763125839639027,0.1152618206128325,-0.37478982231419344,0.5136986029511279
1.2000000000000002,0.29385772038689634,0.31815630479415263,0.1776882952809421,0.0031229120882376063,-0.018606115151608513,0.018691256098232644,0.2288437770472104,-0.4284282854692294,0.874116525662939,-1.937253393991954,-1.8873717871152864,4.167541000496662,0.48524931299624696,1.3398528364784354,-1.219963529256868,1.0,0.4639508700559267,0.4687911491775895,0.3010318292817944,-0.7631256952233307,0.11523768624387881,-0.37476815477401326,0.51372003963866
1.3,-0.06411336070623552,0.4787240650141842,0.004977655559013916,0.010861420608418031,-0.011030833027370686,0.01983612891700407,0.22890747746092185,-0.4286004189694582,0.8740154524650854,-1.934265205825023,-1.890054036395547,4.166867802107982,0.4848886897831955,1.3403820991516113,-1.2200878302203577,1.0,0.4648888231135066,0.46971824338287577,0.30071686353356714,-0.7631494045941005,0.11522767037214546,-0.374761375558046,0.5136920104869449
1.4000000000000001,-0.1148150482354641,0.4052142879470831,0.2878014598338099,0.005870611089534978,-0.018860863094091455,0.015061289934890299,0.2291004568167142,-0.42907158213783836,0.8737333712614637,-1.9314001279914557,-1.892496248284811,4.166320039546213,0.4845260143383784,1.3408626152263343,-1.2201815960597138,1.0,0.46585424565819833,0.4705777846550193,0.3004578524441657,-0.7631374926967107,0.11528412386691068,-0.37481760314798607,0.513656015632267
1.5,-0.06570403007316453,0.3707321693525191,0.03283516541310219,0.0029899607300700737,-0.015616450428574978,0.022313512355230367,0.22947446232139126,-0.4299614692558145,0.8731978289629869,-1.9285278616256658,-1.8949308555045299,4.165875941307062,0.48411034132922737,1.341348112045299,-1.2203028837787073,1.0,0.46655651496091227,0.47127213879903274,0.30029697579168263,-0.7631154812670304,0.11531361444642588,-0.3748383255161881,0.5136669760633927
1.6,0.07896829913578118,0.3740959976121929,0.14023466801581236,0.006292229824447092,-0.021502867405717715,0.016956627323603687,0.2295251481570587,-0.4300568080167495,0.8731376454190994,-1.9259456645845092,-1.8974136399828108,4.16534873599594,0.48376922668101413,1.3419515229267962,-1.2203778293992964,1.0,0.467281066379281,0.47202685093245705,0.3000971886550413,-0.7631158359687702,0.11531169347223572,-0.3748449517359164,0.5136620449287146
1.7000000000000002,0.14999494979678132,0.4010920368819586,0.22096236848736978,-0.0010021280765556686,-0.02270481880392788,0.015439448109384052,0.22943214389623104,-0.4297431113102193,0.8733162873090852,-1.9230722799391804,-1.8995732774723941,4.164952769255417,0.48339918294069006,1.3425328130691827,-1.2205037285298743,1.0,0.46783533749278366,0.47262139831163735,0.29987382188039485,-0.7631567071718027,0.11527861645317589,-0.37480802037006933,0.5136356965336449
1.8,-0.0053359392907336755,0.6121373453354665,0.18337280642945666,0.0065644905791440375,-0.021968566211220692,0.014846815807573825,0.22917469661675222,-0.4289426106585198,0.8737774619322459,-1.9207043854468195,-1.9019486976511788,4.164470415181887,0.4830369035506269,1.3429400990953921,-1.2206170010882997,1.0,0.4684307219403214,0.473297190231237,0.2996206642889887,-0.763209727005494,0.11522834659005227,-0.37474019414927323,0.5136176862563121
1.9000000000000001,-0.0014985036209658534,0.42688527101591534,0.28143421871314894,0.010115312092324328,-0.021601968635436314,0.016033428713517775,0.22888396225362975,-0.4283906165912185,0.8741243350651101,-1.917926213331363,-1.9040992263602536,4.163991451263428,0.48264520019227397,1.3433444022594991,-1.2207072390022047,1.0,0.469219942554247,0.47413929559359397,0.2995085471326037,-0.7631524057624363,0.11520695050398426,-0.37475968282750916,0.5136934341235083
2.0,-0.11352654045602542,0.6532982383824467,0.23732800524975634,0.008198925199850868,-0.014905604759309733,0.01664139122545636,0.22879679490601212,-0.4282973101957399,0.8741928869377142,-1.9156411283634758,-1.9059164405437452,4.163544831039924,0.48229034174464525,1.3437762260437012,-1.2208002677555454,1.0,0.47008922140783943,0.47498090283402794,0.2992183489506138,-0.7631691343816889,0.11525113400113811,-0.3747741944220693,0.5136480815050752
2.1,-0.12232719657915737,0.16222319715457856,0.24128187042307786,0.005848539163918359,-0.020558329399878218,0.019056719797536467,0.22904631024335068,-0.42889770305634134,0.8738331946612018,-1.9132521079187885,-1.9082170550467017,4.163089274496352,0.48196553641083273,1.3441687406299838,-1.2208619680158552,1.0,0.4704658701725241,0.47532456921741656,0.29920134819196426,-0.7631222936930119,0.1152815418754447,-0.37479814823197993,0.51369337065356
2.2,0.12490776259275704,0.6328908719570829,0.23280937749322508,0.015635344801467436,-0.023395036093359935,0.014445065467997321,0.22856659944717028,-0.4279672187585892,0.8744141816741178,-1.91094700511118,-1.9099347158141935,4.162742108077146,0.4816755814621815,1.3445461119533924,-1.2209607947579033,1.0,0.47133880891354324,0.47622888798170837,0.2988095323062999,-0.7632078551084205,0.11525064452496844,-0.37476739782509794,0.5135956156012124
2.3000000000000003,-0.08346116563011988,0.577352806865937,0.3882838915093301,0.004758358138997734,-0.021248350984594492,0.013303253167847535,0.22849678734850434,-0.4278270059338824,0.874501152849492,-1.908870452710602,-1.9116673176670822,4.162263178187443,0.48131286783422406,1.3449999253916876,-1.2210448423968714,1.0,0.4718313114015035,0.47671517818025416,0.2987359728727018,-0.7631712914689555,0.11525787755789448,-0.37479614632623126,0.5136273456869895
2.4000000000000004,-0.01370001760667541,0.41956951377049273,0.3640093022450054,0.003639025483473222,-0.023427799589369417,0.01111370501243231,0.22879228559587853,-0.42844913349640235,0.874119266811829,-1.906629670390954,-1.9135829466379108,4.1618363790312065,0.48103420986234857,1.3453562326631299,-1.221103315650986,1.0,0.47228276991324836,0.4771238400315203,0.29867592948971317,-0.7631378133861745,0.11527109982415418,-0.37481180054107543,0.5136626962323187
2.5,0.0510057547128544,0.44235675451926615,0.39091481826956676,0.005133896999654769,-0.025431287239337387,0.017795761315993742,0.22814451820654186,-0.4273007508157355,0.8748506629953127,-1.904584287163062,-1.9153838369219873,4.161414623260498,0.48067788551028445,1.3457475308332094,-1.2211920960303002,1.0,0.473038438990556,0.4778298163231428,0.2984361926510864,-0.7631545644723545,0.11529662235346441,-0.37480158258946256,0.51363953633587
2.6,0.2686346284172222,0.39231718308502217,0.250438598818214,0.010546250398945897,-0.025787725312219737,0.02039919269262206,0.22809232585303824,-0.42718029050303197,0.874923357630002,-1.9025259137070283,-1.9168960056700648,4.161155843923654,0.4803827484300012,1.3461357831010394,-1.2213156252507333,1.0,0.47352469892851695,0.4783122784023297,0.2982671906255175,-0.7631746985177048,0.11529647626115622,-0.37478529146310524,0.5136215410271324
2.7,0.31993104551132934,0.49522919631784934,0.23397329329442187,0.007815715964995074,-0.024708126572455715,0.0186066584484961,0.2281456074892845,-0.4272418711873131,0.8748793988184825,-1.9006108598176195,-1.9187048986049577,4.160760857166102,0.4800354453882705,1.346465901159266,-1.2213199774371546,1.0,0.47411714828711843,0.4789425039874261,0.29818083749626256,-0.7631388023627201,0.11528833073673429,-0.3747931128189137,0.5136709955874867
2.8000000000000003,0.06422933827804723,0.5464600367884964,0.2621638806387054,0.0076452136507233134,-0.021058305518998,0.010598111906428252,0.22830562860709838,-0.4274618603633503,0.8747301444018721,-1.8986430171172017,-1.920286586798723,4.16048002243042,0.4797481268985332,1.346736754325653,-1.2213953946758245,1.0,0.4744979818208399,0.47936661882776355,0.29803495319762513,-0.763160207774447,0.1152663910309881,-0.3747774409677889,0.5136555520093108
2.9000000000000004,0.07947466491424655,0.4203581027439834,0.2195175383581825,0.007774246793105475,-0.020269921741588474,0.012787170856719508,0.22843143032215563,-0.4276495569011656,0.874605589606529,-1.896856703689386,-1.9217486609400205,4.160145189802361,0.47946485638823266,1.3470501899719238,-1.2214745540403285,1.0,0.4748858825189436,0.4797875452861783,0.29791689872153626,-0.7631670648078941,0.11525464036471658,-0.3747750639791657,0.5136497352148794
3.0,0.1659911739961869,0.3080680649301276,0.3393981072609892,0.007383380215551913,-0.03051612626264917,0.01184556850114574,0.2284304319461367,-0.42769003031917546,0.8745860593474595,-1.8950872269024734,-1.9232928980480335,4.159852607600909,0.4791671472736816,1.347378151066083,-1.2215498091414108,1.0,0.47536664569518416,0.48027292729332766,0.2978044920898217,-0.7631587393051482,0.11526044337825037,-0.37478864853164273,0.5136508909232524
3.1,0.2682484457238148,0.3069693691438875,0.2718587523480533,0.009194192148422204,-0.02908226473085623,0.014212100611080398,0.22858187451875991,-0.4279909533823508,0.8743991912738912,-1.8931462040463614,-1.9247411250516524,4.159541889285404,0.47885459601634023,1.3476288953430133,-1.2215951124774378,1.0,0.47590210528671206,0.4807951953529416,0.29765176561904244,-0.7631618748176702,0.11526911950468877,-0.3747966159628479,0.5136384716667843
3.2,-0.11973050836719433,0.6355995486200492,0.2208496912506511,0.012097065939368202,-0.01782615454758288,0.006071765267569359,0.22865410746521062,-0.42814362258517064,0.8743055871243043,-1.891457843030268,-1.926157758527694,4.15929556861838,0.47860748797044217,1.347895691169195,-1.2216547171222132,1.0,0.47638905457531033,0.4813103108487085,0.29755265370191664,-0.7631366606966112,0.11526526318695007,-0.37480345984803687,0.5136718044522292
3.3000000000000003,0.12097740264144052,0.1489627338467836,0.30821130559536664,-0.001011361361323636,-0.027801433847515426,0.014160015277187812,0.22844897000108633,-0.42779165285930926,0.8745314802266749,-1.8900039563249347,-1.9276290190481968,4.1590076575602755,0.47837474773502814,1.3481779098510742,-1.221718766058095,1.0,0.4768273157046707,0.4817610528726383,0.2974019591678813,-0.7631456092204314,0.1152749136093931,-0.3748010109220161,0.5136581310869697
3.4000000000000004,-0.0024796213317042626,0.480197965086653,0.15470907493201508,0.004868849205285148,-0.017200038336124504,0.009841623003570254,0.22847914412398476,-0.42781400670908576,0.8745126792040498,-1.8883108550962227,-1.9289231301573118,4.15877268766948,0.47812739482105004,1.3484768945207828,-1.2217718901958448,1.0,0.4772436935647029,0.4821792129624218,0.2971491797099774,-0.7632187660649263,0.11527010402727567,-0.3747723818774389,0.513571397203722
3.5,-0.08372449628153039,0.38674387461739723,0.020241441968147016,0.00783570828788823,-0.021898738179179915,0.010119159583827185,0.22857306567870198,-0.4279377672380576,0.874427588959347,-1.8866693855412247,-1.9300930550721696,4.158502298199991,0.47784588543798284,1.3487355409123638,-1.2217859073311772,1.0,0.47753853750544406,0.4824949833472403,0.2971210182772112,-0.7631885443855648,0.11525878254519543,-0.3747748254525044,0.5136170645255925
3.6,0.13089960992177352,0.1885104356144276,0.18720559385498856,0.005604396005006838,-0.021129801566299972,0.009953206333167168,0.2288676729936165,-0.428491541033845,0.8740790281565864,-1.8853541135451775,-1.9312333188498505,4.1582073509593815,0.4776002275843051,1.3490235164858961,-1.2218436862026683,1.0,0.47802409991631095,0.4829996826962287,0.2971298945045936,-0.7631139270821379,0.11525524978642743,-0.37479366146810783,0.5137149725414621
3.7,0.20254004936515535,0.3718333226144735,0.26738127093002656,0.008938228036257576,-0.020017246519635403,0.015202169917179598,0.22911759950972005,-0.42894500333770713,0.8737913328138234,-1.8840718335690705,-1.9326470982767614,4.157988541644553,0.4773670936357209,1.3492664366528608,-1.221903533688404,1.0,0.47840218492515146,0.48334315023311675,0.297010447535078,-0.7631263850216241,0.1152505204538163,-0.3748032660562861,0.5136905194496906
3.8000000000000003,0.15286597205879257,0.5428945447063981,0.23117803853482286,0.015509857466607971,-0.018567931879357714,0.01292470854556399,0.2290720522305918,-0.4287522747444633,0.8738978577304329,-1.88242141578989,-1.933891710724042,4.157744334368364,0.477125128786399,1.3494750078093152,-1.221951812789278,1.0,0.4788112089990021,0.483778313873732,0.2967179034046587,-0.7632201016788837,0.11523121448373091,-0.3747542378530395,0.5135913792238593
3.9000000000000004,0.15909023296497654,0.4779801528197829,0.12352996659461998,0.008337954289820142,-0.01950379523907768,0.006825503774380001,0.2290293561261329,-0.4286706670499069,0.8739490892111944,-1.8810266657452501,-1.9347577493442258,4.1574811144452015,0.4768824214886515,1.3497266566933666,-1.222016259123101,1.0,0.4791205533747636,0.48411970047368125,0.2966231218341879,-0.7632192081637045,0.11522872606362847,-0.3747461735715948,0.5135991495058857
4.0,0.00850359989720621,0.11934536518603782,0.12472837464341308,0.004678035582145578,-0.02062469704418797,0.007727813387354876,0.22899676576612488,-0.4286303521441593,0.8739774037035305,-1.8798551889656991,-1.935768266717428,4.157283975187649,0.47661687984736456,1.3499382672384566,-1.2220764711368723,1.0,0.47939482274594947,0.48438238714078646,0.29666150033655914,-0.7631606311523789,0.11523863369136912,-0.3747740061304939,0.5136636571658052
4.1000000000000005,0.05441841834112288,0.4124644797560704,0.24963911111324985,0.0066195857102233245,-0.019849818858725738,0.0075067832856117065,0.22899340621723085,-0.42860238820680613,0.8739919979000517,-1.8785561203804815,-1.936926569747402,4.157003152131731,0.4764251876982003,1.350156307220459,-1.2220882424421344,1.0,0.47977339623750775,0.4847464808983015,0.2966041033135566,-0.7631457720819717,0.11523745314270992,-0.3747776731692256,0.5136833223304551
4.2,0.036998352930365866,0.40568969614020056,0.13219809414751413,0.005483710697254297,-0.02098803924850804,0.007574821136577486,0.22890170651322228,-0.4284847934154547,0.8740736492161942,-1.8770053407510314,-1.9382681807141808,4.156784866273187,0.4761896805753905,1.350389240090033,-1.2221428097770775,1.0,0.48011503699823216,0.4850685546243963,0.296466871692827,-0.7631765815299876,0.11524818926424676,-0.3747685079073598,0.5136418263307672
4.3,-0.2388511974718404,0.6206943277644801,0.018504027409987165,0.0046798446481550555,-0.022422314027880877,0.00552549237384997,0.22877697375410544,-0.42833368293765595,0.8741803752169464,-1.8755873709497117,-1.9394825492295233,4.15652322769165,0.47595250903992736,1.350578007790306,-1.22217058386305,1.0,0.4804432554121583,0.48537889255109684,0.29635067872730847,-0.7631842600917009,0.11526589910063896,-0.3747776122912916,0.5136198000253127
4.4,-0.046171894158262096,0.2746285816932753,0.11702315668489327,0.0027789527235642436,-0.017833497367812264,0.011894078847910034,0.2288701893029575,-0.4285567770077904,0.8740465224845576,-1.8743440317266684,-1.9403310416560957,4.156305881951262,0.4756910043903808,1.3508028307543782,-1.2222169081317347,1.0,0.48091650574704986,0.4858599026840908,0.29620780607942104,-0.7631837808695292,0.11526696610738091,-0.37477997100945193,0.513618551526563
4.5,0.17346163433886705,0.3617720442978263,0.16109286205242676,0.0012030214398894828,-0.025811800736392297,0.012060586254108692,0.22904739095689275,-0.4289240703276378,0.8738199630413408,-1.872987774982966,-1.941305531269416,4.156055001392878,0.4754066831552391,1.3510039061121024,-1.2222717305096364,1.0,0.4812141408458014,0.4861436006450153,0.2961773946460622,-0.7631661684412411,0.11527288239910369,-0.3747916975138718,0.5136348366347321
4.6000000000000005,0.14880138419946096,0.27988120518991205,0.1959959842198472,0.0019748777899145295,-0.026007472227890592,0.013339206146196183,0.22905844994392013,-0.42894209776279396,0.8738082685267516,-1.8715784941713702,-1.9425358375315611,4.155897072812929,0.4752350555275934,1.3512358665466309,-1.222356510136844,1.0,0.4814405573725398,0.48637112674707766,0.29616159998195074,-0.763143189369355,0.1152683626768715,-0.3748057711725234,0.5136597229496701
4.7,0.1787662578036645,0.1611555100057307,0.09332469273008184,0.0044605458979214,-0.022481231029844357,0.013764555379430159,0.22904965744202455,-0.4289234482837689,0.8738197017414434,-1.8701653897445814,-1.9438182685454446,4.155636310577393,0.47497168342641155,1.3514362721527573,-1.2223419365436337,1.0,0.4819004457991592,0.4868556756365461,0.2960719775777398,-0.763121192160525,0.11527086874866083,-0.37481740580073597,0.5136833511047783
4.800000000000001,0.1766076553598659,0.2886535634332852,0.15482255577941556,0.004783492540405254,-0.025693776364049483,0.004151329306281777,0.2292173577531697,-0.4292950683095484,0.8735931940117413,-1.868873119238539,-1.9448809825831948,4.155443172482604,0.4747391993311751,1.3516604899781561,-1.2224085966693323,1.0,0.4822698527220298,0.487216592163615,0.2958641303733963,-0.7631727942581288,0.11527972749735842,-0.3748018178518928,0.5136160704916575
4.9,0.20573264768190438,0.51740327728744,0.19773254087311334,0.005889523466142013,-0.025195708115464982,0.010619963743410205,0.22908934875742346,-0.4290742365419459,0.8737351749141222,-1.8673866972964035,-1.9459935036212823,4.155181407928467,0.4745017134011687,1.3518931586625498,-1.222441381100848,1.0,0.4825818829736887,0.48754195382992543,0.29578745206956736,-0.7631624832428113,0.1152839332200634,-0.37479889805948163,0.5136325777492858
5.0,0.05400094285206709,0.4941963422018938,0.24216250829114497,0.007964708723045109,-0.02444177486401451,0.014374939680131217,0.2288676091094501,-0.42865520850810895,0.873999032856824,-1.8661169345050166,-1.9469927521180956,4.154999275440529,0.47425730501387675,1.352089708804252,-1.2224790605522313,1.0,0.48294808968326947,0.4879075124952167,0.29575001722516187,-0.7631206912934612,0.11528705339466574,-0.3748160937285271,0.5136814204557664
5.1000000000000005,0.05492286203118178,0.2720123265800242,0.2072159511916076,0.0013841808601059071,-0.024957874790772824,0.010678567781617888,0.2287810990400385,-0.4284637786897075,0.8741155203501384,-1.8647753381168142,-1.948108812371725,4.154766902026008,0.4739969363792652,1.3523252543281106,-1.2225331970236952,1.0,0.483301266009407,0.4882690281168325,0.2956843615693918,-0.7631106986302223,0.11528439309852807,-0.3748170265891024,0.5136961815342822
5.2,0.08896669216911118,0.49718462944629943,0.12876374086862272,0.0002090108399786933,-0.02536204103961695,0.006930405916854793,0.22873909230714032,-0.4283647636697296,0.8741750503422512,-1.8633843190857664,-1.9493179236671034,4.1545305613373165,0.473782261375891,1.3525499181466114,-1.22260028520693,1.0,0.4835916527442241,0.488576334801944,0.2955604938455271,-0.7631337922139467,0.11527803648290683,-0.3748015638785993,0.513674582980278
5.300000000000001,0.04883768421187812,0.46340182538703045,0.04323073694147146,0.00763040184348693,-0.022828973445981535,0.008953734966096246,0.22889360930813524,-0.4286738461695345,0.8739830598487934,-1.8617695081767927,-1.9505104657309038,4.154297196478632,0.47352317855700854,1.3528017377180794,-1.222623650227682,1.0,0.4838812875256618,0.48885756030406036,0.29543852755353034,-0.7631526488813586,0.11527815573727423,-0.3747987911523429,0.5136485641622308
5.4,0.20350600672145142,0.34634342785428657,0.04729780782117199,0.000695666991156817,-0.021749809134608063,0.0072515880043665,0.22900485302722828,-0.4288570481566457,0.873864058387117,-1.8605660027320232,-1.9515940116152604,4.154121669693767,0.473289247414867,1.3530254399471384,-1.222652943363505,1.0,0.48431602146595676,0.4892993966592817,0.2953228044061558,-0.763147990378062,0.11527542403519855,-0.37480119882450624,0.5136543417076733
5.5,0.03951147719370361,0.2608886421167175,0.03250439195212933,0.0017818935790435825,-0.022476418443623473,0.010082572558434665,0.2290511701882713,-0.428903868338173,0.8738289253232345,-1.859310152184734,-1.9526322527144035,4.153871205039331,0.4729981562790268,1.3532473143589125,-1.2227360197179293,1.0,0.4846462924583474,0.4896589232507395,0.29523844900258595,-0.7631435222924763,0.1152651714078409,-0.3747966257796792,0.5136666175132669
5.6000000000000005,0.13671552998001135,0.24796094598481833,0.04914209355788546,-0.0002593720546051027,-0.024246403780300744,0.01252476656419953,0.2288722800056662,-0.4285641644598674,0.8740424239913787,-1.8579537691265255,-1.9537798366942347,4.153646945953369,0.47271541833071534,1.3534743845521922,-1.2227823591614306,1.0,0.484900905184301,0.48991335144708936,0.2951231420600009,-0.763172018377962,0.11526843347109972,-0.3747797319242905,0.5136358740866753
5.7,0.0808116128391465,0.19632168080521387,0.09708079735383708,0.0020982288624616925,-0.025738720638674842,0.010394715888704966,0.22899239380150138,-0.428766488339008,0.8739117153539848,-1.8563252485151267,-1.9548651744707728,4.1534456128927415,0.47246302358820547,1.353640128987788,-1.2227875180257701,1.0,0.4853130480720819,0.49033386594093714,0.29500083324373755,-0.7631804351890595,0.11526947435016965,-0.37477001826678935,0.5136302220819798
5.800000000000001,0.1761693762014902,0.3019168168382412,0.03832650450792682,0.003363831550889946,-0.02565476146958912,0.010277266354485027,0.22904487289636324,-0.4288687171407454,0.8738478496665789,-1.8550310134887695,-1.9559622700145893,4.15327293577949,0.4722086990720036,1.3538626392024704,-1.2228480203346066,1.0,0.4856832267086982,0.49071654743567134,0.2949953261111016,-0.7631281338335365,0.11525922236207982,-0.37480471332307386,0.5136849130381786
5.9,-0.13849387098471677,-0.02831206619652933,0.08249286370171446,0.002799804994183079,-0.02286888322981896,0.011102428536770938,0.22918986132981958,-0.42908822969981086,0.8737020219658362,-1.8538369761484492,-1.9571088062564277,4.153021950554569,0.4719557334682884,1.3540617729069195,-1.2228903739878634,1.0,0.4859696107713501,0.49101729176334297,0.2949185050121325,-0.7631281765165261,0.11525113248870941,-0.374808184235503,0.513684132222047
6.0,0.08341478548660246,0.2353996688758009,0.23197220018194936,0.0010261313122041224,-0.022303904450597798,0.008966051008361467,0.22945583369529507,-0.4295651108173923,0.8733978069854661,-1.8523785127331165,-1.9583149720681845,4.15281443016696,0.4717018685084802,1.3542842236613033,-1.2229212594521208,1.0,0.48635647379941893,0.4914360031784193,0.29468266471708915,-0.7631999551577009,0.11524282582088141,-0.3747590056919504,0.5136152326371193
6.1000000000000005,0.11456768067851049,0.23868715326397333,0.15160038111472038,0.0051538299960037365,-0.02455033438311359,0.009943574753888256,0.2293879221259457,-0.4294813986112828,0.8734566183775836,-1.850812259528876,-1.9594186183770774,4.152604579925537,0.47145844457029584,1.3544928056833516,-1.2229733250685189,1.0,0.48661894036984665,0.4916880733344979,0.29458284971346366,-0.7632111375024982,0.11525353596985886,-0.37475496233735567,0.5135991630076069
6.2,0.10660500985694568,0.13672306683789262,0.09980286058381124,0.0021905892956181486,-0.024141698125142004,0.009010027374042889,0.22911002384366763,-0.4290166956676725,0.8737578144229419,-1.8495019219656734,-1.9604641316155573,4.152357569915219,0.4711731537148747,1.354696828681726,-1.223036513165829,1.0,0.4869072504005303,0.4919629177598443,0.29454667398795853,-0.7631798547572751,0.11526467487822291,-0.3747750567696671,0.5136284852314703
6.300000000000001,0.13483532537797596,0.304693383750017,0.13799473807303786,0.0033959892453229445,-0.02458575285671341,0.010860726171247337,0.2288675457973027,-0.42860561162713223,0.8740233836744596,-1.8482885360717773,-1.9614841454802774,4.152118424264862,0.4709144757557054,1.3549034849594275,-1.2230573082125904,1.0,0.48751755734985047,0.49256788394781054,0.2944394532956811,-0.763158058261413,0.11527874696987636,-0.37479401072127083,0.5136438826027123
6.4,0.22593175617106678,0.4181180121191717,0.21425386909021615,0.000991224545535827,-0.02413188331945062,0.007349521988474597,0.22892494264588392,-0.42864847608554385,0.8739873292697602,-1.8468278918479606,-1.9625688991942347,4.151920795440674,0.47064031874026846,1.3551202039896666,-1.2231240493392077,1.0,0.48772491432463855,0.49278579173335935,0.2943437867668041,-0.763183191910418,0.11526524996658646,-0.3747793584306345,0.5136202587806376
6.5,0.30868842189249246,0.35444720987676637,0.2320219357344578,0.002904971348729156,-0.0239646895124923,0.010959501167984508,0.22884873446264753,-0.42850375437473803,0.8740782101487617,-1.8453235794075002,-1.9639439958340257,4.151678032173288,0.47036398310786903,1.3553173360180548,-1.2231654389638675,1.0,0.4880306405779448,0.4930900536332542,0.29429055130692183,-0.7631593520747002,0.11526607707667201,-0.37479239030177025,0.5136459860528108
6.6000000000000005,0.1424121978001666,0.47225571565287816,0.1239164534085193,0.007469302686642563,-0.028089754957764286,0.0059868956293277036,0.22871992468587354,-0.42829555368562655,0.8742139756335757,-1.8439460891140687,-1.965050201135251,4.151483376189988,0.47007359594076825,1.3555749190294308,-1.2232297083630779,1.0,0.48847844121547523,0.4935381924801509,0.2941278801724958,-0.7631790977921905,0.11527376710744336,-0.3747797732210842,0.5136241280297389
6.7,0.12503450964764612,0.08721444677213883,0.15930559282827017,0.0005738601611441712,-0.030346155729316523,0.009273428762238085,0.22896360417631378,-0.4287139963798073,0.8739449855555355,-1.842616010209722,-1.9659773715782682,4.151256236224605,0.4697696405598144,1.3558005264179547,-1.2232395720536142,1.0,0.488774480474372,0.49385648180761094,0.2940099513025364,-0.7632040979944634,0.1152641176241629,-0.3747628104388424,0.513601522490696
6.800000000000001,0.11371742102556617,0.11302375039808711,0.1391036413500974,-0.0028457051520529805,-0.025964418180803944,0.010782129870740311,0.22899937396022318,-0.42876645243864103,0.8739099359701635,-1.8411047928908775,-1.9669529400267542,4.151050760334936,0.46945351396658636,1.356021508841679,-1.2232993120381952,1.0,0.48912567929858736,0.4942051599994535,0.2939930548071702,-0.7631744118827583,0.11526281687351803,-0.37478038636874245,0.5136331006536515
6.9,0.017730589679916725,0.4255879474807802,0.1084079173824553,0.005740398429881465,-0.021364835993555542,0.008619657837875896,0.22889931720245343,-0.4285759385417124,0.8740296145578673,-1.8397392665960302,-1.9681302994044945,4.150818347930908,0.46919457494702144,1.3562498092651367,-1.2233363616312516,1.0,0.4894584985251925,0.494533608018225,0.29399832167189965,-0.7631349777531266,0.11525676619997476,-0.37480236138458267,0.5136770127963681
7.0,-0.19508855516007367,0.6475029699848636,0.2820973388324189,0.004349126744271895,-0.025123885421546963,0.0007567127705019926,0.2289463385721985,-0.4286055567061397,0.8740027747553465,-1.8389645911911923,-1.9689577867855017,4.150686680583574,0.4690253965209431,1.3563923835754395,-1.2233630314602284,1.0,0.48972537466975485,0.4948245822369295,0.2939112092275645,-0.7631412963208621,0.11524519527116255,-0.3747877786191142,0.5136808618338584
7.1000000000000005,-0.08139479261510216,0.05407545055739707,0.2547283664908146,-0.0024387924197970968,-0.027888620980019513,0.003416902475050843,0.22889125891113318,-0.4285690546653082,0.8740350990615964,-1.8389471666990138,-1.9689212277622885,4.150694857855781,0.469019014711616,1.356365394820984,-1.223365608845846,1.0,0.4900095834936734,0.49511048843670075,0.2937434092549424,-0.7631833410653859,0.11525024800398695,-0.37476418965232133,0.5136344715938889
7.2,0.11177760133519138,0.2826501601182139,0.1381301148705945,0.0034969672548761698,-0.021523618548585033,0.01219601106282975,0.2290051948226001,-0.4287971115735234,0.8738932882668642,-1.8389706034577806,-1.9689132175841273,4.15068938625753,0.4690047937580566,1.3563914845748573,-1.2233732397562849,1.0,0.4900678530615952,0.49515220509686697,0.293696359053426,-0.763195450099367,0.11526058275100073,-0.3747679390777464,0.5136114239879629
7.300000000000001,-0.030340717699693605,0.5059891135739345,0.14944864535394797,-0.00443966631146285,-0.02685488103860223,0.005184533668692778,0.22922234535446073,-0.42917966691113124,0.8736485974675846,-1.838918377549229,-1.9688963444882879,4.150713688816507,0.469043185791116,1.3563661258800115,-1.2233967257913307,1.0,0.4900635823781452,0.4951512535466659,0.29371652292250294,-0.7631878067737762,0.11525686071433269,-0.3747725192968461,0.5136202745511566
7.4,0.1569608430021104,0.2744315602735549,0.369912638456828,-8.605397452955644e-05,-0.02831640806241928,0.002997077279188856,0.22874884560745148,-0.4283369068169305,0.8741861691667748,-1.8388846497327318,-1.9689284903473379,4.150682000451958,0.4690264274259902,1.3563685417175293,-1.2233894507037562,1.0,0.4900687068886942,0.49515033723494617,0.29373648730649915,-0.7631714667009419,0.11527192874547815,-0.37478211698922276,0.5136341690755271
7.5,0.12894913397187185,0.4908387411989154,0.3758528531066977,0.0056000538885206865,-0.025851256351650736,0.0024708225146804286,0.22881603875157852,-0.42847905329232444,0.8740989126788973,-1.8388891220092773,-1.9689251385130824,4.150699138641357,0.46902863561596675,1.356347245288033,-1.2233907656809868,1.0,0.4900718447148717,0.495160233270878,0.2937420092648069,-0.7631628311004249,0.11527725258423471,-0.3747790959173912,0.5136480093670741
7.6000000000000005,0.019218060611402903,0.12453520330868043,0.2614983590941549,-0.0012509667476599115,-0.0246985715890181,0.003164565713497177,0.22854409538546308,-0.42796888240012815,0.8744199368601873,-1.838913917541504,-1.9689311860632044,4.150675296783447,0.4690316897729599,1.3563505732384522,-1.2233775864785135,1.0,0.49008575523536024,0.49514671815136246,0.2937516091066029,-0.7631590758107869,0.11527968801596741,-0.374783945690366,0.5136495036416638
7.7,0.11332269413382126,0.2630826080371204,0.2947968130777384,0.003851582588721694,-0.025664561271933728,0.004732415273607429,0.2287786966851244,-0.42840415443860097,0.8741453911209037,-1.8389050818093944,-1.9689489803709925,4.150690302909248,0.4690069143337629,1.356339017249909,-1.2233558968499183,1.0,0.49008376269956583,0.4951479082694065,0.2937348896664699,-0.763167514452532,0.11526810936254955,-0.3747955707252536,0.5136310816267444
7.800000000000001,0.18751133166906103,0.3364813068841518,0.1769494457026709,0.00393786298897688,-0.027191783787864517,0.0040184027887904305,0.22816062807648188,-0.4271528529314196,0.87491894837643,-1.838873516612243,-1.9689299298200293,4.150677596610782,0.4690384098821385,1.356356143951416,-1.2233727958062663,1.0,0.4900716366008614,0.49516328641390567,0.2937338943408901,-0.7631721497285932,0.11525415098380634,-0.37479270334812587,0.5136294190139847
7.9,0.25080007294888484,0.26856502463387694,0.19756255968371045,0.002402399102223174,-0.028765432388748603,0.005983009353811368,0.22852065685844272,-0.4278498356889167,0.8744843191422481,-1.838902473449707,-1.968922596295362,4.1506964947349285,0.469000874630712,1.3563471403886307,-1.2233843662683155,1.0,0.4900780219803452,0.4951600829261702,0.2937264626319637,-0.7631793498498852,0.11525965589939133,-0.37478021984724136,0.5136265944204153
8.0,0.00502747637273368,0.4441784547216928,0.3632133952610195,0.007435137718153914,-0.022119744897297313,0.004503789545899628,0.22886994877352948,-0.4285304534443361,0.8740596026480659,-1.8389347108157068,-1.9689489803709925,4.150696869156184,0.4690618266562828,1.3563685417175293,-1.2233829041119093,1.7962048772546408,0.4900797387547281,0.49516306436077084,0.2937329243657702,-0.7631749400336985,0.1152633079858272,-0.37477817168102556,0.5136338216746954
8.1,0.04191932843879126,0.28997573606195903,0.18098803825670848,0.004680620842926708,-0.0243598608696554,0.004058358796743277,0.22882726612197812,-0.4284355892438523,0.8741172753526506,-1.8388891220092773,-1.9689370594420375,4.150709942193728,0.4690623693049244,1.356344154470707,-1.2233785785996318,2.0,0.490066827691468,0.49517260087684634,0.2937639832807156,-0.7631588320013128,0.11525832068040404,-0.3747805194153935,0.5136571608758639
8.200000000000001,-0.16318118198476012,0.5605066283666005,0.16338668527458744,0.010237354840635891,-0.0197327094416876,0.0007264305250840285,0.22878040829167304,-0.4283324646770937,0.8741800864358383,-1.838852882385254,-1.9689098140945815,4.150686740875244,0.4690366043135872,1.3563605730199089,-1.2233851919840515,2.0,0.49006525712952326,0.4951691166059378,0.29378167899568425,-0.7631470981860691,0.11525761417264556,-0.3747877729310697,0.5136694600292885
8.3,-0.070035963108242,0.4138259080508778,0.14603459792073778,-0.002254633858426108,-0.02749511252730883,0.001150760646413018,0.2286171126332604,-0.4280710205376601,0.8743508518992116,-1.838902473449707,-1.9689434133193973,4.150675296783447,0.4690481639498216,1.3563446998596191,-1.223353687916891,2.0,0.49008335499369615,0.4951575042598577,0.2937698006283775,-0.7631522338030401,0.11526609307839444,-0.37479484848417144,0.5136547647764984
8.4,0.18524432725157505,0.22825526662270218,0.3013526585567643,-0.013535572115769445,-0.036380018070999894,0.0018382572476529427,0.22868731611554338,-0.428175822426307,0.874281168843539,-1.8389079638889858,-1.9689431050560076,4.150679213660104,0.46902471873931006,1.3563362189701624,-1.2233376798122941,2.0,0.4900824973772657,0.4951566131953645,0.2937596285962043,-0.7631586375393267,0.11527126425289108,-0.37478730644832936,0.513649593119536
8.5,0.31325171421598075,0.09125429326442071,0.43466497868759535,0.0052131740278884954,-0.02438911291666575,0.006115626256639698,0.22870265444573493,-0.42819126319924183,0.8742695994386148,-1.8388532118774703,-1.9688913121709561,4.150684881888295,0.46903901947955146,1.3563542849644665,-1.22335562436163,2.0,0.49007421782027916,0.49516404247452855,0.293761228527939,-0.763158389927459,0.11525879479568962,-0.37478599857214995,0.5136537134878418
8.6,0.04100271562765565,0.2475340663708851,0.4480840012058273,-0.0006681163632435323,-0.025314874426294286,0.006326245702248313,0.2286895195720315,-0.4281879970517311,0.8742746308368824,-1.8388569494303448,-1.9689251385130824,4.15066385269165,0.46905060037614266,1.3563789059610971,-1.2233755744646613,2.0,0.490075204139184,0.49516634051442104,0.2937484466252434,-0.7631645667960121,0.11525868027459206,-0.37478033528875276,0.5136486940402599
8.700000000000001,-0.13377924234072944,0.47847305362455306,0.269693565378313,0.007518455946276743,-0.02865315760092491,0.0061481355575274095,0.22874004938579062,-0.42832247940323315,0.8741955392022255,-1.8388850547673805,-1.9689307043765736,4.150680470543986,0.46903490594722436,1.3563685417175293,-1.2233362011244446,2.0,0.4900759168505179,0.4951639088099156,0.293757872445107,-0.7631580385712639,0.11527140927186352,-0.3747824679056764,0.5136539809239977
8.8,-0.8715243521398031,-0.2823948483594403,0.3040692180194203,0.041732055631930276,-0.11448512013081485,-0.004992658420254145,0.22871132303691272,-0.42824069708837537,0.8742431137783215,-1.8388709118468913,-1.9688966851343541,4.150668530712858,0.46904103338208003,1.3563685417175293,-1.2233462605483107,2.0,0.4900803874600428,0.4951625605417895,0.2937714821347128,-0.7631483949810726,0.11527509242465452,-0.3747899541310713,0.5136620198016686
8.9,-1.6974122008153514,-1.102147108120996,0.20931200344126066,0.08390606642113621,-0.2047470289427896,-0.014963930361368907,0.22867670166464374,-0.4281428291440292,0.8743001097072867,-1.8388498604069805,-1.9689111120557465,4.150703349698119,0.46905449878112254,1.3563804626464844,-1.2233600045020334,2.0,0.4900743501752808,0.4951656066810462,0.2937685581760967,-0.7631495999472973,0.11525966553141369,-0.374788973083906,0.5136644072315872
9.0,-2.4205255303076,-1.535195702755087,0.03031482665867931,0.12441167319027438,-0.2837935632622296,-0.024572491929929198,0.22858342119211653,-0.42797822013427544,0.8744050750990305,-1.8388827330904414,-1.968921467216506,4.15067882122816,0.46902987264048834,1.35638825875925,-1.2233935755199457,2.0,0.49007454007106993,0.4951672853560355,0.29376851845242424,-0.7631539083836777,0.11526434638446342,-0.3747811201748286,0.5136626855552004
9.1,-2.941804778576968,-1.2129475973245265,-0.06373076988425119,0.09843407295222337,-0.3456234139809973,-0.024625893591341264,0.22849353533273092,-0.4278083081917777,0.8745117070581275,-1.8388569452304073,-1.9688848692554979,4.150719073917389,0.46901260692181296,1.3563342553844449,-1.2233736231929229,2.0,0.4900773833769018,0.4951622951194301,0.29375736777616085,-0.7631675320086202,0.11527198038839626,-0.3747741602868867,0.5136458092951486
9.200000000000001,-3.091719130779807,-0.5165058663868941,-0.09081558880278504,0.027762988790018008,-0.37700975725889757,-0.018487635488896682,0.2284155480717602,-0.42763897178726135,0.8746148918730873,-1.838857106355475,-1.9689271692679964,4.150716807004329,0.4690204618200746,1.3563228075264264,-1.2233833584390141,2.0,0.49006962817251565,0.49516698683428334,0.29375157483091296,-0.763171301018793,0.1152652108196793,-0.37477265056294073,0.51364283005412
9.3,-2.9700724295332126,-0.3904026040060474,-0.01598950948659074,0.03837474940822118,-0.3857539549070209,-0.023623877862087472,0.2283300347445144,-0.4274693137813874,0.8747201659465766,-1.8388990036823958,-1.9689387275993986,4.150697403757702,0.4690319719306891,1.356343031702258,-1.2233894507037562,2.0,0.4900653821945198,0.4951813292797286,0.29375269819820826,-0.7631648714742297,0.1152622690547469,-0.37477899095532025,0.5136484169337867
9.4,-3.077581708263198,-0.022470162446426044,0.0030163071312601653,0.02076648882576238,-0.3959538349287534,-0.01727322339576356,0.22835165414526526,-0.4275212934241476,0.8746890609957724,-1.8388662338256836,-1.968941696503171,4.150682677769506,0.4690030614900218,1.356337158005387,-1.223353687916891,2.0,0.4900739869114943,0.4951706196789413,0.2937358194893139,-0.7631776549702669,0.11525215131891624,-0.37478381676592903,0.5136281721837388
9.5,-2.738995014720355,0.17112450672826796,-0.06982049125657816,-0.00030559572618515246,-0.401305906074805,-0.01008599176423036,0.22855444984675857,-0.4279139197149819,0.8744441091341915,-1.838881460237941,-1.9689151330269614,4.150699138641357,0.46901623784985347,1.3563581360119634,-1.223365608845846,2.0,0.4900752210433909,0.49516163463280916,0.29372773501408744,-0.7631829983420433,0.11525770949480492,-0.3747802291143364,0.5136216032340012
9.600000000000001,-2.6054902341206096,0.5055911984950242,-0.027474133203148773,-0.018540422174006217,-0.40646885900872204,-0.005956839719912405,0.22830035857948308,-0.42744265866976056,0.874740763288055,-1.8388951920714713,-1.9689465851807835,4.150694348260939,0.46900709314065736,1.356363751337111,-1.2233608734875183,2.0,0.4900743488066396,0.4951584977234502,0.2937374881738057,-0.7631740276868324,0.11526555009369338,-0.3747816913810422,0.5136321059196178
9.700000000000001,-3.0254373631584244,0.9973070156484414,0.2040950898386475,-0.034442898183547045,-0.4125586910964319,-0.004304680611134648,0.22814607123403052,-0.4271637192028887,0.8749174288270233,-1.838910111630286,-1.9689187068791532,4.1506568710299625,0.46903053857157573,1.356337864579132,-1.2233710981408719,2.0,0.49007541535906096,0.49515762162566407,0.2937542364294829,-0.7631595935396998,0.11527132550665443,-0.37478884626184206,0.5136470354455249
9.8,-3.0596278802460244,1.0715531939061793,0.1631623886355503,-0.0594341935904434,-0.4294560472177175,0.0009984021862377897,0.2282047815587069,-0.427280428418239,0.8748451346138901,-1.8388963251505073,-1.9689710214435951,4.150680771170782,0.46897575727526314,1.3563580167681357,-1.2233840483478338,2.0,0.49007972681989626,0.4951616242913359,0.29374980611798224,-0.7631633747763424,0.11526487135033367,-0.37478638834748934,0.5136446592168753
9.9,-3.251630374695972,0.9262283099891649,0.133357837426831,-0.07396208196242783,-0.45329198761223594,-0.00035388658950450275,0.22817395626585488,-0.4272052595604038,0.8748898846274891,-1.8388853881235059,-1.9689571944701276,4.150683182318617,0.46902863561596675,1.3563646866145165,-1.2233611015765309,2.0,0.49008201497561316,0.4951608769930716,0.2937377257064924,-0.7631719882266417,0.1152633869175706,-0.37478331404654197,0.5136344376448843
10.0,-3.144299759425798,1.102795508807012,0.38571527607011574,-0.06032333517884857,-0.46621408851426405,-0.0023116317841634535,0.22834647214527845,-0.427519941215391,0.8746910607575913,-1.8388924264809805,-1.96892831588972,4.150640709395275,0.46903028785181833,1.3563594484231192,-1.2233727001623118,2.0,0.49007210394858586,0.49515792041405315,0.29372774984981154,-0.7631779230461766,0.11526453605055302,-0.3747833730429446,0.5136253184905589
10.100000000000001,-3.367375770399331,0.9140089598354645,0.5084308114395841,-0.06330732823453278,-0.4653056312776347,-0.007201844300490553,0.2284258724146135,-0.42765087575627375,0.8746063725073782,-1.8389043023687983,-1.968933896556279,4.15066385269165,0.46904103338208003,1.3563594333526048,-1.2233854306884886,2.0,0.49006269453374357,0.4951613572446701,0.2937284447549135,-0.763177070314846,0.11525546292463137,-0.3747808428107681,0.5136304678207162
10.200000000000001,-3.392683528523276,1.0826775977314658,0.6180896963492385,-0.059057460234618706,-0.46824942434372935,-0.009279730886763676,0.22829982519338282,-0.4273952448879164,0.8747642475782998,-1.8389338780642703,-1.9689355346186899,4.150675296783447,0.4690363207256385,1.3563685417175293,-1.2233671336691936,2.0,0.4900697146210525,0.4951634791053127,0.2937397492059754,-0.7631701171260681,0.11525369190583123,-0.3747802982434074,0.5136415937951697
10.3,-3.282845448575861,1.0240395387189718,0.59976279895221,-0.06344402879003415,-0.47097569415141477,-0.006689242249360751,0.2282434793403375,-0.42730740961505226,0.8748218609674049,-1.8388913084155194,-1.9689251385130824,4.150655359222398,0.4690247313191058,1.3563685417175293,-1.2233575922137518,2.0,0.49007626381817143,0.4951604153133117,0.29370834719157396,-0.7631902465995445,0.1152614603863513,-0.3747674598047893,0.5136193087456875
10.4,-3.24841967693846,0.8192883920576186,0.4860986966511446,-0.06396955015548828,-0.4712267201257162,0.0013386852238578932,0.22827474452125518,-0.42738719383225426,0.8747747228447227,-1.8388724768813036,-1.9689251385130824,4.150697515446896,0.46907727300610347,1.3563577671458773,-1.223342913345239,2.0,0.4900822635836397,0.4951613728768302,0.2936966249302559,-0.7631973693227887,0.11526471510334352,-0.37476848710145483,0.5136072448735575
10.5,-3.1957961854857597,0.7906338635487361,0.49046101759991917,-0.06507797060139013,-0.4714452386536119,-0.007133739233809139,0.22826910169066808,-0.42738370904499084,0.8747778799868063,-1.8388776779174805,-1.9689284884597276,4.15066036874714,0.46903754943756903,1.3563373940124066,-1.223339682176388,2.0,0.4900862575520328,0.495163566929575,0.2937129963157183,-0.763187056024887,0.1152621700518012,-0.3747819955366681,0.5136132839915345
10.600000000000001,-3.2989946771597376,0.890644883062271,0.4497260132720215,-0.06419925686134698,-0.4672825331755415,-0.00452465442244084,0.2281404115865541,-0.42711701501779914,0.8749416994377323,-1.838862368190043,-1.968965021402596,4.150672176452924,0.4690457762844745,1.3563577665232878,-1.2233397923921268,2.0,0.4900799351348108,0.4951579318523145,0.2937385993099847,-0.763171761510079,0.11525525890816263,-0.3747890457768325,0.5136324161239304
10.700000000000001,-3.180575402613366,1.119894789186974,0.5907593522081537,-0.053953845219139575,-0.471547906984431,-0.010658931266066977,0.2282092784135801,-0.42725126422642723,0.8748581979937139,-1.8388735634309274,-1.9689127491633658,4.150686740875244,0.46906169759496036,1.3563524791487942,-1.2233770613540396,2.0,0.4900758598012406,0.4951614900118365,0.2937469512191985,-0.7631631040449443,0.11526336380693925,-0.3747799602022632,0.5136500900605245
10.8,-3.175524294213047,0.9462699639269095,0.45154339995236575,-0.055586051377863266,-0.4703000162575567,-0.005372094785244325,0.22830243083954294,-0.4274367357209207,0.8747432929326286,-1.838902473449707,-1.9688912493719908,4.150657000917027,0.46903058420757127,1.3563580925430205,-1.2233894507037562,2.0,0.49007569402060464,0.4951616284287881,0.29376946598593595,-0.7631524318269742,0.11526410237164371,-0.37478499224325257,0.513662108871445
10.9,-3.1827952585004904,1.0449749536102129,0.5394178148761131,-0.055477540100231974,-0.47007916133048655,-0.005863599839415717,0.22850638105276436,-0.4278713439466981,0.8744773923229813,-1.8388662338256836,-1.9689102026047862,4.150699138641357,0.46904248057216374,1.3563625117588471,-1.2233833604454871,2.0,0.4900814130253985,0.49515155980537834,0.29375179563876486,-0.7631622787841333,0.11527179919399522,-0.374786311278831,0.5136447891584175
11.0,-3.3610257468034046,1.13436344743456,0.5781938202730742,-0.05822287348076293,-0.467501881212775,-0.003448435622248102,0.22866457715741406,-0.42820457374189674,0.8742730386704453,-1.8389123034688224,-1.9689353781163275,4.150699138641357,0.4690442615274431,1.356348062511039,-1.223367290171556,2.0,0.490082192854917,0.4951458420638673,0.29373803075107074,-0.7631715785646525,0.1152778508086211,-0.37478999965426596,0.5136269219416337
11.100000000000001,-3.2345873124803264,0.8611203212254063,0.4917415715390957,-0.06657522942944888,-0.47215701961267575,-0.0034322821500930604,0.22850713497199815,-0.4278606846100326,0.874482412587449,-1.838899251046212,-1.968922261367105,4.150683978815105,0.4690465575023569,1.3563685417175293,-1.223371775482846,2.0,0.49007398776032096,0.49515488960830667,0.2937358306269058,-0.7631709706255643,0.11526822454435942,-0.37478011665697425,0.5136371970208249
11.200000000000001,-2.9592487108457197,0.9091540392268157,0.5933678233164705,-0.0672936528236034,-0.47826720105595594,-0.0009823943317158975,0.22808279069376003,-0.4270042246235316,0.8750115864960646,-1.8388805213682349,-1.9689224044258185,4.150675296783447,0.46904974338661304,1.356336457906147,-1.2233761627311692,2.0,0.4900700165311608,0.4951671476900522,0.2937356968733425,-0.7631686796052619,0.11526347027335285,-0.3747795233431076,0.5136421008570253
11.3,-3.1581679584112097,1.0385841109123963,0.46289535446531693,-0.06095348942574327,-0.4733656143759012,-0.0019113195714494853,0.2276547743713503,-0.42617081226112546,0.8755291915278157,-1.8388706360532037,-1.9689222423107664,4.150673906606336,0.46903952735687576,1.3563351982958218,-1.2233923469060721,2.0,0.4900694668606015,0.4951616688772394,0.29375355184759816,-0.7631623791115234,0.1152575972474543,-0.3747900383236691,0.5136451075975765
11.4,-3.0344862323742894,0.7890686666685839,0.7313292497621254,-0.06809677458403289,-0.4728592622975858,-0.004806019872541598,0.22771555435266105,-0.42633711165097743,0.8754324917144806,-1.8388755979375604,-1.9689544013626976,4.150670963491947,0.46904311336200005,1.356349730679996,-1.223358021208391,2.0,0.49007993184980125,0.49515690973118676,0.2937552803229113,-0.7631632229675946,0.1152725240552582,-0.3747878002337369,0.5136421371963166
11.5,-3.051616255257002,0.5899035281696415,0.5471086347375332,-0.07376446488162292,-0.4745237251366353,0.0010020818015345214,0.22788963714334462,-0.4267046301339056,0.8752082384449603,-1.8388689404744447,-1.9689132175841273,4.150697672539946,0.46899752241643305,1.3563629028659436,-1.2233550976297873,2.0,0.49008639945315147,0.4951480199481096,0.29374434324282417,-0.7631662624266827,0.11527977637316457,-0.3747873984002885,0.5136362867373995
11.600000000000001,-3.019907080297853,0.823906098917942,0.4976400065738384,-0.06496151855817066,-0.4854486712355911,-0.0055271025079551605,0.2278519074875125,-0.42653517781372724,0.8753006551946612,-1.8388876365510043,-1.968933964737302,4.150686740875244,0.46904400429862597,1.356366932471067,-1.223353687916891,2.0,0.4900728489046191,0.49515852946562783,0.29376055612900726,-0.7631647113535327,0.11525853419585644,-0.37478358576971804,0.5136461403313515
11.700000000000001,-3.3403408438094644,0.5352624790797198,0.4695746410720498,-0.07041949751781153,-0.4780280917858413,-0.009678105545712436,0.22817883696050434,-0.4271412387762684,0.8749194234295853,-1.838902473449707,-1.9689116947615803,4.150702184286452,0.4690133140305633,1.3563461617692643,-1.223365608845846,2.0,0.4900700748432406,0.49517613593488424,0.29377444437363287,-0.7631488174578407,0.11525075998897785,-0.37478757841218924,0.5136685855710758
11.8,-3.30350149601623,0.680981499282958,0.49800293039447485,-0.06912256495482909,-0.47773060005023554,-0.008232273165515712,0.22844908605827888,-0.42767220230054975,0.8745896764648915,-1.838926775739327,-1.968905570796836,4.150680995638999,0.4690511097485445,1.3563475492873949,-1.223353687916891,2.0,0.49006993546634436,0.4951759144577724,0.29376663672173603,-0.7631522596883129,0.11525052331945812,-0.3747859021042319,0.5136647476624514
11.9,-3.4700247645686164,0.7147177092861494,0.6097358071972199,-0.06613047472773409,-0.4741842975993652,-0.012201873932886359,0.22794255582904285,-0.4267281640968307,0.8751826733585554,-1.8388563021134487,-1.9689202062128015,4.15067200858326,0.469050899137787,1.3563578538155134,-1.223353687916891,2.0,0.490067820998285,0.49516895731914684,0.29376283616891186,-0.763160223707409,0.11525492955437946,-0.37478351045505415,0.5136536717042517
12.0,-3.380100462161442,0.9961424716734938,0.561298255913175,-0.05876015921767669,-0.4808810165819408,-0.0029898692239511276,0.22791645416701364,-0.4266931331934624,0.8752067948464484,-1.8388776779174805,-1.9688802322727788,4.150650287728655,0.4690540089151357,1.356379280422279,-1.223360068922136,2.8246053386911596,0.49007573444306607,0.49515326718847114,0.293782767816175,-0.7631440594323622,0.1152608242036529,-0.3748019326410101,0.5136629227864843
12.100000000000001,-3.3137011455434977,1.026418664600863,0.8946889609784254,-0.08122565831958499,-0.4881723724894814,-0.00792268446402716,0.22800122593642058,-0.4268918942313663,0.8750877332422642,-1.8391170368413927,-1.9686068789903022,4.150675296783447,0.46911773965022474,1.356334161234161,-1.223377529774801,3.0,0.4900751264202913,0.49514766214898787,0.29377346206569804,-0.7631531052785896,0.11525675773143942,-0.37480012151960845,0.5136517172265358
12.200000000000001,-3.334589519026552,1.0805502051611553,1.4379986968475442,-0.09682094940578354,-0.48323021122453524,-0.018297828740522194,0.22760929648825828,-0.4263015276852768,0.8754772255618852,-1.8403285792889614,-1.9674678287673641,4.150769557181635,0.46934514322492377,1.3561272621154785,-1.2233218539282225,3.0,0.48996926015809883,0.49499078149013886,0.29390545195790957,-0.7631022139271626,0.11529018192730205,-0.37482892566723097,0.5136988042946785
12.3,-3.2022486480376666,0.5112391372239337,1.6064913850817752,-0.06147215425030976,-0.4472267539290203,-0.03512698008048234,0.22731716269948155,-0.4258507733980507,0.875772790297552,-1.8417587876769403,-1.966587854636076,4.150966506717182,0.46962350842136646,1.3559438770290941,-1.223228423091243,3.0,0.48978013453351144,0.49471332152824965,0.29406268366275345,-0.7630477994679191,0.11532405419606254,-0.37487290309340027,0.5137399388574695
12.4,-2.9519264320796035,0.26515178779064863,2.0554855987546286,-0.056847010528501066,-0.42725652730132463,-0.047265555739865885,0.2275368409986641,-0.4261160346384899,0.875586637960987,-1.8432683944702148,-1.9656053066993482,4.1513436394426,0.4698873593734259,1.355691167562976,-1.2232294072901808,3.0,0.48942026654162446,0.4943928151160067,0.29400422635942175,-0.7631278343984591,0.11530190736300447,-0.374827511276773,0.5136591431239514
12.5,-2.8696004765035217,0.9183743703853227,2.579373309106008,-0.06391407428284698,-0.4201136723718999,-0.051346436196689695,0.22773026539523292,-0.42635826722757664,0.8754184987492789,-1.8445683822021772,-1.9644906165836296,4.151516334133561,0.4701724514406674,1.3554912257732812,-1.2231700527349902,3.0,0.4890760192171178,0.4941367639924544,0.29391835056112464,-0.7632179710679288,0.11526193080630487,-0.374759508008712,0.513583807282536
12.600000000000001,-2.9540332854793063,1.0142961117114428,3.2000984927240808,-0.0655729546475998,-0.4070687280038961,-0.08025422738344679,0.22778186485941804,-0.4264760978574958,0.875347667364618,-1.8460113131430016,-1.9632030926146449,4.151767253875732,0.47044321139527323,1.3552756309509277,-1.223177048233287,3.0,0.48879628083450855,0.49384936323636486,0.2940366977793198,-0.7631929659184897,0.1152623273775445,-0.37477209836275666,0.5136116888748027
12.700000000000001,-2.5794851087117876,1.1906525043901581,3.2026514099921055,-0.08966743970515544,-0.3981247535631213,-0.08973426160596829,0.22775501850310534,-0.4264401501633867,0.8753720733684787,-1.8474598314905148,-1.9619485736562163,4.1520298927404475,0.4706849070851635,1.3550730147634953,-1.223085485425493,3.0,0.4883134884822564,0.49335312914670665,0.29427874987623376,-0.7631452020885725,0.11526857915173779,-0.37479753207369004,0.5136626958822321
12.8,-2.764595203840054,1.0407877227376043,3.245311144237889,-0.07765439104194635,-0.41400168933068304,-0.10721751987351555,0.22734376197615522,-0.4256407101734845,0.8758680244890299,-1.848783282198182,-1.961057900008389,4.152230935130506,0.47097451029009374,1.3548577358927152,-1.22309448186386,3.0,0.4879787225933447,0.4930038049243731,0.29440209130634,-0.7631310153465087,0.1152734592155944,-0.3748094250736803,0.5136739996268205
12.9,-3.2294588337249586,0.9038509736670675,3.532721966486067,-0.06451337898103819,-0.44351681956925176,-0.12562316946758478,0.22742677578747936,-0.4257363262489347,0.875799996045796,-1.8500059830857625,-1.960009403652405,4.152429001648678,0.4712389382618095,1.3546162712696062,-1.2230391837035903,3.0,0.48771156889191314,0.49275026981375974,0.2944328615352982,-0.7631461787604685,0.11526199524434769,-0.37480276519459366,0.5136589038438576
13.0,-2.773896574122438,0.926252239974434,3.4584755321855254,-0.06860487871266822,-0.45225867449272134,-0.13513461409223487,0.22738747547769947,-0.4256526359249717,0.8758508610833255,-1.8515323430909674,-1.9588262914989678,4.152662453545821,0.4715027673057416,1.3544056666208175,-1.2230005359276137,3.0,0.4873113506305902,0.4923836766734582,0.29450378217211315,-0.7631617560462365,0.11524863495752083,-0.37479146506676636,0.5136470032638751
13.100000000000001,-2.276825266704487,1.1578935278396572,3.271026110065148,-0.07812944524876077,-0.4101265967920757,-0.14658303915788873,0.22728527223470524,-0.4254867592568536,0.875958000046643,-1.8530693029918968,-1.9576695724138427,4.152857303619385,0.47181205200250764,1.3541588199863677,-1.2229226271258753,3.0,0.4869936050192898,0.4920477436055776,0.2945821003824001,-0.7631676143486266,0.11526082601683775,-0.37479103865958396,0.5136358746581207
13.200000000000001,-1.8858052250562007,1.6438625018860111,3.390627160022933,-0.09815544685576089,-0.3659398890964639,-0.1551427604733479,0.22733916114209568,-0.4256448532071196,0.8758671978710821,-1.8543656947342013,-1.956511809732722,4.153063741390592,0.4720357436947374,1.3539461224742866,-1.2228762874419588,3.0,0.48671765966810915,0.4917381066263365,0.29465450547913824,-0.7631715729827777,0.11527026411618367,-0.37479597049384533,0.5136242760064553
13.3,-1.0984425678624372,1.8145862102482508,4.386352288131604,-0.15152469219410103,-0.27689331722918653,-0.1579203668864609,0.22688936263871304,-0.4248362941302917,0.8763750947574033,-1.8555681855810542,-1.9554832726740838,4.1533212164400535,0.472299057966197,1.3536699066878102,-1.2228267828570765,3.0,0.4862900838401051,0.49128980261569893,0.29481653219852677,-0.7631485388995407,0.11528358398373698,-0.37481778057775333,0.5136395956330938
13.4,-1.0333028021055708,2.4268698128058728,4.715794972574337,-0.19638860398721072,-0.22061266491922854,-0.1770765651428298,0.2261745692625389,-0.4235067477334844,0.8772040807333241,-1.8570207847456561,-1.9544373894009406,4.15358707925678,0.472546751638102,1.3534921554538042,-1.2227790991412562,3.0,0.48592566432304835,0.49095171625257733,0.2949233089180291,-0.7631424735812282,0.11528954613653389,-0.374824071781658,0.5136426781148299
13.5,-2.0503168741906825,1.8777495196436573,4.987079016189703,-0.16068308566199335,-0.33822540785905925,-0.19949234671045518,0.2266099231857575,-0.4242306175941971,0.8767416321170893,-1.8585859585990214,-1.9533083002015244,4.153783922313621,0.4728061395832519,1.3532702770542258,-1.222792747866244,3.0,0.4855599307645248,0.4906034891281981,0.2949612362214233,-0.7631708877789498,0.11526941596441545,-0.3747962760460164,0.5136252615009804
13.600000000000001,-2.300913515996199,1.5623258450749244,4.930885675413534,-0.14519327429452045,-0.40851875433100665,-0.21582367442581946,0.2264345269639564,-0.42384194679405324,0.8769743577683773,-1.85983436172256,-1.9521181680650856,4.1540787704965325,0.47305554779995074,1.3530550226881344,-1.222675734345115,3.0,0.48522991707563295,0.4902760983447638,0.29498854628359084,-0.7632112144677482,0.11526640018790543,-0.37477024914676105,0.5135850070366746
13.700000000000001,-2.678732893142543,1.3123826765677111,4.630930947889563,-0.12253684831359754,-0.43774376497448786,-0.2315140948707666,0.22581223668399664,-0.42263885993980055,0.877715912548717,-1.861109895005147,-1.9510383434786003,4.1543010101413,0.47330188880417906,1.352846857056728,-1.2226374003087075,3.0,0.48494755391654043,0.49001275887947215,0.2951125035012305,-0.7631862551418915,0.11526187010331906,-0.3747765212126133,0.5136185358907457
13.8,-2.4523518995592637,1.7652246080574943,4.6482975907595785,-0.12858972147948877,-0.39438572321220144,-0.23402980229050785,0.2257070186085565,-0.42238082631859425,0.8778671694745924,-1.8625672798317696,-1.9498997735792292,4.154506111087534,0.47355903304607394,1.3526367578512217,-1.2226130796877626,3.0,0.4845457484299377,0.48964021584996203,0.29528366107990595,-0.7631462811159395,0.11524930049835,-0.374786954800588,0.5136731362110096
13.9,-1.4521759304302553,2.386900239304799,5.181652372320959,-0.1819878872984977,-0.2630351267430986,-0.22403923126314124,0.2254235898628202,-0.42199821772510676,0.8781239478317576,-1.864099258203476,-1.948695798913473,4.154690739750481,0.4737685218907006,1.352443632607262,-1.2225863347493418,3.0,0.4842008350568933,0.48924434293524094,0.29536754362769235,-0.7631500673945043,0.11528257772140156,-0.37481045897299803,0.5136428932187449
14.0,-1.977870936453243,2.4447164216297432,5.229896224061376,-0.2091016246570152,-0.31593447228163846,-0.2314394628167326,0.22515378720980486,-0.4213907758776712,0.8784844939711478,-1.865374137256064,-1.94760829293804,4.154940860773296,0.47400555729485855,1.3522295951843262,-1.2225501066916007,3.0,0.4839146050909857,0.4889210556867591,0.2954563516167373,-0.7631563497554734,0.11528982886958819,-0.37481109618168995,0.5136314664876003
14.100000000000001,-2.1954105609725154,2.215091676153207,6.0463632601686434,-0.21991136854112564,-0.3646008904767753,-0.24325595094572505,0.2248838777284355,-0.4207840447845229,0.8788446999233079,-1.8667033035679428,-1.9465661663459493,4.155195713043213,0.47431536459921597,1.352014406565638,-1.2224677244769495,3.0,0.48348029837397766,0.4885297387222455,0.2955658298855607,-0.7631726017950369,0.11525092812865861,-0.3747709310633017,0.5136453568998973
14.200000000000001,-2.724967696347223,2.369423196029637,6.414788145637935,-0.21753789444726493,-0.4020731309847815,-0.24465575093963643,0.22460914493818437,-0.4202094043053157,0.8791895463943332,-1.8680746616187922,-1.9456029505451002,4.155411243438721,0.47456757604565425,1.3517608642578125,-1.2224213387882177,3.0,0.4831337157215129,0.48821105420370076,0.2956187315548459,-0.7631827338810341,0.11523844155637691,-0.3747567010360372,0.513643486595629
14.3,-2.4832743266926394,1.4449028187273076,6.22551088111745,-0.19238457990341007,-0.3991843766156591,-0.2468912092200395,0.22430293641798996,-0.41957517930039084,0.879570473278652,-1.869589683836134,-1.9443436781741485,4.1555849339312,0.4747926991771353,1.3515377957929435,-1.2223882424348276,3.0,0.4828586168645483,0.48793770612554055,0.2956409589932735,-0.7632055909003004,0.11523611799247305,-0.37474519839766796,0.5136184375647359
14.4,-2.4225209609316187,1.2910707731244724,6.269585163560669,-0.15853734109151157,-0.3785652256547257,-0.23755945867894349,0.22118201522594821,-0.41361267259651924,0.8831778039986343,-1.8708229828301444,-1.943065609305943,4.155842540527871,0.4750442023510574,1.3513627306760474,-1.2223243025145578,3.0,0.4824451729732211,0.48750078641260464,0.2957784694060241,-0.7631963522551266,0.11524579262135823,-0.3747555291967337,0.5136224571842822
14.5,-2.4109526095683584,1.2907707886952213,6.412726571500374,-0.15519932356374452,-0.3760070154018061,-0.24138080648084395,0.2195725988755536,-0.4105440058570784,0.8850049325610176,-1.8722410143525643,-1.9419596980192384,4.156057482270878,0.47527304314917385,1.3510919891326822,-1.2223241964923304,3.0,0.48210815235148125,0.48712562595819614,0.29596916853085115,-0.7631517485916454,0.1152542864762423,-0.37478662632909776,0.5136641342309382
14.600000000000001,-2.2061018631777203,0.8720835703727297,6.376000157286605,-0.13520662747070067,-0.36448089572826614,-0.2402611876388187,0.21809601841291312,-0.40771634638563314,0.886676988600386,-1.873559877211748,-1.9409418792489292,4.156266556580014,0.4754860058027009,1.3508864528299098,-1.2222488355261605,3.0,0.48185403997204307,0.4868762047289947,0.2960478777688153,-0.7631466025866318,0.11524959843309898,-0.37478630829136744,0.5136730634740536
14.700000000000001,-2.2649435194984964,0.47399823437602695,6.0477723395746485,-0.08049028688953691,-0.34002284060772336,-0.24891676012351535,0.21675494659642697,-0.40513454343046207,0.8881908519404413,-1.8749302124793168,-1.9399597146461085,4.156516416838332,0.4757981607307563,1.3506468526687396,-1.2221832895556395,3.0,0.48144083387219794,0.4864621884532526,0.29610429906394153,-0.7631703161073917,0.11525351387737277,-0.3747736134138512,0.5136462156389231
14.8,-2.516381762839618,0.5313346144378732,6.598924906529622,-0.10530045239444913,-0.382242966048446,-0.24938586526298986,0.21548328775076028,-0.40260878947522977,0.8896448124474623,-1.8762411408103192,-1.9387821873778917,4.156732319767611,0.4759714812718132,1.3504319915178526,-1.222174481730883,3.0,0.48107409420679487,0.48611121315248346,0.2961343972148623,-0.7632099189223622,0.1152437084021106,-0.37475553516141324,0.5136027610888921
14.9,-2.7572997077170696,0.7607892453353544,7.027653148273759,-0.11758310694142458,-0.40473122168541414,-0.24709340510091074,0.21471196004581747,-0.40113931502130956,0.8904975816730525,-1.8776578903198242,-1.9374492286335183,4.156940611943718,0.4761274883429044,1.3502050247370032,-1.2221205870257776,3.0,0.4807334755790565,0.4857637395867935,0.2962834697370614,-0.763191849757033,0.1152384014479716,-0.3747657988227045,0.5136233126805428
15.0,-2.6659247930309427,0.9339807194372977,6.784303916636058,-0.13378604075404518,-0.41885134313671,-0.23981720450760965,0.21449710256779486,-0.4008465922853267,0.890681196249587,-1.8790141083821934,-1.9362855902338671,4.157138437226155,0.4763290125080566,1.350009828612468,-1.2220614126259406,3.0,0.48039743931164847,0.4853743938051308,0.2964835519904164,-0.7631503822400796,0.1152623581850057,-0.3747948284460534,0.5136583684147911
15.100000000000001,-2.9328847064126777,0.996988333139225,6.756132538168922,-0.13732311190285337,-0.4259711676982324,-0.24143464505379864,0.21358130348786616,-0.39911750065127033,0.8916770573600238,-1.8799449531308141,-1.935571171067981,4.15730722387986,0.4765756144496634,1.3497865607066089,-1.2220842268163274,3.0,0.4800373535480569,0.48499376858620785,0.29658022434743614,-0.7631585229569379,0.11526281355906445,-0.3748073579949114,0.5136370284953256
15.200000000000001,-3.0877122738484855,1.2770231187775731,6.4923872320721685,-0.13418312590513978,-0.43588421931115645,-0.2436009134332135,0.21447616537867026,-0.40081158340458667,0.8907017926442735,-1.8799732723422866,-1.9355778904973713,4.157344657873624,0.4765326429984476,1.3498329768227542,-1.2220284878453584,3.0,0.4798217516718994,0.48479907516171517,0.29662266733640985,-0.7631604257832434,0.11526170649913035,-0.37479360639365034,0.5136444841908541
15.3,-2.8383485882619808,0.41473696665763904,6.253839698531092,-0.14857233032718684,-0.4370770897820212,-0.24118431433697374,0.2141813539989302,-0.40024745419912483,0.8910265197541347,-1.8800376363187103,-1.9355951748290003,4.157339260359063,0.4765872591340644,1.3498422358229294,-1.2220351823184266,3.0,0.4797700565780652,0.4847547889611668,0.29663865948563667,-0.7631496935395834,0.11526639720787155,-0.3747892412082181,0.5136625619993396
15.4,-2.687662247013863,0.9167938289310245,6.339005263679202,-0.13963185397461794,-0.43825395383185106,-0.2390838454154413,0.21463670073472904,-0.40112423880507936,0.8905224868691044,-1.8800466752052307,-1.9355946979918421,4.15733727812767,0.47653288065876764,1.3498418128490448,-1.22203436890711,3.0,0.47977617437283404,0.48475234987226,0.2966238177857499,-0.763155284308159,0.11526334523717177,-0.3747965558816203,0.51364960330613
15.5,-2.9811196936397115,1.2284139597061026,6.105988287768487,-0.13729553055228777,-0.4387696124116005,-0.24178013420474903,0.21482020527544704,-0.4014522000790529,0.890330470979561,-1.8801195120355885,-1.9355237965584684,4.157364368438721,0.47653788540642567,1.34983224929518,-1.2220484373116904,3.0,0.4797612202534927,0.4847468551726598,0.2966198750221481,-0.763164578301493,0.11525881371527236,-0.37478530117506215,0.5136450236398388
15.600000000000001,-2.9603967176699912,1.1815387615750024,6.085697742306094,-0.13651462727132685,-0.44097363663779043,-0.24485520606929775,0.21479223468914682,-0.4013942855131687,0.8903631975992755,-1.8801097289745123,-1.9355129244871043,4.157319888398744,0.4765218550528142,1.3498322002729322,-1.221992660483116,3.0,0.47975056126031435,0.48473706061368527,0.29662643164212354,-0.7631635935147703,0.11525505174865007,-0.3747809672180783,0.5136504932258124
15.700000000000001,-2.8544792097707345,1.3096128536536105,6.267060495274637,-0.1373910106243327,-0.44700609347366416,-0.23932601639001133,0.21450036430228359,-0.4008632195164729,0.890672712335944,-1.8800851700908445,-1.9355244620273342,4.157339185387219,0.47658954423220196,1.3498336834970095,-1.2219933772193081,3.0,0.47975474455396117,0.48472775748776015,0.2966296626704407,-0.7631646565579172,0.11525561701524384,-0.37477900595568714,0.5136502179714699
15.8,-2.8404813663843744,1.1854027338774349,6.094610770820496,-0.14084591893648407,-0.44631206994320355,-0.240405595461673,0.21414053053524248,-0.4001825621847239,0.891065187795559,-1.8800534006631118,-1.9354988537230433,4.157317578627454,0.47654455762584813,1.3498512215341663,-1.2220595969170063,3.0,0.4797612872849882,0.48471790374858315,0.2966312820546973,-0.7631666889017754,0.11527166172564773,-0.3747773565909476,0.5136448013368873
15.9,-3.016076103431032,1.3267383328537317,6.090166245790312,-0.1380194944449819,-0.44344542090598366,-0.24045741541341858,0.21367712195785038,-0.39927393069810296,0.8915840937111533,-1.8800612966757602,-1.9355350933470667,4.157347350158462,0.4765637638579069,1.3498196601867676,-1.2220293636605466,3.0,0.47976227431261154,0.4847143473720019,0.2966286145189835,-0.7631664039644284,0.11526186010201003,-0.3747887688231273,0.5136390972559156
16.0,-2.8638805145297157,1.1896555781503866,6.077866185509852,-0.14350125231289906,-0.4479094464687172,-0.24167754464023442,0.2134635178707551,-0.3988362378929845,0.8918311849215436,-1.880086715902389,-1.9355340785473896,4.157318714322255,0.47654155962989386,1.3498444762523678,-1.222033517569555,3.0,0.4797553811875009,0.48472043511455054,0.29664353327145654,-0.7631541577329183,0.11526184274396192,-0.3747871628470357,0.513658467960274
16.1,-2.6197112215661766,0.8383864735948511,6.14232738760879,-0.1510805880799718,-0.45012354716728264,-0.23534510565047675,0.21344133739211033,-0.39877405300937696,0.891864248687601,-1.8800992965698242,-1.9355240744962898,4.157352924346924,0.4765559869953613,1.3498549461364746,-1.2220458938933656,3.8267420519662294,0.4797483205669222,0.4847337215511351,0.2966543888703914,-0.763147423807355,0.1152536909665614,-0.3747819936935038,0.5136740731805569
16.2,-3.114921326304552,1.3601079598100436,6.156082071731236,-0.14158397525324762,-0.44241816299018316,-0.2396159535367355,0.21368640270964973,-0.3992405416427321,0.8915967729216195,-1.880116284369746,-1.9355112514891566,4.157338612920932,0.476563603767401,1.3498311042785645,-1.2220266532612345,4.0,0.4797415745554508,0.4847462201970507,0.29664175516557156,-0.7631583330233622,0.11524830746212505,-0.3747744470731038,0.5136645794535262
16.3,-2.9002534088687577,1.2373884068327643,5.905875650804927,-0.1427374708231602,-0.4475540377553403,-0.2360769646743289,0.21381230311090613,-0.3994960347193842,0.8914523017942968,-1.8800653044785494,-1.9355123320337473,4.157373737884903,0.47654575031842933,1.3498662201362135,-1.2220365368156596,4.0,0.4797529621174442,0.48472710619935666,0.2966201968164443,-0.7631710161022383,0.1152689747972725,-0.3747725034579992,0.5136425160386227
16.400000000000002,-2.986404855597273,0.9874367362555702,5.912627497812801,-0.15029443069430676,-0.4462629263648734,-0.23280359059358505,0.21372748048359072,-0.3993784177892448,0.8915253435960729,-1.8800648214963545,-1.9354997359983201,4.157320892497298,0.4765772498947698,1.3498319865538413,-1.2220282414561323,4.0,0.4797564729766851,0.48472399398086935,0.29662702918004386,-0.7631629319372911,0.11527328100495093,-0.3747792053598493,0.5136486710126591
16.5,-2.938705660071143,1.1423294356445948,5.928228974599806,-0.1476043158745855,-0.447510504206454,-0.232530828686151,0.21327491377974123,-0.39847832433446195,0.8920362204596718,-1.880054129554007,-1.9355223445562686,4.1573183404465865,0.476543589229248,1.3498549461364746,-1.2220589756326312,4.0,0.47975371974999576,0.48472812872797205,0.29663179892980546,-0.7631605287281302,0.11526165657701001,-0.3747857781319585,0.5136500544383757
16.6,-2.7973374846781507,1.15489665431524,5.981178021777952,-0.15112994792490844,-0.45150990244031963,-0.23588112334045622,0.21307569843805085,-0.3980749709462981,0.8922640005141188,-1.8800571497561862,-1.935520895143827,4.157351763383563,0.4765536650686396,1.3498184992234068,-1.2220137755023401,4.0,0.4797600729646962,0.4847172676510394,0.29664202377003607,-0.7631596706084154,0.1152469059339594,-0.3747992536454748,0.5136448065504988
16.7,-2.859787592718558,1.170567435294704,5.879681793977134,-0.1513762991263824,-0.45080265135976033,-0.22891482877068473,0.2130849174968995,-0.39805172493042146,0.8922721792377513,-1.8800867975623339,-1.9355432090444133,4.1573405265808105,0.47654260966467554,1.3498416182666537,-1.222034754017654,4.0,0.4797512862962008,0.4847293480172589,0.29664822292282633,-0.7631592259401132,0.11524975587033072,-0.3747850131606676,0.5136552185508041
16.8,-3.0313241909960116,1.2159531190338368,5.8721264916560365,-0.15093816876067462,-0.44475898022692895,-0.2298529263629539,0.21279599741858676,-0.3975200346531488,0.8925778952186968,-1.8800938104482798,-1.935519490941812,4.157330005645752,0.4765214798307729,1.3498250019366924,-1.222029305721785,4.0,0.4797409898500678,0.48474062157514936,0.296658722233127,-0.7631501936436269,0.11524991309250283,-0.37477372661526237,0.5136768374306688
16.900000000000002,-2.904741548878521,1.3773657433217417,5.986494526600801,-0.14203367521281468,-0.4484105055408536,-0.2299313829959937,0.21232512416046628,-0.3966535365023459,0.8930749826750094,-1.880053001175744,-1.9355350933470667,4.1573397745732015,0.476543589229248,1.3498542519756047,-1.2220264195155348,4.0,0.4797602786993213,0.4847106550410402,0.2966418431336763,-0.763156223804618,0.1152595139080623,-0.3747901932545803,0.5136537097716201
17.0,-2.6915915170319495,1.1143683591253686,5.899287685992917,-0.15043470236333992,-0.4543784313592281,-0.23187887850916944,0.21161051662572308,-0.39531984659430336,0.8938358318824776,-1.8800856313798637,-1.9355410649059408,4.1573090482279556,0.4765415267809532,1.3498093248689491,-1.2220356342368899,4.0,0.4797585201841185,0.484710526605358,0.296647322877221,-0.7631567823104133,0.11526671462049962,-0.374796476329719,0.5136466795814408
17.1,-2.8135684407332615,1.0128209765702014,5.868812281229317,-0.15481593002773028,-0.4534264980141015,-0.2355337453162047,0.21202078797726098,-0.39602534783304144,0.893426375392707,-1.8800731354515692,-1.9354988537230433,4.157315319136872,0.4765755044975148,1.3498238707436885,-1.2220332930044937,4.0,0.4797402998314479,0.48473530428796013,0.2966452945197372,-0.7631601851689449,0.11525743950326636,-0.37477641354819463,0.5136583439018635
17.2,-3.0798944618592587,1.3052391451403547,5.757547884212855,-0.14685212169645082,-0.4478818627260167,-0.2304319505131371,0.21248782065334337,-0.3969093032429208,0.892922930468533,-1.880078267651935,-1.9355332824747893,4.157339584927226,0.47652336911589294,1.3498311042785645,-1.222050443725344,4.0,0.4797420055138792,0.48474040308413185,0.2966293238273344,-0.7631683426771682,0.1152538190146434,-0.37477078200660674,0.5136511451287542
17.3,-2.891549949947311,1.1016414872027958,5.752145099636,-0.15136850570576915,-0.4500653169753438,-0.23425627296645554,0.21275373731178748,-0.3974404883650855,0.8926235954549915,-1.8800878524780273,-1.9355231724181117,4.157329414721863,0.47656495818876266,1.3498311042785645,-1.2220231740749319,4.0,0.4797473705279007,0.484740048439533,0.2966350689730615,-0.7631602709990704,0.11524881655508552,-0.37478150533317256,0.5136564360654688
17.400000000000002,-2.8795631893355,1.2163558828542627,5.785734086938859,-0.14747633045411354,-0.45166402303167613,-0.22868417141441544,0.21263303292117103,-0.39724320048330414,0.8927401708129936,-1.880063850953547,-1.9355334391642622,4.157296123898654,0.4765354261711143,1.3498311042785645,-1.2220154296851446,4.0,0.47975320926943604,0.4847229361481408,0.2966431693391083,-0.7631563292747618,0.11525660206934205,-0.3747893085047773,0.5136548520142796
17.5,-2.8614894702670672,1.2206985440236193,5.845297141380667,-0.14928326326587812,-0.4511550563024821,-0.23194253498716316,0.21270256632535625,-0.39741140708253553,0.8926486598441418,-1.8800850897208299,-1.93551865173165,4.1573405265808105,0.4765410238118503,1.3498435020446777,-1.2220520050367032,4.0,0.47974327170387554,0.4847252973766618,0.2966342343329541,-0.7631658169474815,0.11524938838372939,-0.37478150046834946,0.5136480713745082
17.6,-2.9566742940380366,1.5220331441408763,5.793352276458065,-0.14495664043231052,-0.4514749702278085,-0.23040832285639173,0.21283209640355838,-0.39769488232885764,0.8924915231801821,-1.8800878524780273,-1.9355293556692024,4.157320459510969,0.4765455521190437,1.3498176972969718,-1.2220090028081256,4.0,0.47975656323754606,0.4847104550197044,0.29664734142372223,-0.7631509234640557,0.1152691630585029,-0.3747963552064051,0.5136549232585487
17.7,-2.9029499591444914,1.2737386394349464,5.767441286591152,-0.1473693225515811,-0.4509356081973478,-0.22716104465550924,0.21300226636845956,-0.39802663701488034,0.8923030356001505,-1.880076169259978,-1.935523974448102,4.157352924346924,0.47653202557432484,1.3498180561267865,-1.222044694028063,4.0,0.4797625993007649,0.4847054304678465,0.29663728580299853,-0.7631566736693824,0.11527232538139806,-0.3747932755400867,0.5136479173957411
17.8,-2.7420945418484157,1.109472271132736,5.8474095216209525,-0.15278306851370194,-0.45455053482796376,-0.22636602607080542,0.21329293268807237,-0.398501539159323,0.892021593255468,-1.8800745010375977,-1.9354660450481955,4.157352163882444,0.4765428287647682,1.3498296418468727,-1.222027158862987,4.0,0.47975281383418533,0.48471922476714047,0.29663184289188016,-0.7631683214436705,0.11525424322210767,-0.37478120371290047,0.5136434774312422
