xiamingqian9007/apple-picking-rnn/final_data/grasper_20191127_121756_noimg.csv
,/manipulator_wrench.fx,/manipulator_wrench.fy,/manipulator_wrench.fz,/manipulator_wrench.tx,/manipulator_wrench.ty,/manipulator_wrench.tz,/ground_truth.x,/ground_truth.y,/ground_truth.z,/joint_states.elbow_joint,/joint_states.shoulder_lift_joint,/joint_states.shoulder_pan_joint,/joint_states.wrist_1_joint,/joint_states.wrist_2_joint,/joint_states.wrist_3_joint,/mode./mode,/manipulator_pose.x,/manipulator_pose.y,/manipulator_pose.z,/manipulator_pose.rx,/manipulator_pose.ry,/manipulator_pose.rz,/manipulator_pose.rw
0.2,0.09038038715736063,-0.1340954439709452,0.10035235134983007,0.007236329533169415,-0.021201517419420713,-0.011679278382368239,-0.2607690277619792,0.3016587265966374,0.9170612993677172,-1.6248439651296245,-1.8021066195963444,4.144424161354757,-0.017364875895486756,1.366078130423143,-1.4409640471087855,1.0,0.49460826067932906,0.4978348230483364,0.4253948262560699,0.8033500903567243,-0.02537152241755896,0.40581264794517696,-0.43508736242481494
0.30000000000000004,-0.3546770187967486,0.07858162804308305,0.16430959139604867,0.006307733277981648,-0.021877304528418472,0.004758192529263561,-0.2610936214874666,0.30208459537531385,0.9168287054034712,-1.6218573321970011,-1.8049849682586616,4.143838689817754,-0.017195873616391768,1.3666621685291087,-1.4411317269086181,1.0,0.4946043663168912,0.4978556988796408,0.42543918472193504,0.8033239557610251,-0.02537557215663966,0.4058011487436304,-0.4351461020353183
0.4,-0.09032384349356254,0.14014293100582892,0.05865490206697864,0.0017942667345225947,-0.018783614386806063,0.0017278377831826002,-0.2614013679649683,0.30240367896204157,0.9166357706713363,-1.6187756065061338,-1.8087315348772042,4.143240451812744,-0.016956193353050052,1.3672389859201195,-1.4413220591528604,1.0,0.4952701670002924,0.4984344245109319,0.4253520489843999,0.8032443773777499,-0.025418185794999795,0.4058873452851362,-0.4352101204927413
0.5,0.10947709624834964,0.3222002032050732,0.1050918552909435,-0.0024060645058310744,-0.004444371063860416,-0.0008242150341437079,-0.26180356471243454,0.30283842376212505,0.9163773355685485,-1.6154406380273214,-1.8122195212996308,4.1427413231839205,-0.01663412306766823,1.367739767681666,-1.441479508076803,1.0,0.4966478970962821,0.4998626212350974,0.42446429339195285,0.8033892367795593,-0.025359013915913,0.40577388322998575,-0.435051962791145
0.6000000000000001,0.007807655370712013,0.31320063450215674,0.13616260429451946,-0.0062599447487417925,-0.012305483074034743,0.00439709924698667,-0.26236942336350383,0.30347358444622813,0.9160054024805061,-1.6121281702717305,-1.8158469423161077,4.142149448394775,-0.016441882678171954,1.3682562965246094,-1.441666769217965,1.0,0.49729354562639505,0.5005514606452556,0.42418220098015236,0.8033839231085177,-0.025347681107151965,0.40578249426385204,-0.43505440407179435
0.7000000000000001,0.09789333020560508,0.20161423383974852,0.167125013082301,-0.005234108629613117,-0.012578882867431328,-0.00429407713294057,-0.2620909553440644,0.3030931382907151,0.9162109780042527,-1.6091541429586431,-1.8188957592855524,4.141561130644853,-0.016247726181603937,1.3687027489202028,-1.4418603529178329,1.0,0.498204877217134,0.5014766676531527,0.42378550720672636,0.8033734109693706,-0.025367274123786195,0.4057915732215299,-0.43506420566781046
0.8,-0.24555772508899049,0.7571516079179417,0.31278077889579925,-0.0033057345497930204,-0.027765207084784683,0.003549006676482949,-0.2620750931788041,0.30300143484434694,0.9162458437441766,-1.6058826847972791,-1.8223209064057873,4.14097787956905,-0.01608982180832642,1.369195091161325,-1.442015541337278,1.0,0.4995819270098014,0.50275779369579,0.4232456333649738,0.8033463861476312,-0.02542091442829584,0.40584705269687493,-0.4350592267616333
0.9,-0.08222774585305005,0.49964199453059366,0.09850318124759054,-0.004268617703747458,-0.02108277510453664,-0.0023663583962702478,-0.26259951429965983,0.3036058734582147,0.9158957060370345,-1.6030000055753268,-1.8254064912824939,4.140544593425897,-0.015922790770866443,1.3698057656448621,-1.442129685766502,1.0,0.5001334140865551,0.5033149762052099,0.4230303179817702,0.8033420038236838,-0.02540545746681767,0.4058570216768749,-0.4350589219623324
1.0,-0.18945403824333246,0.23615528852698237,0.20266147285990874,-0.00118226759373355,-0.0009454202948798673,0.00038051288374476547,-0.2626477829079776,0.3038333214606094,0.9158064426566248,-1.5999921744648937,-1.828412479712494,4.140074606010734,-0.015750818729416038,1.3703228325618018,-1.4422969352125794,1.0,0.5012647223525108,0.5045363797134838,0.4224767439264357,0.8033604936610583,-0.025351385264004395,0.4057897263859609,-0.4350907060021664
1.1,-0.3439195340938319,0.3744657301350381,0.16498461254527794,-0.010808003663112348,-0.009098992542049378,-0.00394498305029663,-0.2623231839033615,0.30356990437278847,0.9159867938334899,-1.5972271979217838,-1.831337229448122,4.139649773369454,-0.015563944357188308,1.3707696664889493,-1.4424530846621741,1.0,0.5017772475508904,0.5050793241254334,0.422316403829037,0.8033245916044968,-0.025333556277130454,0.4057998154028619,-0.4351486197482708
1.2000000000000002,-0.11247836567645986,0.340194136364727,0.08103585081345037,-0.015701608715461134,-0.01935411584586319,-0.003640411592800567,-0.26219586129505623,0.3034076885542916,0.9160770079672531,-1.59437744723862,-1.834325374898645,4.139212131500244,-0.015446023350097704,1.371154707210758,-1.4425999974530883,1.0,0.5025294162327075,0.5058708523450558,0.4219442778286592,0.8033337374545408,-0.025330720528353685,0.40578602017515075,-0.4351447652164107
1.3,-0.21697351176576612,0.521104232552119,0.1710336654142267,-0.007489096049074824,-0.02448224767787909,-0.00285183417635963,-0.2621309362912003,0.303291838743447,0.9161339560778503,-1.5917245748457214,-1.8371177572458035,4.138757228851318,-0.015340925530155999,1.371546903395317,-1.4427100666871013,1.0,0.5037723269721928,0.5071511753071539,0.4213130052297093,0.8033784631147279,-0.02532940988919856,0.4057703680489771,-0.43507686034938753
1.4000000000000001,-0.008035198433412966,0.623653306791456,0.3197556891496073,-0.008787064360648779,-0.02631336451115222,-0.0035800382928812143,-0.26208054011654247,0.3031577135835072,0.9161927619497604,-1.589096304024406,-1.8398452024432623,4.1382701289638355,-0.015221631109048167,1.3719072376920285,-1.4428311433598449,1.0,0.5042213948979898,0.5075977200869629,0.42108823890413977,0.8033918236752827,-0.025333971258227173,0.40576065303887154,-0.4350609842280263
1.5,0.06932759245424093,0.1942614780973765,0.3549303587031951,-0.00711843385753631,-0.021996959299823246,0.0067093410340711415,-0.26194492976579314,0.3029418063088985,0.9163028950038121,-1.5865191252046171,-1.8424422923977994,4.137918949127197,-0.015168943130610176,1.3723256203084773,-1.4429805927691646,1.0,0.5052601679983837,0.5085487801590253,0.42068661952066344,0.803376698083555,-0.02537898207893348,0.4058005009751192,-0.43504912556324504
1.6,-0.12920213441688191,0.3149467158909423,0.16229373323982066,-0.005377488277312163,-0.02372244554380558,-0.000591132934860592,-0.26159873044327925,0.3025420714731792,0.9165338533416583,-1.5841923330027132,-1.8447192037488442,4.137522220611572,-0.015101992292701974,1.3727260508248267,-1.4430726210223597,1.0,0.505710715775925,0.5090544502735639,0.4204290607948563,0.8034051725518911,-0.02537084004501864,0.4057773108658434,-0.4350186469322449
1.7000000000000002,0.11427467685287451,0.2245020457391955,0.3395349502950538,-0.003923129279293957,-0.021951501306192247,-0.004862653201432477,-0.26143626698152905,0.30240374055155544,0.9166259024322722,-1.581706543546666,-1.8473833799959944,4.137110399277144,-0.015030148544270264,1.3731211356403334,-1.4431798169276786,1.0,0.5063215262141961,0.5096481792508342,0.4203096463213712,0.8033366229764558,-0.025365712980418537,0.4058190968033465,-0.43510655184620606
1.8,0.21105567529502386,0.20818737183601155,0.19661937041050442,-0.0026231107573256645,-0.021203368461662032,-0.0017018379296766576,-0.26144089096037915,0.30246275425715674,0.9166050843924769,-1.5794553756713867,-1.8494143170801796,4.136712914764001,-0.014986465519691176,1.3735357017205854,-1.4433258901867927,1.0,0.5070056926531966,0.5103456336127334,0.4199914674754406,0.8033419549832013,-0.025354766768307974,0.4058106549216775,-0.4351052189044991
1.9000000000000001,0.15585689350287688,0.29274900990779984,0.1783900808955565,-0.0034120640960844497,-0.02422305899232881,-0.0018976847613048462,-0.2615023906544208,0.3025532602641179,0.9165575601407921,-1.5772514317362896,-1.8518761330656213,4.136288852070079,-0.014953928697773183,1.3738554582900635,-1.44346791902651,1.0,0.5079433370277523,0.5112646116828837,0.4195775319962143,0.8033500203959822,-0.025352239168013782,0.40578622927876506,-0.43511325517233396
2.0,0.3637158467722469,0.3770967118909076,0.10240743431963503,-0.003918633697599909,-0.026753090587951223,-0.000674221724942233,-0.2610068729101319,0.3019726186857809,0.9168903617989371,-1.574867254858494,-1.854041706176513,4.13596937508379,-0.014871911411621141,1.3741577737082769,-1.4435204792429894,1.0,0.5085137438366427,0.5117929423977733,0.41929737584100024,0.8033747583688078,-0.025354833298248003,0.4057846823442756,-0.43506886997236793
2.1,0.07819596476573737,0.5327091288463625,0.24175957592634073,-0.005335341606418362,-0.020126950395094982,7.570051386035612e-05,-0.26114499043576894,0.3021116017492832,0.9168052454552549,-1.5729977437904894,-1.8561945756748695,4.135650116227831,-0.01484231691237327,1.374475316478525,-1.4436381387867925,1.0,0.5092916351227669,0.5125635259524642,0.4190939922593156,0.8033081074558277,-0.025397388212814495,0.40583660643330227,-0.4351410185749042
2.2,0.13422932872657095,0.4164163377349747,0.21661949672900416,-0.007662669215629136,-0.025857261315586796,-0.0035450381181427798,-0.2611700796434633,0.3021462177043749,0.9167866994916645,-1.570717092602857,-1.8583079319265492,4.135284038569795,-0.014844803250539907,1.3747468976465158,-1.4437322565466126,1.0,0.5096476520101956,0.5129253525396362,0.4188404180294828,0.8033548634905973,-0.02536737856087489,0.4057977969903115,-0.4350926422829545
2.3000000000000003,-0.06491425275535323,0.1775791690951569,0.05198438767133931,-0.012157467884810983,-0.01893499777325359,-0.003888992185501223,-0.2610762900502812,0.30204710718587735,0.9168460322435082,-1.5688084356998537,-1.8602576979543257,4.135006367813306,-0.014788464908935595,1.3750256791297992,-1.4438145796405237,1.0,0.5104954517744357,0.5137955407851635,0.41850736642581976,0.8033379392326667,-0.025377696791546618,0.4058073266556541,-0.435114400505844
2.4000000000000004,0.043361052348215204,0.49339443918612147,-0.004086358154166983,-0.007567169795646215,-0.018365556984497676,0.0007111207553603949,-0.2608468673544469,0.301764504226239,0.9170043826933442,-1.566969685879117,-1.8622163816397717,4.1347348530594745,-0.014783266110665147,1.3753141428663163,-1.4438985029803675,1.0,0.5107855610179411,0.5140714122282185,0.4184341302167524,0.8033123884237703,-0.025392138249440182,0.4058344127515926,-0.4351354678104152
2.5,0.017012339395478693,0.39632709649219505,0.10939538313116512,-0.005100661920248436,-0.019121847742013143,-0.0025130997218316756,-0.2611498469219309,0.3020873171252967,0.9168118726538413,-1.5649083271863553,-1.8640981890134127,4.134468405681725,-0.014788464908935595,1.3755499670655351,-1.4440177140087191,1.0,0.5112820936799831,0.5146049964837416,0.418117280166999,0.8033554958729628,-0.025374974616719483,0.4058020218205237,-0.43508709128205825
2.6,-0.052926467574319846,0.39872004679551354,0.1566574387115699,-0.005351687063879422,-0.019492549178742373,-0.000836150436074547,-0.2611496371393374,0.30204724396521687,0.916825135316251,-1.5631411612877,-1.8661111256628824,4.134201818788921,-0.014756344880366127,1.3758476835080666,-1.4441118601088054,1.0,0.511811634650565,0.5151396864739415,0.4178708717997851,0.8033670277791799,-0.02537441952917152,0.40580172410759713,-0.43506610787569466
2.7,0.02620015906585224,0.2870541156212896,0.14994869253588522,-0.007919341340737816,-0.016435172434472806,-0.002308229564361591,-0.2610875946648152,0.3019875417392786,0.9168624671364669,-1.5612969536386252,-1.867785319569589,4.133944474827994,-0.014773087661253228,1.3761126980073277,-1.4441898306899004,1.0,0.5126169476069177,0.5159783365766365,0.4174412941889935,0.8033983209188496,-0.02535793108914075,0.40577004300091846,-0.4350388321502859
2.8000000000000003,0.18895089524649716,0.34411591852509404,0.07237231832537225,-0.007662253935835288,-0.021841703127398006,-0.00568067144922454,-0.26098864405655264,0.3019162602597347,0.9169141156229852,-1.5596241662303991,-1.869371892423099,4.133683911444371,-0.014754229695731494,1.3763818740844727,-1.4442461172686976,1.0,0.5129481047349912,0.5163039714476063,0.4173656850983334,0.8033618518699674,-0.025369731410941343,0.4057980192306724,-0.43507939422208464
2.9000000000000004,0.3165892555720613,0.7256976623029094,0.2135914833706879,-0.0032237589054295796,-0.02683586150324925,-0.004690635477436252,-0.26084537885870546,0.3018151113953968,0.9169881731034824,-1.5579915293364386,-1.871338892976834,4.133423874792012,-0.014728634179205691,1.376645157750996,-1.4443458747814786,1.0,0.5135814902047637,0.5169665457940033,0.4171719481307727,0.8033280189154104,-0.02536385790550164,0.405810022173801,-0.43513100859498716
3.0,0.20821761604455058,0.4726125907127305,0.122029673710222,-0.004432008295071919,-0.02515736914745434,-0.00037311757005055934,-0.2606731097764752,0.3016059604845251,0.9171059572367852,-1.556306609203124,-1.872778986859406,4.13320472834034,-0.01476062738171416,1.376899834131348,-1.444386060342185,1.0,0.5138818584308126,0.5172691744952536,0.41688551215318115,0.803406329823279,-0.02534781898569427,0.4057566714942844,-0.43503710279749297
3.1,0.09727464137465569,0.42818803418658163,0.15537171501811653,-0.003282867075512061,-0.018482782227202968,-0.009339688486105191,-0.2606011098712252,0.30157820471229785,0.917135565870293,-1.554797924664336,-1.874118001436831,4.132943775934039,-0.014756617597519612,1.3771555233950348,-1.4444577321887562,1.0,0.5144705178712358,0.5178982459393349,0.41673897007495053,0.8033484438354581,-0.025319289078791708,0.4057759425797677,-0.4351276775972701
3.2,0.1319675634136668,0.42375604519032845,0.01933118503742807,-0.0009022394454096853,-0.019733302873853286,-0.0032161030856025868,-0.2604230222898821,0.30137391153342574,0.9172532634619475,-1.5533012220165863,-1.8757039772899813,4.13271220782359,-0.014768641483627925,1.377346788757339,-1.4445256132098891,1.0,0.5147153484966069,0.518106085944245,0.4166990547856087,0.8033225393564601,-0.025355055159902946,0.4058113651073286,-0.43514038526601134
3.3000000000000003,-0.011021273462825887,0.2797440020379942,0.22105104077398388,-0.011630260025422785,-0.027651849062294773,-0.004578323434839633,-0.2604154768314928,0.30133745148417707,0.917267409603917,-1.5517516460698888,-1.8774284162776986,4.132528962691866,-0.014788464908935595,1.377538898753298,-1.4446258973696517,1.0,0.5152685439802429,0.5186414431859131,0.41641288702025664,0.8033419408094324,-0.025344037016692134,0.405802920842368,-0.4351130834162933
3.4000000000000004,0.55974119869585,0.4171009099114456,0.09468815049966758,0.0001964432372519153,-0.019282164887615864,-0.005747895662019,-0.26068274790737717,0.30166432403414273,0.9170839967372849,-1.5501831894573062,-1.8785425625243128,4.132309436798096,-0.014784108101658462,1.3777213096618652,-1.4446890989886683,1.0,0.5155078941754497,0.5189652779211978,0.4161516260857038,0.8034133405162879,-0.02530363922898546,0.40574086296841494,-0.435041471862022
3.5,0.05374158128109979,0.31934755578104834,0.04026788044611289,-0.008621949569383315,-0.020767117312042727,-0.0073294228843229494,-0.26102799630343265,0.30210266815523573,0.9168414617312045,-1.5489788141182002,-1.879779221684076,4.132085861919595,-0.014823327193973288,1.377924919128418,-1.4447381600434743,1.0,0.5159473386615813,0.5194041355842942,0.4161584512825259,0.8033152425633805,-0.025325756329489288,0.40580509461262665,-0.4351614095000996
3.6,0.12144121673774849,0.3196157262072061,-0.02951833070833893,-0.01186034499494802,-0.024100541503722782,-0.00769423903726237,-0.26111921755888345,0.30217399297792963,0.9167920249519014,-1.5477139245652374,-1.8812539605808383,4.131896585160623,-0.014795833549504875,1.378113314476674,-1.444823999233674,1.0,0.5164684772071411,0.5198644110765827,0.41595094436073204,0.8033185806778158,-0.025350330305540722,0.40581125088311853,-0.43514807519723453
3.7,-0.12408634885954178,0.31230928988382606,0.19525525997570217,-0.004532185886989604,-0.021884442269902157,-0.009305651924652263,-0.2609057702149513,0.3018793116828582,0.9169498318205066,-1.5462503184048977,-1.882585187951559,4.131685733795166,-0.014845850686569876,1.378300940950806,-1.4448521897557018,1.0,0.5166991678688361,0.5200549223523714,0.4158116421393454,0.8033322421736674,-0.025353375355709407,0.40582148063591433,-0.4351131357437683
3.8000000000000003,0.18633103814877408,0.20414407089135697,0.24049473195538157,-0.010859823576647115,-0.030027530554439033,-0.0029611009186438723,-0.2605950745569752,0.30153937785235463,0.9171500143678029,-1.5448517867732117,-1.8838807476749293,4.1315069130253725,-0.014932469730712938,1.3784511347047397,-1.4448919810981744,1.0,0.5170288676473351,0.5204441738101077,0.4156422188678371,0.8033486216511405,-0.025350014043470825,0.4057900546650366,-0.4351123997476458
3.9000000000000004,0.022269239834229904,0.3947029174100509,0.00953332166665144,-0.008674051660692253,-0.02117658140183417,-0.0033291477817522196,-0.2613326391692755,0.30235947452151196,0.9166691270226444,-1.5437159335627562,-1.8849650815880143,4.131314753245811,-0.014902428369609779,1.3786196696276471,-1.444993553102925,1.0,0.5176097140211913,0.5210147873634821,0.4153910943574454,0.80336155001579,-0.02534430441967731,0.40578798379668796,-0.43509079327874667
4.0,-0.04205418619232396,0.14118192553653125,0.05546446896766201,-0.014762224653798634,-0.019753391711207643,-0.011609925283466702,-0.2617885595015616,0.3028292872653507,0.9163847270135416,-1.5427020951574635,-1.8861933743871588,4.131102585247474,-0.014904002159476971,1.3787749055174259,-1.4450362364398401,1.0,0.5178052971176524,0.5211751195764157,0.41531326218614356,0.8033589497979401,-0.02536765779840244,0.40580226723641555,-0.435080911582155
4.1000000000000005,0.09301061276247773,0.17324067468740273,0.0312184085760262,-0.01320665806441048,-0.02739436291245794,-0.005588703968293998,-0.26169515011468525,0.30269807199702886,0.9164548385320169,-1.5413055419921875,-1.8874982277779468,4.130898709305898,-0.014908151035644579,1.3789491574986543,-1.4450979994570656,1.0,0.518111548665705,0.5214716295647689,0.41510668466167966,0.8033848943787858,-0.025361222938086063,0.4057770128180772,-0.4350569338874048
4.2,-0.02414322596470103,0.47530771141679595,0.1293778009423987,-0.003784328645884674,-0.024676611152312358,-0.0007339595482745349,-0.26234848586804715,0.3033977179165216,0.9160362770830137,-1.5399091827279385,-1.8886895452756167,4.13071570137216,-0.014949930274616713,1.37912093869645,-1.4451508597887586,1.0,0.5186673806374502,0.521993083982827,0.4149212584730047,0.8033552189837083,-0.025375133187275717,0.4058246846723338,-0.43506645476061107
4.3,0.09486680422341426,0.3643659293795592,0.11099418401475045,-0.005427396401916585,-0.02202466519722934,-0.006428857095448471,-0.2622042798666607,0.30322621481248985,0.9161341395465309,-1.5387475164085345,-1.8897975005020946,4.130540782481376,-0.014974105096190066,1.3793157978815032,-1.4452192866711968,1.0,0.5188530522000017,0.5221766948241668,0.4148851613519163,0.8033369239220889,-0.025389881149347347,0.40583788129367426,-0.43508706566120736
4.4,0.1035366530380552,0.3558420537850856,0.1253267128241387,-0.003187658118776921,-0.02648545284960197,-0.0010973398183954826,-0.26166535185497614,0.3026445409987147,0.9164810454530773,-1.5376828924465693,-1.8909737330919567,4.13037368199847,-0.01502811878489766,1.379469394683838,-1.4452041348261042,1.0,0.5192998591299821,0.522652037539482,0.4147015893391939,0.8033341247755802,-0.025357468237163776,0.4058262661223341,-0.43510495802835725
4.5,-0.029506715787129517,0.23445950127134246,-0.09650219531307055,-0.011447140050526003,-0.02358769292206854,-0.002921288260421308,-0.26170132578939553,0.3026679644975727,0.9164630381767032,-1.5364486303877234,-1.892202993432516,4.130193545997406,-0.015064392805112186,1.3796191306809438,-1.4452942857516395,1.0,0.5194915008178677,0.5228212202172502,0.4145611233880164,0.8033573206228012,-0.025366574570392993,0.4058138628559487,-0.4350731674215865
4.6000000000000005,0.04256786037913795,0.14764794922416863,-0.010508046949076227,-0.017089280893048366,-0.02795965795854815,-0.005763472920675304,-0.26161006835709194,0.3025134028831664,0.9165401311504815,-1.535029411315918,-1.8934024755499983,4.130037826671877,-0.015093922958203963,1.3798160517898965,-1.4453540922552217,1.0,0.5197799577129355,0.5231078654423948,0.4143805649523084,0.8033887603980605,-0.025373060900435594,0.4057971302865687,-0.43503033974401834
4.7,0.171659869719677,0.1501789509880936,0.12088890687403524,-0.017120250811784487,-0.028758924150394494,-0.0071246557372804265,-0.26150382909722264,0.30245861142208974,0.9165885266746533,-1.533776525274765,-1.8946419471177203,4.1298945461215535,-0.0151134942192299,1.3799652643009663,-1.445402461053141,1.0,0.5201687851676242,0.5235111247441957,0.4142774748743963,0.8033584054771984,-0.02538511059805388,0.40580980270003014,-0.435073870212428
4.800000000000001,0.31855027211492437,0.25554530895392485,0.1677017926854691,-0.011554513990316739,-0.02977366508449078,-0.005313272427885601,-0.260828358686862,0.3017329301278012,0.9170194219220013,-1.5325813259346146,-1.895871298279484,4.129694936954124,-0.015195205299338632,1.380137659442374,-1.4454503703645116,1.0,0.520690250932064,0.5240606439841571,0.41411498436243754,0.8033311788109374,-0.025387570272495275,0.4058162995773415,-0.43511793737243504
4.9,0.1583589693929331,0.32772325444544115,0.2435691227224273,-0.010949821340254226,-0.030029126602803585,-0.005614565289547001,-0.260197746944312,0.3010151152509179,0.9174350192624517,-1.5314152323890997,-1.897173197871691,4.1295102719402195,-0.015201536627163299,1.3803254117507089,-1.445479694996969,1.0,0.5209894810060643,0.5243789552009542,0.413860988592165,0.8033886212450663,-0.02536051655822573,0.40577306104473776,-0.4350537787265327
5.0,0.08900914167225271,0.40576006791473984,0.1029911939273396,-0.004648070999156652,-0.02685022663343204,-0.008847084887367164,-0.2602502479225311,0.30107757179044037,0.9173996402612314,-1.5300311094530985,-1.898237509825378,4.129334067701443,-0.015246133810276242,1.38047456741333,-1.4455831212750319,1.0,0.5211975282024969,0.5246159269136396,0.41372382937980273,0.8034111558128307,-0.02533985858045924,0.40575819720174866,-0.43502723097089013
5.1000000000000005,0.20135182344257596,0.4740394437849459,-0.0831231163398837,-0.0016535514295694539,-0.02502191231353337,-0.006190158413181816,-0.2604476355807515,0.3013427790793321,0.9172562954608142,-1.5287617757626544,-1.8993860683836878,4.129178496928531,-0.01531818367906294,1.3806645971327904,-1.445607024062611,1.0,0.5215031119616919,0.5249109062801411,0.4137195755050154,0.8033464763565897,-0.025366685396843367,0.4058012436984753,-0.4351049537872434
5.2,-0.15942438782487486,0.6135848702121132,0.005538543373133677,0.003462206367477802,-0.02024689521974562,-0.009432528367564962,-0.2610074661999106,0.3020382585516079,0.9168685319769669,-1.5275583267211914,-1.9006253524877854,4.12902964548876,-0.015373633767192538,1.3808307804405802,-1.4456647967723197,1.0,0.521956471974036,0.5253755073480008,0.41359129246049914,0.8033190432650413,-0.025353334896457837,0.40581192542874744,-0.4351464171025419
5.300000000000001,-0.04576342579152873,0.5219732465675323,0.24999663315604256,-0.0015357686718114796,-0.023890846405973457,-0.009991538758332237,-0.2603638606236731,0.3012668010908156,0.9173048267910432,-1.5263424499719307,-1.9020763851373819,4.128874093247456,-0.015383615686530369,1.380981682977523,-1.445712152358037,1.0,0.5221826755564238,0.525602130256817,0.41346783819042304,0.803337379056399,-0.025359351310434434,0.4057977761520759,-0.43512541132636595
5.4,0.21356010479951132,0.15017303883407324,0.037720930609430936,-0.010067797717265192,-0.02492975152314606,-0.007308747155976403,-0.26011784182208286,0.3009593088613112,0.9174759326411142,-1.5249698430790766,-1.9031740627684535,4.128695723289227,-0.01542408884082036,1.3811501390372751,-1.4457694974380062,1.0,0.5225590182020853,0.5259835039764683,0.41318635436039153,0.8033898433726487,-0.025349655310953054,0.40577521617166507,-0.4350501447903742
5.5,0.06439194321402895,0.7677821109560314,0.364156193426077,0.002414629711472782,-0.03515726873706605,-0.009493936058668632,-0.26007889707402615,0.3009359443539382,0.9174945368157988,-1.5238252982051537,-1.9042002485767717,4.128509998321533,-0.01547129571948247,1.3813001504955118,-1.4458274872466312,1.0,0.5229912735157008,0.5264414375100592,0.4130293809202548,0.8033699916139725,-0.025350287075961247,0.4057764451078756,-0.43508561929228107
5.6000000000000005,0.27299537803159696,0.7665764494652603,0.1313046216786891,-8.948861375867364e-05,-0.02811238660834056,-0.0028107696010781637,-0.2596160617573569,0.3004399191874513,0.9177882870347089,-1.5225634510685915,-1.9053203196583701,4.128357267414279,-0.015547341615582648,1.381485201837151,-1.4458900165818138,1.0,0.523161491262749,0.5266049781979475,0.4130227209541363,0.8033370198807404,-0.02535164334100712,0.4057958914482004,-0.4351282812605981
5.7,0.05239903838648369,0.628001702021141,0.16785233717882658,-0.0015836756765582227,-0.02669109818691864,-0.005826806911593279,-0.25950550357039437,0.3003080725076701,0.9178627073464658,-1.5213068391354319,-1.9066706858852156,4.128164227043149,-0.015595838320802531,1.3816417360992361,-1.4459290412748855,1.0,0.5234972268409257,0.5269157845683529,0.41291171349377626,0.8033238309616322,-0.025369723040582028,0.4058103207714937,-0.43513811981635014
5.800000000000001,0.0676181274374029,0.538574157396441,0.1190477893234992,-0.0037657260772726844,-0.028331151955734202,-0.007715913623234979,-0.2616805867597496,0.30273876049198234,0.9164445889184339,-1.519845339464938,-1.9080724520457548,4.128005504608154,-0.015590981846191454,1.3818070028237681,-1.4459713141070765,1.0,0.5238536698701196,0.5272802328371914,0.4127022272309643,0.8033579232878976,-0.025361100450856322,0.40579175382498206,-0.43509299488973974
5.9,-0.03309945287887878,0.4847456029463373,0.04936915809024789,-0.005327334228600549,-0.028052330655119473,-0.00831045712599058,-0.2629847385419499,0.30423036942129844,0.9155768185131855,-1.5186995728810628,-1.9091185929376226,4.12784201780955,-0.015678441728291873,1.3819631536801655,-1.4460386474874578,1.0,0.5243650213840577,0.5278207258273595,0.41243753636282676,0.8033734293105663,-0.025361354391694287,0.4057809861179832,-0.4350743914393454
6.0,0.05212134006106657,0.46889761721963713,0.030568814530780204,-0.004979426538216781,-0.029676744936607474,-0.0049848816715498245,-0.2634693557778719,0.30478585953880954,0.9152536138068417,-1.51756402574585,-1.9101420841612757,4.127645953281859,-0.015706265453673526,1.3821344930534367,-1.446092286862511,1.0,0.5246563361849348,0.5281310061919626,0.41232677689079944,0.8033619359296373,-0.025351507527226556,0.4057848454669738,-0.4350925880256137
6.1000000000000005,0.10749554355670123,0.25080642435883516,-0.043148984720706066,-0.012677874512996517,-0.028167202906257568,-0.00625587817846602,-0.2630126108237351,0.3042599194161683,0.9155600836423969,-1.5163403945819454,-1.911310489840353,4.127506423657715,-0.015770749454834032,1.3822814619964512,-1.4461432957051032,1.0,0.5248427313088225,0.5282906699688708,0.4122625326442819,0.8033637808068683,-0.02534941281244277,0.40579044761521743,-0.43508407875030386
6.2,0.33595105849504947,0.27691218434814757,0.07540529836843353,0.0002136317057649164,-0.026215539967116973,-0.002959547533667117,-0.2629722890032082,0.30422863648670545,0.9155820614608374,-1.5148478688796845,-1.9126777458108521,4.127330857432652,-0.01585037594530096,1.3824496269226074,-1.4461670944621963,1.0,0.5251387339631438,0.5286063323415611,0.4121451631664736,0.8033638714179201,-0.025334734451347544,0.4057867510750429,-0.4350882140240672
6.300000000000001,0.13126222711713018,0.18973062167450608,0.05954607821087535,-0.005718765721093874,-0.025337481539437823,-0.009771395534338246,-0.26307824487239645,0.3043605907460135,0.915507748370017,-1.513544296076148,-1.9138960052373106,4.127134945204275,-0.015898764119682558,1.3825813836612222,-1.4462474710092237,1.0,0.5256795308396391,0.5291720111939326,0.41195437725887435,0.8033253464671677,-0.025351221482529572,0.4058107701457653,-0.4351359811903054
6.4,0.004372602837853901,0.2703562115412945,0.09387690484892217,-0.011344786446473354,-0.023558366317488883,-0.009212265892089386,-0.26329514503340173,0.30461240969985676,0.9153614914163474,-1.5124447966744141,-1.9151267144234094,4.126929665532396,-0.015974358921386766,1.3827637681630107,-1.4463157913889246,1.0,0.5258754263863705,0.5293445261757417,0.4119453663475264,0.803298868498869,-0.02536114749796987,0.4058376134044242,-0.4351592485656539
6.5,-0.12083369437222306,0.482251921467296,0.15769386457681941,-0.006720477336953401,-0.023105919610493363,-0.01416916676472858,-0.26368367536362836,0.30504747780341707,0.915104539541079,-1.511271506096486,-1.9161456709296918,4.126803131337406,-0.01601110473344903,1.382956294779538,-1.4463628572622413,1.0,0.5262284225481508,0.5296870964045206,0.41166599879753424,0.8033610522921829,-0.025347339921076167,0.40579106152351907,-0.4350886649943173
6.6000000000000005,0.25486962896179366,0.3602674822615638,-0.17585132919434576,-0.007472050511443793,-0.025319020878431027,-0.003985647367512421,-0.2640722056938549,0.30548254590697743,0.9148475876658105,-1.509864396300709,-1.9174138640085303,4.126603603363037,-0.01604971237703976,1.3831296984938524,-1.4464262167560022,1.0,0.5266850210040077,0.5301461292353601,0.4114844614765463,0.8033423157169527,-0.02536176484597153,0.4057975341975982,-0.4351163820193064
6.7,0.05497237676886815,0.7433329777902548,-0.1750709172469952,-0.020953130775767225,-0.02618456813717628,-0.004882990461272128,-0.26445230586275664,0.30588741509066797,0.9146024619231876,-1.508488655090332,-1.9187170467772425,4.126437144076061,-0.016115923755323495,1.383277849947644,-1.446465283163985,1.0,0.526897506756211,0.5303185747817288,0.4114648987375051,0.8033210663761576,-0.025356482427261812,0.40583314187561803,-0.4351227115085508
6.800000000000001,0.021952834483042357,0.8920433465229569,-0.22236895194159162,-0.02829520082541971,-0.02995615338309051,-0.009271386972113141,-0.2644160644702265,0.3058233623370259,0.9146341599075938,-1.5073261260986328,-1.9199291910699303,4.126281586347079,-0.01620117541538635,1.383451589489628,-1.446525538700812,1.0,0.5272180583112468,0.5306414149833075,0.41128935857876087,0.8033385762392754,-0.025366104463975307,0.405814567321552,-0.43510714728650246
6.9,0.10037300538620467,0.9494689971994259,-0.23663697823134483,-0.03206184918318583,-0.03628461233793317,-0.010071311883740235,-0.26390779336847636,0.3052620125386795,0.9149685005160441,-1.5062244822895545,-1.9210316128766798,4.126087665557861,-0.016249622884950535,1.3836019908938746,-1.4465716310389056,1.0,0.5277179145514961,0.53119262483372,0.41097837518192687,0.8033665834595833,-0.025317972451951904,0.40579986099736226,-0.4350719545844341
7.0,0.7093436729556171,1.1121676285605846,-0.4412301658989549,-0.03593203338375736,-0.018389652293971683,-0.00618731534868085,-0.264534960218854,0.3060357863382323,0.914528855432491,-1.5055570602416992,-1.9216220569253721,4.12601424110215,-0.01628621042285161,1.383736260222448,-1.446590371034514,1.0,0.5279997790249396,0.5314935446305894,0.4108173837982012,0.8033852383235482,-0.025323283279897496,0.40575901393696534,-0.43507529552554824
7.1000000000000005,-0.3354297853592004,0.8838837643340461,-0.22262447526594387,-0.024283432260613018,-0.03258022041623894,-0.012587616881791245,-0.26462572726505135,0.3061222284945268,0.9144738331139778,-1.5055262172559791,-1.9216486416258753,4.126007840568151,-0.01628306574703502,1.3837294578552246,-1.4465788238528863,1.0,0.5281578453468972,0.5316389528990892,0.4107749359095108,0.8033780024149233,-0.02535013885690249,0.4057586615902602,-0.43508742137669737
7.2,0.1114293493052723,0.5900949381256857,-0.24563791116825345,-0.038524313866255815,-0.03443080548609889,-0.01072051677843896,-0.26457245596233936,0.3060241028820106,0.9145220927646182,-1.505431865748329,-1.9216536856180995,4.125997329655724,-0.01628862942742039,1.3836932182312012,-1.4465554048070974,1.0,0.5281686462562936,0.5316007414253233,0.41076912496553836,0.8033840759353157,-0.02535344553225634,0.40576995157475026,-0.435065484418411
7.300000000000001,0.12571508292178837,0.8910965194504133,-0.35256354804657886,-0.03124165968042886,-0.030983906403476598,-0.009172812571709585,-0.26442390206943894,0.30585045377465214,0.9146231208833946,-1.5053730429072134,-1.9217091999449671,4.125998199358145,-0.016267679474478595,1.383684134432979,-1.4465726953565836,1.0,0.5281877551469814,0.5316043339826346,0.4108514955609492,0.803349038516706,-0.02537156202864511,0.40580629339256025,-0.4350952291136982
7.4,-0.03610923143937474,0.7800350838693584,-0.3941196467228599,-0.0380082453972091,-0.03077289415994122,-0.012764568248360263,-0.2642204095607077,0.3056188658330715,0.9147593177067791,-1.5053915519134615,-1.921711158890569,4.126004695892334,-0.016307616498001654,1.3836742479388113,-1.4466035485818847,1.0,0.5281737608301393,0.5316546620889611,0.41081099251991476,0.8033519102061693,-0.025346239751058763,0.4057974977103607,-0.43509960624044514
7.5,-0.06025503753569614,0.718951554394347,-0.4085859867293895,-0.035158065945221285,-0.03523141573490544,-0.008659744708008696,-0.2639422721512891,0.3052896202089331,0.9149495384999095,-1.5053984098260327,-1.9217110645950755,4.125992298126221,-0.016324528189605694,1.3836932182312012,-1.4465553624912681,1.0,0.5281865299273761,0.5316307371798552,0.41084519801500236,0.803336343141456,-0.02536786790446282,0.40581549087859403,-0.43511030604785816
7.6000000000000005,0.03864144183630184,0.7433641423384567,-0.21088402562698122,-0.03687279675282972,-0.03198451099110162,-0.012163685305632086,-0.2638908663132285,0.30523666431602775,0.9149820700282374,-1.505393095087742,-1.9217350526519252,4.126004695892334,-0.016291185795263802,1.3836908300524433,-1.4465915757494836,1.0,0.5281948284923843,0.5316307757347309,0.41080570754327134,0.8033675185074917,-0.025367400120635406,0.4057850530188521,-0.4350811602043021
7.7,0.0077595019401084445,0.8284423460655679,-0.16809388866916275,-0.02958569382442184,-0.03120608928351009,-0.005238631833202934,-0.26418036928471916,0.3055671627262059,0.9147878628063614,-1.505405298586177,-1.9216960373373229,4.125982996003209,-0.01626935022176867,1.3836839161081897,-1.4466134428586301,1.0,0.528190359217305,0.5316301240592383,0.4108167922048716,0.8033599701826122,-0.02534808758770832,0.40579391626344974,-0.435087956955155
7.800000000000001,-0.14879359016788357,0.6270554381181298,-0.289417549704359,-0.03780484290877462,-0.029212903981064256,-0.008710961304032795,-0.2648534793865077,0.30632764163867715,0.9143390129546942,-1.5054006576538086,-1.9216968021788539,4.125987918991848,-0.01626663268605498,1.38369563519032,-1.4465674207414685,1.0,0.5281990159087628,0.53162331288242,0.41083099224171854,0.8033505891407913,-0.025355350638913497,0.405810807653212,-0.43508910065981815
7.9,0.07200679869225776,0.5087992157861564,-0.2220755121195143,-0.04043313369798078,-0.035398474351530304,-0.011888746672749436,-0.2645082391963677,0.30597755900485213,0.914556109650198,-1.505378737899448,-1.9217344131422092,4.125997916582751,-0.01627758293677808,1.3837036938937648,-1.4465697447406214,1.4288890251830808,0.5281815508492805,0.531641655788143,0.41082250700585665,0.8033513011693494,-0.02535863524356103,0.4057921423202775,-0.4351050031420193
8.0,-0.021088217682774746,0.5169267287599775,-0.369054298397579,-0.034735232627639806,-0.029450452983699027,-0.011867872822902683,-0.26507416330691896,0.306584104595739,0.9141890372900132,-1.505382983766598,-1.9216968021788539,4.125982854457353,-0.01629037797062162,1.3836715434981315,-1.4466018168168748,2.0,0.5281963082985633,0.5316436767453874,0.41082631237752815,0.8033449845866522,-0.025365503878056844,0.4058066162429047,-0.4351027662127279
8.1,0.09162335538441635,0.8139130285451747,-0.3020329354091051,-0.0320673869231034,-0.034262930253245956,-0.01196567924859492,-0.26512217276261074,0.30663105597957474,0.9141594906966595,-1.5053962951564257,-1.9217224144353675,4.12602315573849,-0.01626366212638675,1.383711819709245,-1.4465922930370863,2.0,0.5282097360527845,0.5316174139548024,0.4108220068127509,0.8033447445896381,-0.025377882678811817,0.40581201546309376,-0.43509745174699843
8.200000000000001,-0.008860112234730405,0.8198206868383889,-0.23568252777514265,-0.03071293053362636,-0.030450264043699854,-0.008697030260651072,-0.26497447660074286,0.3064665521963358,0.9142574857513749,-1.5054011133155045,-1.9217430619518747,4.125968878337315,-0.01627333800913851,1.3836817741394043,-1.4465587920927698,2.0,0.5281973180013272,0.5316319584936657,0.4108043252702204,0.8033534657038043,-0.025367256622510062,0.40580153791639473,-0.43509174119698396
8.3,-0.09176738714070204,0.6856028572786595,-0.1725491325452954,-0.03498396651292795,-0.0350389387327463,-0.010375020389622253,-0.26492692056661554,0.30644114077635026,0.9142798003851953,-1.505387461198272,-1.9216916211104362,4.1259824716009526,-0.01628108812884317,1.383698876136777,-1.4465595087768006,2.0,0.5281901298545805,0.5316476674775673,0.41081157889540443,0.8033545021627564,-0.025347223677368767,0.40579549407278875,-0.43509663190709746
8.4,-0.11313739513831879,0.4551597951661477,-0.21261142732290858,-0.03460345424584399,-0.042149946621976034,-0.011761722162789156,-0.26495511617920164,0.3064957232934205,0.9142533275329031,-1.5053719627945175,-1.9217265973276856,4.126011199311,-0.01626336531464504,1.383669376373291,-1.4466030371909213,2.0,0.5281768222353462,0.5316428326325627,0.41083630208596944,0.8033427524939398,-0.025342890207928417,0.40579661463667116,-0.435117532950336
8.5,-0.23306489152217158,0.6243928589677762,-0.13682359188635784,-0.026965015957769498,-0.040940759856122166,-0.008126738617650031,-0.26506675306054983,0.30657574946481847,0.914194124604395,-1.5053743616140767,-1.9217194169458531,4.126001063703238,-0.01630509483348163,1.383662840645138,-1.4465940634356897,2.0,0.5281922752080752,0.5316366801376111,0.41081042880315155,0.803351999412817,-0.025364043061109155,0.4058020322822754,-0.4350941748111533
8.6,-0.039762289787051985,0.6482121930047647,-0.2007316164130059,-0.01153197086757684,-0.053532063175184316,-0.00020377364197665844,-0.26484282331505554,0.30628859547606263,0.9143552772618339,-1.5053892135620117,-1.921755180359963,4.126014542614022,-0.016246684174082857,1.3836706518955038,-1.446584595434067,2.0,0.5281972639234755,0.5316308375575471,0.4108226719466698,0.8033522353968818,-0.025360142376344166,0.40580842588209604,-0.43508800321840635
8.700000000000001,-0.6736814301899342,0.2687128486892979,0.17038170455866125,-0.0027810080506641306,-0.0828326323870584,-0.006676886074667229,-0.26477111671015785,0.30619435540370094,0.9144076055764687,-1.5054006576538086,-1.921720644036764,4.126005659347926,-0.01626189172778325,1.3836836269386186,-1.4465821425067347,2.0,0.5282027514568091,0.5316390951384113,0.410790792641613,0.8033702112411918,-0.025353421061105875,0.405797174603766,-0.4350656971244481
8.8,-0.5730500682662972,0.33400952055834227,-0.22416117551651968,0.0018786358192867804,-0.07050976660693538,-0.0044093884150576985,-0.2646728052783329,0.3061469452941808,0.9144519404773394,-1.505354327723971,-1.9217322265192234,4.125980854034424,-0.016250647691819498,1.38369254133821,-1.446593724989194,2.0,0.5281898531228884,0.531637112869335,0.4108301823189583,0.8033428945041169,-0.025371332102158327,0.40580024922832614,-0.4351122235508191
8.9,-0.5917948279158217,0.09584078063660278,-0.1777145682664117,-0.0026136724931811106,-0.072639703233527,-0.010244542485340865,-0.2648601499906239,0.3063766454368373,0.914320700576357,-1.505375268674276,-1.9217421652122406,4.126014742033582,-0.01627381265673833,1.3836947653528235,-1.4465713228046762,2.0,0.5281836266627108,0.5316355097397539,0.4108297297282323,0.8033423899845356,-0.025354403509518876,0.4058008296607846,-0.43511360048064407
9.0,-0.32912191580350286,-0.04070273770766043,0.015303853366103987,0.0040538778642723655,-0.08028076204019094,-0.009101483254655788,-0.2649891684763738,0.30648868420369696,0.9142457816967943,-1.5054072935694351,-1.9217237486583416,4.126001867767241,-0.01626189172778325,1.3836917911730926,-1.4465940634356897,2.0,0.528199310201841,0.5316467930632273,0.41078994852395423,0.8033615128315524,-0.02536281554137866,0.4057949220606018,-0.4350833121583077
9.1,-0.5633978570504375,0.3546513718465061,0.028817705394849902,-0.018159632725742295,-0.08203417622065434,-0.01281953678978328,-0.26436369471455295,0.3057504397662563,0.9146737447590697,-1.505388065930003,-1.921754199838997,4.12598195752674,-0.01627381265673833,1.3836699501892953,-1.446591282635053,2.0,0.5282047908282939,0.5316307500170521,0.4108316485409671,0.8033431052185726,-0.025366946867770055,0.40581211477074486,-0.43510102368264436
9.200000000000001,-0.7192062336957045,0.9804643801784527,0.4564716588626986,-0.03825879068698467,-0.08091285194338468,-0.010843500917793127,-0.2642466903867983,0.30559090941612355,0.9147610712484125,-1.5054121017456055,-1.92173274913363,4.12599285799667,-0.01627418835927676,1.3836930414300066,-1.4465825108425567,2.0,0.5282114107086254,0.5316324990826716,0.4107991612778208,0.8033572468206638,-0.02536634885101449,0.4058094910587244,-0.43507739460163986
9.3,-0.8871038647463473,1.0703364995567852,0.697745401224848,-0.062221598257048524,-0.09503448123237541,-0.011481968981969598,-0.2641641446053614,0.30551572521669607,0.9148100199041365,-1.5054116023622528,-1.921732564965719,4.1260269563696275,-0.01628621042285161,1.3836704167552758,-1.4465816015081026,2.0,0.5281950685870408,0.5316458445795892,0.41080920522043446,0.8033632405457799,-0.025344652178838294,0.40579833980093727,-0.43507799273293546
9.4,-0.5626616969608722,1.420230796076622,0.8840482493587589,-0.08555116343146238,-0.089993938036836,-0.01171779084032002,-0.2640554199699997,0.30540611381043115,0.9148780443295758,-1.505411570997211,-1.9217793323041619,4.1260162533068225,-0.01625108758190845,1.3836463748670056,-1.4465703086607906,2.0,0.5282036241996791,0.5316441235899526,0.41079392712966917,0.8033625496669229,-0.025370459127100134,0.40578904052302645,-0.43508643760492316
9.5,-0.4822335585209643,1.7240552829228062,1.1173572446087092,-0.11708525622102908,-0.09617585861776606,-0.010744220289330766,-0.264121843223513,0.30546835464932853,0.9148380913810373,-1.505424748054287,-1.9217335020487003,4.126017093658447,-0.01628644237408457,1.3837053747680321,-1.4465709137748355,2.0,0.5282054075269643,0.5316319073888776,0.4108032541060916,0.8033602893880305,-0.02536639322411977,0.405800725232487,-0.4350799500436293
9.600000000000001,-0.8206705726853676,2.029749601810789,1.4937114422777944,-0.12935387051063962,-0.112897402669604,-0.011383224937710112,-0.26422222177614446,0.3055668581004181,0.9147762031791141,-1.505403110494904,-1.9217349234667722,4.126002337391281,-0.01629572568073248,1.383690859730148,-1.4465602294827404,2.0,0.5282049280348845,0.5316358902082287,0.41078706584680397,0.803365577991218,-0.025370618820675508,0.4057979773004403,-0.43507250133554065
9.700000000000001,-1.1805223424689721,1.8404914484509072,1.3183173905983632,-0.17604298372698224,-0.16263195762293345,0.018263924538499173,-0.264303890852767,0.30564773108114923,0.9147255954660295,-1.5053906819201408,-1.9217564068236292,4.126004695892334,-0.016276137557109518,1.3836463298760342,-1.4465689799707624,2.0,0.5282027091754881,0.5316294391433497,0.4108028645304842,0.8033572987538601,-0.02536702449599825,0.40581082848391,-0.43507601185577155
9.8,-1.1067621028023087,1.6974754862766357,1.052882300926438,-0.21424616610339126,-0.18477214136187203,0.036488174244655905,-0.26448449147033554,0.3058738232098805,0.9145977804761648,-1.5054010033293999,-1.9217564068236292,4.126016857143569,-0.016274044623253554,1.3836582688603594,-1.4465698629980606,2.0,0.5281954548358704,0.5316350225893565,0.41081179426849096,0.8033533053356202,-0.02535462439693202,0.40581085877104484,-0.43508408007134824
9.9,-1.6620267929176575,2.3334110081950383,0.5533162024015698,-0.23669784114657358,-0.21425643328575997,0.056682551742095195,-0.26464101849237903,0.3060810201978841,0.9144832049034924,-1.5054009307692153,-1.9217444858946742,4.125981253203095,-0.01628581125418016,1.3836930921779365,-1.4465578238116663,2.0,0.5281769463293166,0.5316554742094562,0.4107851749295172,0.8033680725991655,-0.025347515382102028,0.4057845907328768,-0.43508172716859494
10.0,-0.29551419026941206,1.273129727580284,2.142532320354422,-0.11796362082109202,-0.0903032963690858,-0.04106617387047006,-0.26471022260065835,0.30617507699305807,0.9144316914591238,-1.5053993957499447,-1.9217440707947189,4.126005526092245,-0.016297267943899792,1.383716229889201,-1.4465705915445302,2.0,0.5281878949939294,0.5316452583665715,0.410783944987648,0.8033609308701084,-0.025360305225560976,0.4057911877003165,-0.4350880159865887
10.100000000000001,-0.6193196984216857,2.1157188191051417,2.389004401676386,-0.16412885912898673,-0.13303963681792982,-0.023518902589293664,-0.2648222288469683,0.30627838366834864,0.9143646566957648,-1.505395397605352,-1.9217708388145256,4.12600258029856,-0.01630183401263839,1.3836660691806262,-1.4465821425067347,2.0,0.5281865108450702,0.5316325072950389,0.4108014850631828,0.8033529263070546,-0.025351366570454583,0.40580318275280447,-0.4350921291802421
10.200000000000001,-0.6549288030741945,2.277488546294709,2.580889625294898,-0.17770743977116701,-0.1415190321438243,-0.011625626570900664,-0.2647968358411177,0.3062437075006072,0.9143836161867663,-1.5053611043729525,-1.9217660766148532,4.126025863265059,-0.016307377795576165,1.383704225265018,-1.4466073216072377,2.0,0.5282095114681227,0.5316345551391669,0.41077349207154173,0.8033661738513864,-0.02536647772715163,0.40580110442633466,-0.4350687257956709
10.3,-0.45116384331418574,1.909152140134413,2.41986563522334,-0.18292793598032475,-0.1406574829105487,-0.01569610360767435,-0.26465382071686805,0.30609090962517876,0.914476191990877,-1.5053912317852576,-1.9217677113854843,4.1259891026060815,-0.0162840660606528,1.3836725718934304,-1.4465831936646754,2.0,0.5282070223098607,0.531648191045347,0.41074569418183915,0.8033876229290325,-0.02536458898716695,0.4057714801200566,-0.43505685935418764
10.4,-0.7820741298964032,2.310607653004621,2.3782449124897256,-0.17674909666234856,-0.13945626073495063,-0.020239246180423495,-0.26444615782197967,0.3058582003665028,0.9146140548712514,-1.5053737012096684,-1.9217597004146088,4.125989958209558,-0.016268001108465137,1.3837141850864374,-1.4465851373011867,2.0,0.5282038436023264,0.5316504468949962,0.4107919604588565,0.803357962851542,-0.025367645269280877,0.4057847406738706,-0.43509908105252515
10.5,-0.7285607522995788,2.3583656726583446,2.551969991605842,-0.17712062647631927,-0.13974637742445314,-0.02137973838439285,-0.2642346654764686,0.30562075750768386,0.9147546003595591,-1.5053793938179327,-1.921749542784049,4.125975697990356,-0.016283632400817424,1.3837006582626332,-1.4465697447406214,2.0,0.5282007444304813,0.5316401328662735,0.410802270247113,0.8033560446970127,-0.025358797025827644,0.405798698899552,-0.43509012035853556
10.600000000000001,-0.7246034169547622,2.313738935335537,2.4697156803893123,-0.1755747794952809,-0.1401562634742814,-0.01788125903798376,-0.26451207265231885,0.30597792518183947,0.9145550019896783,-1.505421794652086,-1.9217527964282846,4.126004695892334,-0.01626309519289812,1.3837019574633653,-1.4465808909030151,2.0,0.5281936246923872,0.5316514898019452,0.41079244040841945,0.8033565381497801,-0.02535352551682964,0.40578823926638985,-0.4350992716943477
10.700000000000001,-0.7150724765479904,2.484425145909646,2.5154936778669224,-0.16742546988550158,-0.13964786263255408,-0.020056546823644775,-0.26450331560915874,0.30594393858528146,0.9145689141609616,-1.5053797553027284,-1.9217534673167993,4.126006224435885,-0.016264890024749755,1.383672315880121,-1.4466059843646448,2.0,0.5281964716587013,0.5316358754861977,0.41080427110154155,0.8033557914374185,-0.025363211230846717,0.40579640306974596,-0.43509247193633954
10.8,-0.8664465753145315,2.475528188002923,2.3827192155238595,-0.16786687064032232,-0.13769663802348003,-0.015143741379605771,-0.26454609479814256,0.30598263427528466,0.9145435712482732,-1.5054268228277141,-1.9217430591845919,4.126007549312498,-0.01627529643522383,1.383704132218829,-1.4466016471659948,2.0,0.5281940957546272,0.5316389866246176,0.4108009858612851,0.8033582892466858,-0.025355046473170124,0.4057982433909898,-0.43508661939637777
10.9,-0.7770477940611992,2.249021684536477,2.3710301569448085,-0.17250288855056717,-0.14022333453982797,-0.018771472106854054,-0.2646955611865356,0.30616969590580095,0.9144377034752779,-1.5053494866012682,-1.9217725537161863,4.125971990511841,-0.016288898515782937,1.3836985944170639,-1.44654752994213,2.0,0.5281937010307806,0.5316406439778163,0.4108096446915255,0.803348673572138,-0.025351107990889996,0.40579734909741827,-0.4351054371747483
11.0,-0.6821581794538722,2.2853850285452353,2.5858482881949154,-0.1738978076419554,-0.13866793038809638,-0.018494321431364747,-0.2646811321717115,0.30615176583753123,0.9144478463437323,-1.5054205455111465,-1.921713566208028,4.125982403826494,-0.01626189172778325,1.3836817741394043,-1.4466043699979052,2.0,0.52820278598997,0.5316384414080277,0.4108030462894545,0.8033568027139641,-0.025359854799489018,0.40579211719566344,-0.43509479762415754
11.100000000000001,-0.8608416664045836,2.5330104966149976,2.258840656776952,-0.16464811652127123,-0.13696291910496913,-0.017295861129353825,-0.2643563048012333,0.3057456059289063,0.9146776995374161,-1.5053803228196643,-1.921732564965719,4.12601344635373,-0.01628621042285161,1.3836852811631701,-1.4465512335588355,2.0,0.52819687998382,0.5316292639290435,0.410813351745278,0.8033546422649761,-0.025369123670272747,0.4058028336564784,-0.43508825140641016
11.200000000000001,-0.8497279566652373,2.44456140281731,2.1969559214735273,-0.16940108708128404,-0.13482144207694813,-0.022135546562665386,-0.2643299615683602,0.30570349033467187,0.9146994285932116,-1.5054172687430798,-1.921732564965719,4.125980262180699,-0.01627610022861277,1.3836619442633349,-1.4465841484976552,2.0,0.5281975290890625,0.5316430618073267,0.4108159311918848,0.8033454143666754,-0.02537380868285509,0.4058163079340141,-0.43509244909991995
11.3,-0.7495301354336341,2.3281746871249385,2.3046389395262836,-0.17140858687242816,-0.13939043384108407,-0.011473735373796411,-0.2643653324706488,0.30573664399998135,0.9146781262126331,-1.50539785483401,-1.9217311635558196,4.125982199387927,-0.016275270123033668,1.383700010357717,-1.4466165038837004,2.0,0.5282006045298832,0.5316315772377063,0.41078749384368723,0.8033664895625998,-0.025367454774499632,0.4058005553302795,-0.4350685980161819
11.4,-0.6186338384981944,2.127339474467587,2.1243265328513665,-0.17587356913413715,-0.1369821811836097,-0.011074063091294106,-0.2642822614741692,0.3056491322928331,0.9147313622660191,-1.5054099077991454,-1.9217376298119868,4.125990104179761,-0.016252256159723977,1.3837032392219828,-1.4465601091725622,2.0,0.5281831216418266,0.5316441704463831,0.4108268615166471,0.8033490130487595,-0.025361331733355915,0.4057951800061296,-0.4351062375674331
11.5,-0.4629031576142411,2.1153481181306946,2.301503144896843,-0.1792006423586123,-0.1364657554506297,-0.01617240351079175,-0.2641728992717196,0.30553483582291313,0.9148011440294995,-1.5053982338308225,-1.9217350897813297,4.125989874303235,-0.01628105979900612,1.3837170600891113,-1.4465889128118443,2.0,0.5282004776880096,0.5316292567343618,0.4108075157363489,0.8033576551280859,-0.025368178125236847,0.4057976434610996,-0.4350875843403579
11.600000000000001,-0.646356557445449,2.520282384909878,2.069474370837571,-0.17569085029004153,-0.12768093982258405,-0.02083418117360981,-0.26425880192641615,0.3056421264739876,0.914740480924332,-1.5053606609731798,-1.921719921815733,4.126002066117137,-0.016304171654536445,1.3836958480063983,-1.4465596302206325,2.0,0.5282001927853591,0.5316290106527487,0.41080944326727103,0.8033528670476465,-0.02536071139865706,0.4058019222230019,-0.4350928696770351
11.700000000000001,-0.6334657417830923,2.2829879764082115,2.3488468177241923,-0.1940618236175046,-0.10837138162209964,-0.02682733466767947,-0.2643419149940165,0.30573399546812746,0.9146857792567017,-1.5053950953130453,-1.9217262063775273,4.126001803475137,-0.016276705073935225,1.3836987805719645,-1.4465662785696265,2.0,0.5281914578345951,0.5316398312496342,0.4108108412896704,0.8033564562291475,-0.025350920522398124,0.40580062267647393,-0.43508802523052614
11.8,-0.15443840416498988,2.832404148616253,2.3795788552315416,-0.21834623208768286,-0.06771367973384376,-0.03712995226439313,-0.26431948312258896,0.30567940601089555,0.9147105068361377,-1.5054095341800273,-1.9217222028270942,4.125980854034424,-0.01629155951780602,1.3836817741394043,-1.4465978537403141,2.0,0.5282047851610139,0.5316261079367409,0.41080322568332445,0.8033611976621562,-0.025372268875945105,0.4058025845951622,-0.4350761960838572
11.9,-0.2006167828866786,2.670963447218924,2.1726269864359913,-0.18223797025098284,-0.06010330264266065,-0.04332852853130231,-0.2642533407197441,0.3055912011545506,0.9147590629349956,-1.5053581459450414,-1.9217180580332374,4.126009232207727,-0.016267167174977417,1.3836668938099055,-1.4465697447406214,2.4223067815874253,0.5282097104258261,0.5316156657562939,0.41083625530429346,0.8033352660425643,-0.025374417888440155,0.40582913918466934,-0.4350991829890917
12.0,-0.090942213172413,1.4377660565293124,2.6913992504058664,-0.14862021470908923,-0.08859574996991107,-0.04341988847391203,-0.2640081407350449,0.30533634654440367,0.9149149512364678,-1.5054058846859213,-1.9216893724006998,4.125982454448387,-0.016283656334571676,1.3836752980355667,-1.446573112314617,3.0,0.5281978726644532,0.5316276388138956,0.4108233552003028,0.8033477915631574,-0.0253654798327595,0.40581060997130275,-0.43509386005570205
12.100000000000001,-0.8342763862068068,2.6699908394446465,2.398998310517367,-0.19235796758610102,-0.11563261214077215,-0.03229512444481648,-0.2643447634038197,0.30571455371498896,0.9146913675949059,-1.5060724529290264,-1.9208273914780687,4.126037747603127,-0.016251728200584008,1.3836777551639048,-1.4465520334850774,3.0,0.5282084409531622,0.5316215879519752,0.41078506640771983,0.8033672027125736,-0.02538040837654193,0.4057932639029981,-0.43507332651791736
12.200000000000001,-0.9312939494925372,2.3737841576571115,2.4478548853738085,-0.19323164489044856,-0.13849880608833168,-0.051065505683104764,-0.264501348410485,0.3059172284555324,0.9145784194866662,-1.50728684930349,-1.9197485720992324,4.126133709240052,-0.016145369320990074,1.3834411951140766,-1.44652622400245,3.0,0.5279522475596304,0.5313165291281234,0.41107146344047735,0.8032779204991602,-0.025370279351706375,0.40585592636436835,-0.4351803056195004
12.3,-0.936656049940238,3.0663911111531443,2.867763573237449,-0.23324145791178294,-0.1296339928666088,-0.07431554778462612,-0.26415483312060406,0.30549638560185144,0.9148189839675576,-1.508650184715772,-1.9185366724371915,4.126377582550049,-0.016133055191215186,1.3832652749021896,-1.4464587321866134,3.0,0.5277739377526641,0.5310843790109369,0.41113405878434484,0.8032993424217372,-0.025388961406986717,0.4058762219807464,-0.43512074132832984
12.4,-0.33862831977279445,3.1002021851228103,2.868920513218557,-0.28501880622129505,-0.13968928918497642,-0.08451631361948002,-0.26399385321751717,0.30528174272652214,0.914937024529588,-1.5100957986835322,-1.9172774753966273,4.126621226770651,-0.016039448222133084,1.38313867618345,-1.446384969313166,3.0,0.5272988776829771,0.5306723084645297,0.41127173018946167,0.8033296648070667,-0.025381004495710617,0.40583522997623644,-0.4351034593770656
12.5,-0.6071821848201489,3.2527855386708397,2.9050213794738005,-0.29888258709384996,-0.13248593219610688,-0.11552756229722967,-0.264775780049913,0.3062048574484393,0.9144026910156138,-1.5115162936374869,-1.9160984922451458,4.126721243437395,-0.015989756414166775,1.3829542593397037,-1.4463634256635938,3.0,0.5270678279276739,0.5304813145345224,0.4113268825852466,0.8033410722824711,-0.02536191163758125,0.4058171704064009,-0.43510035534975056
12.600000000000001,-0.5460147070740561,3.600147404961908,2.952180202193419,-0.30824314345129644,-0.12860826998249195,-0.12627189365325564,-0.2644337763262099,0.3057933788274059,0.9146393058567387,-1.5126228235981947,-1.9150526809993587,4.126936720226553,-0.01589820241273986,1.3827957461723015,-1.44628677834198,3.0,0.5267498256568988,0.5301207972302258,0.41136430584374295,0.8033956447460912,-0.025359721082742644,0.40577624949581803,-0.4350378809882258
12.700000000000001,-0.3944098160916109,3.52933612637654,3.2637373131092153,-0.3323878215341472,-0.13443236744428402,-0.1481835026314729,-0.2643709242763897,0.3057187798711347,0.914682477870358,-1.5137662887573242,-1.9138181261739542,4.127092487720701,-0.01585743925331331,1.3826274871826172,-1.446229387369755,3.0,0.5262909002618346,0.5296854736819948,0.41156679853938377,0.8033835451856999,-0.025363611482649477,0.4057891059604456,-0.4350480065708105
12.8,-0.5501251733724938,3.6573400883827816,3.3402009909355694,-0.3050947887650951,-0.12319681274873737,-0.16450684536630014,-0.2643598273602324,0.30572005012927655,0.9146852253158476,-1.515122593852491,-1.9124968680885182,4.127307433185747,-0.015778369760764452,1.3824516963112756,-1.446182390928125,3.0,0.52610145452646,0.5294964452788762,0.41169094067488765,0.8033695121762378,-0.02537520695843061,0.4057961927189798,-0.4350666336922555
12.9,-0.5947633168386741,3.335906227763398,3.2883482008137164,-0.29545660690754905,-0.12476088611971539,-0.1824697763023662,-0.2640003953728853,0.30536420719685536,0.9149078492748075,-1.5165450047259799,-1.9112196622511635,4.127436452030612,-0.015741982932596387,1.3823034169442365,-1.4461138884173792,3.0,0.5257245139514064,0.5291496393144403,0.4119137130259408,0.8033402633777025,-0.025343397097097625,0.40581193741079996,-0.4351078083816873
13.0,-0.2756216582456633,3.1352964674356656,3.4262139067599597,-0.2890975887786206,-0.1259010832642085,-0.19449161797479622,-0.2640945524325306,0.3054410272511355,0.9148550267467196,-1.517690290459899,-1.910134135868068,4.127621914933841,-0.015705529063719064,1.382108131334012,-1.4460731185435773,3.0,0.525226462248999,0.5286028250095602,0.412063804941998,0.8033766160844287,-0.025370361132951588,0.4057916013573566,-0.43505808091856907
13.100000000000001,-0.44224971723025286,3.198354432196969,3.3490721537371955,-0.27607389170354757,-0.11122720193152832,-0.21121698486864396,-0.26431626168122924,0.30563748842425964,0.9147254279065186,-1.5188220002692159,-1.9090937121269231,4.1278229708400715,-0.015637297033068712,1.3819336891174316,-1.4459883233987316,3.0,0.5250489266673425,0.5284162869604151,0.4121495932160754,0.8033685440514415,-0.02537570090337132,0.40580600025812524,-0.43505924468609103
13.200000000000001,-0.27843970886452807,2.9165868118455047,3.3112806568647524,-0.2730718638191789,-0.12175800953629586,-0.22273461437352865,-0.26408817610537466,0.30540510423043904,0.9148689206196419,-1.5201038594022203,-1.9078228916219662,4.1279788607352925,-0.015611831648372916,1.3817840212577535,-1.4459761483207347,3.0,0.5247374949764546,0.5281575646869499,0.4122734489127697,0.8033655440929147,-0.025364130133192067,0.40580017883788644,-0.435070888846888
13.3,-0.32540475234964994,3.2538488152163265,3.385216547069124,-0.2825648394427687,-0.12074617466196395,-0.23453889677774378,-0.2642587963936459,0.30561154743838637,0.9147507146952887,-1.521547755035038,-1.906388898889059,4.128193197280407,-0.015555528408443573,1.3816017198712824,-1.4459378449219624,3.0,0.5244176941367555,0.5278398006731592,0.4124330913813732,0.8033606495822725,-0.025366533452615556,0.4058048497142899,-0.43507542981845015
13.4,-0.45791041622971757,3.5526935154674653,3.4523714280461686,-0.2979177552608573,-0.12053579042620985,-0.2439667975609855,-0.26421285591051114,0.305589755350515,0.9147712647970491,-1.5227985348452635,-1.9051607588530182,4.1283457805811095,-0.015547114509008973,1.3814401660214357,-1.4458625952350062,3.0,0.523908561636913,0.5273218558559082,0.41270788285791693,0.803341153758732,-0.025366307296473878,0.4058158428905768,-0.4351011868413377
13.5,-0.6044500017489596,3.2598349031047897,3.514888024230301,-0.2818745084340589,-0.11259381774730974,-0.26359873325728267,-0.2642612530517625,0.3056452324976376,0.9147387428378202,-1.5239402226039342,-1.9041704480703159,4.128502641405378,-0.015465437434395974,1.3812388692583357,-1.4457769689053117,3.0,0.5235037007798652,0.5269173539781092,0.41289055664225427,0.8033321591260391,-0.025368016110483418,0.4058194586977422,-0.4351143215464022
13.600000000000001,-0.30677312114082,3.358207571518253,3.5721279304813893,-0.2641384140861195,-0.12407215703930492,-0.26927486291613756,-0.264361157357919,0.30574003562017765,0.9146781993841043,-1.5251454678330898,-1.903043886224264,4.12869119644165,-0.015423612003662157,1.3811007700898017,-1.4457613902697162,3.0,0.5233615607754886,0.5267919753388273,0.41287149300800574,0.803371795207305,-0.025367577900193967,0.4057893952725802,-0.43506920293349116
13.700000000000001,-0.5274471168168527,3.0939109987688536,3.6244566203195,-0.2644089727338788,-0.1185247326444093,-0.2832847521589194,-0.2644119121748823,0.30577214405511305,0.9146527946455268,-1.5264206065349741,-1.9017411549030219,4.128895282745361,-0.015395917765168554,1.3809151649475098,-1.4457066694842737,3.0,0.5230572531782288,0.5264775916759373,0.41298426321146336,0.8033855882708966,-0.025374703877163778,0.4057816968124909,-0.4350504976364782
13.8,-0.5268330765896387,3.2635004856036294,3.6218633326179015,-0.26970666498728846,-0.11450083994695298,-0.28934759515414094,-0.264218525011442,0.30557153890096744,0.914775624730976,-1.5277998742715808,-1.900282838216861,4.1290451944881505,-0.015337143616620466,1.3807429477394606,-1.445655993644866,3.0,0.5225260688184662,0.5259252145347386,0.41324975721561097,0.8033721513565109,-0.025358328376582185,0.40580040431233766,-0.435058816100421
13.9,-0.5459223024300305,3.233137280822404,3.7714674413417595,-0.25059823568074197,-0.10519849670805032,-0.2993983684394757,-0.2638700129046925,0.30521776194131706,0.914994361959396,-1.5289698773712874,-1.8991719684996546,4.129229508455036,-0.015327767734863329,1.3805868811331998,-1.4455807460891446,3.0,0.5222835902346977,0.5257101418573084,0.41341156545941693,0.8033436674229403,-0.025364030461011426,0.4058045000323206,-0.43510725772360004
14.0,-0.6695527121811637,3.256056372882102,3.828246406164476,-0.23620087964368408,-0.10398945257868704,-0.28598774917606656,-0.2635578302385017,0.3048492117178583,0.9152070528580247,-1.5301987404305848,-1.8981644787978238,4.129404804781688,-0.015265612539874166,1.38041353225708,-1.4455578346414895,3.0,0.5219865843032333,0.525413476505831,0.41356540088651145,0.8033296628028627,-0.025355358344824802,0.40581832684328223,-0.4351207237794625
14.100000000000001,-0.3095849570450466,2.8718695324066625,3.678827075834544,-0.2364738649298564,-0.1055280798503456,-0.2801713100173901,-0.26333425938151533,0.3045810557550712,0.9153607726760782,-1.5315109639191011,-1.8969700399915288,4.1296138231707245,-0.015243208041713807,1.3802513821007074,-1.445497496632328,3.0,0.5215106809990595,0.5249587275626335,0.41368124107645504,0.8033736492179142,-0.02536713791696874,0.40578602950743325,-0.43506894432122517
14.200000000000001,-0.2924629001075951,2.979213611271917,3.8008254195693696,-0.2329960121222228,-0.10797588255673408,-0.2757262620120727,-0.2639883863990242,0.3053131350318848,0.9149284155619838,-1.5326586833559996,-1.895687505911132,4.129787052021639,-0.015238515395841307,1.38008490766464,-1.4454008259925628,3.0,0.5213387298444169,0.5247681355140495,0.41373181510249174,0.803382883516286,-0.025375472098852703,0.4057798756876327,-0.4350571461035288
14.3,-0.44175309891038506,3.1349067941105324,3.9212428730352245,-0.23181941149849022,-0.10702866721244343,-0.27070605118628704,-0.2641839327098818,0.3055931187939148,0.9147784600647213,-1.5338320062995534,-1.8944184343669046,4.129951888552144,-0.015195683842041063,1.3799390352020307,-1.445386933047589,3.0,0.5208314793122878,0.5242776766763557,0.41403544371502793,0.8033438230952651,-0.025365722235157623,0.4057995894516398,-0.4351114515053044
14.4,-0.41168387323936273,2.8236262572172834,3.854417390507977,-0.22358362996998438,-0.10609825334793055,-0.27326759076632096,-0.2641754600258756,0.30560780734624193,0.9147760027722046,-1.535166014175389,-1.8933031774757916,4.1301243275006065,-0.015183762913085985,1.3797699387454694,-1.4453584557131993,3.0,0.5206387204051983,0.5240676102706534,0.4141803110123062,0.8033112104136106,-0.025361417481839885,0.4058214175447904,-0.435151553816678
14.5,-0.2731202985611152,2.604748740181172,3.7681671966123096,-0.21426843835975762,-0.10245329966089281,-0.26477009095110104,-0.2640136407203694,0.30542309228845294,0.9148844094283619,-1.5364444158118158,-1.8921071525176314,4.13029701629477,-0.015124238762250834,1.3796345547441133,-1.4452752157039543,3.0,0.5203078117155486,0.5237495444480778,0.4142738922414537,0.8033393487399085,-0.025348823398977368,0.40580458312023454,-0.43511603996754666
14.600000000000001,-0.2569686508883743,2.9984766438961956,3.8911796128043994,-0.2065962081072397,-0.10658622503243663,-0.2671993194780285,-0.2643355192267491,0.30580267686473955,0.9146644773222113,-1.5376947627679722,-1.8909388747172007,4.130487011997281,-0.015066414154330467,1.3794695395372203,-1.445235054125892,3.0,0.5198189234905327,0.5232693558675824,0.4143987882150615,0.8033818389698236,-0.02533227279360163,0.40576113734462116,-0.4350790688936606
14.700000000000001,-0.25872055624315005,2.67733882259596,3.760402019336757,-0.21327821925761223,-0.11068402691752065,-0.26015728911929914,-0.26461861647922075,0.30613838135740107,0.914470488920958,-1.538722931046784,-1.8897064770142449,4.130649926809804,-0.015093308421357575,1.3793271678839458,-1.445181167045349,3.0,0.5196283183386213,0.5230763703468797,0.4144869819618849,0.8033823982276151,-0.0253358775796099,0.40576070866535163,-0.4350782261027414
14.8,-0.5322958316642256,2.56803467077293,3.8812825331844554,-0.198792216210989,-0.09555231105159866,-0.27517507758988996,-0.26455639833280287,0.30607025492964884,0.9145112932101471,-1.5399574294040377,-1.888533035370161,4.130802116289504,-0.015054940377349259,1.379179735235985,-1.4451229442996112,3.0,0.5192938824616193,0.5227325529583358,0.4147369582753833,0.8033328799308808,-0.025349539391555244,0.40580112579586725,-0.4351311654862239
14.9,-0.18437406004310858,2.265570008211658,3.9176964224092297,-0.19102906519022056,-0.09369496689368256,-0.2636480320121531,-0.2643339833062028,0.3057723877940404,0.9146752061181541,-1.5414073720375217,-1.887327761029189,4.1309685707092285,-0.014925030820882663,1.3790006637573242,-1.4450975792441103,3.0,0.5188470347679522,0.5222561497261129,0.4148868572628202,0.8033619445324662,-0.025337947138577795,0.4057898087525036,-0.43508873304697754
15.0,-0.03693872181612448,2.515701997921726,3.4997214208465692,-0.2036137414176699,-0.08988969498271103,-0.25500279644878376,-0.26353547411740774,0.3049153662018223,0.9151915893604506,-1.5415723125691907,-1.8871760022500572,4.1309879207346105,-0.014976467865062926,1.3789610954269251,-1.4450802793190762,3.0,0.5186214910783691,0.5220464682011586,0.4149395791561745,0.803368767494554,-0.025329340614057883,0.40577054834614895,-0.4350945989244222
15.100000000000001,-0.14303794786132798,2.505130488620407,3.384994739178609,-0.21313268095320162,-0.09105949658233455,-0.25833519541703437,-0.2641795022345702,0.3056125481522972,0.9147732811235348,-1.5415477176631263,-1.8871599636473597,4.130996284869833,-0.01500447214160161,1.3789706806217858,-1.4450674490044777,3.0,0.5184876233287923,0.5218871132848868,0.4149777995288745,0.8033772630625976,-0.02533929937981554,0.4057702938382386,-0.435078569616362
15.200000000000001,-0.20761456028452618,2.5529121772907004,3.4375952663524365,-0.204616589037454,-0.08337443198861742,-0.2613008601226269,-0.2639140970810619,0.3052946526073256,0.9149559671977789,-1.5415497514669267,-1.887155804071116,4.130995452086016,-0.015036633151999103,1.3789379341732393,-1.4450724760638636,3.0,0.5184902899746151,0.521880984387361,0.41500185101229914,0.8033598070067924,-0.025354544174280177,0.4057890503559416,-0.435092420282113
15.3,-0.1345932016522709,2.5846601903012267,3.411894385895678,-0.21367591776018774,-0.09577388062616651,-0.26017602052204325,-0.263935281973969,0.30531678299157533,0.9149424921490422,-1.5415625469659844,-1.8871421005654887,4.130994054396081,-0.014954643391031851,1.3789860740788635,-1.445069486675844,3.0,0.5184982449560712,0.521886839813479,0.41498927780818684,0.8033813327381562,-0.025358014411471865,0.4057675178631542,-0.4350725534438441
15.4,-0.5166114563749268,2.711621953237755,3.656115373272473,-0.2138852826332345,-0.09358998833740376,-0.2533358826701804,-0.2640252714505604,0.3054220130743966,0.9148814344577889,-1.541556299066268,-1.8871285220304854,4.130969244212774,-0.014963619049165452,1.3789582548858113,-1.4450502613838148,3.0,0.5184823251066759,0.5218711832671632,0.4150591756584632,0.8033358403306357,-0.025352633672566245,0.4058066125978016,-0.4351204026221176
15.5,-0.23977610370133406,2.641835064296484,3.5261410988362925,-0.21497952794509928,-0.09819687723585394,-0.25670855567120937,-0.26403823959509776,0.30542479715416787,0.9148767602281158,-1.5415500596460037,-1.8871198931212332,4.130972097083744,-0.014964927067145898,1.3789468459777976,-1.4451039311114675,3.0,0.5184878731493926,0.521872717773295,0.4150437620909265,0.8033381917814866,-0.025357965190666725,0.40581063503138753,-0.43511199905548714
15.600000000000001,-0.375173278427369,2.5397219069890133,3.431867391311241,-0.21848047006152457,-0.09602919783290241,-0.2539190173272511,-0.26394807803869286,0.3053148487226799,0.9149394334310601,-1.5415500206860322,-1.8871284898690004,4.130980014801025,-0.01498778536698234,1.37894487886165,-1.4450572122229655,3.0,0.5184902022989377,0.5218790240522021,0.4150442421088063,0.8033375522572491,-0.025347083306431324,0.4058137461153687,-0.43511091225686327
15.700000000000001,-0.4189902568864682,2.570104108123195,3.352336899508342,-0.21648959824354191,-0.09726877427851785,-0.24944819976293986,-0.2637838572869116,0.3051284184648445,0.9150490275607154,-1.541543189276517,-1.8871016303946448,4.131002902984619,-0.014983536901526743,1.3789794107995053,-1.4450810135378251,3.0,0.5184863608151253,0.5218731785396501,0.4150278198831063,0.8033580639843051,-0.025355711752682288,0.4057921745431137,-0.4350926567898791
15.8,-0.3711084483605972,2.889404844345729,3.541002472995036,-0.2064613164797744,-0.09800750739234623,-0.25366301385724144,-0.2637784189226119,0.3051253028679065,0.9150516315154705,-1.5415853002797002,-1.8871074949743172,4.130995041391124,-0.015004720926205877,1.3789459933405337,-1.4450724760638636,3.0,0.518494066112272,0.5218761570879167,0.4150013160160472,0.8033692005341817,-0.02534811184504398,0.40578688034700916,-0.4350774742470619
15.9,-0.3275255568025485,2.456797295260104,3.5147877579837403,-0.2200675377106553,-0.09984057439654613,-0.2512856404558243,-0.26370047178214917,0.3050484323317861,0.915099729003744,-1.541564732114833,-1.8870974617280818,4.130991458892822,-0.01501176917500035,1.3789615417040413,-1.4450405493805742,3.4264668276066104,0.5184856231810434,0.521886511772516,0.41499166169274093,0.8033793431864147,-0.025349733003594884,0.4057699948393634,-0.43507439969052947
16.0,-0.19315973664456407,2.5160171671247555,3.4372125994627027,-0.21922274465007194,-0.10040711004342545,-0.24675184996634517,-0.2637458863240475,0.3050718310663728,0.9150788398384142,-1.541533461650248,-1.887104191769916,4.130971740411426,-0.015000003945707222,1.378953456878662,-1.445080432207709,4.0,0.5184958283212909,0.5218547803857682,0.4150249092653723,0.8033575480999879,-0.025351068590494776,0.40580961245360303,-0.43507761568753683
16.1,-0.4990174647568631,2.8563620708153303,3.510382176291222,-0.21231440671694654,-0.09767742429286248,-0.2502612588639368,-0.263876402992432,0.30520510256679917,0.9149967498491267,-1.5415372996628798,-1.8871079569220288,4.130959608033086,-0.015020032775980208,1.3789493403360804,-1.4450685178498426,4.0,0.5184978243109972,0.5218640494995367,0.4150502148446261,0.8033443423502599,-0.025357333186549987,0.40580828351077136,-0.435102873239808
16.2,-0.32503027885235997,2.083346682816517,3.4832189905208826,-0.22883306476046913,-0.09700176236238739,-0.2470874395171035,-0.26409132806215463,0.3054490032915015,0.9148533499116162,-1.541569509296107,-1.8871083645313704,4.130980014801025,-0.015007760112298197,1.3789619392446064,-1.445076867377109,4.0,0.518498448670728,0.5218679965599927,0.4150332825849505,0.8033551153324097,-0.0253683176337755,0.4058027130168836,-0.4350875374425467
16.3,-0.2523923770633477,2.43877134458892,3.565039802374208,-0.21919864688347324,-0.0995611242059118,-0.2451868028605475,-0.2641036971800821,0.30546255047201437,0.9148452491146539,-1.5415773391723633,-1.8870835688596983,4.130983628506073,-0.015003995304443407,1.3789410591125488,-1.4450812608174088,4.0,0.5184986809601992,0.5218624289575235,0.415035473196856,0.8033534325403344,-0.02536413500248387,0.40580278143591203,-0.4350908246103513
16.400000000000002,-0.4795621914775225,2.503095146043674,3.4595164345368463,-0.22100366368152397,-0.09756571555150192,-0.24565988524426347,-0.2640021882684208,0.3053585111720534,0.9149092875296004,-1.5415658950805664,-1.8871098564429811,4.13097004052347,-0.015015916233398485,1.3789634311562171,-1.445091657366854,4.0,0.518498733841571,0.5218571123728745,0.41506151410396813,0.8033384122432384,-0.025373034146753005,0.4058135953740353,-0.43510795253856177
16.5,-0.35347837481808425,2.394044602024719,3.396670211463521,-0.22118631747314482,-0.10006533937948055,-0.2466959166634756,-0.26409910356374355,0.30548443827402744,0.9148392732058162,-1.5415525436401367,-1.887115861092994,4.130943775177002,-0.015003995304443407,1.37895194584337,-1.4450915593157274,4.0,0.5184884489416425,0.521866706200386,0.41506336617262884,0.8033363586014364,-0.02535987676621996,0.405803662001717,-0.4351217754897849
16.6,-0.3191382129500269,2.6975746305753163,3.409542699633682,-0.2137437858728152,-0.10129237576251228,-0.2450914888529566,-0.26425034033652806,0.3056657157119007,0.9147350389702282,-1.5415691411108638,-1.8871101612613679,4.130988212862525,-0.015014274400385177,1.378953456878662,-1.4450774615427076,4.0,0.5184903302519612,0.5218710478250941,0.4150296394584873,0.8033533588778645,-0.02534454515504468,0.40580083685982765,-0.43509391585541635
16.7,-0.11735436277615319,2.5743256923085993,3.5991366228071193,-0.22061437292119068,-0.10771273969792551,-0.24104175257114155,-0.26442949058176135,0.30586942337274603,0.9146151839290799,-1.5415793271448346,-1.8871061774115856,4.130950070423162,-0.014994145180146055,1.378953456878662,-1.445076617673179,4.0,0.5184838874957188,0.5218734987051065,0.41505299869397894,0.8033503881336385,-0.025345207974518086,0.40579881416503194,-0.4351012488381467
16.8,-0.1342190540419232,2.684707329239406,3.454231052360268,-0.21730887825523512,-0.10504887428882256,-0.24326280998814034,-0.26460401114534754,0.3060579994144996,0.9145015914648357,-1.541549835893856,-1.887087961236471,4.130967617034912,-0.015019739469622853,1.3789867631108814,-1.4450633757039508,4.0,0.5184906097986287,0.5218645382481933,0.4150418501931194,0.8033565686383244,-0.025338250526541824,0.40579722726317347,-0.43509172254989137
16.900000000000002,-0.23356968768717562,2.4754082450436057,3.461134076733738,-0.22261847290968298,-0.10401847496256701,-0.24522328385688466,-0.26481940505720325,0.30628541652735797,0.9143631234711129,-1.5415658950805664,-1.8871242008604945,4.130964653890464,-0.015031417493480538,1.3789328588642413,-1.445066269075926,4.0,0.5185020657067185,0.5218503732122748,0.4150563534588763,0.8033439207269777,-0.025368454566956727,0.4058110911903875,-0.4351003847513338
17.0,-0.08962211201854398,2.432482739359253,3.5010385104334296,-0.22629295581952005,-0.1043120575848476,-0.24574706522377268,-0.26487344880305425,0.30634615714885133,0.9143271193548018,-1.541538659622474,-1.8870790473378676,4.130985535099446,-0.014980153446533251,1.3789596938996647,-1.4450843969928187,4.0,0.5185084967801784,0.5218678975101874,0.4150176378460176,0.8033601641854995,-0.02535925748107951,0.4057930646321394,-0.43508774213520635
17.1,-0.23423434583214775,2.5692842554666666,3.310849121777897,-0.21893459649673228,-0.10594877899958936,-0.24082020740928153,-0.26481872437690457,0.30629626625595213,0.9143596554751263,-1.541519448671166,-1.887102802202261,4.130943561996108,-0.015003995304443407,1.378940845931655,-1.4451026233952773,4.0,0.5184982781350185,0.5218499353112223,0.41504398216903365,0.8033506900790136,-0.02535946087340227,0.4058049514931975,-0.4350941367536304
17.2,-0.44978121212316424,2.506241214406914,3.3493069884876916,-0.2220404092691707,-0.09998248864046234,-0.24035550066020467,-0.26456955285315265,0.306048597129942,0.9145147223858249,-1.5415407135898875,-1.887135719749395,4.130967198913256,-0.01498217972840798,1.37897691277812,-1.4450835929127097,4.0,0.5184942177567323,0.5218686745748249,0.4150217406806134,0.8033596199603176,-0.025355255293288477,0.40578462900176265,-0.4350968477386711
17.3,-0.26430945642444115,2.5435719741581884,3.2519964656231086,-0.22048003368028837,-0.10544927702131889,-0.24433725941801374,-0.2646958305832064,0.306208344828178,0.9144246854617515,-1.5415434240394468,-1.8871168399719895,4.130950570286585,-0.014999152614637454,1.3789706973345814,-1.4450843969928187,4.0,0.5184833210706017,0.5218762089103293,0.415046836671272,0.8033439121866046,-0.025352466656062153,0.4057944210418148,-0.43511687974441143
17.400000000000002,-0.0030667313536286156,2.4648973567208556,3.439456554575955,-0.2221393015426064,-0.11166175732641465,-0.24233401457351933,-0.2647490681295607,0.30627088136064795,0.9143883179366415,-1.5415582876696472,-1.8871172848071442,4.130981449141613,-0.015023209026394887,1.3789508543433475,-1.4450938154839714,4.0,0.5184865578045125,0.5218649235885043,0.41505903865683,0.8033408549572307,-0.025351097783877008,0.40579711254351164,-0.4351200938236323
17.5,-0.3253391536043747,2.5748328598930796,3.245544762471579,-0.2165020903547973,-0.10580251879745911,-0.2413633167494443,-0.26452831006809163,0.30600103096619613,0.9145425150930766,-1.5415954056194163,-1.8871146907998098,4.1309564729203,-0.015025854913875954,1.378953456878662,-1.4450795270389125,4.0,0.5184859182954366,0.521860390363812,0.41505105079926863,0.8033430497882725,-0.025360885356223762,0.40580104034976,-0.43511180804694116
17.6,-0.3966096942458546,2.505803386701478,3.3347311630300855,-0.2196589127600354,-0.10261288981142744,-0.2446373518252783,-0.26443756581175626,0.30588796824951264,0.9146066319214056,-1.5415410995483398,-1.8870998821654261,4.130977870855679,-0.015013854747488195,1.3789731757647516,-1.4450626166208187,4.0,0.5184964853271855,0.521856359708386,0.415051621633888,0.8033453585856232,-0.025364978411374466,0.4058005070878389,-0.43510780406283234
17.7,-0.3154621267763294,2.36673852287102,3.2720874835938205,-0.22371241609239434,-0.1025656748767068,-0.24219972520767352,-0.2646105660345634,0.30609296317575785,0.9144880128533975,-1.5415634646974667,-1.8871242008604945,4.130967617034912,-0.014994244360398744,1.3789273582364452,-1.4450919779519529,4.0,0.5184941830716067,0.5218650304252503,0.4150490755023538,0.8033484825710335,-0.025360201069510428,0.40579565263914874,-0.4351068421108766
17.8,-0.48593663440436696,2.6416369945995988,3.1904098628671482,-0.2199292172440179,-0.10402237411630436,-0.23873722267201533,-0.2645573219676579,0.30604023619597626,0.914521072948887,-1.5415635381556378,-1.8870943586041344,4.1309654284617645,-0.015001890907185702,1.3789432476856969,-1.4450528430004688,4.0,0.5184880212533594,0.521872937938258,0.41504234059277584,0.8033520960735858,-0.02534441124320442,0.40579252408432787,-0.4351040081982488
