xiamingqian9007/apple-picking-rnn/final_data/grasper_20191127_130120_noimg.csv
,/manipulator_wrench.fx,/manipulator_wrench.fy,/manipulator_wrench.fz,/manipulator_wrench.tx,/manipulator_wrench.ty,/manipulator_wrench.tz,/ground_truth.x,/ground_truth.y,/ground_truth.z,/joint_states.elbow_joint,/joint_states.shoulder_lift_joint,/joint_states.shoulder_pan_joint,/joint_states.wrist_1_joint,/joint_states.wrist_2_joint,/joint_states.wrist_3_joint,/mode./mode,/manipulator_pose.x,/manipulator_pose.y,/manipulator_pose.z,/manipulator_pose.rx,/manipulator_pose.ry,/manipulator_pose.rz,/manipulator_pose.rw
0.2,0.19847098442704442,-0.9347901279975573,0.9944608995220455,0.03015689321234757,-0.012980134971324404,-0.02032170535513263,0.15159104883912444,-0.21072654465576662,0.9657196333485637,-1.9533171320280147,-2.083115582524813,4.175677454763638,1.0463837043919848,1.3298776544813058,-1.4275166487764996,1.0,0.45514437146244313,0.45986213200298093,0.2760137900257138,-0.6507456844037353,0.05693883693878239,-0.48369344756008653,0.5825192459184595
0.30000000000000004,0.13814402131561965,-0.49201693190894313,0.18250580288694063,0.004634952941262578,-0.01673281127404893,-0.0365511453081312,0.15174582552920043,-0.21097180818450154,0.9656417715897845,-1.949303443677803,-2.084875401788306,4.174879872070235,1.0441578331866137,1.3305127645034214,-1.4274093134815047,1.0,0.45545488752890123,0.46012304996238484,0.27602443148770445,-0.6507525467577661,0.056971119026598294,-0.48371139790195905,0.5824935175818453
0.4,0.4667128550647188,-0.6183821410651926,0.06519718614287795,0.013087518260562394,-0.011372479378288674,-0.09302921494806927,0.15171018229457023,-0.21090284455523,0.9656623816374549,-1.9449902286717373,-2.0866753524639816,4.174203964359758,1.0414644909521005,1.3313091720676677,-1.4272938407741669,1.0,0.45594798584339874,0.4605797109792537,0.2760759604851583,-0.6507749329354681,0.05697126375521057,-0.4837270054326847,0.5824555313361689
0.5,0.35073451357685115,0.2829082569749692,0.07612081566277012,0.016256143068774428,-0.02591266422315091,-0.13794138675962403,0.1514701998489602,-0.2104966844396425,0.965788661568488,-1.9405399207681115,-2.088745473072114,4.173414967412405,1.0387816091530986,1.3322723894216195,-1.427173243180097,1.0,0.457321036921557,0.4620065658334346,0.2764615915436856,-0.6507743704043036,0.056972167370832626,-0.48371149610253383,0.5824689515400805
0.6000000000000001,0.10107979818759505,-0.28969616090202815,-0.18673819727724345,0.016865245196959932,-0.015481259508908858,-0.17750123521426905,0.15146731900254137,-0.21038166513370607,0.9658142557513539,-1.936160413415575,-2.090665927912088,4.172648500761566,1.0364477449893421,1.3329422542115512,-1.4270350247983754,1.0,0.45799602097958697,0.46274156228273416,0.2766563733794295,-0.6507149481854039,0.05693727622594481,-0.4836871473821787,0.5825589637464419
0.7000000000000001,0.45066347743878865,-0.511913504999594,-0.0593564592287795,0.009374743075417075,-0.022273749713131955,-0.21004872187188384,0.15160655504362688,-0.2105624302004252,0.9657530212995946,-1.9319908237095578,-2.092213841640629,4.171845225709126,1.0341190038169128,1.333610401442922,-1.4269361851386724,1.0,0.45928612547242337,0.4640297080324319,0.27682022421487357,-0.6508036171403785,0.056919306750970455,-0.4836775881297598,0.5824696002170132
0.8,0.3808609750949766,-0.3636427987840892,0.10144093019405286,0.015418324412670083,-0.019544871713766405,-0.2379335208046206,0.1516093204844124,-0.21071371589712323,0.9657195891126084,-1.9279064626322597,-2.094235301631539,4.17124867028527,1.0316244057425297,1.3342257994254396,-1.4268201033221644,1.0,0.46000560083535835,0.464703576072261,0.27704036176441765,-0.6507654023272084,0.05696213227274945,-0.4837083981639158,0.5824825252027284
0.9,0.1939915810656572,-0.16125959929397282,0.00021835161989355867,0.016395865182203078,-0.01933031049455755,-0.25851485591051926,0.15145414600729024,-0.21050250233703954,0.9657898669453254,-1.92393340228863,-2.0960079632201136,4.170619487762451,1.0294819517667444,1.3349631724751891,-1.426678417195795,1.0,0.4608960461936986,0.4656073806208482,0.2771850759520343,-0.6507758881240113,0.05699719773756825,-0.4836948018411867,0.5824786704749658
1.0,-0.013220349938419924,-0.20513369447687776,-0.06599187610167762,0.01824091662551407,-0.018921896632578806,-0.2765860812882085,0.15111251531443232,-0.20986333971555368,0.9659825798031074,-1.920101215702077,-2.0974072880466585,4.170001886277923,1.027295185450373,1.3357983322043694,-1.4265745559027212,1.0,0.46206221340907033,0.46687340016013185,0.2773814732289309,-0.6508212544191959,0.05693289567535247,-0.4836610341058465,0.5824623114622156
1.1,0.10701946991946384,-0.11355600705387925,-0.14387866978114075,0.017885183884554106,-0.017333350768958027,-0.2601353087226231,0.15063786965200424,-0.20907388996796833,0.9662276379128564,-1.9162509056991721,-2.0991014925706275,4.16934033364717,1.025080843562744,1.3362854009935803,-1.4265246817750836,1.0,0.4626208883949766,0.4674904956348122,0.2776845348950068,-0.6507160411088172,0.05689366268224648,-0.48366920776605715,0.5825768983140519
1.2000000000000002,0.4180731309347671,-0.3051227645854574,0.20656431729030822,0.013142662128352234,-0.02249263508154714,-0.24840122960471475,0.1508281125185045,-0.20938846322748664,0.9661295313335119,-1.912682090196611,-2.1008933071882896,4.168695227990228,1.0231269462455204,1.3368354586202862,-1.4264147177914006,1.0,0.46347463594343313,0.4683448745308125,0.27792741977077406,-0.6506505033571109,0.056922157536019924,-0.4836866107197022,0.5826328630218776
1.3,0.07180662620938323,-0.011817156545245205,0.025561834104135983,0.016525199458761793,-0.017553622377885023,-0.25236877711865857,0.15098560865489952,-0.20971999703909677,0.9660331394071076,-1.9092524818076206,-2.1022491272540473,4.168121212854299,1.0210277602114783,1.3373763515322206,-1.4263294378863733,1.0,0.4645918412603037,0.46939518869195124,0.2779553880521833,-0.650778468686489,0.056948131528318804,-0.48368472463395795,0.5824889545435812
1.4000000000000001,0.41645689739905656,0.022364686464188772,-0.1216115367670805,0.02333534693859065,-0.01753351813579203,-0.24363746746434617,0.15038080604807239,-0.2088697472609065,0.9663120811259731,-1.9057416389370585,-2.1036840600003957,4.167512076765316,1.0192039623507656,1.3379264349573678,-1.426247388620896,1.0,0.46509332436251993,0.46992179544798873,0.2781311045375534,-0.6507519893388429,0.05693861875321041,-0.48368581880275613,0.5825185582924575
1.5,0.19618882451321454,-0.09019837165494485,-0.032487284207611156,0.022857033246457936,-0.015510669160115363,-0.25080041596778274,0.15029337652026445,-0.20885832311904431,0.9663281538207986,-1.9024448176104163,-2.105317511217438,4.166880922446922,1.0173077017062448,1.3385494519574206,-1.426132620169667,1.0,0.46590073001996124,0.470685571858929,0.27843073651725625,-0.6506522385978022,0.056979813906076794,-0.48374332916091095,0.5825781979333045
1.6,0.004232310484830373,0.11547704325201157,-0.021455737732062514,0.02416226249246335,-0.013663121221763122,-0.24513204082776158,0.15074047969338028,-0.20951129367094126,0.9661169102914162,-1.8992809359183662,-2.106730881037074,4.16635274887085,1.0154718812226633,1.339134693145752,-1.426065746937887,1.0,0.46700669103631637,0.4717201805519725,0.2784753838664645,-0.6507718271377937,0.05697601875311063,-0.48370623174985194,0.5824757880437104
1.7000000000000002,0.2779930361765689,-0.23586970638186605,-0.019307754555256303,0.022778492180280902,-0.01848593756827889,-0.24426080808760733,0.1509508184301166,-0.20979250311228143,0.9660232079190199,-1.8961648183139261,-2.1080337729831387,4.165918255482129,1.01374740135343,1.3395832788071662,-1.4259859248699795,1.0,0.46746678823618504,0.47216652721397395,0.27858200142731726,-0.6507568145133233,0.05696824668059598,-0.4837076216386882,0.5824921664737258
1.8,0.04862956357095936,-0.1820963344782595,-0.016189624559889967,0.018801994484945295,-0.016383817890789645,-0.24136115795338411,0.15074160918957658,-0.20943868302287594,0.966132626150778,-1.8931756869903749,-2.1093519483608745,4.165484143701906,1.0120315472818495,1.3400154404401552,-1.4259046575134644,1.0,0.46834717625269184,0.47313593641708607,0.2788170620662567,-0.6507383248144446,0.0569363174792131,-0.48369373625748074,0.5825274739227974
1.9000000000000001,0.16742196703656104,-0.20879739331529293,0.013987911528220022,0.024720543753769766,-0.012854564491194834,-0.23833986928403303,0.14933304314451393,-0.20735122708816253,0.9667933857504187,-1.8902642532720013,-2.1106390505039965,4.165046215057373,1.0104171701204303,1.3404664187127768,-1.425833423779257,1.0,0.4687882394049703,0.47356763634686316,0.2788908501583754,-0.6507383084915577,0.05695742538445194,-0.4837018770101833,0.5825186689986394
2.0,0.012383088931996656,-0.263342657216236,0.055787751494567106,0.024369659494330193,-0.010277403986307087,-0.24448375897217706,0.14608316707291513,-0.20260221034661433,0.9683005910323604,-1.8873619699770687,-2.111845415529377,4.164659426987537,1.0087775459231196,1.3408617973327637,-1.4257299160855892,1.0,0.46946426901177707,0.4743407183960736,0.2790568063085557,-0.650746018207284,0.05694011953514622,-0.483686861025737,0.5825242167032697
2.1,0.31211165165243615,-0.41875916480636755,-0.15162609815995892,0.019685671170278026,-0.01350702928423153,-0.2376664926431261,0.1318661269994627,-0.18203314708871038,0.9741497349534654,-1.884648590364318,-2.113054505871525,4.16417418009993,1.0071721702071992,1.3412879317739737,-1.4257141296361673,1.0,0.4702952699979979,0.47517432329114273,0.27923444875859144,-0.650753253865938,0.05695830762677788,-0.48368849179316253,0.5825130012987206
2.2,-0.19610353504578903,-0.09777935867755216,-0.060822975833723036,0.029789470257079103,-0.011045982889856995,-0.23821464771197048,0.11738271586511745,-0.1610511763324183,0.97986712357044,-1.8819822318779,-2.114338035807278,4.163698743266638,1.005738824080585,1.34178188773088,-1.425652937442133,1.0,0.47075204402850984,0.4756307491165526,0.2793732830619273,-0.6507289198325428,0.056958276929763865,-0.4837108894665886,0.582521590152851
2.3000000000000003,0.21181264845565506,0.07227989868994225,0.06431941990364594,0.02526861034530891,-0.021077100942718384,-0.2357946188559608,0.10606320552067793,-0.14456094453977894,0.9837348334019087,-1.8794645876327472,-2.1154632734765064,4.163312557785599,1.0041672039616045,1.342242810023816,-1.4256012503905466,1.0,0.4714753248280507,0.47635051647932775,0.27944795164338393,-0.6507529625257615,0.05693956083185568,-0.483682631445133,0.5825200255909935
2.4000000000000004,0.22396161051715047,-0.3105918425315486,-0.06610764738945189,0.023309523410630098,-0.018665452904409525,-0.2409380985695312,0.09981121440522407,-0.13543991538346808,0.9857092042462368,-1.8769474282233098,-2.1164827613924766,4.162931390409261,1.0029279783099745,1.3426550693210444,-1.4255213399361368,1.0,0.47184428778941645,0.4767534173093736,0.2795153840209603,-0.650765752835807,0.05692085863105652,-0.48366548748313154,0.5825217995976235
2.5,0.2579818883563588,-0.22528276824702764,-0.06815903344150032,0.020597286497144495,-0.022628151931741627,-0.24026926254216557,0.09500800566218559,-0.12842571017706983,0.9871422774603781,-1.874401191928674,-2.117528659156766,4.162545583258763,1.0014390601186625,1.3429662932806488,-1.4254909279578551,1.0,0.47239307874484465,0.47728607927687244,0.2796313042981081,-0.6507747935432244,0.056906054585699264,-0.4836594599343305,0.5825181506668223
2.6,0.093750581571067,-0.10561509125402543,0.029916020516701378,0.025954707091397314,-0.01177619270641365,-0.24316188029175784,0.08423690376033158,-0.11288828862818076,0.9898872489357988,-1.8721061575023523,-2.1186756296252724,4.162119816979058,1.0001185925360228,1.3433386952875725,-1.4254067579852503,1.0,0.47297553599830267,0.4778934142512413,0.27984260302222624,-0.6507125688607628,0.05691851391205487,-0.48368459281031684,0.5825655758612828
2.7,0.10902261293258944,-0.35929593500260637,0.009653006364589614,0.021416571232467055,-0.010551662971771104,-0.23686341813590378,0.07296145974530306,-0.09665135275448514,0.9926120814497855,-1.8697540794571736,-2.1198244946363496,4.16170715940391,0.9988934979518993,1.3436500991622111,-1.4253300277961813,1.0,0.47379989108056814,0.4786442381811225,0.2799060742978,-0.6507808412163686,0.056938857006773855,-0.4836886860348727,0.5824839210401745
2.8000000000000003,0.13028611144191732,-0.22949423175744563,-0.014191305292010396,0.01971473389102743,-0.014396788743560894,-0.23843177657077264,0.06542917429078722,-0.08582096711238232,0.9941316237089817,-1.8676070134313818,-2.1207177680260365,4.161382825914546,0.9975705266508837,1.343965326110104,-1.4252875486956995,1.0,0.4741197520627734,0.4789324332555612,0.279920571909682,-0.65078071379262,0.05694654226011574,-0.4837027714882086,0.5824716153898063
2.9000000000000004,0.1261888582248919,-0.5522701393702006,-0.2793014358643853,0.005142118688390313,-0.011557363423851266,-0.22895695259767904,0.06469372573155031,-0.08477759683324174,0.994295254023795,-1.865469077750332,-2.12155426096775,4.161074316278534,0.9964900388140842,1.3443021494889507,-1.4252162755106725,1.0,0.4747794375130425,0.47958210598742484,0.28009890032063073,-0.6507958460222655,0.05697498324283992,-0.48369795255968046,0.5824559286110967
3.0,0.26227872312113815,-0.523096008128815,-0.17266790555162187,0.014671829293301707,-0.01851797112416069,-0.23368610044530186,0.06614846833201726,-0.08689564283355695,0.9940183143869004,-1.8635183668495015,-2.1223390687287953,4.160764532642119,0.9952535844050542,1.3445869904504146,-1.4251886818322033,1.0,0.47502674712713544,0.47989021303044815,0.28024511610685343,-0.6507265382671147,0.05697611105509941,-0.4837076463719565,0.5825251994594197
3.1,0.030124205604293547,-0.3188610659698279,-0.15020518866100105,0.019257313828116556,-0.009375722279014544,-0.23417945259942063,0.06722115110100407,-0.08848853382996315,0.9938057320287743,-1.8612398482306822,-2.1232550198781905,4.16047691325016,0.9940491109025458,1.3449210500212192,-1.4251334470454788,1.0,0.47546341846339796,0.48030610284768266,0.28034751614670983,-0.6507293011350335,0.05699288047643103,-0.48371195512305837,0.5825168947681589
3.2,0.23209523459762396,-0.20010759703366796,-0.1403917427891717,0.02456087412827309,-0.013573511332283872,-0.23060755361445148,0.06939078428492557,-0.09161765225374863,0.9933676916761236,-1.8594613448056307,-2.1242867902371176,4.160186290090734,0.993025504183,1.3451859748363495,-1.4250729340442796,1.0,0.47613865775351844,0.4809921364701507,0.28054186111377377,-0.6506916584868525,0.05697493139838175,-0.48373342549544607,0.5825428703762676
3.3000000000000003,0.27051762554893216,-0.06642241428053418,-0.14159512759951232,0.021034332583933016,-0.01837244504819091,-0.23259507180728375,0.07143210772834556,-0.09452466157800964,0.9929564639986875,-1.8576137690517518,-2.1252512035364264,4.159886107690357,0.9920026310532887,1.3455209779167925,-1.4250594008862458,1.0,0.4764110844655988,0.4812754929075254,0.28051603896176686,-0.6507432503532596,0.05697402872586844,-0.4837053912304682,0.5825086065158167
3.4000000000000004,-0.056526382479793934,-0.32207550954297387,-0.059937461728328485,0.020475172887548576,-0.013206979255694043,-0.23075467779393125,0.07152885304761336,-0.09455626646685987,0.9929464899761559,-1.855566145774849,-2.1259590588011683,4.1596431187331735,0.9908466598509814,1.3458205597713575,-1.4250238577472132,1.0,0.47696324158453735,0.4818576328579893,0.2804975795092974,-0.6508218317200841,0.056937428275436616,-0.4836685684483604,0.5824549669399408
3.5,0.028378673196994608,-0.33120488877948645,-0.026661087604746822,0.01665588183565201,-0.01666596863195553,-0.23645942679656778,0.07161794937300003,-0.09462969393819491,0.9929330699224672,-1.8539744052875724,-2.126698122303135,4.159407170295153,0.9899237395456142,1.3460841519826523,-1.4249583254199294,1.0,0.47721347958236837,0.48215893148371125,0.2806071086300456,-0.6507925774938507,0.0569119153403685,-0.4836675308663206,0.5824910081339262
3.6,0.21422146128126737,-0.1988990312671914,0.14195740960794181,0.01669002550443211,-0.0148718543486044,-0.23754057280078306,0.07175568150142736,-0.09480209487976521,0.9929066161070118,-1.8523416800439323,-2.127376218835348,4.15916109085083,0.9889928537556152,1.3463278273104768,-1.4249114468661752,1.0,0.47760456388348876,0.4825344152840241,0.28072646283394453,-0.6507790029501291,0.05690914324342246,-0.48368590386716437,0.5824911888902181
3.7,-0.020798958460830134,-0.2452986581939371,0.011565205597103972,0.02133273245783129,-0.015480299971867454,-0.23069551123325607,0.07210426669835304,-0.09530797431522396,0.9928328122372224,-1.85045025616817,-2.1280426034508637,4.158912665790948,0.9879867273518066,1.3465838597045958,-1.424870552188236,1.0,0.47806087614916604,0.483033781551913,0.2808545526232662,-0.6507631094384925,0.056911058202968594,-0.48366468206190966,0.582526378951301
3.8000000000000003,-0.051764198767178714,-0.15129983172197198,0.03878863247495677,0.018965450620135393,-0.010049175759959573,-0.23152994878860275,0.07238712368012021,-0.09572287323140541,0.992772499445689,-1.8489422330480756,-2.128821364124396,4.158655983131367,0.9870210853388471,1.3468081155611331,-1.4248337368900161,1.0,0.47838883208411526,0.4833540297023936,0.28104242696051784,-0.6506820273849881,0.05693512305564932,-0.4837034078587898,0.5825824441455414
3.9000000000000004,0.00824111783889045,-0.07033193940427335,-0.22389844674051473,0.02489527799936425,-0.013763931907295957,-0.23680138002831216,0.07238799254043381,-0.09574744623263526,0.992770066269548,-1.8474645317919862,-2.1295805964492276,4.15843755479647,0.9862438469700808,1.3470379776459116,-1.4248275635686645,1.0,0.47884974666564983,0.48379945063481594,0.28101034427677946,-0.650783527145084,0.05693822150725143,-0.4836677331310961,0.5824983808183692
4.0,0.03550527433306708,0.07072474777276842,0.010366405857997365,0.02459071070803705,-0.021194886649211663,-0.23777488979296246,0.07242805966095436,-0.09582465814951652,0.9927596763902998,-1.8457598596666507,-2.130378385583395,4.158202648162842,0.9854002256157324,1.3472657203674316,-1.4247770989954307,1.0,0.479060769890447,0.4840118119217283,0.28099242349675035,-0.6508232387342564,0.05693586552976264,-0.48365400762374494,0.5824656385138274
4.1000000000000005,-0.03372445285114809,-0.3034272305154018,-0.0044138469245317245,0.0198685283027758,-0.014139853390795027,-0.23759130159601383,0.07264637253605313,-0.09614123434407047,0.9927131050953001,-1.8441160467270805,-2.1310984064497003,4.157982446457448,0.9844176590624419,1.347505730425846,-1.4247401881689306,1.0,0.47945152773123706,0.4843732875909103,0.2811321734799489,-0.6507422058667448,0.05694433229428433,-0.4836917934877507,0.5825239681213505
4.2,0.00817146003371743,-0.37073337222665576,-0.06399528851969297,0.014378146906641595,-0.009753493052655687,-0.23504781361727264,0.07233123128876646,-0.09569384080158004,0.9927789072248321,-1.8426431032985593,-2.131751023678129,4.157695284213273,0.9834946389945888,1.3476853370666504,-1.4247010389911097,1.0,0.4799016240325474,0.4849094051583403,0.281201554399925,-0.6507891396410106,0.05693064492013335,-0.4836618607827686,0.5824977268783467
4.3,0.10214740208479027,-0.4488624064575966,-0.08879837507760949,0.010614390649075529,-0.011358693125910549,-0.2365753623779364,0.07175236652942349,-0.09486876383008708,0.9929002633616081,-1.8410311035803795,-2.132427340323967,4.157478495671518,0.9826881128498535,1.3478935362698594,-1.4246819364483279,1.0,0.4800738845930882,0.48505018073693695,0.2812397145898955,-0.6507840882622669,0.05693318248107024,-0.4836760814229204,0.5824913144902641
4.4,0.2050292731156631,-0.07875856286133301,0.050413232568087954,0.020839339053805424,-0.012900773770128372,-0.23580222033535345,0.07165872526019451,-0.09475063109016897,0.9929185614117103,-1.8394269728393697,-2.1330004448935003,4.15725564956665,0.9818010592898883,1.348140806259949,-1.4246459980493553,1.0,0.4804930980820643,0.4854345039570507,0.2813637921442408,-0.6507447575202785,0.05695471925818371,-0.4836942839088736,0.5825180342512819
4.5,-0.02441108053848281,-0.03965218295843792,0.03334562997365417,0.020399551532417015,-0.0065832247025164005,-0.23646067246227775,0.07181355930334131,-0.09499451336467556,0.9928840850376537,-1.8379168074688748,-2.1336349165269417,4.156988287927354,0.9808913904377441,1.3483947941913692,-1.4246126906933518,1.0,0.4809501673506443,0.48590786378371403,0.28155064590487966,-0.6506944264202126,0.056945624782688734,-0.4837183858869729,0.5825551324970724
4.6000000000000005,-0.28130320159952343,-0.13010679341649795,-0.09876601738019501,0.02165042193478586,-0.009774209694574144,-0.23726756339985033,0.07188848197822365,-0.09512008793850858,0.9928666622040319,-1.8362296595803098,-2.134490001872928,4.156729538727517,0.9799752446591671,1.3486170426855943,-1.4245497310863071,1.0,0.48113347892213176,0.48606192681611043,0.2815895615574884,-0.6507021319914374,0.056960295988751034,-0.48371489669006396,0.5825479884291014
4.7,0.15724706406499725,-0.23177443766087877,-0.21680983128479916,0.022353980531484744,-0.01056542578274473,-0.2364880086945215,0.07192091941824282,-0.09518276369633583,0.9928583059611388,-1.8347068537899034,-2.1352902699663474,4.15648026950795,0.9791833044255325,1.3488521299370095,-1.4245331923114222,1.0,0.48154117549327213,0.48646685714926563,0.2816386753694153,-0.6507300471781763,0.056963255689740915,-0.48371029543820193,0.5825203372310717
4.800000000000001,-0.049883603042822786,-0.29112716271737604,-0.06597852929006395,0.016968508707132197,-0.007509094173364705,-0.23902736392209062,0.07186164418523486,-0.09509799366620086,0.9928705507954367,-1.833215668487643,-2.135959172496973,4.156243318915441,0.9782822028705292,1.3491208633779375,-1.4244748424398428,1.0,0.4820351019156826,0.48696865138511486,0.28164129619641354,-0.6507526226305183,0.05696026695370733,-0.4836925869996931,0.5825101144268728
4.9,-0.06812682889197468,-0.28611562554746195,-0.17980431521963486,0.015288222668898968,-0.00516696620854669,-0.24184565995307478,0.071265731644646,-0.09415047579485124,0.9930033384754746,-1.8315113840788095,-2.136702724070455,4.1560390783380186,0.9773019661681541,1.3493526465041277,-1.4244636055915325,1.0,0.4822275090521832,0.4871834792481122,0.28168306954906847,-0.6507689292345924,0.05693723547555321,-0.4836667368334065,0.5825156132158069
5.0,0.08515195901909207,-0.18404097972068556,0.0696598546513931,0.013754434360301004,-0.0101056869471646,-0.23798137650491377,0.07074511134783903,-0.09332947843358162,0.9931186921956535,-1.8298653643169962,-2.1373604911603685,4.155809346131344,0.9764591754347849,1.349587496825199,-1.4244182182218188,1.0,0.4827160693061758,0.48770059983741876,0.2817675713718892,-0.650806888477489,0.05692603527737004,-0.4836486038270405,0.5824893547817016
5.1000000000000005,0.0632914296664569,-0.32050968448087996,-0.08044274740470388,0.01833675332589881,-0.014568742985078759,-0.23974440774916658,0.07068974613405053,-0.09329029215223338,0.9931263158491735,-1.8284004380648435,-2.1380278514345843,4.155614029678674,0.9756348245120118,1.3497908767625546,-1.4244045753141334,1.0,0.4829198762862224,0.48788834013159077,0.2818833037546014,-0.6507392412567448,0.05692832975636892,-0.4836921415388743,0.582528554985319
5.2,0.15592697580445863,-0.3151656393455121,0.007170705546284805,0.017401930739745202,-0.01867531501918995,-0.23659533933323348,0.07100413920813578,-0.09377536129467687,0.9930580928865753,-1.826870596950123,-2.138710176694315,4.15537122089521,0.9747269470599298,1.3500435270664732,-1.4243415037738245,1.0,0.4833730649684693,0.4883236736820307,0.28195822862298525,-0.6507483702257604,0.0569335236347273,-0.4836958727389562,0.5825147510839107
5.300000000000001,-0.044352369558889215,-0.30294867532662323,-0.0012957283268204417,0.013566023978868809,-0.008869342363518327,-0.23608015096130847,0.07180406925753224,-0.09499910642493883,0.9928834718413647,-1.8250093460083008,-2.139463724507237,4.155123791159709,0.9737579065510253,1.3502141226502753,-1.4243266041944187,1.0,0.4836467173857603,0.48860498762391114,0.28200187138223115,-0.6507754109915713,0.05693999066052585,-0.4836852634447581,0.5824927191293514
5.4,0.03757552194198878,-0.3103620039697155,-0.11312622335920328,0.016860025540562384,-0.016130794112973492,-0.23896995490472975,0.07268732535158871,-0.09635583274142444,0.9926893139039287,-1.8235549788869123,-2.140116964361374,4.154920493278363,0.9729335260401901,1.350433483105372,-1.424301048964545,1.0,0.48412268411307285,0.4890514321834669,0.28217157516643476,-0.6507071230080914,0.05697407874212557,-0.4837190064334177,0.5825376530603716
5.5,-0.289541673939694,-0.07719846537718077,-0.23837585105046025,0.022186946812305222,-0.009726930525806362,-0.2378038472177165,0.07295095156946968,-0.09671423942781347,0.9926350910896456,-1.822161409896233,-2.1408473453917445,4.154692713235844,0.9720925651792796,1.3506287701557138,-1.4242528947509232,1.0,0.4843475773621446,0.4892910790711733,0.28220318021971164,-0.6507225935073264,0.0569653503358404,-0.48371079730457156,0.582528042012734
5.6000000000000005,0.073872862814564,-0.28308578389739436,-0.11339203697442889,0.015666864173849777,-0.014129432966617209,-0.23511085832861772,0.07301766897176826,-0.09679411990895219,0.992622440465015,-1.8203860810606782,-2.141581944574394,4.154448239257292,0.9712056324737849,1.350869000246311,-1.4241957984815556,1.0,0.48469433013533725,0.48964966435673696,0.28221091833348433,-0.6507752562172284,0.05695968642357755,-0.483690230038221,0.5824868422406652
5.7,-0.042233888139247604,-0.14640724361122423,-0.1510706483213598,0.02346545791351319,-0.008842055024908325,-0.23661287685024088,0.072940065766439,-0.09667462966928488,0.9926397894545906,-1.8187018011142608,-2.1423002682127894,4.154259204864502,0.97019415086962,1.3510680198669434,-1.4241530086070089,1.0,0.48512846961005857,0.49009581292670673,0.2823420786608681,-0.6507328864657628,0.05695042220844604,-0.4837200592918296,0.5825103124588656
5.800000000000001,0.08596056540100427,-0.16585953745201953,-0.39249609798588225,0.018275362303021,-0.011792812438074975,-0.2394178889697927,0.0727468832201482,-0.09644298595344832,0.9926764825411235,-1.8173508366730253,-2.142978877274165,4.154055692920577,0.9693828281018838,1.351267245664435,-1.4241259733783167,1.0,0.485375191037104,0.49032453524491904,0.2824108198263539,-0.6507221020192956,0.05697563683785782,-0.4837285951365664,0.582512805865857
5.9,0.06893904966769676,-0.08523217905043332,0.07085958323667739,0.014469200639768207,-0.009598620949606491,-0.237069404476151,0.07254067126905066,-0.09615556645517079,0.9927194108257993,-1.8157482930099098,-2.1436810783896494,4.153817685601072,0.9685492217915396,1.3514830742630752,-1.424106963782121,1.0,0.4857284840658623,0.49070560900991206,0.2824235561165992,-0.6507710509235455,0.05696028324682217,-0.483703815113556,0.5824802010857509
6.0,0.13850345947236362,-0.10957400291964754,0.07170661257132804,0.021162437108071475,-0.019991774944118537,-0.23200612837173565,0.07232487681003655,-0.09582712652006437,0.9927669248023353,-1.8140385367549794,-2.1444276650063077,4.153610706329346,0.9675951222308101,1.35170131447243,-1.4240827065001123,1.0,0.4861674595833484,0.4911386251031408,0.28254738404520285,-0.6507444167915312,0.056976281451723926,-0.4837077692504298,0.58250510841825
6.1000000000000005,0.17964753682228962,-0.12774772023527212,-0.08577566392630315,0.022362258018607393,-0.02017950187810844,-0.2354941680380639,0.07183696653229914,-0.09507626029929847,0.9928741440641148,-1.812414946603972,-2.145222949299105,4.153409777098834,0.9666620002038305,1.351917528252734,-1.4240514828519788,1.0,0.48638211377883767,0.4913917834455298,0.28262572758777105,-0.6507299436520122,0.056960624166585365,-0.4837058116483558,0.582524433398984
6.2,0.18465904946035708,-0.13435945529032478,-0.16465031925010687,0.0220796978607298,-0.019166765941653036,-0.23955681307954532,0.07118583248213807,-0.094071125804461,0.9930172184550394,-1.810917456628822,-2.1459183763080816,4.153230219224481,0.9658412514209307,1.352138358078575,-1.4239991925889974,1.0,0.48670622790982065,0.4917734470079292,0.2826519862564689,-0.6507526312625016,0.056943949761519015,-0.4836904858410588,0.5825134448210861
6.300000000000001,-0.10266676689130327,-0.11798956748780542,-0.03609280031001744,0.026587221562878426,-0.01340232073840549,-0.233538482544581,0.07129832278260224,-0.09423639478932146,0.9929934593353329,-1.8092934713698923,-2.146578637996213,4.152997218165547,0.9649981227372955,1.3524211362935603,-1.4239632341181945,1.0,0.48719736369917904,0.49224849671927934,0.2826794955708263,-0.6508140039052938,0.05694018725982126,-0.48367683565797753,0.5824565786764389
6.4,0.11372551656713048,-0.11751133578069035,-0.11239026156604968,0.023432718830002367,-0.01612006924939857,-0.2342203893712065,0.07143002365909289,-0.09442748479430295,0.992965833809236,-1.8076754031076472,-2.147239834703202,4.152770960439951,0.9640311052153463,1.3526230480513632,-1.423968848076376,1.0,0.48734088054727426,0.49239562505205087,0.28276638845674656,-0.6507622391786239,0.056946254434777056,-0.4836864868596115,0.5825058064899268
6.5,-0.010375515601513327,-0.1353483319930054,-0.03132460875349176,0.02363820041466937,-0.01192644699760538,-0.23545522240681077,0.07195345153412046,-0.09514509678890334,0.9928593675566363,-1.8061413361796832,-2.1479052017003357,4.152539612832176,0.9630597053094255,1.3528748265276613,-1.4238835987653768,1.0,0.4878794265726634,0.4929283683635825,0.28295921091146475,-0.6507227742982055,0.05694010478792654,-0.48370589230594324,0.5825343811526471
6.6000000000000005,0.3038061544548506,-0.33336049452177885,0.0017389466417312566,0.01836526189210449,-0.021820185683925984,-0.22923176669403603,0.07216950994842053,-0.09543741464187523,0.9928158225797571,-1.8044165288906309,-2.148677075331195,4.152302940931789,0.9622707718064023,1.35310697555542,-1.4238690294739305,1.0,0.48808771694965886,0.49316566046127086,0.2829866719230811,-0.6507651290067266,0.056924555088630875,-0.4836660560778123,0.5825216631979919
6.7,0.37045654530129046,-0.30806602144226636,-0.027216425706202037,0.022490680692979235,-0.02111669444463382,-0.23031331670249944,0.07207987419331423,-0.09530600884008772,0.9928348619801654,-1.802951591875386,-2.1494360723638954,4.1520627976029445,0.96141163885083,1.3532965960868553,-1.4238408875366515,1.0,0.488577541740941,0.49364089845996806,0.2831095564236971,-0.6507143962056294,0.056939640927332384,-0.4836909480857129,0.5825561935141997
6.800000000000001,-0.06933155826602344,0.023123863152237495,-0.22831320390203286,0.028115772103561875,-0.013442960244038307,-0.23731565497786009,0.07057016191447041,-0.09318375536693077,0.9931448211762676,-1.8013867890150854,-2.1502591572203578,4.15183687210083,0.9604749238692478,1.3535676534671284,-1.4238105330380406,1.0,0.48884139050241565,0.49387529317155193,0.28311179059980973,-0.6507449168004273,0.056946292727569944,-0.48369411539318596,0.5825188200710719
6.9,0.039226513540300295,-0.1705225021053246,-0.006755517263913324,0.0255751824374768,-0.012742949764948813,-0.23485478643683347,0.07082313899887882,-0.09353023229822971,0.9930941971834192,-1.799587345229137,-2.151013452954759,4.151611280388361,0.959592041168364,1.3537357092168303,-1.4237760518543874,1.0,0.4891630403497229,0.4942201275677372,0.2830673848244515,-0.6508245605499001,0.05692884960861251,-0.48366238347327345,0.582457892280825
7.0,0.30794682525849937,-0.5047955619224708,0.043582026396235936,0.016702349708923703,-0.015126161363358436,-0.22512277272500686,0.07098588590959398,-0.09374843941285715,0.9930620441549056,-1.7980447105599278,-2.151539073976756,4.1513963618294625,0.958633448916799,1.3539463906746334,-1.423749029172543,1.0,0.4896659411782865,0.49474019042977746,0.2832128211798524,-0.6507832320772358,0.0569374758736993,-0.4836787036455777,0.5824896740097391
7.1000000000000005,0.026860838388282515,-0.2670568122332042,0.07437495670109798,0.02173779148529919,-0.026747298188932876,-0.22822623594366687,0.07105942835313346,-0.09383983483930364,0.9930481521189654,-1.7981677526741835,-2.1515261135497035,4.15138726179894,0.9587079721638183,1.3539394912246254,-1.4237472965319,1.0,0.48985707507350335,0.49491688209218765,0.2833275617920532,-0.6507595091542788,0.0569442961246446,-0.48367806231923716,0.582516043053974
7.2,0.11343343264606502,-0.2950309384587003,-0.04660695252483446,0.023150448250284304,-0.023068441501850216,-0.228931407449881,0.07113463569519198,-0.09394376057361135,0.993032939342142,-1.7981853498507998,-2.151521408360661,4.151389850236537,0.958654817792201,1.3539426443066356,-1.4237474896997253,1.0,0.48995234929148573,0.49501808655665436,0.2833008225005182,-0.6507912393183786,0.056933767924646744,-0.4836641411969842,0.5824931822918917
7.300000000000001,0.04740717855780652,0.17584827797266567,-0.03843151787730481,0.029728033203674693,-0.014060454352036972,-0.23193183505319884,0.07121154865222155,-0.09406052305468503,0.9930163735246396,-1.7981608659071562,-2.151550432244772,4.1513511020872835,0.9586911558126191,1.3539576530456543,-1.4237363991903311,1.0,0.4899571393447251,0.49502349896671555,0.2833333019278405,-0.6507694820180336,0.056941532266603666,-0.4836681770644465,0.5825133798225297
7.4,-0.07255174550818899,-0.05849558430391741,0.016618554416707253,0.028126047701494166,-0.01663405204828651,-0.23440905234731274,0.07127700357704184,-0.09417795041721312,0.9930005508234356,-1.7981440677674245,-2.1515385113158167,4.151387593953237,0.9587006344603065,1.353962323872671,-1.4237452631796164,1.0,0.48994882981607324,0.4950273143987919,0.2833493211515617,-0.6507651477988015,0.05695220003300225,-0.4836606306100836,0.5825234447811192
7.5,0.1597038428900542,-0.14414336768849365,-0.08665769866898473,0.02733215134294021,-0.022998773716721526,-0.23424251307481078,0.07133028973419003,-0.09429608390342813,0.9929855173336273,-1.7981371703400564,-2.151521307798446,4.151377925144914,0.9586649073008795,1.353945255279541,-1.423713948693954,1.0,0.48996993108131065,0.4950151370987928,0.28334812258702535,-0.6507637909444381,0.05695392718357466,-0.4836816293922882,0.5825073561444633
7.6000000000000005,0.049386914719579844,0.031024222589028656,0.009217868108288297,0.031893829587291374,-0.02147579684223142,-0.22978573791230847,0.07140133293116098,-0.09440165996604473,0.9929703678332183,-1.7981247381848149,-2.1515093730775456,4.151396557786866,0.9586694788945723,1.353945255279541,-1.4237165007999888,1.0,0.4899745168140509,0.4950195291682936,0.2833542551895047,-0.6507587318079922,0.05696097438783567,-0.48368238432215555,0.5825116921306188
7.7,0.21304503658001378,0.08929398682847157,0.04863259478243076,0.031856860538291315,-0.022375773319542516,-0.22936381218243426,0.07147287640503393,-0.09450688224283679,0.9929552150643918,-1.7981331389707296,-2.151532049673088,4.1513819409820005,0.9586404184250316,1.353945255279541,-1.423748275644164,1.0,0.48996574551840655,0.4950126720310332,0.2833797657132262,-0.6507405468823835,0.0569590453915234,-0.48368209415909197,0.5825324365056234
7.800000000000001,0.005028235760844615,-0.017462585111394074,0.07799337847658751,0.027078375737834406,-0.01488871683025942,-0.22848656334781287,0.07119101181176002,-0.09407004353252768,0.9930165239588626,-1.7981357172574077,-2.151517461790333,4.1513895703447945,0.9586889271791313,1.3539524564329959,-1.423727020357737,1.0,0.4899717982937784,0.49502246933901073,0.28333377343628635,-0.6507827216974128,0.05694041953213302,-0.48367985979816375,0.5824889964533586
7.9,0.19223766017542937,0.06309808122116495,0.11983629802176694,0.03219140770784522,-0.020975469311538538,-0.2320246649343289,0.07046576584064582,-0.0929531418308027,0.9931737607077781,-1.7981126612035685,-2.151545658174419,4.151372993059886,0.9586478906818847,1.353940290246374,-1.4237454459285288,1.0,0.48995613679448285,0.49504096207033954,0.2833265829918169,-0.6507730416278419,0.056919839939296696,-0.4836799361339275,0.5825017592189846
8.0,0.03972210268924392,-0.23365032102253025,-0.08160245377923488,0.02182100944963023,-0.01789083011941218,-0.22900078974531002,0.07111744281391863,-0.0939061936273992,0.9930376656434136,-1.7981437526509831,-2.151547679497504,4.151373388217266,0.9586549340464718,1.353936087097854,-1.423716185061577,1.4703736138917458,0.4899667001355709,0.4950135182708567,0.28332086469771717,-0.6507887490158278,0.05692319823371356,-0.4836749930833401,0.5824879867628947
8.1,0.22493304099504124,-0.3733303289013535,-0.025648769479624883,0.01527053095747001,-0.019724115160873735,-0.2255015000568257,0.0708450460733985,-0.09356484818118342,0.9930892456372085,-1.7981225927685573,-2.151516568531195,4.151363451288463,0.9586410281989718,1.3539576530456543,-1.4237187544452112,2.0,0.4899581219534845,0.4950331732800771,0.2833612415132956,-0.6507626899978332,0.056942916690075916,-0.4836703364020464,0.5825190393715406
8.200000000000001,0.16167649682653612,0.12106656502717685,-0.032004326869273486,0.02939110072178479,-0.021295109800503337,-0.22963050987684988,0.07048615004585303,-0.09310149841824247,0.9931584746638026,-1.7981226325691133,-2.15151892367109,4.151370525360107,0.9586668122474394,1.3539527327532987,-1.4237210266672815,2.0,0.48998015710495524,0.4950049322279906,0.2833460477496433,-0.6507685293387113,0.05695472929287028,-0.4836891393130134,0.582495748091042
8.3,0.24568869974087396,0.015582967738998412,0.09865637688050297,0.02090129626875939,-0.019561211098390516,-0.22531502391686375,0.0709759104656154,-0.09380211195316554,0.9930574221989212,-1.7980988735506926,-2.151528652572927,4.151377897100434,0.9586647994374973,1.3539497662690403,-1.4237166922591458,2.0,0.4899768052779204,0.4950261013009885,0.2833329796994552,-0.6507800775513981,0.05694479881514407,-0.48368167679145235,0.5824900137223883
8.4,0.07915633413042773,0.15030502616495428,0.0731965770564498,0.030775756763054885,-0.020982836874344594,-0.2292627800908763,0.07102601826713999,-0.09385679622727168,0.9930485766760039,-1.7981375470556167,-2.151521369189818,4.151375459494388,0.9586642689079623,1.353947280367479,-1.4237693472073742,2.0,0.48997418728871955,0.49501871659981583,0.2833675435790091,-0.6507474649407288,0.05695864796337764,-0.48369092381994894,0.582517415627725
8.5,0.29143402130537754,0.20784601967298166,0.0029148013181793837,0.029346832384724336,-0.023858199979112975,-0.22902585961076613,0.07031654194635466,-0.09280696586183139,0.9931979715695151,-1.7981132632957961,-2.1515385113158167,4.151370525360107,0.9586476137165892,1.3539138782524063,-1.4237356407622987,2.0,0.4899695402788992,0.49501958174519056,0.28334887996806296,-0.6507687541081595,0.056947231906280836,-0.4836770657555713,0.5825062553456462
8.6,0.18946307415215252,-0.16877803044796763,0.036018984482970536,0.023034957323730895,-0.02222907323645873,-0.23029729428117846,0.07181097395296042,-0.09500023280706367,0.9928832351763569,-1.7981193642694306,-2.151550432244772,4.151370525360107,0.9586643408656316,1.3539526469537044,-1.4237141667871087,2.0,0.48996735631165983,0.49501508600837174,0.28336822116975385,-0.6507441574395734,0.05695747389570246,-0.48369279300973556,0.5825196732438498
8.700000000000001,-0.06504224408837203,-0.09175135126898573,0.040537489236952454,0.017758717224774796,-0.020707457019128055,-0.23376984060907946,0.07152339553833174,-0.09458502747918023,0.9929438745155095,-1.7981089355479911,-2.1515286314382616,4.1513846810635515,0.9586507820986971,1.3539328575134277,-1.4237164292565365,2.0,0.48998181109064337,0.49501652820276276,0.2833582040514489,-0.6507569970793949,0.05693602716579325,-0.4836937571623673,0.5825066255802913
8.8,0.18529563626694065,0.16780220881494617,0.10284501706756084,0.024070283011183146,-0.024347537472337998,-0.22385407684415215,0.07110264489120897,-0.09396768415588555,0.9930329465207622,-1.7981024588191188,-2.1515362788196586,4.151359399932444,0.9586769148342819,1.3539352893286045,-1.4237425963031214,2.0,0.48998150077302416,0.49501430262404306,0.2833509726589094,-0.650758128197563,0.056947675837051334,-0.48369292105017186,0.5825049175135902
8.9,0.0562513683669818,0.2589434966933992,0.2751138139563423,0.016143434449395318,-0.02571128724872675,-0.2263265688058994,0.07090662469182588,-0.0936677141065106,0.9930753172995828,-1.798108364448429,-2.1515130371461852,4.151382923126221,0.9586646500040107,1.3539539701270464,-1.423714057702756,2.0,0.4899670475289919,0.49501574803301773,0.283348019915923,-0.6507645928160449,0.05694375130671447,-0.4836827088463848,0.58250655883613
9.0,0.16209263837279064,-0.26626472244706795,-0.10650667268939662,0.014351175217419947,-0.03170889618906883,-0.23175146962238868,0.07139675749929766,-0.09438188365909173,0.9929722728692348,-1.798089619647481,-2.1515190623254887,4.151361487404608,0.9586792031690219,1.3539221148756115,-1.4237284938546917,2.0,0.489974470153914,0.49502161844717574,0.28337423690491664,-0.650742095480801,0.05695616628629082,-0.48370696106605493,0.5825103399146375
9.1,-0.08625650145860869,-0.044013776217953104,0.1905884580651585,0.007980482525683867,-0.019578573673097795,-0.22640146389781815,0.07152732726803847,-0.09458390185564591,0.9929437902212555,-1.798090934753418,-2.151505213396315,4.1513632799736,0.9586888863486207,1.3539715864812467,-1.4237378402604088,2.0,0.48997518976269855,0.49501302218919485,0.2833629586354072,-0.6507471491564891,0.05694594956532535,-0.48369313624500987,0.5825171728303568
9.200000000000001,-0.029513577782533856,-0.13884405194171465,0.16113406506122857,0.01158077920782963,-0.022938623612230008,-0.22887567926363972,0.07112455317924356,-0.09402217950639735,0.9930262250418375,-1.7981055067079479,-2.1515287645752785,4.1513655402177685,0.9586838133970975,1.3539477493246528,-1.4237379946332698,2.0,0.48998572412718555,0.49501184841292056,0.28334604543942365,-0.6507624583180073,0.05696184898373564,-0.48368579554559843,0.5825046109617328
9.3,0.15467975696750147,-0.06237646093208636,0.22519779295234454,0.012664422743256541,-0.01882111727678435,-0.22753219373626404,0.07130325404386052,-0.09430063463609441,0.9929870148485676,-1.798124228593345,-2.1515161205803333,4.151384374248647,0.958643094056587,1.3539228645440573,-1.4237311522113245,2.0,0.4899815894864107,0.49501110847093505,0.2833600771601666,-0.6507445267949894,0.05696707265441235,-0.4836923564852628,0.5825186844705375
9.4,0.02380883661309259,-0.317523588176723,0.009320004516406726,0.01497572027387956,-0.03164657048299663,-0.22170394837501273,0.07094496572546975,-0.09377252991620677,0.9930623550040368,-1.7981042861938477,-2.151562353173727,4.151378047707685,0.9586717325397949,1.3539548459140407,-1.4237501186506996,2.0,0.48998187265671567,0.4950129437888381,0.28334484467154986,-0.6507584682826093,0.0569492569231958,-0.4836927727846965,0.5825045061200986
9.5,-0.13568513324159126,-0.02569517693814083,0.15852132643507763,0.02632946253049627,-0.023063776092743286,-0.21078840665295764,0.07048027958586925,-0.09308461525342532,0.9931603919063129,-1.7981206941072918,-2.1515385113158167,4.151375902833559,0.9586543709520343,1.353938234986879,-1.423713583797662,2.0,0.4899679038007933,0.4950219369718921,0.28335447677516307,-0.6507607280327862,0.05695690532119979,-0.4836795939929868,0.582512176818004
9.600000000000001,-0.2219793499955155,1.1103749378606982,0.07492410914862369,-0.07375283584883563,-0.05611671176156585,-0.21441684201632366,0.07077677300111039,-0.09351977199947847,0.9930982095574626,-1.7981151448095833,-2.1515433063579517,4.151388937910149,0.9586604214817368,1.353946475021335,-1.4237183707954753,2.0,0.48998398782973773,0.4950054203057363,0.28336645427905793,-0.6507537540430488,0.05696558686231344,-0.48369860577983553,0.5825033324187552
9.700000000000001,0.008249208066811148,1.4025389860219701,0.40498972613990214,-0.07434835254155236,-0.009798223813228974,-0.21953548626199257,0.07123142017783189,-0.0941882744345855,0.9930027377211766,-1.7980961850455142,-2.1515529776521265,4.151353627343626,0.9586645731548894,1.35393773278466,-1.4237456185476343,2.0,0.48997445552871893,0.4950165088452367,0.28335881822799047,-0.6507645054273855,0.05696197597277372,-0.48368173221051064,0.5825056855473322
9.8,0.24738634263180437,1.6533320813237085,0.7974376463635471,-0.1155326886919362,-0.019211906553461014,-0.21597071105407065,0.07156321432304961,-0.09468643126931271,0.9929315239074027,-1.798117553540312,-2.1515431180333393,4.15137531634633,0.9586376847078407,1.3539258358704522,-1.4237095410101666,2.0,0.48998564939812994,0.495011651510393,0.28335453875962857,-0.6507674794755508,0.05697525054381539,-0.48368991589381116,0.5824942692809484
9.9,0.1812503708346911,1.8424022499518082,1.1422605610566094,-0.13885374379527926,-0.0014833367963039048,-0.21761970396301095,0.07152542344227045,-0.09464308122681897,0.9929380932160287,-1.7981089260998895,-2.151533484750938,4.151361376537996,0.9586433817658152,1.3539378840783063,-1.4237740026916847,2.0,0.4899856027121379,0.4950149679391641,0.28334913758614066,-0.6507703072019464,0.056964766467865524,-0.48368790045404475,0.5824938090657308
10.0,0.17897664551313788,2.2452481411295926,1.1943998770362154,-0.1319299180677606,0.002431542371090217,-0.21826244240008436,0.07073454820486721,-0.09349171209970765,0.9931039213931676,-1.7980970004250034,-2.1515356657786304,4.151370525360107,0.9586596716172827,1.3539358903492205,-1.4237549940692347,2.0,0.48998697467397884,0.4950071767862681,0.28337192491692165,-0.6507502585130295,0.056970430925996574,-0.48369344321053476,0.5825110505736941
10.100000000000001,0.060436224707620785,1.6233178842371148,1.6132754349144904,-0.1249038286324046,-0.029911872821185636,-0.21639100845492149,0.06996704432172585,-0.0923580669498511,0.9932640800998469,-1.798094058134493,-2.1515501227660785,4.151368094812275,0.9586501342644992,1.3539570088500315,-1.423728220507524,2.0,0.4899805847934849,0.49501087765760854,0.283345992725208,-0.6507670930410162,0.05695505697160728,-0.48368998275685,0.5824966203172208
10.200000000000001,-0.0690442950559672,1.3370573053533485,1.7326655084253153,-0.09862401365609906,-0.057905600481791504,-0.22081152435948273,0.06996117219445615,-0.09231488359920696,0.9932679413738461,-1.7981042861938477,-2.151556542231525,4.151394367218018,0.9586597119293229,1.3539634229386808,-1.4237366230598003,2.0,0.4899825232009689,0.49501269101777307,0.2833557925753741,-0.6507622927616535,0.05694881116795475,-0.48369063641691445,0.5825020510425288
10.3,-0.6296042932251757,1.062636248505966,1.8640293586411651,-0.06333641174910966,-0.0810945150609031,-0.2282026053915624,0.07115066973956818,-0.09399754853098095,0.9930265488565236,-1.7981009134140218,-2.1515433852867454,4.151390021243822,0.9586644037034473,1.3539831910535043,-1.4237285023870683,2.0,0.48997406529529386,0.49502911235771513,0.2833352965674267,-0.6507755592764173,0.0569240176264942,-0.4836893594773568,0.5824907133973117
10.4,-0.5814927160410137,0.34596208591703753,2.037009793708832,-0.06479638893091927,-0.11647535118546279,-0.23001148555540818,0.07060774259965856,-0.09321166855049791,0.993139396187606,-1.7981248681924005,-2.1515719019770865,4.151394367218018,0.9586501679224564,1.3539643528862602,-1.4237357054864483,2.0,0.4899707672944409,0.4950307776034472,0.2833288609457455,-0.6507778704316696,0.05693784756358076,-0.48367979559241736,0.5824947211837419
10.5,-0.8551282095926089,0.5552850586314746,2.3178014860625464,-0.06296854204641182,-0.11917358263262953,-0.2373517116467937,0.07034062481705138,-0.09282415937436445,0.9931947071528835,-1.7981157302856445,-2.151540984338819,4.151375612735332,0.9586644221489053,1.3539682847923538,-1.4237598857761806,2.0,0.48997327625963405,0.4950294153897109,0.2833302589277914,-0.6507694231267558,0.05695021277293461,-0.48366699952325537,0.5825135747435918
10.600000000000001,-0.8124716760102124,0.8736808300966932,2.357327854328807,-0.06127611780083301,-0.12563446701192113,-0.23943709239385483,0.07015562279272544,-0.09255525574880483,0.9932328880165826,-1.7981004801413996,-2.1515354753725315,4.1513752980540986,0.958688535869592,1.353945255279541,-1.423736453988732,2.0,0.4899778770585398,0.49501361689158424,0.2833549528701133,-0.6507540155472229,0.05694786994294844,-0.48369271752437154,0.582509662041768
10.700000000000001,-1.023290784101378,0.895546926736108,2.505674128566976,-0.060915320474042293,-0.1310892986266956,-0.2344496162984494,0.07003067325777079,-0.09238439180856753,0.9932576821562269,-1.7981074440032374,-2.151545001570489,4.151381386708673,0.9586903609503936,1.353939607378287,-1.4237277138599684,2.0,0.48997136673121017,0.4950277625952031,0.2833625001302111,-0.6507506138168633,0.056936487221208386,-0.48369342604602655,0.5825139866473092
10.8,-1.1577435843554102,0.8988695454312401,2.383926443101513,-0.04806904801138408,-0.13543283903765851,-0.23900327157960982,0.07008577540162561,-0.09250747421621758,0.9932423397059467,-1.7981037838525507,-2.151544254793266,4.151382923126221,0.9586593776367827,1.3539691400005522,-1.423741958094105,2.0,0.49000567200086503,0.494996259137829,0.2833379594400287,-0.650767648435546,0.056956507424396195,-0.4837008918066403,0.5824867992299442
10.9,-1.095990057898738,0.6614896764949556,2.151095011045311,-0.03680249741113367,-0.14422540116655388,-0.23600310839871472,0.07054810029144148,-0.0931653691017271,0.9931476008655062,-1.7981317791643594,-2.151535898721904,4.1513897624311,0.9586621392337157,1.353959503831372,-1.4237455421704432,2.0,0.4899612440344231,0.4950401145409367,0.28334719811847714,-0.6507643671579401,0.05692338596680559,-0.48368119310315444,0.5825100600040386
11.0,-0.9160284206950561,0.6477767730549208,2.2265462407836747,-0.031989422272102434,-0.13279949757522644,-0.2352751130096999,0.07115120797442395,-0.09400815639612134,0.9930254135446335,-1.7981018411545526,-2.1515551779098225,4.151357589903332,0.9586846679965704,1.3539524305434454,-1.4237202458101899,2.0,0.48998005439225656,0.49501404107249275,0.28334450038325903,-0.6507531678667466,0.056936753866613635,-0.48370026872918276,0.5825054253840414
11.100000000000001,-0.9765654909317187,0.467402137241995,2.130055938807935,-0.031769431818998176,-0.13634681296207746,-0.23744800104715755,0.0710745009709308,-0.09389701363153061,0.9930415846828518,-1.7980970126801523,-2.1515458559440193,4.1513551383182925,0.9586593347736816,1.3539328575134277,-1.4237311522113245,2.0,0.48995330054535285,0.4950464347853977,0.28334594407719615,-0.6507571887851703,0.05692985406963221,-0.48367460153355546,0.5825229204000382
11.200000000000001,-1.1249702126444903,0.27563270922546984,2.081272563826783,-0.026555435182337966,-0.1392580012887554,-0.24068838377918822,0.07081743248863819,-0.09354024678492937,0.9930937077248924,-1.7981246902458494,-2.151531143185927,4.15138756586735,0.9586791006696844,1.3539378871496515,-1.423749964433011,2.0,0.48996727592850886,0.49502629719971564,0.28335785333582647,-0.65075902774645,0.05695631270203186,-0.48368173251542346,0.5825123585648305
11.3,-1.0837383016701654,0.5994383835364097,2.181734871497533,-0.022093735540898666,-0.14604050111245462,-0.23885560862178684,0.07077423547906808,-0.09350897478697588,0.9930997313823875,-1.798123188399231,-2.15155699551053,4.151395524596476,0.95866616057007,1.3539547167792714,-1.4237133967820144,2.0,0.48998482270286314,0.4950067009193358,0.28335594833163896,-0.6507511320794674,0.05696813951198848,-0.4837084549938207,0.5824978332537598
11.4,-0.9939759252211481,0.5042085336661839,2.2261559799465407,-0.03347476291136886,-0.1344943964669231,-0.2369053679729669,0.07059687214772853,-0.09327003786168879,0.9931346262504124,-1.7981053063232975,-2.1515551597348637,4.151396734528838,0.9586478753740378,1.3539283038150927,-1.4237356906018128,2.0,0.4899815228576295,0.49500759611347744,0.28335618411692015,-0.6507512430432438,0.05696202535163784,-0.48369010953144703,0.5825135408614716
11.5,-0.8437632357987694,0.653574899980451,2.3711946653441487,-0.030502686706965893,-0.13863060407221867,-0.23194896252759598,0.06994545571689582,-0.09229735344179811,0.993271532462694,-1.7981179181875457,-2.151564632238207,4.151413195306401,0.9586717325397949,1.3539356134150664,-1.4237379682081734,2.0,0.4899708106700815,0.4950065764599788,0.2833610533950186,-0.6507416482067895,0.05693998671516393,-0.4837053034327034,0.5825137978048796
11.600000000000001,-0.8830734745130782,0.4266814771880185,2.2944528879479864,-0.03512186369388588,-0.14266464160717165,-0.2305586613480839,0.06951751008871827,-0.09166065815221315,0.9933606758854336,-1.7980991068161691,-2.1515555913474844,4.151387362592803,0.9586669231176649,1.3539690971374512,-1.4237474057252515,2.0,0.489979906859577,0.4950270786777269,0.2833388889065091,-0.6507721894150551,0.05694741768229966,-0.4836888291567649,0.5824926314145191
11.700000000000001,-1.2095164206922333,0.070357237637379,2.1880675880789733,-0.03227162945567748,-0.15961427629720684,-0.2351469484918059,0.06928776622534104,-0.09132226740386461,0.9934079804339818,-1.7981237310560954,-2.1515311692138877,4.151382923126221,0.9586576131130086,1.3539496522752035,-1.4237214171629418,2.0,0.4899634198208777,0.49502070827609035,0.28335257730110336,-0.6507555377023051,0.05694512616409135,-0.4836937675656058,0.5825073578712374
11.8,-1.264364730591931,0.31554733640980076,2.098085593794599,-0.024026112474925344,-0.16995691745799138,-0.23641947172319996,0.06948003245918291,-0.09161959242419472,0.9933671671501806,-1.798114770650219,-2.151525332355643,4.151414006452787,0.9586593347736816,1.3539648945143097,-1.4237311522113245,2.0,0.48997166315694884,0.49500963190805025,0.283362965206806,-0.6507452663706914,0.056962418015358895,-0.48369923350301447,0.5825126030727381
11.9,-1.5050502740510348,0.45246250878398436,2.111710584373157,-0.022237369510518714,-0.15923862249812606,-0.24127732772293498,0.06917898693901559,-0.09117551085683444,0.9934288092378996,-1.798105325127527,-2.1515670868494206,4.151387467454887,0.9586717325397949,1.3539472478875367,-1.4237311522113245,2.0,0.48996629124030744,0.49503274913303363,0.2833223114868191,-0.65078237198512,0.05694930777819296,-0.4836682051787725,0.5824981956677207
12.0,-1.0261324941689727,0.6375042630088171,2.395257914193698,-0.030770526740757614,-0.15385447137672936,-0.2371156835275036,0.06893487938824458,-0.09080076704544758,0.9934799926842971,-1.7981088215891396,-2.1515407945297764,4.151389831822725,0.9586697682208168,1.3539377708583273,-1.4237311522113245,2.475690488140802,0.48996208369688565,0.49503717047196283,0.2833419828167674,-0.6507668273699317,0.05694989392856781,-0.48367280603399865,0.5825116845863232
12.100000000000001,-0.9576941154410358,0.8862191966918127,2.623246218057899,-0.039501691633524336,-0.14311319897641092,-0.23873596161294244,0.06990942139567236,-0.092185311368394,0.9932841576459831,-1.7983194776483484,-2.1514602191650614,4.151399292816987,0.9587770226949479,1.353939919213991,-1.4237549940692347,3.0,0.48996701885136895,0.49503470960226303,0.2833359127137135,-0.6507721417766102,0.056923214886847075,-0.4836840779389712,0.5824989955723155
12.200000000000001,-0.7447804440932033,0.8129059892513684,3.111484307490673,-0.05933710903641962,-0.14430067086283854,-0.23286460727343378,0.07010159074126389,-0.09251242267359348,0.9932407456828426,-1.7994547454761385,-2.1509364042602197,4.151531019195691,0.9595297008626158,1.3537404128076158,-1.4237128150797744,3.0,0.4899275391182306,0.4949657186342797,0.28331285477386053,-0.6507747324502205,0.05694914562568088,-0.48367764941617175,0.5824989046102108
12.3,-0.9783685974307899,0.623423595748228,3.88497899927032,-0.06984476145720524,-0.133750347889712,-0.22737300590267656,0.06994768721809577,-0.0923654109454132,0.993265297535987,-1.8012367978192017,-2.1501086157825386,4.151698756022386,0.9604120214698018,1.3535173613130824,-1.42375676665181,3.0,0.48981650844009783,0.4948248636908432,0.2832516887820643,-0.6508004073545554,0.05697351015536002,-0.4836743077604777,0.5824706112244157
12.4,-1.005332297346457,0.3688055400334219,4.371343906302256,-0.0450415218425594,-0.15152387555433308,-0.19007483781023418,0.06996363003189127,-0.09241570871483011,0.9932594958686938,-1.8029110107852915,-2.1493111821047703,4.152029880696097,0.9612745157860239,1.3532843589782715,-1.4238554383887927,3.0,0.4894532605674332,0.49439882761260034,0.28327461152306876,-0.6507228192881889,0.05699203124665566,-0.4837231165794693,0.5825149502962618
12.5,-1.026387155638275,0.43369094421535836,4.654804774108099,-0.04926106478831776,-0.17554695926525604,-0.18197456486682617,0.07000909934900425,-0.09251287217891395,0.9932472390422251,-1.8044911616316466,-2.148678115608,4.152239591607423,0.962157111357772,1.3530302622607935,-1.4238553988175273,3.0,0.48891469292429923,0.4939294447903275,0.2831813044183137,-0.6507446404368499,0.05696563712656108,-0.48369488662462246,0.5825165970018995
12.600000000000001,-0.9947015994574985,0.40382365089367295,4.703473942747237,-0.06951928270608078,-0.18522269962904253,-0.18096375009673707,0.07006990164755557,-0.09263437278914394,0.9932316300803966,-1.8060351216240058,-2.148015468408029,4.152453365490119,0.9631481896129463,1.3528454589022796,-1.4238866011248987,3.0,0.4887543285791535,0.4937200507187757,0.28311825543403574,-0.6507663058551175,0.05698103373138869,-0.4837150172193303,0.5824741703072241
12.700000000000001,-1.2220913249833154,0.8884917866942756,4.787382509310666,-0.0643409250393292,-0.19136242882434373,-0.18089043964731435,0.07030033238982232,-0.09296892007762399,0.9931840062312748,-1.8077604565971022,-2.147385841059759,4.152692949132589,0.9640143294552105,1.3526224523052317,-1.4239228407489222,3.0,0.48827773479269126,0.4932488602116723,0.28297731121144165,-0.6507527231568833,0.056984370406330816,-0.4837182892460864,0.5824863015403319
12.8,-1.5884910711079787,0.6897029731515001,5.29442076829253,-0.06850317854235674,-0.20813658416044872,-0.13785194647747961,0.07052256985523203,-0.09325877986158096,0.9931411011478815,-1.8092992854438679,-2.1466433459533945,4.152931985470704,0.9648390545366119,1.3524263813033444,-1.4240079102940932,3.0,0.48803384065232785,0.4930087621450131,0.2828995380752402,-0.6507626223805928,0.0569849775407457,-0.483696590971841,0.582493201272971
12.9,-1.623547043945911,0.9160643940843419,5.260385904731959,-0.07429562586549036,-0.21385240119111706,-0.13667489599515364,0.07013696178309271,-0.09257553399733841,0.9932322561598499,-1.8109216520189177,-2.1458593807616175,4.153116507881852,0.9657109808333545,1.3522048734454952,-1.4240062872516077,3.0,0.48767054323833964,0.49271943656441236,0.282816981838647,-0.6507865672346207,0.05694324368872721,-0.4836664221185793,0.582495581974831
13.0,-1.5419711440657604,0.5647216945980936,5.235631034988905,-0.10057708694021689,-0.2186315031500032,-0.1343656226289642,0.07059870710295456,-0.0932497281707383,0.9931362291472652,-1.812470800783832,-2.1451860866942347,4.153363870888596,0.9667262834723418,1.352003590507959,-1.424011047554879,3.0,0.4872085177982089,0.49219019284006194,0.28270938137229473,-0.650807381843076,0.056941517680036774,-0.48368397457132195,0.5824579195493387
13.100000000000001,-1.5300295182741197,1.2673886676100672,5.60760411440899,-0.10347697474269271,-0.22627807226022603,-0.12815643143353578,0.07081928696651535,-0.09356950730737112,0.993090796031976,-1.8140603328968963,-2.1443987395111805,4.153593002496865,0.9675563968956239,1.3517646180974503,-1.4240425268756312,3.0,0.4869875069048937,0.49196138187118615,0.28266143169399616,-0.6507977614526511,0.05696518236384002,-0.4836853491088437,0.5824652133337477
13.200000000000001,-1.4424666619693358,1.11572890529875,5.583825690306009,-0.11543258815061616,-0.23285312136301545,-0.11518834316773172,0.0702885722186828,-0.09278441228356521,0.9932017287755256,-1.8157103573288558,-2.1436649069542706,4.153786514450807,0.96842624549524,1.3515572547912598,-1.4240953955075242,3.0,0.48648476976831223,0.49150604531125197,0.2826354900291298,-0.650749740094849,0.05693746709678291,-0.48368322069147146,0.5825233408444803
13.3,-1.3562648360169487,0.875837264039521,5.586748218590614,-0.1276646302105845,-0.23306790249125758,-0.08957292499455319,0.06962950473842755,-0.09183393640323428,0.9933369270110635,-1.8173048624178259,-2.1430014979130174,4.154060611538771,0.9693058257546208,1.3513298034667969,-1.4241648449573707,3.0,0.48626110514883236,0.491265988844343,0.2825803475506537,-0.6507699715422957,0.05694721256832785,-0.48368446698739137,0.5824987515133921
13.4,-1.290980022619325,1.2879228841058015,5.801939908257496,-0.1431730916623783,-0.23702557584361458,-0.08717542309827168,0.0695028065828337,-0.09165621353998059,0.9933621948782292,-1.8187017440795898,-2.1423550438020644,4.154294272195562,0.9702710270902462,1.3510746624445908,-1.4241811164954263,3.0,0.48589606234936916,0.4909054805960472,0.2824321206534123,-0.650830002863099,0.0569229854369274,-0.4836646086264972,0.5824505364958841
13.5,-1.2062534707792885,1.1751262334065107,5.784923915968116,-0.1460988873017505,-0.24077731074076,-0.08503527401882921,0.06935523404005933,-0.09144394150400106,0.9933920681297294,-1.8203633841179,-2.1415800459747456,4.154539188855211,0.9710816698504403,1.3508544039299664,-1.4241955702737203,3.0,0.4854433559319497,0.4904585538098291,0.28242729959811086,-0.6507240439141,0.056956748150659826,-0.4836993317059745,0.5825367834045988
13.600000000000001,-1.3668373738882598,1.1068735083176073,5.738690221290681,-0.13590930656644565,-0.23725625985252877,-0.07377630353777294,0.06901246637569534,-0.09090860226069593,0.9934650060493017,-1.822142388657112,-2.1408794707660714,4.154745137482057,0.9719168027298574,1.3506491279143003,-1.4242202551360983,3.0,0.4852603393585843,0.4902999273875151,0.28243628128309867,-0.6506990038627422,0.05696088827148764,-0.4836945997110022,0.5825682773630672
13.700000000000001,-1.6074717453529828,1.2822655292048633,5.878442194844928,-0.15046307355575336,-0.24393710287971565,-0.05405899802564243,0.06905856411582549,-0.09096749727861393,0.9934563618276694,-1.823583532569356,-2.140181901553493,4.154988169867903,0.9729137116610967,1.3504090758173801,-1.4243176619159144,3.0,0.48473691632863886,0.4897578510007468,0.28219429081288083,-0.650827876872903,0.056932899085245604,-0.48365049741021454,0.5824636607048641
13.8,-1.4971377290135321,1.115728882206147,6.0212768417227025,-0.16945746890657043,-0.2563345748449825,-0.05462103404464055,0.06938296531780819,-0.09145167428392013,0.9933893308427505,-1.8250927383974833,-2.1394716701903285,4.155219089188272,0.9738034841887224,1.350166167322533,-1.4243176619159144,3.0,0.4845563363373823,0.48957277434061736,0.28217024532669466,-0.6508181095645574,0.05693915631402269,-0.4836438059744097,0.5824795186816879
13.9,-1.7260693690004376,1.300117011622573,5.883814502584234,-0.14218992813573134,-0.2658888615225624,-0.05078864179533429,0.06984197332096483,-0.0921106139103482,0.9932960044816599,-1.8268736056023753,-2.1387493220778873,4.155437409300186,0.974645427719124,1.3499450752115847,-1.4243277356784732,3.0,0.48416600099144785,0.4891601658407022,0.28221275135391033,-0.6506896785486072,0.05696742784450342,-0.4837246461332972,0.5825531058352608
14.0,-1.7929112148651387,0.8977685433870708,6.117845463521879,-0.14261421441308247,-0.2791741720732164,-0.044914407606873846,0.07040140582174373,-0.09289993661011463,0.9931830602415409,-1.828477083941825,-2.138064648665583,4.155694573770229,0.9754975485885972,1.3497196834853038,-1.4243799157600394,3.0,0.48366476578731304,0.4886854652696079,0.28198577898071325,-0.6508015749640882,0.05693800547176253,-0.48366144384304655,0.5824834601057953
14.100000000000001,-1.8328544076223545,1.3166699905107007,6.287486358252608,-0.1609353230407329,-0.28727107343021974,-0.030862591739218837,0.07042919356864588,-0.092936334784412,0.9931778265560232,-1.8298642946505799,-2.137372840322463,4.1558842441000765,0.9764072029022113,1.3494677652638043,-1.4244163563078718,3.0,0.48346254552883217,0.4884686101974929,0.2819073850055911,-0.6508328582547974,0.056933531746492655,-0.4836509389847097,0.582457666099409
14.200000000000001,-1.5535161488036158,1.1338734357916809,6.551734916345735,-0.17404850197555097,-0.296344276746266,-0.023377157625611735,0.07004361122054877,-0.09238731105742866,0.9932563411288365,-1.8314962065318687,-2.1366239662956708,4.15610142888702,0.9773848915569253,1.3492639025265505,-1.4244519684139207,3.0,0.4831345214373591,0.4881330429096147,0.2819219660175348,-0.6507685381803955,0.0569446584698011,-0.4836818150064209,0.5825028046442381
14.3,-1.531589067548886,1.2370877320149856,6.541390814706979,-0.1675681275333537,-0.2936085958259712,-0.015395634747938428,0.07013601692033085,-0.09251605802647409,0.9932379088968966,-1.8332633679553212,-2.135857244531149,4.156336112597816,0.9782338982702561,1.3490562919370475,-1.424509350453512,3.0,0.4826701404851892,0.487687823850786,0.2818525813511456,-0.650731805216786,0.056930037771980004,-0.4836965171497037,0.582533061530271
14.4,-1.7682585783534495,1.622432227404575,6.479404246563309,-0.16316115756092067,-0.29075472517659695,-0.011940070319067245,0.07013012447699182,-0.09248826856395778,0.9932408549058185,-1.8347186226452792,-2.1351721813350983,4.1565552165704265,0.9790369299403153,1.3488381152894253,-1.424521271382467,3.0,0.482422562142618,0.4874060650080291,0.28174145612076845,-0.6507909107852325,0.05693714197803057,-0.48367217003691626,0.5824865528357557
14.5,-1.7634564887262791,1.4374784242234515,6.525201025758831,-0.1849871107220653,-0.29673684414171736,-0.0010927955031706967,0.0697208196087941,-0.09187445934790091,0.9933267599549781,-1.836274954148568,-2.134446356659746,4.156807019080501,0.9800368982502441,1.3486436668249853,-1.4245518622403122,3.0,0.48210147512222773,0.48710154068584055,0.28170330606948885,-0.6507803685961414,0.05692281366425917,-0.48367453524146453,0.58249776745784
14.600000000000001,-1.6137020949292507,1.4213796764270674,6.538302012620057,-0.1727488461066074,-0.29638004795143735,0.0020584815396575452,0.0693083325787431,-0.09126463053712341,0.9934115809529216,-1.8379320937186798,-2.1337360095287776,4.157000656867781,0.9809057285136369,1.3484361252292831,-1.4245932737933558,3.0,0.4817369377809832,0.48674228170673356,0.2816792244478032,-0.6507333345059216,0.05691480703191344,-0.4836888125717056,0.5825392387610447
14.700000000000001,-1.5673661261370806,1.0322447459830324,6.636765920543715,-0.16847075648811588,-0.2920466155220043,0.0008981089421899405,0.06891724337075779,-0.0906873806356015,0.9934919196914934,-1.8394794365596907,-2.1331695125629837,4.157249489929732,0.9817590716765106,1.3482147442103003,-1.4246342916404033,3.0,0.48139775706365123,0.48637464725859875,0.2816109522969656,-0.65071823986817,0.0569197698989835,-0.48369815490174684,0.5825478581560172
14.8,-1.6185455775801627,0.8706109314581751,6.865793784503787,-0.16303779244353617,-0.2880804449447487,-0.008599303970467972,0.06926924100553415,-0.09124150563499331,0.9934166020293937,-1.8410507538844512,-2.1325560751802746,4.1574345270085145,0.9826303001230361,1.3479952812194824,-1.4246891180621546,3.0,0.48111678281122155,0.4860367050955829,0.28147593520698194,-0.6507708481436193,0.056934087023915746,-0.48369203685255435,0.582492769420029
14.9,-1.687200932254946,1.3384602087528235,7.057961431749041,-0.17299088855281874,-0.29288712917246185,-0.014508760893076695,0.06959387696499814,-0.09173902412927734,0.9933481218113177,-1.8426822790444084,-2.1317877190836514,4.157646459777608,0.983596177677067,1.3477382087007024,-1.424706621188125,3.0,0.48065162997069866,0.4855901687322981,0.2812476571365244,-0.6508535106863163,0.05692698544147541,-0.48364373776629854,0.582441208084805
15.0,-1.6861661499641833,1.2751626988808038,6.965386237379231,-0.18871673749961532,-0.30159482791372255,-0.012452667877984576,0.06989342140494918,-0.09218463267246171,0.9932859117451303,-1.8441688479847322,-2.1309407573851966,4.1578937501642415,0.9844364283770219,1.3474859308221563,-1.4247497688611614,3.0,0.48017916961544144,0.485105906898161,0.28123736962651,-0.6507946085374047,0.05694359434111,-0.4836682705784844,0.5824850286468995
15.100000000000001,-1.5723574516702614,2.087933853378818,6.782018033889529,-0.18399011978951624,-0.2936869045652048,-0.021339095494889822,0.0694236146572628,-0.09154343587383953,0.9933779906187039,-1.8449029922485352,-2.1305116606097574,4.158055068021733,0.9848328576997472,1.3473296852343348,-1.4247855245132268,3.0,0.479818420824118,0.48475602723493,0.2812538784118152,-0.6507458638289596,0.05693287514756006,-0.4837013799348234,0.5825130414729622
15.200000000000001,-1.4497465972102566,1.3739113600199007,6.299703843603338,-0.174509153088388,-0.3025053573769184,-0.01858967782395243,0.06897203788373743,-0.09093267545310185,0.9934655723813245,-1.8449029922485352,-2.1305490347211857,4.158047951265579,0.9848262506672363,1.3473601341247559,-1.4247722471215303,3.0,0.4797124853526454,0.4846386516870668,0.28129579508276364,-0.6507060110618235,0.05696327136392252,-0.4837249799230889,0.5825349918090224
15.3,-1.9687138706809568,1.5504783685661248,6.228041467440348,-0.15881518754149565,-0.3015782915096973,-0.020971875574444514,0.0685407861768958,-0.0903555357046608,0.9935481965204799,-1.8449589848337242,-2.1305737584047963,4.158045631638053,0.9847817538976172,1.3473238945007324,-1.4247594222275612,3.0,0.47972449925023797,0.4846410773725816,0.28129747662272114,-0.6507086909743032,0.05697177302713778,-0.4837248393261632,0.5825312836127605
15.4,-1.6894466492777416,1.012357039355573,6.218999460365616,-0.16410825387149588,-0.3050383515582411,-0.02077080786308443,0.06875864726797688,-0.0905909937439738,0.9935116788955499,-1.845052545196589,-2.130544312963121,4.1580542428665765,0.984852193851251,1.3473189522095284,-1.424786861573065,3.0,0.4796990855727028,0.48466051927402365,0.2813096701732315,-0.6506897142202138,0.05695121063124772,-0.48371030779159696,0.5825665571862242
15.5,-1.8947416677945044,0.8632629700675918,6.178901321573512,-0.15242633377153805,-0.3183047775912426,-0.025826347941255566,0.06856568315897872,-0.09027505918722553,0.9935534456765608,-1.8450345993041992,-2.130537806259317,4.1580337045616576,0.9848557429474549,1.347343601889301,-1.42475850759858,3.0,0.4796944564609628,0.48464081023355776,0.28124090418949993,-0.6507507167678441,0.05693710042633294,-0.48370032063530294,0.58250808667218
15.600000000000001,-1.7687693438766956,0.7498296037453495,6.228973452367034,-0.14139241502113076,-0.3458614368517098,-0.03424024235069057,0.06787040613843379,-0.08928665561078727,0.9936907971406338,-1.8450502782124663,-2.1305260853697052,4.158059597015381,0.9848582554747897,1.3473467238726005,-1.42476832974837,3.0,0.4797003518537991,0.48463064823268154,0.2812357528971319,-0.6507531097451349,0.056949352367051,-0.4836916729530438,0.582511396401732
15.700000000000001,-2.0242506702520116,0.7412893136358991,6.088892293996518,-0.13733155620747256,-0.3447056271075334,-0.03249326080441223,0.06906785773699461,-0.09099799656482684,0.9934516997147785,-1.845047658337347,-2.130558252450547,4.158052523372426,0.9848488871317308,1.3473433659098009,-1.4247713591714244,3.0,0.4797088333276726,0.48463285540255396,0.2812197737171963,-0.6507640219661813,0.05695828768370513,-0.4836821453561523,0.5825062432645765
15.8,-2.092119181402533,0.7796973940625312,6.038143611438434,-0.13149287491205947,-0.3427545740778982,-0.03153060988476001,0.0693082857925712,-0.09132623420047227,0.9934049224514269,-1.845034840412348,-2.130560650219247,4.158065926498685,0.9848323189500456,1.347342360549655,-1.4247492250155733,3.0,0.47968221690147633,0.48464410630546756,0.28120283638069804,-0.6507753929246456,0.056939442100532166,-0.48366478731168683,0.5825097951209008
15.9,-2.137952259289332,0.8552776372805547,6.115216513849035,-0.13105093645914007,-0.34081471207492914,-0.03509845008937077,0.06823730026317437,-0.08976138030899115,0.9936214433212186,-1.845039560803682,-2.1305462080518907,4.158066619823721,0.9848489848906056,1.3473449808735347,-1.42476284965026,3.0,0.47968928612727085,0.48464172371462805,0.2812277187529004,-0.6507593370865828,0.056929667699134046,-0.4836887578438148,0.5825087841962597
16.0,-1.9419554511468562,0.4472377851201599,6.107382012820181,-0.1397322754854825,-0.3418418405961046,-0.032395435101438795,0.06755941281077947,-0.08877725127145737,0.9937576538520546,-1.8450280191339956,-2.1305408324702473,4.158066725533101,0.9848262506672363,1.3473464254368317,-1.4247900289159465,3.0,0.47969352752649375,0.48464830386088503,0.2812047194191323,-0.6507780927522707,0.05692524736884206,-0.48368353591341995,0.5824925984868861
16.1,-2.2019412893278756,0.7272356733965342,6.150090884695054,-0.12963107556269576,-0.335848950672662,-0.03599277186055313,0.0673999608683449,-0.0885590084170843,0.9937879474782615,-1.845028015225615,-2.130542894402975,4.158051145199311,0.9848262506672363,1.3473434250186451,-1.424783289119497,3.4712348578995273,0.47969403293148527,0.48464556916600066,0.2812003764375046,-0.6507803825639876,0.05694177380666316,-0.4836725321306583,0.582497561993128
16.2,-2.278444191841782,0.4979674345571019,6.042947804872509,-0.13698667038459783,-0.3334347133462481,-0.039914290283172775,0.06735036067113458,-0.08850700481295942,0.9937959635304185,-1.8450231552124023,-2.1305375469222487,4.158066087167656,0.9848510461994628,1.3473428657150748,-1.4247798420661442,4.0,0.47969411303913295,0.48463916173545546,0.2812154984294481,-0.6507603462898973,0.05694315433925275,-0.4836851386570068,0.582509343712958
16.3,-1.8603701649442006,0.7726228185470693,6.034149158912016,-0.1307546503679045,-0.34547965313773293,-0.03421526529387721,0.06746060993908844,-0.08869690228366252,0.9937715626347178,-1.8450410610079664,-2.130560005319461,4.158078456485262,0.9848624902912597,1.347332912470865,-1.4247621845897784,4.0,0.47970587833772055,0.48463465922096366,0.2812441122730863,-0.6507478462646301,0.056962186240783384,-0.483684620249462,0.5825218777477368
16.400000000000002,-1.902651766994587,0.7362549712059212,5.71128029357229,-0.12842633644573906,-0.3438714177005383,-0.03471707130300846,0.06814025193479631,-0.08966789843902906,0.9936375793138259,-1.8450529065597836,-2.130542894402975,4.158061705521297,0.9848386484333496,1.347341254938856,-1.4247582491648108,4.0,0.47969577344676906,0.48463749127636113,0.2812285994250288,-0.6507508722980684,0.05693883310894551,-0.48369331705342544,0.5825135590914166
16.5,-1.803582428317152,0.3193930637004144,5.8636957094327675,-0.1383116328367146,-0.3419264222387204,-0.03691859925939406,0.06876239133104474,-0.09054748173816468,0.9935152950245266,-1.845014324424572,-2.1305565988210717,4.158081726723715,0.9848457747307597,1.3473640989414757,-1.4247695534224367,4.0,0.47970603877762635,0.4846315191414543,0.2812168917995332,-0.650761554997086,0.05694273653769792,-0.48368727190956545,0.5825062628728169
16.6,-1.9316001585964284,0.6713190465030234,5.754999064840241,-0.12670985663164636,-0.3423017357233198,-0.04220959150481172,0.06919179464014956,-0.09114277387917312,0.9934311077431337,-1.8450345993041992,-2.1305403152591986,4.158069223115711,0.9848262506672363,1.3473362922668457,-1.424782383187177,4.0,0.4796897773391257,0.48462928551036744,0.2812313483873516,-0.6507556442367732,0.05693132474118347,-0.48369001551507346,0.5825117034431366
16.7,-2.171142609846423,0.7946468392989863,5.8363221534653755,-0.1266746833858355,-0.33609594161270734,-0.042399236705326825,0.0688357581332482,-0.0906692445960319,0.9934990238822382,-1.8449983596801758,-2.13056029020928,4.158059597015381,0.984845015653277,1.3473549041404798,-1.4247492913247557,4.0,0.47969213704370334,0.48465002096295096,0.2812144253762759,-0.6507714612237798,0.05693655167082665,-0.48367878058187075,0.5825028511134824
16.8,-2.035505795843512,0.6408391751277445,5.75826377742051,-0.12787814584725812,-0.3396477611686307,-0.039692495902905675,0.0681251716899765,-0.08966510704574061,0.993638877061005,-1.8450098037719727,-2.1305494964356018,4.158050692791462,0.984844180085531,1.3473563624460312,-1.4247355186416764,4.0,0.47970394805339883,0.484634155178476,0.2812107678171352,-0.6507660426282202,0.056961176478697355,-0.48368805725597264,0.5824987943370449
16.900000000000002,-1.9218439209928,0.8521958129305178,5.896755469247689,-0.12125260860996841,-0.3432913723745755,-0.041762316912198595,0.06737373866949468,-0.08855687736728306,0.9937899445335654,-1.8450303341082823,-2.130551780227802,4.158064970898922,0.984844718641606,1.3473409128957556,-1.4247520569317198,4.0,0.4796975154893306,0.48464144725314373,0.28122759480526854,-0.650767172257264,0.056942803096514796,-0.4836761483097902,0.5825092173038996
17.0,-2.0599591319226436,0.5828284381025215,5.553587829000405,-0.12854362016679716,-0.34116850736271753,-0.039799524735811526,0.06742862855793798,-0.08865656830026311,0.9937773340196429,-1.8450345993041992,-2.130535517036299,4.15805408884581,0.9848289938190465,1.347338569514473,-1.4247679303499747,4.0,0.47970380844477306,0.484629327832044,0.2812357104329654,-0.650750111718751,0.056953750352858566,-0.4836964404330427,0.5825103569303992
17.1,-2.306717093578935,0.8757229630452094,5.709403237796189,-0.12048744291028633,-0.33506885370241674,-0.040767004774022106,0.06712211352755468,-0.08823278340430106,0.9938356689895779,-1.8450410917731361,-2.130559973272409,4.158071994781494,0.9848353660604062,1.3473362922668457,-1.4247660720959032,4.0,0.47970378472789904,0.48464343536258475,0.2812203561867195,-0.6507704064976391,0.05694200039704682,-0.4836864784813001,0.5824971048443408
17.2,-1.8113118324140398,0.792756278292705,5.704011597024276,-0.12397785769197345,-0.34398491007565657,-0.04300771175021234,0.06679142744907793,-0.08775116290896764,0.9939006929886182,-1.8450393045943754,-2.1305618349169517,4.15807670007167,0.9848543290073228,1.347350331436889,-1.4247636227924876,4.0,0.47970300363859053,0.4846285681461504,0.28123672480488676,-0.6507446238313814,0.05695757642638051,-0.48369300699974727,0.5825189645168038
17.3,-2.0997779996763244,0.5092376708309837,5.765893104088154,-0.1286587034497299,-0.33664381073506355,-0.03977595286527971,0.06660650519887253,-0.08742738936542059,0.9939416413673298,-1.8450345993041992,-2.130537895545328,4.158071994781494,0.9848436472909966,1.3473312934091985,-1.4247611204730433,4.0,0.47968977719638184,0.48464365227447953,0.2812243479358288,-0.6507535875427233,0.0569500509897404,-0.48367404186526064,0.582525433966847
17.400000000000002,-2.2986582436484495,0.9393382138407715,5.706568417993635,-0.11445515402221956,-0.3309919692953403,-0.04392283608186375,0.06689208418603763,-0.08782032874910901,0.993887691814224,-1.845065241068819,-2.1305584649112776,4.158102082718898,0.9848314486795395,1.347355335959553,-1.424741799866728,4.0,0.47969197295364535,0.48465188473803555,0.2812364407958466,-0.6507540391763866,0.05694795788607515,-0.48368161305305696,0.5825188475771548
17.5,-1.8211896105935086,0.6665517104851346,5.553501528402717,-0.12234874362673495,-0.3437658133456128,-0.04245223220575536,0.06730666019107527,-0.08841450348365511,0.9938070315072893,-1.8450579372845513,-2.1305615025428857,4.158088928360317,0.9848679797782852,1.3473541795199844,-1.424792134039561,4.0,0.4796837404141367,0.4846439922541974,0.281216835160891,-0.6507712820864888,0.05693521171727364,-0.48367583348924054,0.5825056293090267
17.6,-1.9167634374822653,0.5842422235994487,5.7049112247210605,-0.12349102525388873,-0.3415890626079587,-0.04313779960832964,0.06772930041674759,-0.0890332925984011,0.9937229408500077,-1.845046043395996,-2.1305499147267613,4.158078734292329,0.984821546086274,1.3473238945007324,-1.4247627633545021,4.0,0.47968643333108835,0.48465152989018434,0.28120606090212674,-0.6507815522841414,0.05692768210082837,-0.4836723847812025,0.5824977548603384
