xiamingqian9007/apple-picking-rnn/final_data/grasper_20191127_111634.csv
,/manipulator_wrench.fx,/manipulator_wrench.fy,/manipulator_wrench.fz,/manipulator_wrench.tx,/manipulator_wrench.ty,/manipulator_wrench.tz,/ground_truth.x,/ground_truth.y,/ground_truth.z,/joint_states.elbow_joint,/joint_states.shoulder_lift_joint,/joint_states.shoulder_pan_joint,/joint_states.wrist_1_joint,/joint_states.wrist_2_joint,/joint_states.wrist_3_joint,/mode./mode,/manipulator_pose.x,/manipulator_pose.y,/manipulator_pose.z,/manipulator_pose.rx,/manipulator_pose.ry,/manipulator_pose.rz,/manipulator_pose.rw
0.2,-10.863477288818398,-4.727975784238704,-8.087085912345355,-0.15412358881403565,0.13396410622661326,0.3941671411150023,-0.20109288760410554,0.2024149614567851,0.9584309151933508,-1.8415385738445318,-1.826922141682076,4.164162029959288,0.4406271317922954,1.3360863073922413,-1.5526657505328878,1.0,0.4684947580723401,0.47001363519615247,0.38091301278049405,0.7361621053625279,0.0013622530473903142,0.4786610760749964,-0.47848414095513325
0.30000000000000004,-10.579419595006744,-4.9808494948291795,-8.054935879803763,-0.16103111616609914,0.13112490493133624,0.4043238228293774,-0.20107073953248458,0.2023420231946676,0.9584509438667115,-1.8382340506003971,-1.8296130104458144,4.163452126452837,0.4399928767192179,1.3367381462925771,-1.5527241278855004,1.0,0.46875099740559867,0.4702077411282407,0.3809450977109509,0.736130386570896,0.0013111806624699063,0.47870118029339415,-0.4784929620777771
0.4,-10.854478895320739,-4.901935119510171,-7.946570176025618,-0.1492146436055372,0.1337517375482525,0.417521518244604,-0.20167859220877177,0.2029329766871416,0.9581980862229882,-1.8339913661230907,-1.8331296622175735,4.1628362549500935,0.4393347981679222,1.3374689529651012,-1.5528097519383013,1.0,0.46927291905444096,0.47066145158326594,0.380915676764561,0.7361228726592064,0.001285862447926985,0.4787084884116872,-0.47849727901872197
0.5,-10.751394141540832,-4.784711830985077,-8.004493845454432,-0.15405769387601412,0.12519101985954872,0.4036926501118876,-0.2018826512329918,0.20314009291890575,0.9581114113697571,-1.8299117774455982,-1.836622225792913,4.1620168265004835,0.43867982094342517,1.3381573317849507,-1.5528915564166468,1.0,0.47064588330850077,0.4721711139032171,0.3806739088714111,0.7361461682808667,0.001339458433991731,0.4786819992179942,-0.47848779336694264
0.6000000000000001,-11.011590627197737,-4.8631375588472485,-8.011344922018335,-0.15634071723628162,0.12162285581591789,0.41046010465730337,-0.20174424094880375,0.20302205123060627,0.9581655939271402,-1.8261098213807663,-1.839909509602889,4.161175479854606,0.4378878033482707,1.33906424008751,-1.5529397169696253,1.0,0.47126664524878303,0.47280629391546475,0.38051751980010146,0.7361865214808427,0.0013439215032316628,0.47866419518147285,-0.4784435052503096
0.7000000000000001,-10.727156409842069,-4.55009404664268,-7.713783547816158,-0.14452310796885331,0.12418223662253204,0.4065327779088933,-0.2019105749324264,0.20320850968787826,0.9580910119085042,-1.8222284969512696,-1.8429768801638258,4.16055720480044,0.4372426380253417,1.3397038793739673,-1.5530243205298415,1.0,0.47273578643017866,0.4741691862552925,0.38028950573040815,0.736237645266892,0.0013505468352967402,0.47862555702151277,-0.4784034718529484
0.8,-10.926572472346722,-4.660918619240883,-7.69233326371062,-0.14705649954652555,0.12592560344054948,0.406929514108723,-0.20204163328374244,0.20334714002622695,0.9580339785634617,-1.8184471061057825,-1.8460717497205978,4.159930391691859,0.43662470730182595,1.3403307808520835,-1.5530757780645605,1.0,0.47331757593560375,0.47480506746928963,0.38022608850085643,0.7362172838840771,0.0013487939745305522,0.4786247586232794,-0.4784356091450283
0.9,-10.906018853589329,-4.3780901853482765,-7.781303778290651,-0.14825981847815398,0.12477437962018058,0.4107972109583286,-0.20213868752586997,0.20343966622775922,0.9579938613436301,-1.814943372967418,-1.8487810250984713,4.159323088582916,0.4359530491709586,1.3408621241200653,-1.553131405507223,1.0,0.4744852246434538,0.4760122360030796,0.3801754496128373,0.7361460124114012,0.0013399253978307497,0.47867123981013454,-0.47849879538965395
1.0,-11.117364103083112,-4.302491556467542,-7.747518432141044,-0.13933793880627668,0.12932944357737491,0.4029138036977466,-0.20218206907907543,0.20348025877980488,0.9579760931732503,-1.8114605209143233,-1.851564092212692,4.158770133424307,0.43529987280203986,1.3414627848832792,-1.553176181253297,1.0,0.475128913543667,0.47664572462441535,0.38000452092489356,0.7362087789573419,0.0013375679977963213,0.47865062867344366,-0.4784228468295675
1.1,-10.901942141947599,-4.708625654734238,-7.9660625056258745,-0.14457252955898298,0.1268490587064838,0.4058660650555543,-0.20217136987667772,0.20346852283738018,0.9579808439693251,-1.807976780345491,-1.8543871649279309,4.158231857417598,0.4346329217645092,1.3422250423522006,-1.553250460192802,1.0,0.4760008394401724,0.4775301383877375,0.38011842224806225,0.7360988731973672,0.0013126537382930907,0.47871459967896135,-0.47852801158546787
1.2000000000000002,-10.718802161484504,-4.805608351098707,-7.913280400780576,-0.14530705176106654,0.12481036161778834,0.40355278313494614,-0.201812536165953,0.2033818841609335,0.9580748577553264,-1.8046210728640129,-1.8571693059921892,4.1576197895484714,0.43395814991093523,1.3428527815670546,-1.5532922632365838,1.0,0.47710183576664766,0.4788171093380953,0.37988503064251233,0.7361499874223146,0.001440767574756574,0.4786063642688391,-0.4785572779597915
1.3,-10.827024625574236,-4.823408468032072,-7.904797391275493,-0.1459957397598002,0.12082142575518658,0.4042017490271487,-0.20156309651840948,0.20320768162865144,0.958164355467237,-1.8015701740661125,-1.8596834372440616,4.156997144975293,0.4333999105445669,1.343295503635853,-1.5533220698181247,1.0,0.4777064555056861,0.47938831334145815,0.37978218534890434,0.7361741424452306,0.0014542242608273708,0.47859159181951033,-0.47853485292765824
1.4000000000000001,-10.776090546821585,-4.659616306857646,-7.76354116874217,-0.14743933443974297,0.12142205945866504,0.4050818202445479,-0.2016612987755078,0.2031749443991408,0.9581505976182777,-1.79827210668496,-1.8621828916659848,4.156443203136485,0.4328218332919762,1.343824863433838,-1.5534014345641727,1.0,0.47856420795464377,0.48012959385540954,0.3796543483270585,0.736182073978151,0.0013795467346540658,0.47863336826719294,-0.4784810859221469
1.5,-10.603151489996865,-4.815068327219464,-7.917251485399537,-0.15374403199743614,0.11940513966291247,0.40397838439005934,-0.2020132964214847,0.20340888091517575,0.9580268489709163,-1.795368997158806,-1.8646629439145743,4.155892609733824,0.4322118875355149,1.3443168752059378,-1.5534251395283982,1.0,0.47931964033380103,0.48086789545809194,0.379648770168624,0.7361208267628865,0.0013526101544390086,0.47868507852152686,-0.4785236613298596
1.6,-10.691591290966773,-4.498391256408397,-7.894510941598618,-0.1448733646435343,0.11798926580702274,0.40904278464775173,-0.20131674416018136,0.2026025006775998,0.9583439013013895,-1.7922586692343028,-1.8671065984749502,4.155353696513894,0.43160073339428706,1.3448158111827673,-1.5534731960996482,1.0,0.4805077215926274,0.48201233747580435,0.37941328634073546,0.7361816783181773,0.0013247918336352046,0.47867347967642904,-0.4784417219366309
1.7000000000000002,-10.678696319515197,-4.755069512968829,-7.881101592937248,-0.14504314135573354,0.1230172798126103,0.402812662166998,-0.20080510372473756,0.2020650558464252,0.9585650647880514,-1.7895986030556563,-1.8691902635562128,4.154903342820316,0.4310003263671913,1.3453493231982854,-1.5534963898293686,1.0,0.4809474918769257,0.48242598746915616,0.3793974375592421,0.7361590139843113,0.0013072397360582731,0.47869177814968866,-0.4784583354753144
1.8,-10.806134998892219,-4.736706347579326,-7.972219578125401,-0.14449399852935146,0.12149685227746977,0.4007205833184513,-0.20060213312614522,0.20194829839843045,0.9586321608398126,-1.786723936672518,-1.8716893832683343,4.154472827911377,0.43047055282203334,1.3458277416318152,-1.5535473700872147,1.0,0.4818432158449894,0.48336099936579974,0.37927245965021916,0.7361801696094099,0.001339619474545107,0.47864275520600585,-0.47847473933565965
1.9000000000000001,-10.808003220064174,-4.920472762942949,-8.067638056499817,-0.14168458281955487,0.129335290793391,0.3984510560913725,-0.20083611164237128,0.20223195731029533,0.9585230268207042,-1.7842387129561454,-1.8735846751955072,4.153989367644439,0.42996306032656295,1.34630351272217,-1.553579262732003,1.0,0.4822797279694442,0.4838486263243977,0.37919085887881343,0.7361838191412605,0.001386235040380197,0.4786440931248857,-0.47846765293346244
2.0,-10.752383512743636,-5.075965586673848,-7.91928292890073,-0.146974782895804,0.12264241478722188,0.39878800257839825,-0.20167459669708301,0.20306958074444195,0.9581700835649924,-1.7814697912350785,-1.8755421915619652,4.153606807043412,0.42944092260309635,1.3466664667725905,-1.5536396947130662,1.0,0.4831855200193241,0.4846985921427209,0.3790862377828848,0.7361825562725569,0.0013696322770717353,0.47864379094579396,-0.47846994611623017
2.1,-10.589957634893352,-4.979536810273743,-7.824283882661977,-0.15538985025473362,0.11244119871467577,0.403991777479401,-0.20175976269241752,0.20317371265013154,0.9581301790056318,-1.7791116856936915,-1.8777969410280144,4.153230820464393,0.4289298802267285,1.3470539721163532,-1.553678458524981,1.0,0.48351738455295606,0.4850440917101071,0.37917999766826965,0.7361095050409651,0.0013599912853652924,0.4786861672547999,-0.4785399672869119
2.2,-10.801201977580355,-4.761706682367886,-7.938545158774036,-0.15156084536135925,0.11929956093676944,0.40153532888687515,-0.20172316151226735,0.20314838348349912,0.9581432436643562,-1.7765793517603463,-1.8793604276211922,4.152879238128662,0.428410707568905,1.3474583625793457,-1.553703346865003,1.0,0.4842383175603905,0.4858250601027492,0.3788307828765558,0.7362544423094821,0.001387656967711431,0.4785852772502319,-0.47841781215482776
2.3000000000000003,-10.73386133043044,-4.768813249015033,-8.057306375443632,-0.15042430917083283,0.11910867905157271,0.40169404689575217,-0.20160555074964698,0.20302581994386584,0.9581939622558057,-1.7741393103528378,-1.8813211346582583,4.15247742497238,0.42787455978770467,1.347778871258004,-1.5537188688861292,1.0,0.4847569089819981,0.4863680360826002,0.378957229461454,0.736150614566168,0.001384941699429855,0.4786507684043904,-0.47851206517310396
2.4000000000000004,-11.02094980770509,-4.705792985344775,-7.994110641414213,-0.1500219390053355,0.1202265782576101,0.40224108120752294,-0.2014879399870266,0.20290325640423257,0.9582446808472551,-1.7718746859133574,-1.883277159820598,4.152057446001369,0.4273860903041525,1.348175864935717,-1.553783976857592,1.0,0.4855428748650135,0.4871350999857701,0.37893210750280887,0.736114639354577,0.0013538658882738112,0.47868078665297914,-0.47853746902862476
2.5,-11.071020655385142,-4.922932296887815,-7.983509933573528,-0.14475297690441177,0.12579884199912184,0.40051013862697066,-0.20176487015365818,0.20310879005753985,0.9581428110539768,-1.7696664578830468,-1.88494934658193,4.151706191853765,0.4269134778605856,1.3485600279330445,-1.5538212096139354,1.0,0.486244202467704,0.4878029076730894,0.3787294709949724,0.7361826201043064,0.0013596985331964678,0.4786599421550747,-0.478453718610649
2.6,-10.71157874122379,-4.714757227610374,-7.990121884599488,-0.14446378175740437,0.11807695775501104,0.4011782782849,-0.2018049043349308,0.20311429787337332,0.9581331151213528,-1.7673889264847165,-1.886642926499447,4.151320934295654,0.42647282659497066,1.348932411903772,-1.5538496679358973,1.0,0.4866067392861502,0.4881477324535341,0.3786894936158595,0.7361853013062926,0.0013511955350371436,0.47866450561466495,-0.47844505167872525
2.7,-10.930094293476524,-4.733836922185014,-8.100235387491624,-0.1422918883090547,0.12337173834667949,0.3948160979550493,-0.20129738700652935,0.20265893546166147,0.9583361981529294,-1.7655344474856907,-1.8883823625876024,4.15097621299838,0.4260521457394739,1.349298187125606,-1.5538662435361201,1.0,0.48710390786258156,0.4886610278584262,0.3787432302248042,0.7361134889405672,0.0013489429683205753,0.47868614227767037,-0.47853389529262774
2.8000000000000003,-10.694475767187061,-4.899866574932457,-8.174893233900924,-0.14778105945736802,0.11859386839523596,0.39967398791632197,-0.20112126241905648,0.2025414250074266,0.9583981418859582,-1.7632382983016561,-1.8898943928623955,4.150661945343018,0.42559813468901564,1.3496301532342079,-1.5538767736211465,1.0,0.4878023728692345,0.48935454368995474,0.37846811513730044,0.7362188370049088,0.0013767818528588975,0.47861824490808635,-0.4784396557058917
2.9000000000000004,-10.772253540613184,-4.878060072943941,-8.134176782629208,-0.15310490210888733,0.11849189416984517,0.400599264164967,-0.20157596141863152,0.2030670336001255,0.9581914195089996,-1.7613155415885748,-1.8914389040658726,4.150384654855285,0.4251552436568245,1.3499398885637022,-1.5539007590282936,1.0,0.48806008564395115,0.4896499696942871,0.37850873344912367,0.7361793612133787,0.001382030278646626,0.478623834750165,-0.47849478881678253
3.0,-10.94078269220756,-4.716727599467603,-8.0759707354751,-0.15220797799057462,0.12018650402175796,0.39831990625021446,-0.20154171541258584,0.20298523519002817,0.9582159698609697,-1.7596408466080178,-1.8929353318838067,4.150049950606964,0.4247465022828809,1.3502048577108985,-1.5539712026425159,1.0,0.48878025886627696,0.4903589862742761,0.37850067838794055,0.7361373007618919,0.0013571307330786989,0.4786602285528504,-0.47852316372867754
3.1,-10.576920902584808,-4.874980486077758,-7.954533189819495,-0.15108373885285867,0.11582264555549265,0.39996973503723804,-0.20141224033420346,0.20278513552980623,0.9582855639032923,-1.7575444250944958,-1.8943711068646505,4.149737654275962,0.4243165689655761,1.3504801023374544,-1.553948521227487,1.0,0.4890406095827471,0.4905961963454697,0.3783511579649711,0.7362166731542826,0.001363689793990865,0.4786239180205854,-0.47843734764168455
3.2,-10.697399664317414,-4.935204517621495,-8.064976631711955,-0.15107765927892106,0.11959950847436063,0.39950319582619226,-0.20127044205030975,0.20259538963678544,0.9583555204504901,-1.7557771838852774,-1.895797420296653,4.149429519698884,0.4239096360040485,1.3507535857698654,-1.5540081698274903,1.0,0.48952866352046404,0.4910471307086024,0.3783637694926032,0.7361720410153894,0.0013549287558074106,0.4786711646868776,-0.4784587822295783
3.3000000000000003,-10.983899838291496,-4.705944521093541,-7.990431949903662,-0.14935279597743348,0.11910204408417155,0.4014294736172176,-0.20112940643195104,0.2024488746920819,0.9584160933543827,-1.7541888763675741,-1.8972741710356171,4.149176120758057,0.4235374170490722,1.351038961651515,-1.5540331375429777,1.0,0.4901938366309494,0.49171621738923227,0.3783004065670998,0.7361608648593895,0.0013405359657103746,0.4786676646074227,-0.47847951980421943
3.4000000000000004,-10.821675914487072,-4.956206634951861,-7.9094010367479255,-0.149161416733205,0.12119171286476513,0.39760203899863483,-0.2010448017214333,0.20234951727912062,0.9584548272380914,-1.7523604295755688,-1.898455722135768,4.148911952972412,0.4231664377399902,1.351270208560061,-1.5540550390826624,1.0,0.4904321705501284,0.49196626127973214,0.37812665823465236,0.7362417366543004,0.0013476342102175984,0.47861670132034445,-0.4784060433434423
3.5,-10.846805334852728,-4.723645095832008,-8.054003356523609,-0.14644799842885634,0.11838124419689816,0.3998343577977508,-0.20138629320604964,0.2027070233422573,0.9583075449093915,-1.7507169584652242,-1.899619636449559,4.14868858856166,0.42282597038624176,1.3515119552612305,-1.554084219536544,1.0,0.4910065571152177,0.492538701874641,0.3782445873816898,0.7361374502512078,0.0013220924271654967,0.4786797161617252,-0.4785035378600607
3.6,-10.718845711924265,-4.724400854347784,-8.085358655707601,-0.14315616133798012,0.11540069349072953,0.39847230707001385,-0.20094576538323713,0.2022867844110776,0.9584885648112564,-1.7492329379908744,-1.9009369868302306,4.148463662193032,0.42247052024344006,1.3517349320452199,-1.5541076741761144,1.0,0.4912474232470573,0.4927773532989207,0.3782478418904872,0.7361180541927979,0.0013197957906724298,0.478698792750051,-0.47851429889829167
3.7,-10.92798955110734,-4.91705435794384,-8.078535423651,-0.1487423083482131,0.1189349424436314,0.4006584347408243,-0.2009149614688918,0.20226450099999718,0.9584990781083403,-1.747656282793176,-1.9023515812448086,4.148237488219116,0.4221295965067509,1.3519886114592339,-1.5540967211667318,1.0,0.49160796074952556,0.49317342133132386,0.3781422076664328,0.7361542079860078,0.0013495185224468027,0.47866664373785106,-0.4784907575251501
3.8000000000000003,-10.910629616419904,-4.628396309967844,-8.075318689082374,-0.14140544960581536,0.12221373908826552,0.3942585457289247,-0.20244320085266856,0.20377409903305654,0.9578577362766199,-1.7461233871164152,-1.9032815891316475,4.1479825865355755,0.42178742467846675,1.3522017106100892,-1.5541269998954792,1.0,0.49218702135113546,0.4937902935017963,0.3779064556609943,0.7362339482963575,0.0013629622390675892,0.47861882236354325,-0.4784158636471268
3.9000000000000004,-10.966183349481703,-4.4082954116084565,-8.17344368895675,-0.1356867224625786,0.11522482395760276,0.39227281003975917,-0.2030796772893555,0.2044224306521112,0.957585464021673,-1.744696738306352,-1.9042986377636177,4.147759467856007,0.4214455100424478,1.3524512638729471,-1.5541835012543403,1.0,0.49237768926269065,0.4939741920413855,0.37794914192439927,0.7361964031525104,0.0013613596406373276,0.4786454247361766,-0.47844702952820223
4.0,-10.784797188787497,-4.797922493258248,-8.090366383885984,-0.1461110966483263,0.11895466435764088,0.39944972179553456,-0.20336108554064553,0.20471936239375974,0.9574624021438656,-1.7431827906274864,-1.9053734127584654,4.147557735443115,0.42112526620818513,1.352715192427756,-1.5541664506352195,1.0,0.492806849510593,0.49437673818440886,0.37800194390155106,0.7361576920074306,0.0013530456750683061,0.4786616641766913,-0.4784903687779875
4.1000000000000005,-10.761293105384285,-4.793180420346818,-8.104653036303516,-0.14916489011882453,0.1187931005505296,0.40168731849987344,-0.20336517427239104,0.20472577655415802,0.9574601622252712,-1.7417775417645733,-1.9066243326140209,4.147344916831886,0.4207785864903793,1.3529426196881773,-1.5541976917259674,1.0,0.4930584370373594,0.49462003305643826,0.37804950477867366,0.736113023417931,0.0013478346268728444,0.4786876870620626,-0.47853306923503636
4.2,-10.934725889374977,-4.612645293457483,-8.013388668626346,-0.1431992575863909,0.11863508776895626,0.39640984844970134,-0.20307309765424644,0.20443962307250732,0.9575826390058091,-1.7403792648345187,-1.9078928705312124,4.147094318386917,0.42044560491528316,1.3531387236486545,-1.5542500109900057,1.0,0.4934325996448515,0.494979439681111,0.3779677364538638,0.7361392425602236,0.0013363061335595458,0.4786746258716732,-0.47850583318846945
4.3,-11.012727576263039,-4.568542575502012,-7.967863942129093,-0.14295584561338395,0.11801496061392885,0.3945891237706483,-0.20194732957578032,0.20332990550804558,0.9580561873990953,-1.738970074255142,-1.9088536222522279,4.146900916211482,0.4201110398108299,1.353355447599026,-1.5542478124807617,1.0,0.49394315404612715,0.49551503655147555,0.37772727194609257,0.7362337031141646,0.001364185850346696,0.47862194263305025,-0.4784131158590194
4.4,-10.757155987443971,-4.517079715887257,-8.121393758637094,-0.14408417359225534,0.11764933304414253,0.3946771956392012,-0.20127065239191538,0.20266831596507648,0.9583398469782898,-1.7372718610261615,-1.9098228893675746,4.146659143347489,0.4198031446443513,1.3535874567533794,-1.5542411436061705,1.0,0.49412452117047967,0.49574162890550405,0.3777154868897827,0.7362263048577824,0.0013720904457359961,0.4786053491548726,-0.4784410780478689
4.5,-10.982395883350994,-4.708145757858948,-8.155138882570137,-0.13852334730618165,0.11584177956349043,0.395792404177073,-0.2019200523807961,0.20332996041975224,0.9580628021995159,-1.7359735674282835,-1.9108561769502774,4.1464667320251465,0.41944588116130765,1.3537729474869777,-1.554270431797916,1.0,0.49447116004138775,0.4960868385046721,0.3778786855484503,0.7361204494582172,0.0013460677461737975,0.47867155102452463,-0.4785377918522537
4.6000000000000005,-11.117178687976825,-4.652056617677713,-8.139510622802055,-0.14909774710579202,0.11461523816623878,0.39097429567881276,-0.20229913967499527,0.20371475343024237,0.9579014323552428,-1.7346626170082486,-1.91216334308566,4.146244245389918,0.4191162904966903,1.3539876399973823,-1.5542699850625346,1.0,0.4949347708211881,0.4965123634302953,0.3778654856187152,0.7361005840301618,0.001345049850220386,0.4786920921747001,-0.47854780526167273
4.7,-10.909919353479989,-4.729923940890059,-8.163823382113767,-0.14366493392648544,0.11685224970152287,0.39325558966533825,-0.20184140806218553,0.20324248523907412,0.958098162497252,-1.7330524168951662,-1.9132808116691151,4.146023273468018,0.41879520260363834,1.3541938914039922,-1.5543113735087484,1.0,0.49515753242885,0.4967347494551735,0.3777146079196804,0.7361729291987548,0.001353601842978731,0.4786484842118242,-0.4784801089269014
4.800000000000001,-10.910412916871026,-4.732025800996922,-8.203364461767164,-0.14578755764191156,0.11721243784859667,0.399315297630031,-0.20140580822235937,0.20279466845793526,0.9582848929288491,-1.731475906608835,-1.91446240464721,4.145824054837792,0.41845478390975893,1.3543872947107922,-1.5543280909416988,1.0,0.495495409927792,0.49709656907869776,0.37761944084665866,0.7361968356826074,0.0013600114989721914,0.47862978063541856,-0.4784620179162917
4.9,-10.868460160498737,-4.8171469724970715,-8.149324870719436,-0.14683124739879536,0.11717522607996525,0.39402684279775796,-0.20104271518658906,0.20242695793837828,0.9584388629013545,-1.73017848435662,-1.9154973126249455,4.14557472095793,0.4181351545581927,1.354628345410307,-1.5543261203130696,1.0,0.4960480070199993,0.4976625314361199,0.377646104855176,0.7361344068203491,0.0013607980425914446,0.47867830140868295,-0.4785095266391655
5.0,-10.741891617787294,-4.889707665289968,-8.209107866016922,-0.15185465971636145,0.11477347621641765,0.39684214212041524,-0.20060074625956584,0.20197559284980232,0.9586264854055152,-1.7288737921551918,-1.916490642529799,4.145399570465088,0.4177572485731271,1.354811627733791,-1.5543472887048477,1.0,0.49624505872204877,0.4978318881832723,0.3775952171654017,0.7361585147184346,0.0013486423577834556,0.4786665550208115,-0.4784842228076567
5.1000000000000005,-10.834113460199557,-4.7305949761158015,-8.008494260750773,-0.14740828409082893,0.11685785485078551,0.39347211358156275,-0.2001285254863828,0.2014921431139111,0.9588270149107171,-1.7271798500715183,-1.917718997636337,4.145190396105571,0.4174091290668749,1.3550262451171875,-1.5543708709172623,1.0,0.49656248218915605,0.4981484308967138,0.37755140595825387,0.7361674924121097,0.001352448317809255,0.4786612281443421,-0.47847572840277275
5.2,-10.8883474978775,-5.08506995589805,-8.096462898593094,-0.1471497549287021,0.11373646114752736,0.39240730479659564,-0.20032006084873613,0.2016649298830418,0.9587505266509649,-1.725697662190807,-1.9188863503339262,4.144984919664282,0.4170489593228621,1.355235846106541,-1.5543788115130823,1.0,0.4970748674329582,0.4986832693584986,0.3775272693050273,0.7361390543000472,0.0013471831649470604,0.4786785757208511,-0.4785021410376445
5.300000000000001,-11.114527307398495,-4.867482079248922,-8.081953344130923,-0.14450504723252303,0.1219002384272162,0.3927517548887501,-0.2007777484454465,0.20210085367302594,0.9585629601003289,-1.724381446838379,-1.9200145409699014,4.144761199550877,0.4167345359239883,1.3554816246032715,-1.5544320423786127,1.0,0.49727738149879597,0.49891442813319925,0.3775075500957775,0.7361375020612709,0.0013514527516593452,0.4786765985859998,-0.478506494836371
5.4,-11.041698693390046,-4.665700681404024,-7.945202791226766,-0.14546473521266676,0.11372046122784901,0.39433473949524445,-0.2010951128398888,0.20241202869502237,0.9584310583321907,-1.7230296569071841,-1.92104222998972,4.144550819656639,0.4163777696895504,1.3557013646291523,-1.5544418984929143,1.0,0.49777033730035214,0.4993619831558558,0.3773391064928068,0.7362088269571115,0.0013525593494465523,0.47863601296426467,-0.4784373530435433
5.5,-10.745271960896229,-4.7681566703789615,-7.991200315569066,-0.14797362154488364,0.11265836150254055,0.3956573668660974,-0.2008685148153319,0.20223961553983252,0.9585149409051384,-1.7213658346425311,-1.9221345386900843,4.144322043286686,0.41606473791959303,1.3559447975071648,-1.5544600926364858,1.0,0.4979457852572672,0.49957759718774025,0.3772783277412381,0.73622336919492,0.001378442565223506,0.4786074419191322,-0.47844348369164735
5.6000000000000005,-10.83378045809041,-4.747219683112317,-8.009617036988908,-0.14506941915225233,0.11521992835338796,0.39766780871426566,-0.20076538629099938,0.20218177561865652,0.958548742981312,-1.7198808178383698,-1.9232665218454081,4.144070152420841,0.41566287170200483,1.3561467841807144,-1.554460875326802,1.0,0.4983190098630841,0.4999256969889646,0.3773380743349499,0.736159405466192,0.0013686565787747755,0.4786572208083056,-0.47849213315466466
5.7,-10.744303480175867,-4.927509826031385,-8.05725302168647,-0.14651007465126353,0.11608442220636962,0.39646325542157235,-0.20117973539923265,0.2026041278565576,0.9583726508175201,-1.7185296870093403,-1.92431702236318,4.143853678247459,0.4153529649761458,1.3563695049366096,-1.5544984929609855,1.0,0.49881136010182797,0.500423560491221,0.3773395589414342,0.7361323939650425,0.001353815817897381,0.47867169838717105,-0.4785192482034217
5.800000000000001,-10.830924294922326,-4.774630035624328,-8.026232600633332,-0.14514404533034317,0.11475121093299781,0.39337938473678297,-0.20131834002226856,0.20273698267754872,0.9583155230435814,-1.717041054708397,-1.9254483810643093,4.143625736236572,0.41495884242243547,1.3565982074885405,-1.5545314382037128,1.0,0.4990232165438805,0.5006356418600163,0.3772799950998569,0.7361612142377953,0.001377314701642082,0.47864520512529185,-0.47850134510439446
5.9,-10.802501167598152,-4.966181667330588,-8.047739006236526,-0.15010959464843573,0.1124050456456987,0.3945582285826171,-0.201329569102687,0.20273610901965886,0.958313348875329,-1.7155410000294247,-1.926622123128375,4.143442198092354,0.414619061736758,1.3568015098571777,-1.5545244308929071,1.0,0.499369477647127,0.500984079364227,0.3772389771756165,0.7361554120032453,0.001357495024056504,0.4786542904158203,-0.47850124017824613
6.0,-11.204176131165099,-4.600021283652526,-8.048066040691117,-0.14103168785055922,0.11596540237895953,0.3986256956686777,-0.20118336341487633,0.20256201839144258,0.9583807841912668,-1.7141070275550783,-1.9278132014426232,4.143235668640934,0.41428150795315827,1.3570015545540606,-1.554540225000037,1.0,0.4999053716195863,0.5014931186758773,0.37714309479149005,0.7361787880836991,0.0013633528530919317,0.47864949568759885,-0.4784700549905101
6.1000000000000005,-10.997207581515962,-4.741377309792618,-8.117199297980774,-0.14340956206618907,0.1179254577183349,0.3946918923544596,-0.20096162034341536,0.2023048180607796,0.9584816182181255,-1.712609186193631,-1.9288608036436976,4.143014147779963,0.4139024970038448,1.3571616639555621,-1.5545453688571467,1.0,0.500132921669538,0.5017328192823991,0.3771026572182217,0.7361758592596758,0.0013657409154669102,0.47864852462959406,-0.4784755258787464
6.2,-10.722732466610841,-5.121516799400423,-8.101897576824742,-0.15153487978491126,0.11198307215090902,0.39573707536918734,-0.20087836886042768,0.20219473431402,0.9585222558301787,-1.7110697422699144,-1.929960500354233,4.1428121400610936,0.4135677057453613,1.3574092716103459,-1.554582420979635,1.0,0.5006067067130354,0.5021857484413795,0.3770671070676889,0.7361664747700912,0.0013374183969655313,0.4786642386129491,-0.4784743247131388
6.300000000000001,-11.112338004125219,-4.760906843731409,-8.092386353322642,-0.14789100582770742,0.11897215062049155,0.395868187398169,-0.20148837567727898,0.20282108368900678,0.9582615634867846,-1.7096376175237729,-1.93093602435512,4.142630075867279,0.4131719309040527,1.357557322151852,-1.554570551356503,1.0,0.5007894515717648,0.502400920809662,0.3771235770167758,0.7361252056860121,0.001349442009495008,0.4786806537463277,-0.47852136032676523
6.4,-11.06007650644057,-4.567999884488805,-8.024263849440107,-0.1412709848731905,0.1216055346578093,0.3928546947124534,-0.20189788013518598,0.20324382573178432,0.958086066420136,-1.7082945485992378,-1.9322308234977401,4.142425748766396,0.4128033893038778,1.3577942312974405,-1.5545842736384046,1.0,0.5011325160959268,0.5027409967828612,0.37704790875533517,0.73616548710648,0.0013635840815008793,0.4786695088021641,-0.4784704981237889
6.5,-10.89806286299862,-4.66618646418723,-8.074323410195728,-0.14721228868102368,0.11208876283607676,0.396164507220226,-0.20123175197378312,0.20257427794212285,0.9583676154409307,-1.7065624505416708,-1.9335142134659624,4.1421909397200265,0.41246439257055806,1.3579638924072082,-1.5546533232745385,1.0,0.5016394395344502,0.5032782646839017,0.3768734478593415,0.7362107797393016,0.0013812711561744812,0.4786317295524781,-0.4784385512803562
6.6000000000000005,-10.744820812759604,-4.6497335115372245,-8.069161952663627,-0.14464437212916642,0.11371858581714352,0.3963766885851377,-0.2006625819099343,0.20200097263223765,0.9586084368348978,-1.7051884153794106,-1.9343849182479866,4.141993787687061,0.4121195951693926,1.3581706017730588,-1.5546495672719531,1.0,0.5018793663962317,0.5035146584687771,0.37681305496366463,0.7362073599424376,0.00134826796689141,0.47863441345785984,-0.47844122271594236
6.7,-10.780766865765928,-4.581318212447521,-8.24451011234472,-0.14354207976207123,0.11388943915775604,0.3955634888475678,-0.2006516847410058,0.2019818197774279,0.9586147535231642,-1.7038211815741027,-1.9353839387882243,4.141743183135986,0.41167370855297847,1.3583905682767357,-1.5546754049023586,1.0,0.5022148268811191,0.5038416188699061,0.3768828637295044,0.7361604951411437,0.001331773139671901,0.4786633640914183,-0.47848441526400504
6.800000000000001,-10.978284128253595,-4.938000562782443,-8.071435275940006,-0.14740511111857874,0.10868724970956473,0.3908535737122222,-0.20039274268574286,0.2017126379469019,0.9587254291656149,-1.7022864236808348,-1.9364234017998687,4.1415449744040345,0.4112854075803407,1.3585825671776584,-1.5547019660371604,1.0,0.5026967092328244,0.5042642111511598,0.3768854444427589,0.7361606991515152,0.0013332267476338794,0.47867545711838033,-0.47847199947719116
6.9,-10.920925536867916,-4.7535066967184125,-8.12714698008379,-0.1469931333120367,0.11751766215928107,0.39321746296510607,-0.19999372124141873,0.20130225624451598,0.9588950398611571,-1.7006031057091684,-1.9377193444305483,4.141403058303941,0.4109271412032367,1.3588134542770922,-1.5547462243943564,1.0,0.502898572164519,0.5044717725090877,0.37687637326447987,0.736156071664004,0.001339748083505246,0.4786827477031282,-0.4784718071931485
7.0,-10.826011708399493,-4.959341822843941,-7.98820082177312,-0.153498142955608,0.10712956744462004,0.3918699079321048,-0.2004885549545876,0.2017675940281442,0.958693367898868,-1.6992826461791992,-1.9389946567761958,4.141207672607984,0.41061035667273327,1.3589582319592945,-1.5547117587133257,1.0,0.5032574450505044,0.5048612962969077,0.3768793859744515,0.7361164433114552,0.0013288426888341245,0.4787050469374372,-0.478510495287436
7.1000000000000005,-11.6218116109119,-4.487033965662901,-7.998293815890738,-0.16843052763328814,0.09479334201697277,0.3973472854254176,-0.2012975577353596,0.20254324032806406,0.9583607577243692,-1.698308888809824,-1.9398395023741664,4.141058267108246,0.410321642324787,1.3591034467722969,-1.554744307632945,1.0,0.5037843230988978,0.5054287859297427,0.37657709608529233,0.7362358213820642,0.0013593578581755107,0.4786409500940155,-0.4783908531245022
7.2,-10.66131640036841,-4.959011766595713,-7.954852955992282,-0.15387533668861944,0.10887718467863233,0.3928067293086309,-0.2005706398344635,0.20183261939842467,0.9586628817990993,-1.6983137894311935,-1.9398004017839061,4.141042232626853,0.4103592021900852,1.3591151237487793,-1.554712254028665,1.0,0.5039578442836878,0.5056059892343623,0.3765350632331256,0.7362425301529666,0.0013395152311491685,0.47862252681868833,-0.47839901684116964
7.300000000000001,-10.667285648940888,-4.632121272096138,-7.897468104019275,-0.14406661954513592,0.10415201014132762,0.3975968666284329,-0.20024819901565938,0.20154922218776003,0.958790158171581,-1.6982152248988172,-1.9397869839545907,4.141037464141846,0.41033863084218297,1.3591391799193395,-1.554740764082245,1.0,0.503989447207097,0.5056340634277721,0.3765352705348733,0.7362475332760139,0.0013551189950358976,0.47862417623332876,-0.478389622925144
7.4,-10.56162205978037,-4.6269286954096565,-7.856000511855032,-0.1425924126160533,0.10888916892955221,0.3973664798092822,-0.2002573665150697,0.20160493466229204,0.9587764616028477,-1.6980732584746214,-1.939779897729391,4.141050652791852,0.4103387614194832,1.3591480084531706,-1.5547605111284617,1.0,0.5039671812530564,0.5056599790633792,0.37657051283504134,0.7362271112769574,0.0013764860558769909,0.47862369531089033,-0.47842147129270085
7.5,-10.825791398325267,-4.492887255046078,-7.91655325760374,-0.14344776466446893,0.10987340401695955,0.393711966621559,-0.2009316308413174,0.20226143956661172,0.9584969256375384,-1.6980847934850976,-1.9397868241571383,4.141039861502425,0.41033639327905574,1.3591275215148926,-1.5547527649099264,1.0,0.5039905581494356,0.5056479461740987,0.37663843150024956,0.7361847113332587,0.0013522327948834111,0.47865390981787986,-0.4784565569429389
7.6000000000000005,-10.704086708298874,-5.032599431099638,-8.006528862140092,-0.1529858996401431,0.11100415385774347,0.39331928972704866,-0.20117543179609765,0.20250381435284512,0.958394827994184,-1.6981021591568348,-1.9397560558714808,4.141041159016809,0.4103882614104173,1.3591352707317264,-1.554728273238894,1.0,0.5039833449534218,0.5056548006703051,0.37668850384294567,0.7361534953323572,0.001344413341751802,0.4786799329144672,-0.47847857390662835
7.7,-10.74753082791837,-4.7449621341381745,-8.009266075100694,-0.15118404880911876,0.10947902829461902,0.3918030779083325,-0.20112107901788845,0.2024593483790161,0.9584156302340084,-1.6980772018432617,-1.9397614624117807,4.141078894044557,0.41032817333651583,1.3591275215148926,-1.5547527439315796,1.0,0.5039978519244218,0.5056613326850122,0.37666898920004144,0.7361636669196582,0.0013493695697132599,0.47867069985069527,-0.4784721473749676
7.800000000000001,-10.77890818705374,-4.728874919679895,-8.143588065104254,-0.145871670638139,0.10652295027049428,0.389409548078635,-0.20128936719619422,0.20262359168728555,0.9583454595865728,-1.6981000900268555,-1.9397744448537313,4.141068032775183,0.4103586125668682,1.359146666952647,-1.5547427844283914,1.0,0.503984990753726,0.505664832245339,0.3766609421840752,0.7361739498801881,0.0013572268420788233,0.4786579591989045,-0.4784690497290722
7.9,-10.997981779956634,-4.97535519446181,-8.130259181297191,-0.15196594767757962,0.11417822838625503,0.3917876384182012,-0.2016163955289832,0.2029366420443612,0.9582104264340371,-1.6981144115529463,-1.9397716763388544,4.141085147857666,0.4103438672981735,1.3591288944469435,-1.554746769544099,1.0,0.5039784774868573,0.5056643782918293,0.3766606384618119,0.7361789020643954,0.0013495434994993051,0.47865458759945956,-0.4784648248906034
8.0,-10.785692187384319,-4.838743696435823,-8.053919499247536,-0.14880338193663556,0.11044225047215352,0.38965339147935557,-0.20192432229717536,0.2032357123814961,0.9580823616417855,-1.6980862763265128,-1.9397844136316407,4.141061305999756,0.4103617757951186,1.3591226275091741,-1.5547720192784664,1.1850508804407867,0.5039974861704014,0.5056531863136369,0.3766610147739686,0.7361733254612489,0.001350805485840884,0.47866843439736073,-0.4784595490900412
8.1,-10.735093274771097,-4.958962131569995,-7.986099372105594,-0.15227345424925073,0.10976221377699609,0.3901084614676557,-0.20196446570579712,0.20332642793126862,0.9580546354164341,-1.6980772018432617,-1.939767976800436,4.141047264488554,0.410330443388238,1.3591423183568792,-1.5547177286707166,2.0,0.5039797539355425,0.5056638676839862,0.3766791869922009,0.7361619325547956,0.0013630120359655754,0.4786662545948961,-0.47847922417537936
8.200000000000001,-10.717897199042715,-4.903262490425063,-8.069447744228889,-0.14940199761318093,0.10974580459564029,0.39270558965874003,-0.20156403076598192,0.2029211243761708,0.9582248134728876,-1.698068638606091,-1.9397720348741998,4.141061244777885,0.41034619390454097,1.3591389656066895,-1.5547345419489405,2.0,0.503997244676679,0.5056536858082237,0.3766922235406142,0.7361412673071697,0.001329249633799671,0.47868442614568685,-0.4784929339377751
8.3,-11.108711176117719,-4.811347490105724,-8.18999121729586,-0.14767115583046017,0.11848727237180867,0.3901474130072392,-0.20128131907489608,0.20265756200205184,0.9583400798901898,-1.698057064479238,-1.9397903025636387,4.141061305999756,0.410341535736338,1.3591318213624646,-1.554742825738255,2.0,0.503977271241274,0.505668203979466,0.37668168442279587,0.736153832910899,0.0013559347539120628,0.47865842105290735,-0.4784995419921251
8.4,-10.845923488591595,-5.025342242012012,-7.990252275468589,-0.1488302796335078,0.11244546119853992,0.3914925877999308,-0.20102747341787267,0.2024375659719937,0.9584396963072851,-1.6980711261830632,-1.9397504570484405,4.141083947737633,0.41033708363350335,1.3591543979836418,-1.554728737129377,2.0,0.503955947409261,0.5056898600819402,0.37667262596197615,0.7361611635027122,0.0013628644007948722,0.47865403750307095,-0.47849262934027215
8.5,-10.515381391235728,-4.9906224692183265,-8.008753070253002,-0.14732544539197268,0.10657893082147687,0.39546410156478096,-0.19962630831111333,0.20099578530077392,0.9590348856475159,-1.6980847462597253,-1.9397998102037264,4.141081248182333,0.41034977922918825,1.3591470899303004,-1.5547463382757478,2.0,0.5039812180928227,0.505673311600831,0.3766572526794753,0.7361707194140901,0.001364202859671027,0.47866177841406643,-0.4784701795445373
8.6,-10.767648529784845,-4.912300769424954,-8.02212496785185,-0.14892571666619167,0.10727180428428024,0.3916984645367538,-0.19922056230786256,0.20059993945780277,0.9592031002794755,-1.698072416247317,-1.9397633752658736,4.141058479425532,0.4103532205231581,1.3591389656066895,-1.554748383984591,2.0,0.5039776103383589,0.5056591590187176,0.376684986609666,0.7361494556022006,0.0013376480678832117,0.4786719796166338,-0.4784927644637097
8.700000000000001,-10.3824274181545,-5.119725169291673,-8.095944113975477,-0.15369101420958772,0.10260507748380998,0.3938450050604775,-0.19964518364170963,0.20107511666247238,0.9590154309272674,-1.698079779486364,-1.939791818658346,4.141048908233643,0.4103746669815228,1.359114419836575,-1.5547317958912086,2.0,0.5039616746202513,0.5056848395938531,0.3766907091097169,0.7361562419266408,0.0013730772625104384,0.47865774286574747,-0.4784964653223097
8.8,-10.91251033770018,-4.4274408002627075,-8.020957561046963,-0.14264849495279155,0.10526568107805596,0.39500528707475263,-0.19973132348162945,0.20114991479986,0.9589817940782116,-1.6980870462796975,-1.9397687766281164,4.141050571875218,0.4103584058309112,1.3591513633728027,-1.5547565578014064,2.0,0.5039731069749389,0.5056712566934246,0.37667424935212473,0.73616230430206,0.001355409791438809,0.4786575515802858,-0.4784873800886965
8.9,-10.741973882473586,-4.96693297485583,-7.893305874274732,-0.15522202869539428,0.1014552245153128,0.3940801108660272,-0.1998174633215493,0.2012247129372476,0.9589481572291558,-1.6980723083329476,-1.939767976800436,4.141074399435224,0.41035135314731286,1.3591481192061603,-1.5547318000126331,2.0,0.5039805451416712,0.5056549338168843,0.37666526586043997,0.7361668368416481,0.0013510554489451156,0.4786616930317574,-0.4784762759089607
9.0,-10.686345125656084,-4.85104738982014,-8.069353107361447,-0.15543757527510907,0.10096510765642581,0.3951039128908084,-0.19988807519728913,0.20128448974415908,0.9589208986891186,-1.6981000900268555,-1.939779897729391,4.141081489288985,0.41035763799633784,1.3591513633728027,-1.5547726838986766,2.0,0.5039691536717134,0.505670120410823,0.37667915214745284,0.7361583940512711,0.0013555188415178636,0.4786586757780418,-0.47849227113813997
9.1,-10.986764978538504,-4.893740438844063,-8.239871769103074,-0.15972220226354147,0.10540705669016966,0.394843626174046,-0.19937505218282076,0.20077967402228775,0.9591333756121854,-1.6980852404196507,-1.9397577586291848,4.141073703765869,0.4103674474407389,1.3591407364747017,-1.5547588495581506,2.0,0.5039798515601344,0.5056705927662475,0.37665126835961865,0.7361764173343708,0.0013557322192512215,0.4786470649686671,-0.478476155882151
9.200000000000001,-10.76298307188078,-4.828821530699719,-8.115521608880021,-0.15213661042535942,0.10401492391785049,0.39393913683547743,-0.19927191204913758,0.20065978450656125,0.9591800042909107,-1.6980869701820318,-1.9397578014475503,4.141081656705527,0.41034954541059454,1.3591275215148926,-1.5547502676593226,2.0,0.503978507235729,0.5056808413945457,0.37666525830815833,0.7361581450950136,0.0013482816241255267,0.4786517359824523,-0.4784996167061324
9.3,-11.416436040328387,-4.130069923253489,-8.20152021364877,-0.17165155154678158,0.10078482052265166,0.3939507136787597,-0.1995499249725314,0.20089804769706723,0.9590723648336894,-1.6981133955769419,-1.9397917961630797,4.141037519930106,0.4103337844408892,1.3591151462440456,-1.5547864730905412,2.0,0.5039810551488134,0.505663673384881,0.3766320178922255,0.7361887760138359,0.0013593766622910003,0.4786511251470844,-0.47845306829590956
9.4,-11.135162595521663,-4.359510263026974,-8.011688207664534,-0.19397707083867455,0.09004342399687446,0.3902606566877255,-0.199690311716043,0.2010305309579584,0.9590153510522895,-1.6980539478050758,-1.9397795123558808,4.141072902188968,0.4103229398663551,1.359138194859669,-1.554737575983347,2.0,0.503996716661182,0.5056552068074199,0.3766362118678487,0.7361853605074222,0.0013586211614950645,0.47867033519952357,-0.4784391072258539
9.5,-10.854549625198656,-3.670830605603699,-7.859662539537627,-0.21271865757003458,0.08140310823776509,0.39026622596962024,-0.19983069845955462,0.20116301421884958,0.9589583372708896,-1.6980786698459003,-1.939769505969851,4.141065832341225,0.4103545796575076,1.3591289895175311,-1.5547606594188625,2.0,0.5039814629177332,0.505673562443767,0.37666662231252734,0.7361602705990756,0.001345016418449532,0.4786646201146894,-0.4784834671885641
9.600000000000001,-10.897612056434497,-3.3947197719976048,-7.772532630968102,-0.24263381190043928,0.09529934811568498,0.3840550607417828,-0.19968359983356757,0.20102614731895427,0.9590175964698286,-1.6980772018432617,-1.939779897729391,4.141048908233643,0.4103576184303437,1.3591275215148926,-1.5547383467303675,2.0,0.503999822976134,0.5056489682814262,0.3766619907033313,0.7361727983513864,0.0013233093133756754,0.47866408845788067,-0.4784647847446416
9.700000000000001,-10.8398003255339,-3.288841220046399,-8.0764258578622,-0.2550841899272645,0.11091030094859873,0.38328953173755,-0.19924396612619047,0.2006151990933015,0.9591951709966964,-1.6981128239848577,-1.939791412419907,4.141038276618724,0.4103218208602911,1.3591036796569824,-1.5546910692529863,2.0,0.5039713832004675,0.5056765652174519,0.3766521815072785,0.7361751420005496,0.001368710911503135,0.47865849725076337,-0.4784666445433292
9.8,-10.857990114229475,-3.1826277008205675,-7.390652189906293,-0.2643378062753318,0.10342065229758911,0.3808942029193546,-0.19971115258758523,0.20107618604539285,0.9590012125593537,-1.6981000900268555,-1.939768730512591,4.141075150893207,0.41034619390454097,1.3591282450785616,-1.5547160122967676,2.0,0.5039758258502348,0.5056762282784784,0.376660797759627,0.7361720702619511,0.0013574132591083314,0.4786632503953632,-0.47846664786212906
9.9,-10.91664545401017,-3.034593307698971,-6.863676229967497,-0.2771503240261548,0.09220525263481152,0.38376264268606775,-0.20019049965318556,0.2015488657883534,0.9588022718052489,-1.698080245324704,-1.9397908175131349,4.1410726625748495,0.4103471550039438,1.3591046407563852,-1.5547621885882776,2.0,0.5039767004008496,0.5056776177295006,0.37664673724778575,0.7361741947073384,0.0013535283046565095,0.47865627750057094,-0.4784703658717292
10.0,-10.002646843577198,-1.7977666142956108,-6.290176497730139,-0.3468415800459716,0.14735906509131536,0.3647158191360281,-0.19944441827837633,0.20077988970057245,0.9591186887405159,-1.6980965894941742,-1.9397928004226723,4.141044756918265,0.410342401660803,1.359095074134607,-1.5547539140475322,2.0,0.5039790201711125,0.505664093853929,0.3766599054005657,0.7361696138161308,0.0013389787600532818,0.4786602311193138,-0.4784734997619979
10.100000000000001,-10.079788798072872,-1.6717546980559836,-6.25313043917681,-0.3532065244377183,0.14975801271328146,0.3624004464919347,-0.19924180308865536,0.20059665591498127,0.9591994345058806,-1.6980958778053614,-1.939774930521881,4.141105373780425,0.4103437305534478,1.359126031168105,-1.5547446652102361,2.0,0.5039913631445644,0.5056657844874926,0.376642846431551,0.7361865943890972,0.0013427035307783865,0.47866019775457125,-0.4784473957234657
10.200000000000001,-10.826713947447578,-1.7923132412727407,-5.947041695107879,-0.3395540506814389,0.12643951139508836,0.36394921079042103,-0.19934744386950556,0.20074229549471784,0.9591470332782075,-1.69809799722751,-1.939801559587983,4.141046815434297,0.4103482867038864,1.3591459824418022,-1.5547600085889595,2.0,0.5039659459703906,0.5056887134509541,0.3766309583775042,0.7361923014510905,0.0013647960306899698,0.47862714245768345,-0.4784716199721083
10.3,-11.114634454134368,-2.1686928889694514,-6.053622335143446,-0.3145991144596002,0.1045683560172943,0.3801764608707352,-0.19904231934277095,0.20044370883511148,0.9592728795258447,-1.6980696587643767,-1.9398161373534144,4.141058617608099,0.41032644724703166,1.3591389656066895,-1.5547383467303675,2.0,0.5039730597803745,0.5056843369842062,0.3766429388035959,0.7361759658335149,0.001365394271650291,0.4786487976771904,-0.4784750897484155
10.4,-10.958818430569252,-2.89177741379459,-6.140412568816815,-0.3206153981233998,0.09265980795267274,0.3833864312107457,-0.19927762466874138,0.20066790443906693,0.9591770417379171,-1.698106047531654,-1.939797137859059,4.141063871054814,0.4103469995949117,1.3591513633728027,-1.5547264258014124,2.0,0.5039719609183138,0.5056861462531569,0.3766336774838474,0.7361858008934637,0.0013709376321706112,0.47864027244113516,-0.47846846990197206
10.5,-11.096841598253622,-2.443814793183311,-5.959350571599161,-0.3156516242086177,0.0975082306143554,0.3806106243533063,-0.1995473977773434,0.20092544228963202,0.9590670652840506,-1.6980881823673686,-1.939791818658346,4.141061305999756,0.41034523418437224,1.3591573172025462,-1.554738829613378,2.0,0.5039812161574017,0.5056676898336938,0.3766657451143107,0.736169255859194,0.0013576657351166538,0.47866039079818484,-0.47847383810653793
10.600000000000001,-10.805688390415717,-1.942704094915728,-5.820467634285435,-0.33898924780559775,0.08819305129493918,0.38470560463776915,-0.19956660886891178,0.20094437211762978,0.9590591402416537,-1.6980929756505236,-1.9397956715366529,4.141083666170456,0.41034417364320525,1.3591389656066895,-1.5547518110835001,2.0,0.5039805523215469,0.5056766537738382,0.3766436363047967,0.7361756886814103,0.0013486253994218946,0.4786493708971039,-0.4784749903012592
10.700000000000001,-10.864718571057805,-1.9152635475457047,-5.647665948918183,-0.36953410518980373,0.08571784947906562,0.38452635963614157,-0.1992547416863253,0.20064801899394014,0.959186060079516,-1.6980941829646643,-1.9398037395873011,4.141066442160727,0.41031549131012324,1.3591207521649333,-1.5547387321809774,2.0,0.5039763439964344,0.5056859423841826,0.37662459638163004,0.7361967422322954,0.0013805355679268783,0.47864029874302255,-0.47845158090165313
10.8,-10.986059102825726,-1.367373636122024,-5.655654542634453,-0.38777762235742175,0.08797629223612476,0.3778314025047709,-0.20031985744861167,0.20168491288908863,0.9587458163605549,-1.6980934531084477,-1.9397849052016711,4.141042271315235,0.41037722575739294,1.3591251386933398,-1.5547383467303675,2.0,0.503963107130739,0.5056840685847941,0.37665083697993856,0.7361761392739499,0.0013807199359076624,0.4786498195754704,-0.47847375664348646
10.9,-10.915122141637518,-0.9134420870223215,-5.686894993587759,-0.4192377594920277,0.09003158233154276,0.3784321669414011,-0.2011025829657566,0.2024415751693098,0.9584232474643599,-1.6980933662509086,-1.939786901662669,4.141052411808705,0.410343630129782,1.3591202374242835,-1.5547194218681344,2.0,0.5039835405607415,0.5056600869141792,0.3766475057579091,0.7361836658963504,0.0013564146170706476,0.4786639535718804,-0.4784481056057534
11.0,-10.757288727258437,-0.8644179940263658,-5.736066734989434,-0.4426737726303719,0.08865800388404062,0.37329389822416886,-0.20130951641973968,0.2026309141834285,0.95833980375136,-1.6980937055962855,-1.9398053855733075,4.141074606896777,0.4103493967605436,1.3591151237487793,-1.5547477185424086,2.0,0.5039884410705511,0.5056681159142057,0.3766384095389472,0.736180794385917,0.0013488366041642097,0.4786584986449965,-0.4784580026418759
11.100000000000001,-10.87179335753949,-1.0776092072025416,-5.783702419164143,-0.4451967970962419,0.09007001290403516,0.3740726997557474,-0.20111580697972967,0.2024198422895173,0.9584250141501288,-1.6981000900268555,-1.9397957874451475,4.141066741955147,0.4103562295144924,1.3591205597041696,-1.5547691503990007,2.0,0.50398922763763,0.5056648986269578,0.37665793721612034,0.7361679921105112,0.0013425363094608268,0.4786689159457057,-0.47846729657898135
11.200000000000001,-11.0585546787036,-0.994897066616118,-5.76537333573791,-0.432292239486926,0.09142379702408697,0.37631678096462146,-0.20087884230495232,0.20216554020710173,0.9585284332162881,-1.6980849393931454,-1.939779559743915,4.141081148024824,0.41034522464266027,1.3590990038531885,-1.5547380087448914,2.0,0.5039959758135253,0.5056499415408461,0.3766646560433478,0.7361677444460317,0.0013352197173538878,0.4786737918733865,-0.4784628200802047
11.3,-10.82284944408352,-1.2982626844020602,-5.899268145435876,-0.43483716354613694,0.08687230541440723,0.37506424775800984,-0.2004671630967694,0.20176926813410256,0.958698004019228,-1.6980772018432617,-1.9397836388839205,4.1410737747478965,0.4103690820881347,1.3591314832976302,-1.5547145048724573,2.0,0.5039942783834396,0.505662285860609,0.37665231821414213,0.7361685293611907,0.0013518408980428092,0.47867404160651467,-0.47846131588295904
11.4,-10.80831186987262,-0.993158504340037,-5.833858548398296,-0.43196861764805095,0.08458268285908936,0.3754017333918992,-0.1997988727832647,0.20113307685129211,0.9589707565951768,-1.6981062668373816,-1.9397833470706907,4.141077015133517,0.41031808700466665,1.3591151237487793,-1.5547264258014124,2.0,0.5039874577554101,0.5056555935575497,0.37665932364486343,0.7361715259512206,0.0013602673358887334,0.47867198191345794,-0.47845874198562727
11.5,-11.054559853643726,-1.1869638440876942,-5.886603350561899,-0.4339196333129818,0.09117775689262529,0.3741341895846583,-0.19874481979452202,0.20013182824565,0.9593994633865303,-1.6980772018432617,-1.9397709502939882,4.141096591949463,0.41033688857172207,1.359144912593794,-1.5547234523078601,2.0,0.5039827017044274,0.5056768979189465,0.37666417074440633,0.7361630429724698,0.0013478078331136839,0.478654121605239,-0.47848969627973775
11.600000000000001,-11.058436240673032,-1.1627193491827605,-5.799065536671808,-0.43487044253881124,0.09097823419910538,0.3721999094015996,-0.19893585746378376,0.20031734876194804,0.959321210332554,-1.6980947143196972,-1.9397650593078213,4.141079305351689,0.4103698098837892,1.3591181579410987,-1.5547562193442566,2.0,0.5039710338433091,0.5056724867981615,0.376647548534068,0.7361729824870655,0.00136056169858259,0.478659596210966,-0.4784688910296236
11.700000000000001,-10.880213365059577,-1.1675253434768602,-5.80810287539437,-0.4373086117028318,0.08362634323313259,0.379712749248696,-0.19931603266214462,0.20068314737919551,0.9591659467156267,-1.6980703176567113,-1.9398037395873011,4.141064173061128,0.41036378905175436,1.3591151237487793,-1.5547227752418016,2.0,0.5039729007052798,0.5056753910206102,0.3766390691220946,0.7361791668051398,0.0013583974135345702,0.4786535863153295,-0.47846539417812667
11.8,-11.074188485218718,-0.7739144963277318,-5.728842574698869,-0.44643107029857243,0.08791603337691246,0.3745003382299613,-0.19921269894718377,0.20059159459934042,0.9592065863042585,-1.6980721341740876,-1.9397823341088016,4.141053899406348,0.41031969979815996,1.3591249876803055,-1.5547548794500459,2.0,0.5039733174046169,0.5056804462745091,0.376689265267768,0.7361625005796806,0.001364498778435557,0.47866400286076166,-0.4784805986125962
11.9,-10.960719814307533,-0.796781356103221,-5.576039089866294,-0.45548313655181827,0.08861978408781923,0.3737606865167553,-0.19916044378299788,0.20054449352723946,0.9592272963059792,-1.6981000900268555,-1.9397721051164059,4.141072597777117,0.4103420527703678,1.3591233803807194,-1.5547628177398716,2.0,0.503973370092363,0.5056805282397315,0.3766529568120421,0.7361744216369354,0.0013537111352342733,0.47864812728479045,-0.47847816945023636
12.0,-10.735112146938896,-0.888715031073253,-5.5630304465866365,-0.46992328673943007,0.08460266710837104,0.3763507828102919,-0.19920900855831575,0.2005852627119131,0.9592086699476235,-1.6980601870682466,-1.939767976800436,4.141081556738953,0.41034619390454097,1.3591353744879764,-1.5547383467303675,2.175027714873175,0.5039725997958793,0.5056759888784673,0.37667780736056156,0.7361589876615267,0.001355587588508735,0.47866535334995153,-0.47848467767506664
12.100000000000001,-10.88574596763026,-0.6987314324101949,-5.639808779593433,-0.47079269582053207,0.0853592211158243,0.37840771941638707,-0.19896128809344205,0.2003454167892231,0.9593102147670356,-1.6980772018432617,-1.939774818005156,4.141093308171198,0.4103426364780865,1.3591118399705135,-1.5547434264546025,3.0,0.5039725054725139,0.5056781829415072,0.3766749110587782,0.7361567980129875,0.0013607280024213854,0.47866617517857624,-0.4784872097543271
12.200000000000001,-11.351354227849514,-0.7955927681423572,-5.164116301344218,-0.47226055302585385,0.06127999568169514,0.37760975681763176,-0.19889984259485857,0.2003253452552602,0.959327163925779,-1.698559268678165,-1.9392715893187464,4.1411287858356545,0.4104689565627252,1.3590961813147744,-1.5547452682471743,3.0,0.5039792104927387,0.5056762387805834,0.3766746663026148,0.7361631590205024,0.001351226121456004,0.4786598624231922,-0.47848376523549224
12.3,-11.252434429710572,-0.7850341112326623,-5.01393511970262,-0.46790491553132996,0.04874520495307434,0.3767925692984228,-0.19888038187199086,0.20035480897878544,0.9593250459500039,-1.6997276364897376,-1.9381053398782602,4.141280080006893,0.4107749694205484,1.358945369720459,-1.5547407320817346,3.0,0.5037976774556636,0.5054888653501687,0.37683533190058793,0.7360896055499906,0.001370313055773458,0.47869671053730867,-0.4785600005894231
12.4,-10.943444181596854,-1.633216878336668,-5.067235535001094,-0.44750454466397566,0.07796043962585573,0.37258811166779127,-0.19901218293999393,0.20047780738600976,0.95927199972534,-1.7014210429002232,-1.9370503992070147,4.141522590348006,0.41117941123618973,1.3586911328863152,-1.554703637805265,3.0,0.5036010152601399,0.5052956041049899,0.3769754591840699,0.7360290390274543,0.0013602391378167657,0.4787296860329622,-0.478620195111522
12.5,-10.783624260630774,-1.024207202815341,-4.773759620983974,-0.4414713659491349,0.09567212547121458,0.37066993535689785,-0.19913586850333495,0.20057213249099148,0.959226628598402,-1.703126532353168,-1.9360691509642542,4.141725206046959,0.4115583139606933,1.3584801271639502,-1.554708489593677,3.0,0.5032659278198335,0.5049192916304858,0.3769882225170628,0.7360353816729152,0.0013291334851144238,0.47873817668121377,-0.47860203563893444
12.600000000000001,-10.764603876381061,-1.131867745055824,-4.787745155697873,-0.45079552850165,0.10543967088894506,0.36476577070906224,-0.19915563845378678,0.20054669549742382,0.959227842401556,-1.7045423873740306,-1.9350923119593295,4.141983991014138,0.4119525446206019,1.3582848365864222,-1.5546856724163736,3.0,0.5027789730618722,0.5044381465046178,0.3767452946722569,0.7362072286700921,0.0013754931971235243,0.4786435480450999,-0.4784322087685632
12.700000000000001,-10.740686038266844,-1.3287605001246703,-4.795034628593867,-0.447075430997012,0.0985284965499601,0.3551591743364271,-0.19914266573405923,0.2005023898520827,0.9592397933505975,-1.7058532620389304,-1.9340636739670058,4.142185306098216,0.4123360301921437,1.358056168510564,-1.5546488463062773,3.0,0.502576584352698,0.5042708601501693,0.3767056254555294,0.73623965986709,0.0013867744827108684,0.4786170121228709,-0.4784088166013472
12.8,-11.043511470315838,-1.714889561336156,-4.58661561374041,-0.44683007358523646,0.09130154942132938,0.35098079308809893,-0.1990494388699626,0.20041183606951937,0.9592780616540708,-1.7073992668877889,-1.9327801562828504,4.142337028312381,0.41265109295360475,1.357876873911117,-1.5546425024615687,3.0,0.5022652242918226,0.5039457104321093,0.37678910730102905,0.7362066371714273,0.0013673278543422773,0.4786390880887408,-0.4784376042420325
12.9,-11.0000496067213,-1.4600537832490579,-4.525077554243289,-0.4294450392176744,0.08431392718069557,0.35477087717150024,-0.19895885559612161,0.2003294589573601,0.9593140662815762,-1.709019427579992,-1.9314638576903285,4.142595543580897,0.41303151638558416,1.3576507568359375,-1.5546544233905237,3.0,0.501733818365659,0.5034034757910363,0.37693201593559295,0.7361662199728805,0.0013469342326050142,0.47865841268366716,-0.47848051820964055
13.0,-10.937714945594601,-1.426785479183993,-4.652404345369482,-0.42379871579191664,0.09879967842643292,0.35274987054335016,-0.19887541303409495,0.20026916819040178,0.959343956399583,-1.71042153300526,-1.9304341838309906,4.1427880453172135,0.4133916408663806,1.3574234806488608,-1.5546186606036585,3.0,0.5014796672064872,0.5031490113885048,0.37699540117553537,0.7361552479236434,0.0013560938015525778,0.4786627138412517,-0.4784930703178561
13.100000000000001,-10.580836952805397,-1.4572973037045087,-4.470351136176425,-0.43340802557629965,0.11083299851636744,0.35231917688785264,-0.1988101448053447,0.20020343373567345,0.9593711967314245,-1.7117995321185773,-1.9294502964767617,4.142980067291259,0.4137269379230957,1.357170288743239,-1.554558163941812,3.0,0.5010308399397764,0.5026654760671505,0.37708866366894506,0.7361283732936522,0.0013632618923569645,0.47868960885177203,-0.4785074899376096
13.200000000000001,-10.564674757541292,-1.7777230973503075,-4.480433970417914,-0.4254466307508405,0.11785784738554611,0.3449432605838777,-0.19875100905162496,0.20013586244441223,0.9593975429590779,-1.7133423076579521,-1.928356918729238,4.143209715211164,0.41407945317043493,1.3569877569872109,-1.5545722587227397,3.0,0.5008606265932172,0.5024984105358808,0.37705783829714573,0.7361530711058456,0.0013550333514228544,0.4786805722943062,-0.47847855698457786
13.3,-10.515440860714342,-1.7220928006893483,-4.610459279161688,-0.41715049396005777,0.11978185605712824,0.34917544998761274,-0.19869187329790525,0.200068291153151,0.9594238891867313,-1.7148237228393555,-1.927211211553103,4.143422137226051,0.41442503804374675,1.356787622410613,-1.5545372188754956,3.0,0.5004891261437198,0.5021655689593983,0.3770119508533933,0.7361964421098878,0.0013873615706215458,0.478659654311816,-0.47843265898839704
13.4,-10.568412763934019,-1.873644932852994,-4.696442846372792,-0.41727398088799583,0.12289958274853566,0.336662535966138,-0.19865577931295067,0.20002466929942284,0.959440467220675,-1.7163181104181633,-1.926010757986618,4.143629167005035,0.4148030979139098,1.356539887796251,-1.5545089537419863,3.0,0.4999630695707731,0.5016272062111221,0.3771210754193644,0.736180841821398,0.0013589669471911774,0.4786536776947231,-0.4784627239119996
13.5,-10.74038859238164,-1.9796101563515918,-4.606036464781325,-0.4073453928056245,0.13745331032050814,0.3196450657025125,-0.19871111074005238,0.2000760743169949,0.9594182868960895,-1.717761888560974,-1.924943002192358,4.143855571746826,0.41515006615536487,1.356365788054123,-1.5544838774808953,3.0,0.4997481180589809,0.5014104659379454,0.3771734134512054,0.7361580491356072,0.0013509856142659,0.47867516770644525,-0.4784763163960507
13.600000000000001,-10.421229477597425,-1.9002365278577096,-4.521081916611335,-0.39750119736482975,0.1332833959529199,0.3201966063587095,-0.19876644216715408,0.20012747933456695,0.9593961065715041,-1.719203172458662,-1.9238989504766968,4.144060310981466,0.41546604698091943,1.3561598734843632,-1.5545161602467592,3.0,0.4994265275883611,0.5010773688264701,0.37721588339064804,0.7361638695313761,0.0013469951978992915,0.4786640295143443,-0.47847851534799213
13.700000000000001,-10.432131780116334,-2.2700547818217975,-4.464841480489603,-0.40118021696734596,0.12773438473371942,0.3145902613543113,-0.1988901001462305,0.20026587636486234,0.9593415831336511,-1.720633500623624,-1.9227640905638013,4.144240949751501,0.4158014584928841,1.355947494506836,-1.5544503370868128,3.0,0.49893691911888916,0.5005902303892336,0.377216502536641,0.7361980057805428,0.0013817812185129685,0.47865385766644863,-0.4784360683586086
13.8,-10.249352931564658,-1.7937188411555318,-4.436532656540956,-0.41254207503415435,0.1466138340572504,0.3128186824289651,-0.19895945408269972,0.2003530080920658,0.9593090005711913,-1.7221549809042753,-1.9216134586897593,4.144466876983643,0.41615979253735347,1.3557562828063965,-1.5544797979770304,3.0,0.49871254477235666,0.500401070464164,0.3772746865317717,0.736183887937732,0.0013715719652222787,0.47864338897619213,-0.47846829374642436
13.9,-10.245249680588971,-1.9460054721263895,-4.359868654974626,-0.43348789803404125,0.15817875321825606,0.304529636963627,-0.19865850132221194,0.20004701406137104,0.9594352063912152,-1.7236921705453883,-1.920558193576303,4.144655549221129,0.41652440668054425,1.3555520804911427,-1.5544320920429,3.0,0.4982189218367381,0.4998650588429463,0.37732513978133264,0.7361879873407478,0.001368595536622031,0.4786469866865639,-0.47845839565975684
14.0,-10.406869622586857,-2.0075451373696422,-4.119739646002622,-0.4388590618631067,0.15060935020469982,0.3028884249128301,-0.19844057350514857,0.19983288840727928,0.9595249557365776,-1.7249681981918448,-1.9194604359068812,4.144891859716039,0.4169027033563652,1.3553422688021068,-1.554432338099239,3.0,0.4979990132784747,0.4996492425203321,0.37733030803617545,0.736199991543879,0.0013814970538995283,0.4786376310484862,-0.47844924711088826
14.100000000000001,-10.546738265484372,-1.8738048909660274,-4.300595853329254,-0.42974353435087614,0.15999026477991385,0.29281588884242504,-0.1984607960904037,0.19986389986403524,0.9595143060182563,-1.7263685371361528,-1.9182596955227607,4.145069076874677,0.4172394162832905,1.3551796494979484,-1.5544041483022322,3.0,0.4976911659693514,0.49933175639579175,0.3773818756639603,0.7361825226732901,0.0013768053268877196,0.4786524391407582,-0.4784613257329013
14.200000000000001,-10.146749290024566,-1.874953436908343,-4.465242099948454,-0.4216454317820601,0.16124930362595793,0.2844740098139991,-0.1985796386821549,0.19999490238109235,0.9594624258714398,-1.7279513918663845,-1.9170778650569187,4.1452944897423105,0.41754627420864737,1.354948336230822,-1.5543748360310559,3.0,0.4971600750680701,0.4988040656125991,0.37760112127915163,0.736094202659125,0.0013607514367692225,0.4787035670075967,-0.4785460981988654
14.3,-10.301014886137317,-2.104210568567584,-3.8702578417984714,-0.4054444731194796,0.17269957861589952,0.27533280947833694,-0.1988296332078648,0.20024689796227732,0.9593580698651971,-1.7295361984189375,-1.9160483841201175,4.145518862399403,0.41788468218582087,1.3547234535217285,-1.5543270885548492,3.0,0.4969526228215517,0.49856981122303906,0.37758376103591085,0.7361307779760917,0.0013606417676037112,0.4786817788565951,-0.47851163095684535
14.4,-10.365080733781191,-2.18530181591632,-4.191705390877143,-0.41023330146634684,0.16949826309216098,0.2755898465736671,-0.1986747642541166,0.20007807394851204,0.95942528870958,-1.7308369646830926,-1.91503745045414,4.145733001371489,0.4182366441119787,1.3544773104883392,-1.5543445222885313,3.0,0.4964511870050013,0.4981084998610396,0.377513251706966,0.7362036409837708,0.0013789255033230816,0.47862260324302375,-0.4784586724384528
14.5,-10.527542529530468,-2.1036703497037674,-4.021240567328678,-0.4047487888230296,0.17139911497538526,0.26961946493184713,-0.19830422916651663,0.199687134578332,0.959583490945484,-1.732237436173414,-1.9139005137834793,4.1459218015589485,0.41855542242016597,1.3542871483807262,-1.5543209252339334,3.0,0.49628102344100783,0.49790256879127737,0.37752952101114556,0.7362049288502643,0.0013538660306626881,0.47862969117407894,-0.47844967186732834
14.600000000000001,-10.40770466791616,-2.3762272293948734,-3.3865530816162788,-0.39047513865234684,0.1614237203361599,0.26326518587992676,-0.19820703954464397,0.19956543909791963,0.9596288834002541,-1.7338628768920898,-1.9126544772067693,4.146170824666676,0.4188273640385691,1.354071676930076,-1.5543014297332611,3.0,0.49593040568951985,0.4975304686845065,0.3776172169445777,0.7361851020125105,0.0013521403276238486,0.4786486657586949,-0.4784612022502819
14.700000000000001,-11.207152975421728,-3.214346356658893,-4.423746238490625,-0.35024366485316666,0.10672959504211092,0.2322131729736649,-0.1982389582442574,0.1996099833542744,0.9596130212724382,-1.735285758972168,-1.9114557082254033,4.146378381337484,0.41922053041170243,1.3538367975870769,-1.5542824904071253,3.0,0.49541611464839985,0.497001868197206,0.3776420193723447,0.7362222278171623,0.0013664896350144584,0.4786337142332627,-0.47841899165196583
14.8,-10.287599880844306,-1.9807030153583856,-4.356296510723098,-0.41651706302991387,0.14015144072417954,0.2405919423713918,-0.19837265801397702,0.19976514146529367,0.959553098078202,-1.73657408068257,-1.9104259991580075,4.146599686530329,0.4194671965940256,1.3535909345073085,-1.5542700311136368,3.0,0.49518607720775426,0.4967970947419389,0.3776762244252637,0.7362069466545677,0.0013734993156895988,0.4786257338267625,-0.4784504698670298
14.9,-10.262112688634712,-1.1561655197741485,-4.444239565000709,-0.44321976945297387,0.17348622899649616,0.23508376859101368,-0.19869137764702582,0.20000752363819377,0.9594366323053111,-1.737991998606096,-1.9094484301341066,4.146804188695138,0.41982135305618706,1.353350470173729,-1.5542586485492151,3.0,0.4947334506577695,0.49631757962255396,0.3778738409541059,0.7361307324590494,0.0013222667449014943,0.4786950106965463,-0.4784985716532412
15.0,-9.992955328909277,-1.8213019329887494,-4.59606196699016,-0.4305651374315144,0.18970280733582498,0.23018400989454413,-0.19772478844545227,0.19901498675166784,0.9598417846201731,-1.7396733307744698,-1.9083976226017452,4.14706051865224,0.420240023730206,1.3531461405722842,-1.5542096286894311,3.0,0.4945541097988797,0.49613248998966636,0.37783469507173656,0.7361547544198616,0.001314810378507634,0.4786865241375684,-0.47847012490624213
15.100000000000001,-10.048302571119248,-1.8684733306790557,-4.421978192322637,-0.43694476283373984,0.16980532051222105,0.23458985598436582,-0.1974029337112493,0.1986968724214151,0.9599746704467079,-1.7410981636083624,-1.9071345191474665,4.147304900472155,0.42053191624836295,1.3529283323442074,-1.5542003213588922,3.0,0.4941834549530203,0.49581475552666915,0.3777377219079112,0.7362229359195217,0.0013591420643352414,0.4786354038478347,-0.4784162325238438
15.200000000000001,-10.703033741821743,-1.1923054938421007,-5.236131263782545,-0.45473328625745063,0.13349914657378725,0.22910640638301205,-0.19733709300258948,0.1986605070173821,0.9599957386273281,-1.7423786682128906,-1.9058789123930873,4.1474964153289795,0.4208039015003661,1.3527360892295837,-1.5541985670672815,3.0,0.49366235322995383,0.49524813121810196,0.3779154384300059,0.7361668230559054,0.001326324938680567,0.4786694861683022,-0.478468570028697
15.3,-10.49959728098281,-1.9563862127405207,-5.4085473985333685,-0.44702584395006884,0.17028207328273684,0.23373233286445458,-0.19717600732449334,0.19853034631154573,0.9600557550234009,-1.7422419326668628,-1.9059562422593541,4.147486209869385,0.4207909082486498,1.3527180417615408,-1.5541589798714446,3.0,0.4934787466018746,0.4950802018266108,0.3780067916357092,0.7361382196728724,0.0013323084101879497,0.47867350325509816,-0.4785085409610216
15.4,-10.394593429661324,-1.8025286744419033,-5.184827275302685,-0.4465230922798178,0.1682466963918942,0.23288621621684877,-0.19751805641563563,0.19888250344138042,0.9599124822218599,-1.7422686494714197,-1.9059938877549822,4.147518260771544,0.4208025096991812,1.3526994949377116,-1.5541712284772202,3.0,0.4933483317946945,0.49497461879743754,0.3780966372125083,0.736096813439667,0.0013477334406529736,0.4786945149078387,-0.478551174124241
15.5,-10.246241971705308,-2.0509492370612703,-5.226366796917518,-0.4427273436070275,0.17781099830051628,0.22947247314407349,-0.1978515787958132,0.19922612616848515,0.9597727310794588,-1.7422730187195252,-1.9060479603209437,4.147514491631568,0.420779401078861,1.352729950809548,-1.5541906250692468,3.0,0.4933614108797726,0.4949738064154278,0.37803889691668396,0.7361245691471154,0.0013407946625369723,0.4786890289036148,-0.4785139857673554
15.600000000000001,-10.099523531839463,-2.1185333210141266,-5.1952220788128365,-0.4369157729463931,0.1773086762648479,0.2360241345058548,-0.1973515365776484,0.19873543235629365,0.9599772545816092,-1.7423490412204903,-1.9060561497772968,4.147503542456407,0.4208085378658625,1.3527541992830132,-1.554162327443258,3.0,0.4933497820302267,0.49498550728402374,0.37802518863753204,0.7361300542055899,0.001347257514269717,0.47868387421280206,-0.4785106861514044
15.700000000000001,-10.198184785435132,-1.809681919854688,-5.423848003726626,-0.4255670079748868,0.18109628832095295,0.22818517808501956,-0.19719538630681926,0.19858384825245773,0.9600408201657835,-1.7423559078084565,-1.9060474834837855,4.147481298204371,0.42077803266120656,1.3527423974246457,-1.554159191878402,3.0,0.49335046118693504,0.4949709572465556,0.37799275599650906,0.736152939829374,0.0013619098451579962,0.4786721617155353,-0.4784871534124192
15.8,-10.158091887753647,-1.80632248620833,-5.371498841312545,-0.426988225761197,0.1786740643801822,0.22783352151200412,-0.19738466429669374,0.1987728888060252,0.9599627981122824,-1.7423322044991159,-1.9060263572779288,4.147477372803559,0.4208016161770943,1.352739520201812,-1.5541413098634835,3.0,0.49335859039442337,0.4949701314936496,0.3779718498317747,0.7361721002492013,0.0013499521555232802,0.47865463197792546,-0.47847524463647495
15.9,-10.179472794364633,-2.051671886628716,-5.315883729068293,-0.42959803856993983,0.18201955082128068,0.24048561482428943,-0.1971744436008268,0.1985737107615889,0.9600471407207954,-1.7423410415649414,-1.9060317654143644,4.147539121237146,0.42076396847266206,1.352739433495395,-1.5541508833514612,3.0,0.4933475359879202,0.4949872974606815,0.3779530640563019,0.7361793442961498,0.0013525836404815314,0.47864553288217465,-0.4784731940256692
16.0,-10.085404884856617,-1.9239415916751075,-5.39510146754483,-0.4287327604560165,0.181012219236625,0.2402082975329312,-0.19703832166550772,0.19846224882013486,0.9600981957574937,-1.742349954190215,-1.9060276497812036,4.147509634190578,0.42080441053690615,1.3527243280758867,-1.5541959301229866,3.0,0.4933493266810252,0.4949879477946422,0.3779560819929022,0.7361795316929673,0.001362231049254757,0.4786423501638013,-0.4784760621729834
16.1,-9.95171712381102,-2.149224601816204,-5.219840573704846,-0.42969100639010466,0.17564637344654183,0.2373600927042294,-0.19723847313780724,0.19866126897965727,0.9600159809817345,-1.742336057030241,-1.906039897257619,4.147486209869385,0.4207490058594032,1.3527318790492247,-1.5541704755007553,3.0,0.4933358859269756,0.4949920112909549,0.3779857646563353,0.7361591957745739,0.0013764773603808763,0.4786552314753334,-0.47849442334044384
16.2,-10.036054729761272,-2.039974885596386,-5.3566566086906535,-0.42959242500092115,0.17705857041367745,0.23961533503705928,-0.19722517753540159,0.198615618103192,0.9600281586762673,-1.7423599852601657,-1.9060504679206567,4.147512409842492,0.4208027171218194,1.3527658811256067,-1.5541836617014553,3.171878154359803,0.49335295811736374,0.49497648904034114,0.37799100807935354,0.736155981525066,0.0013647412080801374,0.47866954713892623,-0.47848508125971556
16.3,-10.199578243275083,-1.8404991188835074,-5.246367914998431,-0.42699312809927564,0.17688616752706932,0.24220726377026947,-0.19702082241888302,0.19847143406078005,0.9600999333180835,-1.742395633041479,-1.9060195274627256,4.147529308659256,0.4207717615314941,1.3527487548293582,-1.5541639383631862,4.0,0.49333693788165484,0.49500038012677855,0.37797775978084563,0.7361667501503787,0.0013724178974909474,0.4786455521540199,-0.4784924950773185
16.400000000000002,-10.233413467558817,-1.8436079035778454,-5.223626021498437,-0.42389751161125383,0.1793180359264483,0.24574517457938402,-0.1972254399875811,0.19863087532075702,0.9600249236474965,-1.7423307161725958,-1.9060598812498988,4.147486209869385,0.4207849768974222,1.352711971701449,-1.5541617680935325,4.0,0.49335958479506287,0.4949792508074665,0.37797488867629087,0.7361635206661387,0.0013609513007089033,0.47866862795712195,-0.4784744123374199
16.5,-10.17439759573398,-1.8612167958562187,-5.372450827483576,-0.42237596534666666,0.18011034244153107,0.2433782786588141,-0.1975915426301192,0.19896903205591093,0.9598794732424122,-1.742338365723645,-1.9060591855311617,4.147484925465562,0.4207744373727904,1.3527347310996163,-1.554162327443258,4.0,0.49335604488105295,0.4949736655901455,0.3779745872223472,0.7361603586948344,0.0013460202249426672,0.4786612961652437,-0.478486654013731
16.6,-10.203851515284299,-1.7755307438634835,-5.387958758446996,-0.42437962036498944,0.1811601994488415,0.24957550693397487,-0.19813465897305688,0.19951318614892816,0.959654666730824,-1.742365837097168,-1.9060589086191395,4.1474872015713355,0.42078415918285894,1.3527693368197777,-1.5541985670672815,4.0,0.4933652886943019,0.49497001816107267,0.3780170206827051,0.7361356576270065,0.0013396805881812624,0.47867892802743867,-0.47850703515045473
16.7,-10.089602370443322,-2.267561948703978,-5.493662093438438,-0.4321606498133521,0.17857990838204513,0.24831519729233809,-0.19705050610330155,0.19845927651697023,0.9600962387643394,-1.7423524856567383,-1.906047668672425,4.147486038926025,0.4208070474812011,1.352721520188232,-1.5542106015787556,4.0,0.49334953633056294,0.49499234058846175,0.3779808625152646,0.7361621819265329,0.0013608389121770792,0.478658498090637,-0.47848660610746174
16.8,-10.235752765447238,-2.154742085676574,-5.497167836441686,-0.42895225328421127,0.17971006133599016,0.24743946491318414,-0.1972082816828066,0.19861287077517553,0.9600321904115084,-1.7423522570749501,-1.9060476072989208,4.147511005401611,0.42077246632534115,1.3527454186986079,-1.5541749633154007,4.0,0.49334987011687137,0.4949844870146517,0.377971308360154,0.7361667723621141,0.0013576692944987667,0.4786549678023798,-0.47848308413374163
16.900000000000002,-10.14508243641812,-2.0296532027009,-5.549447941935252,-0.42764271596153586,0.1790124654111048,0.2514194607591243,-0.19755020644900814,0.19894615906361443,0.9598928673463967,-1.7423410415649414,-1.9060576932070827,4.147511005401611,0.4207852253551212,1.352753722980969,-1.5541747252093714,4.0,0.4933523924829238,0.494991014218855,0.37798693665141964,0.7361479709310822,0.0013374509216253973,0.4786644568529491,-0.478502574564395
17.0,-10.279917103024154,-1.9692057773488458,-5.4133641472257725,-0.42352949362885517,0.18225005226758864,0.2451710892160548,-0.19755868855934583,0.1989514108699666,0.9598900459943459,-1.7423459545143836,-1.9060588833070433,4.147519532429677,0.42077360388753493,1.3527140852815467,-1.554130441280562,4.0,0.49334474060954264,0.4949826698260539,0.3780134350768308,0.7361477143744257,0.0013570161717308053,0.4786723434470164,-0.47849502478851347
17.1,-9.923195329929897,-2.1306292001832885,-5.46232910937844,-0.4296594553715644,0.17152178875362337,0.25006749318580823,-0.19732685443425627,0.19873610201646508,0.9599822901439664,-1.742351264218725,-1.906036834886094,4.147509682177097,0.4207598351020798,1.3527690052972141,-1.5541636506677725,4.0,0.4933387972236459,0.4949763088736914,0.37798256489443177,0.7361659828715281,0.001359123137221089,0.4786560776059859,-0.47848318446727844
17.2,-10.330840472722716,-1.7337997001972727,-5.438724262850973,-0.4187373950605809,0.18172792060666476,0.24410170252492225,-0.19715534834502882,0.19857872452711228,0.9600501334234711,-1.7423410415649414,-1.9060355625548304,4.147519486454148,0.4208070474812011,1.3527534269359391,-1.5541851646186962,4.0,0.49333414079017135,0.4949796356769808,0.3779699759191493,0.7361753321384202,0.0013809375085294339,0.4786498688579621,-0.478474948565481
17.3,-10.187656595212497,-1.8162278561622456,-5.2257000520738,-0.4206348101922722,0.1801046117596218,0.2548442775017304,-0.19714458579806018,0.19857271650934172,0.9600535862138259,-1.7423460887941133,-1.906078870002836,4.147508481787026,0.42078553511367806,1.3527554071410293,-1.5541768428662808,4.0,0.49333611301468966,0.4949877851982009,0.3779696023072892,0.736171802359153,0.0013732907572844395,0.4786525227141195,-0.4784777465913973
17.400000000000002,-9.86090562130631,-2.471436216384895,-5.324415081971601,-0.43642593177387073,0.17420527723445106,0.24756465749168818,-0.19702293865168174,0.19843024651926183,0.9601079519453248,-1.742351543595898,-1.9060743194885523,4.147503497517511,0.42077627526873723,1.3527386026349482,-1.554169835327358,4.0,0.49335107169648607,0.4949935299754926,0.37796228222617123,0.7361727857609046,0.001371128182825604,0.4786523222540624,-0.4784764402907721
17.5,-10.026357365892467,-2.01078900335677,-5.055464351525672,-0.42238813346412296,0.17813779912846792,0.24298179200742603,-0.1966879869413868,0.1980252697279709,0.9602602570008261,-1.7423442995437983,-1.9060540827532328,4.147492122062063,0.42080807564600886,1.3527246472279313,-1.55414712648234,4.0,0.49337512747582674,0.49496635221352614,0.3779511786627117,0.7361794344977979,0.0013444864358912124,0.47866833745306825,-0.47845026418494313
17.6,-10.089906776904083,-1.9942472021668853,-5.354265139357193,-0.4237762601947511,0.1772723570805441,0.24979589240670944,-0.19670288381849338,0.19805569168187867,0.9602509497799686,-1.742360174517002,-1.9060598812498988,4.147486209869385,0.42076668616976826,1.3527442098882905,-1.5541866461383265,4.0,0.4933456601102432,0.4949741294430676,0.37799067565697897,0.7361614742739752,0.0013644900294651722,0.4786651068784686,-0.478481073208493
17.7,-9.973798202225776,-2.218302627317039,-5.415816932437051,-0.43182224354362986,0.1751732529703549,0.2505745346879689,-0.19678800151505493,0.19817350588997446,0.9602092041074821,-1.7423772348917541,-1.9060559503273435,4.147482581325487,0.42078320562329097,1.3527512786662683,-1.5541985670672815,4.0,0.49334620707259647,0.49497804557746355,0.37799242257532306,0.7361555771084444,0.0013605639956060641,0.47866285850307777,-0.4784924064678664
17.8,-10.025678519648197,-2.2608878687088634,-5.450668719105406,-0.4296061357131017,0.17469163342050673,0.248611047019905,-0.19680201418676938,0.19820601670165686,0.9601996244400139,-1.7423514540401785,-1.9060802979514808,4.147498607635498,0.420775049681569,1.352747518280378,-1.5541611588204454,4.0,0.4933493956758003,0.49498307664059155,0.37798600751890804,0.7361556915706176,0.0013677085806508005,0.4786674073672759,-0.4784876594706646
17.900000000000002,-10.123880167724645,-2.19112534461141,-5.308124488019893,-0.4272317394527658,0.17471199831131276,0.24861859295216585,-0.1966670723740025,0.19805982954558543,0.9602574277838819,-1.7423600334635614,-1.9060598812498988,4.147499318140691,0.42078004043968775,1.3527188709024967,-1.5541702408007665,4.0,0.4933553834294002,0.4949754658492803,0.3779846100976627,0.7361613367242128,0.0013451117903735944,0.4786641210715812,-0.4784823258861946
