xiamingqian9007/apple-picking-rnn/final_data/grasper_20191127_113703.csv
,/manipulator_wrench.fx,/manipulator_wrench.fy,/manipulator_wrench.fz,/manipulator_wrench.tx,/manipulator_wrench.ty,/manipulator_wrench.tz,/ground_truth.x,/ground_truth.y,/ground_truth.z,/joint_states.elbow_joint,/joint_states.shoulder_lift_joint,/joint_states.shoulder_pan_joint,/joint_states.wrist_1_joint,/joint_states.wrist_2_joint,/joint_states.wrist_3_joint,/mode./mode,/manipulator_pose.x,/manipulator_pose.y,/manipulator_pose.z,/manipulator_pose.rx,/manipulator_pose.ry,/manipulator_pose.rz,/manipulator_pose.rw
0.30000000000000004,-10.71983313742643,-5.150550083926949,-11.902084758994265,-0.11128176133277888,0.24714854004337722,0.23262093157241412,0.06632744143642835,0.06329202725972115,0.9957884450981704,-1.7627325697661078,-1.7389201258903095,4.157900664422045,0.038680081801916275,1.3530470786696762,0.0772814787642943,1.0,0.47112648044596245,0.4727815632808416,0.39907952826557225,-0.5709603867466526,0.5730302278335921,0.002094370477660906,0.5879083333032429
0.4,-10.691926513179345,-5.267938189784299,-11.841162238857535,-0.12196042907313677,0.25591251634456297,0.3113832550191987,0.06662613642383121,0.06355099028238803,0.9957520837639557,-1.7601852375542542,-1.74243642206176,4.157192623098529,0.03919453021686989,1.353703024075656,0.07709711142434138,1.0,0.47134719911058826,0.4730054591786355,0.39915374767167466,-0.5708920028640391,0.5729837700970988,0.002138797713742158,0.5880198515488577
0.5,-10.727644376201397,-5.235197154516236,-11.762616986593986,-0.117802978554942,0.2559816980366181,0.40425721192317143,0.06593939658423813,0.06291279655222459,0.9958380469539116,-1.7569110358188471,-1.7461201291757684,4.1565626941604785,0.03991345122111341,1.354302933675459,0.0768507701372068,1.0,0.47192038757444016,0.47356839675403195,0.39892228606060276,-0.5708772874620248,0.5729892761215563,0.002156715708723813,0.5880287073664408
0.6000000000000001,-10.529487453849235,-4.777562676489687,-11.650899188351236,-0.11098991290461555,0.25947038271468476,0.4690673138805018,0.06530812330764381,0.06235269510631137,0.9959149799414131,-1.7540834430821217,-1.749695761944788,4.155874729156494,0.040514672488033684,1.3548118909528477,0.07663819001726768,1.0,0.47303808554682486,0.47468199297310737,0.3981072341323813,-0.570985284320564,0.5730801439423574,0.002092390812702718,0.5878355004668043
0.7000000000000001,-10.884303569375565,-4.574226253231163,-11.605580208502813,-0.10237658120712428,0.258588690186313,0.4508724994505445,0.06482709858044595,0.06196598510123193,0.9959704169821616,-1.750886479608261,-1.753427581248383,4.155183656024531,0.041013722088048626,1.3554337896562039,0.0764155145982003,1.0,0.474238917216218,0.47586480243270834,0.3975244333663819,-0.570981368091165,0.573082086768114,0.0020491316515410963,0.5878375627481797
0.8,-10.544950473708802,-5.2191365501374225,-11.838036469252048,-0.11466781833212313,0.24931969874761964,0.4468449656904374,0.06434607385324809,0.061579275096152485,0.9960258540229101,-1.7480273477141521,-1.7564543812786038,4.15460685403897,0.041508837337158155,1.3561821332748096,0.07619403048478755,1.0,0.4751631420859091,0.4767399189006793,0.3972006929313716,-0.5709285364021375,0.5730742633931589,0.0020373920273566585,0.5878965419117792
0.9,-10.78367128038556,-5.104791671248199,-11.904968661964064,-0.10137525802150928,0.25327241798864086,0.4388969553621384,0.06468592817470359,0.06172062907204932,0.9959950723218712,-1.745210823314824,-1.75988423313069,4.153976352563779,0.04196230947460933,1.3568008040964075,0.0759943158453322,1.0,0.4760264596020467,0.4776700045948643,0.39683083706184424,-0.5709475183116255,0.5730266584780401,0.0020910968543583113,0.5879243210832779
1.0,-10.60976594602711,-4.96215443812332,-11.75651411008033,-0.10427296731772828,0.25511942053991477,0.43476463487662326,0.0652333505197131,0.06215827675880188,0.9959319351278074,-1.742397762599357,-1.7629665934062702,4.153442155687626,0.042419398246429985,1.3572519961155376,0.07579481842671992,1.0,0.4766256402719596,0.47831958392924645,0.3965760070759215,-0.5709541279226562,0.5729910644538716,0.002139167982545346,0.5879524196943497
1.1,-10.541836416412401,-4.778549661444346,-11.60848429222434,-0.10622832829509454,0.2539809808824602,0.43449360666754516,0.06597520928224475,0.06295185888249523,0.9958334067009119,-1.7397636139011878,-1.766127467645946,4.152976405115865,0.042837509471653434,1.3577364915057435,0.07563719063044831,1.0,0.47774835383514913,0.4794153306076721,0.3960165435795619,-0.5709531350813968,0.5730279711612086,0.00211030300779383,0.5879175183891091
1.2000000000000002,-10.75593268487894,-4.764681880509164,-11.727104321886618,-0.0997985001773328,0.25114390493527466,0.439741994210394,0.06506864317545606,0.06202834891893224,0.9959504173195046,-1.7370026094226323,-1.7690116805532343,4.152470666539652,0.04327404801192968,1.3582414802193812,0.07543440740705383,1.0,0.47868731822632654,0.48043184118944465,0.39554146866368994,-0.5709856659337922,0.5730080674259761,0.0021049647218416272,0.5879053436450563
1.3,-10.62172845133357,-5.054125945856788,-11.699623821119394,-0.10356529337114749,0.2490730522191616,0.43820101819318275,0.06440831472140421,0.061383815795156726,0.9960339318081697,-1.73467878056424,-1.7720244098594982,4.1518848361074925,0.043687874148152304,1.3586724576141154,0.07526861946497644,1.0,0.47940178727323135,0.4811560484993375,0.39522113021108723,-0.5709763303821364,0.572999150387931,0.0021042845512211543,0.5879231036322576
1.4000000000000001,-10.490006575473165,-4.811132118852749,-11.615793033337447,-0.10323278394598227,0.24860446936365832,0.4309219715421735,0.06439641476678173,0.061449338402290915,0.9960306605312924,-1.7320736031143034,-1.7747514702550382,4.151412877793215,0.044025365668661734,1.3592478518948263,0.07512028165009556,1.0,0.48028717405801047,0.4820022107433786,0.3947685378838408,-0.5709833055799347,0.5730253129116779,0.0020782298511739985,0.5878909222569869
1.5,-10.704282416881949,-4.617571049817209,-11.696166875562191,-0.09858186392580937,0.25184819833617095,0.42839147180041726,0.06433928623656163,0.06140122810296029,0.9960373054483186,-1.7297421643970552,-1.7775143936936828,4.150898406238811,0.044361252050191556,1.3597772892892235,0.0749506950378418,1.0,0.4808807511484711,0.4825728928797279,0.39444847583873455,-0.5710026158433874,0.5730476406485694,0.0020701578244265717,0.5878504305464947
1.6,-10.482552093410757,-4.878863496117478,-11.589374225049351,-0.10543083064912384,0.24990892112842425,0.4302411801507101,0.0642075883661923,0.06116576874957801,0.9960602994107525,-1.7274609892198485,-1.7801416738548774,4.15044110541326,0.04463549746555236,1.3601967579566583,0.0748026694222803,1.0,0.4817198819645021,0.4834385759636496,0.3941447138171876,-0.57097641709504,0.5730190643358412,0.0021225299597786816,0.5879035447210349
1.7000000000000002,-10.605530339845942,-4.993372750973048,-11.66234355661621,-0.11051733012236237,0.24700203706477072,0.4319431541391317,0.0645926363237073,0.06156064102772799,0.9960107469046651,-1.725048707929769,-1.7824941876357205,4.149989429541996,0.0449056498442426,1.3605685234069824,0.07467159949299088,1.0,0.48255823419627447,0.484294738322737,0.3936141421196438,-0.5710458472615416,0.5730454206648519,0.0021047592024814057,0.5878104764029732
1.8,-10.578635320700382,-4.549234366308708,-11.465048958067609,-0.10288764877587028,0.25281809645916925,0.4280245844794716,0.06506269377886847,0.062059208725280625,0.9959492598293713,-1.7231707930702764,-1.7851011687754008,4.149552148130892,0.045166108417533136,1.3609564363979432,0.07455907188487106,1.0,0.4831588626999512,0.48487618119437376,0.393454445418582,-0.5709926809458157,0.573021242217745,0.0021145690940543886,0.5878856545886189
1.9000000000000001,-10.650512011364558,-4.708481842342765,-11.705879858995573,-0.09565179323500768,0.2502825804917016,0.4255259601738798,0.06501998695545345,0.06205396428939289,0.9959522762625914,-1.720852700625499,-1.787102234867537,4.149087408383896,0.045440963394812975,1.3613479874989884,0.07443159436558178,1.0,0.48391930864833,0.48561110724509093,0.39297803862492936,-0.5710439580910326,0.5730681807740454,0.0020710651831366434,0.587790242179181
2.0,-10.6071866373808,-4.8512045484552795,-11.776984784362769,-0.0957918874618736,0.25022611636327463,0.42731517217873716,0.06402261415283274,0.06111072100334719,0.9960753855097819,-1.7188520431518555,-1.7896149896519962,4.148699505761183,0.04566082667607422,1.3616763470690962,0.07430535192735065,1.0,0.4843690352681733,0.48602561049057497,0.39288743876127546,-0.5709912500490769,0.5730427016688339,0.002064555709855954,0.5878663045635439
2.1,-10.450502390628996,-4.968324157355403,-11.604526924061668,-0.09730997811649639,0.24693658182806547,0.43266053125019416,0.06430623992243265,0.061408887728475595,0.9960387020232371,-1.7168486710526805,-1.791738294380144,4.148332775022759,0.04590205988512804,1.3620342504992389,0.07420114219117648,1.0,0.48500356210573764,0.48665050569098767,0.39272892253985575,-0.5709243629706084,0.5730241087554611,0.0020719185715937357,0.5879493598134514
2.2,-10.37301329350936,-5.0375338902144255,-11.635705450899037,-0.106140749202345,0.24356918799732857,0.42916878519769336,0.0648344982216604,0.061944126748549974,0.9959715028893547,-1.7148744576580535,-1.7939295252512042,4.147942264072233,0.04614932932050428,1.36241207090056,0.0740492732918949,1.0,0.48581784976616316,0.4874945413423349,0.3922477521528894,-0.5709650054970139,0.5730538006603998,0.002064227202108135,0.5878809769098875
2.3000000000000003,-10.297869657956422,-5.049036022565089,-11.64658448183696,-0.1098163952020127,0.24835024812924553,0.430394193039834,0.06450534495027911,0.06157496048689165,0.996015576239931,-1.7130585163726615,-1.7960201347348026,4.147608225916135,0.04636885143587568,1.362813612009476,0.0739298904272411,1.0,0.4863255824134597,0.48803676566976484,0.39203387851432114,-0.5709711499606469,0.573021496546098,0.002086055552259293,0.5879064200881969
2.4000000000000004,-10.709858196841715,-4.942554184863448,-11.616282051203083,-0.1024295151619622,0.25089533197255004,0.42789082823743807,0.06400039315546363,0.06102036039326188,0.9960824642330167,-1.7111190495688533,-1.7980220445618589,4.147266726183468,0.046579776673931116,1.3631873265478973,0.07379327017880052,1.0,0.4869520085797283,0.488660382831194,0.39171075086794305,-0.5709896982499825,0.5730277799111849,0.002095111983289784,0.5878822487949693
2.5,-10.472018294845618,-5.222654052974639,-11.570707217870057,-0.1087248696305687,0.24693366826266713,0.4232952075702001,0.0646812854843212,0.06165138738561994,0.995998880158326,-1.7094095024824667,-1.7999600837278533,4.146942538305401,0.046782272383399326,1.3635110469084382,0.07368566535803678,1.0,0.4874006682870068,0.48910950894715993,0.3915181708493732,-0.5709858160660655,0.5730239855957842,0.002105638111321418,0.5878896801879041
2.6,-10.47041416440343,-5.061806584406531,-11.498150201735447,-0.1070765253663852,0.25087910758968246,0.4212983689837677,0.0656275608220294,0.06254774881542469,0.9958816215649553,-1.707735434637136,-1.8018321518768874,4.146632739046888,0.04692776745344908,1.3637917201767285,0.07362047201692569,1.0,0.48799199775972696,0.48972959998731447,0.39122909527117006,-0.5710020845897146,0.5730136772687475,0.002115805300732224,0.5878838902581678
2.7,-10.451149058379025,-4.987353468076907,-11.547675424890851,-0.10493202712547384,0.25226022127366327,0.4250574024807136,0.06499689745054552,0.061923301114957814,0.9959617317242226,-1.7058677618439244,-1.8038041875040896,4.146327745049327,0.04710199439596534,1.3640767571867982,0.07347272721019388,1.0,0.48852522660036024,0.49027229743672424,0.39099026268368664,-0.5709954984285797,0.5730084042403025,0.0021137444054806793,0.5878954341793006
2.8000000000000003,-10.542506738155199,-5.029913854279932,-11.650224976534354,-0.10179017806172679,0.24646972510653575,0.43217774937507974,0.06439354388390446,0.06134791169810917,0.9960370487687781,-1.704362748371627,-1.805477276893493,4.145996845037232,0.04725343416532473,1.3643145608383394,0.07339634548539314,1.0,0.48893297807495145,0.4906689134060598,0.3908334946325466,-0.570979720491667,0.5730033658546649,0.0021060974022545772,0.5879156962186121
2.9000000000000004,-10.25511981392082,-5.090729942974884,-11.743169709482912,-0.10236776534631095,0.24121166426152166,0.42944117606623894,0.0647453303882578,0.06174757364000648,0.9959895585081492,-1.7029163049882634,-1.8071199403962928,4.1456990242004395,0.04739491521801753,1.3646106719970703,0.07329294373846577,1.0,0.48950282714499244,0.4912369617557983,0.39051131554657265,-0.5709991890110131,0.573032555603055,0.0020871259993965508,0.5878684038735703
3.0,-10.394844963057917,-4.8249962330197125,-11.719272272240866,-0.0979360205395075,0.24778611372415205,0.42836944477941674,0.06528172962409302,0.062290882498611755,0.9959204188783254,-1.701069223859817,-1.8090518813101562,4.145435630332397,0.047551663491897184,1.3648732364282457,0.07320325969602186,1.0,0.4900238095007594,0.4917440189274606,0.390263223491232,-0.5710053956058316,0.5730386752677245,0.0020828054098803723,0.5878564252928294
3.1,-10.541110838121856,-4.867286980139142,-11.644179102805486,-0.10051471337853324,0.254194823271834,0.4338306674193534,0.0658679147910845,0.06287292972292252,0.9958454408970745,-1.6996183395385742,-1.8104985777846878,4.14517068862915,0.04768360380152595,1.3651060254449223,0.07315190455805744,1.0,0.4903781345936918,0.49210726705875335,0.3900815794896375,-0.5710157879224305,0.5730469734544311,0.0020819208444354024,0.587838244556817
3.2,-10.617310176382869,-5.0180052355656315,-11.558733538556258,-0.10044353415085845,0.24923038789980875,0.42156993470100845,0.06491074402179212,0.06191541224972218,0.9959665299703194,-1.6983745997969122,-1.8118778711125068,4.144892058639812,0.047825976009033155,1.3653616991771202,0.07305114587232892,1.0,0.4908245973395315,0.4925814247219013,0.3899104514992018,-0.5709980437240508,0.5730383571386215,0.002097078775449646,0.5878638257043771
3.3000000000000003,-10.279250122283722,-5.2812819754289215,-11.741971919804069,-0.11083792905821752,0.24628401295228566,0.4245848738840844,0.06351872781074541,0.06052411752834503,0.9961428615595138,-1.6968881889255198,-1.8135497774457818,4.144641131394057,0.04793374120678706,1.365637362190959,0.07296294030212531,1.0,0.49136356782249446,0.49310382851577605,0.3896972581633301,-0.5709811062592902,0.573021312129743,0.0020967638177708473,0.5878968920835671
3.4000000000000004,-10.632801359902071,-4.8201950496838695,-11.58774534367893,-0.10287480076101517,0.2531437207706482,0.4221881035211955,0.06363062585901999,0.06063380381521839,0.9961296710955027,-1.6953754883491674,-1.8151907626148407,4.14440393447876,0.04802188316966511,1.3658576011657715,0.07289493776861757,1.0,0.49167397696941717,0.49341988037554557,0.3895304375985234,-0.5709819384425754,0.5730340135937284,0.0021056829324710494,0.587883671602137
3.5,-10.60145507440754,-5.003556900423561,-11.744029364845224,-0.09605410227718426,0.24930123386414635,0.42982655403099995,0.0641743319415182,0.06117578551842306,0.9960617259223411,-1.6940807383818863,-1.8163478882669781,4.1441695485140855,0.04816119253124995,1.3661092714595278,0.07282712125520138,1.0,0.4921650811785029,0.4939391513655819,0.38928271115239255,-0.5710004001339102,0.573035569886553,0.002094376074537074,0.587864263483133
3.6,-10.237190486552024,-4.891489715446511,-11.705137110024417,-0.09979047341390397,0.2432303290417849,0.4299297003423301,0.06466364115533306,0.06166737547985537,0.9959996428146929,-1.6930125927159614,-1.8175687875407815,4.143912317632881,0.04826895772900386,1.3663539244161056,0.0727233909361036,1.0,0.4926069642775296,0.49433369399536625,0.389201269622094,-0.5709529255033328,0.5730028585523731,0.002099537859755011,0.5879422360153848
3.7,-10.37209328730346,-5.079344209951166,-11.70165469924516,-0.10775829460510968,0.24458426797981772,0.4285396269845266,0.06494785367066107,0.061944345584834706,0.9959641336122872,-1.691735140603456,-1.8190511204011706,4.143692615397832,0.04835288106884761,1.3665722038960426,0.07264834906816181,1.0,0.49284818955543,0.49455887093250134,0.38906139710630616,-0.5709700174853976,0.5730118284766405,0.0020987018761235887,0.5879168980468388
3.8000000000000003,-10.44224356444837,-4.916452145816243,-11.649862726063906,-0.10684590260432572,0.25217837682624034,0.43222463574133024,0.06459667477130894,0.06155642144619052,0.9960109506070858,-1.690378956209738,-1.8204673027002083,4.143457122434061,0.04847209035839839,1.3667468501736852,0.07260763313522536,1.0,0.49318612337324097,0.4949316897677177,0.38884519355252223,-0.5709838225816775,0.5730363103980706,0.002129936397520927,0.5878795154505078
3.9000000000000004,-10.34788580062937,-5.330764660903283,-11.813506517587577,-0.10902941943915052,0.24350085623111312,0.4283203704409009,0.06443410364668475,0.061364720027493644,0.9960333561340249,-1.689214616309232,-1.8216709932272879,4.143246974531794,0.04853697951785027,1.3669560023652345,0.0725355344845111,1.0,0.49359533610255546,0.49534735659450224,0.3886663968522216,-0.5709940569460998,0.5730218600882666,0.002119393884581786,0.5878836985006295
4.0,-10.47435595597569,-5.224403310319103,-11.771311784956305,-0.1049930856312844,0.24968000911839008,0.42337057365521297,0.06488742537985816,0.061813777834801596,0.9959760467673188,-1.6881544794212229,-1.822724905780007,4.143045154738685,0.04863993703808589,1.3671353067527658,0.07245884712947413,1.0,0.4941139644451756,0.4958599310925098,0.38844937001232815,-0.5709736986076662,0.5730244874917144,0.0021104712805861273,0.5879009424589432
4.1000000000000005,-10.440306360434699,-5.540285668831987,-11.748912483975175,-0.11143056965336104,0.24665321953067204,0.42608417533312765,0.06520337113383069,0.06213680720193328,0.9959355031543844,-1.687040993213031,-1.824017168338114,4.142817516073406,0.04872634528404126,1.3673328409730234,0.07240824967046304,1.0,0.4943714709956664,0.49611374247732903,0.38837729427938356,-0.5709744598465256,0.5729954291130098,0.0021101444507985005,0.5879285260207767
4.2,-10.309131601814123,-5.443959282896048,-11.685763245179114,-0.11098215544858825,0.24099157928640075,0.4281431689805114,0.0650434398192759,0.06202326792721781,0.9959530369273433,-1.6858301162719727,-1.8253169904072506,4.142644909624205,0.04879538595166011,1.367510768171205,0.07233912325445474,1.0,0.49463188634231087,0.496346919036048,0.38825239459819555,-0.5709716394567949,0.5730095124279733,0.002096099219618293,0.5879175894384667
4.3,-10.427749995890652,-4.934572991166297,-11.61915240327013,-0.10753773590060839,0.2469755096486742,0.432231490961585,0.06491867793988358,0.061900651968967,0.995968809063766,-1.6847085980070209,-1.8264731329762136,4.1424650014635365,0.04887644690298365,1.3677220317232037,0.07227611268633849,1.0,0.49501113425501553,0.49674790129820096,0.38800484967968096,-0.5710008370938146,0.5730258630876502,0.00209219625637612,0.5878733086181425
4.4,-10.362364232890455,-5.040756438377184,-11.703667409406513,-0.10983583426492047,0.24689731793690567,0.42967623393577276,0.06499225857353845,0.061974874907748355,0.9959593840630886,-1.683567692870178,-1.827632825519591,4.142256823231595,0.04897257237509886,1.3678919161777172,0.07217636997519275,1.0,0.49539189015378016,0.49713543517857645,0.3878378392082102,-0.5709945675487715,0.5730240255432666,0.002103372389903313,0.5878811493869915
4.5,-10.554841307498304,-5.277797331713416,-11.800477707874714,-0.11175674545106884,0.25222564439500744,0.42069543174464363,0.06501545598348588,0.06201042572350196,0.9959556363575844,-1.6824748367880509,-1.8288669355911338,4.142038909272873,0.04903861645174419,1.3680682617806017,0.07209014892578125,1.0,0.4956989058599093,0.49743683135243283,0.38771740459203147,-0.5709749438668118,0.5730253332850898,0.0020988788726926796,0.587898950158342
4.6000000000000005,-10.577122193338564,-5.058197144891893,-11.928718063718273,-0.10116550656452356,0.25316218643709004,0.4260378371441868,0.06470726024488513,0.061729229454992283,0.9959931736478613,-1.6812400658925375,-1.8300830405948898,4.14183488951789,0.04911211178851991,1.3682247665193346,0.0720887581507365,1.0,0.4960864469588093,0.4978108667133588,0.3875429941250115,-0.5709693110859011,0.57303628580609,0.002098527822389689,0.587893746461579
4.7,-10.434443537106741,-5.20550554254228,-11.802430137413694,-0.10814238751588628,0.24611887771656163,0.4240503115137139,0.06507967701734838,0.062104003144594744,0.9959455921151908,-1.6800652611320788,-1.8313039505954158,4.141614961131964,0.049179911014485184,1.3684273238028624,0.0720045330601167,1.0,0.4963508698528597,0.4980778670493375,0.38743419817885766,-0.5709626134614392,0.5730384669196379,0.0021007973324511666,0.5878981171174492
4.800000000000001,-10.490480521119864,-4.966314139473221,-11.623149421300813,-0.11103829850262074,0.25059812933694214,0.42321330177327054,0.0651563181878239,0.062201844575166546,0.995934527828454,-1.6789789199829102,-1.8324813374619457,4.141433901911732,0.049280999503406336,1.368648089511441,0.07194830490251038,1.0,0.49672201498522484,0.49843742665651447,0.38727778904033927,-0.5709574768364788,0.5730302886714718,0.002088195364237259,0.5879111219816586
4.9,-10.424236355299355,-5.052500833543488,-11.63325798356983,-0.1018312159841645,0.24407766655694305,0.42755809978025017,0.06505390894846226,0.0621333593850252,0.9959454952311552,-1.677897162743004,-1.8337610507849327,4.141265274874473,0.049320429241390025,1.3688055947498399,0.07186441867789459,1.0,0.4970986616143567,0.4987982385197328,0.3870946941354877,-0.5709638521747178,0.5730416899956967,0.002076554341499248,0.5878938585822697
5.0,-10.397330638511367,-4.87000297757876,-11.5126490832612,-0.09921388423923545,0.24981057181014724,0.42778186805372104,0.06522448801784152,0.06231619194084791,0.9959228609271981,-1.676652336211779,-1.835042207757923,4.141035556793213,0.04940776686426947,1.369014003764603,0.07181501388549805,1.0,0.4973406751791525,0.4990470338461285,0.38694119515725256,-0.5709780698297998,0.5730565000744846,0.0020677213311100246,0.5878656445347997
5.1000000000000005,-10.53792428677042,-5.173578562349528,-11.651567337017067,-0.10651328913251223,0.2546213350742109,0.42195798448515803,0.06535449822097392,0.06244237824612327,0.9959063267657584,-1.675326096232812,-1.8361482318909672,4.140853292378948,0.04948149783316542,1.3691798636661703,0.07173454102559305,1.0,0.4976893201185123,0.4994151388168117,0.3867281399442486,-0.5710121660424564,0.5730531902672749,0.002060872848722268,0.5878357765218972
5.2,-10.299059175210964,-5.1026311643255635,-11.545244620076149,-0.1049962596297283,0.25026893593506866,0.42392289251309934,0.06450366618963684,0.0615648342007182,0.9960162738300603,-1.6743593215942383,-1.8372810946310218,4.140656091179081,0.049493970923004026,1.3693514837877234,0.07167296479425232,1.0,0.49806113046526657,0.4998129805452072,0.3867117206473666,-0.5709385206530747,0.5730077197645672,0.002107964034026715,0.5879514565100774
5.300000000000001,-10.291441166095126,-5.0357411077846,-11.515194518118582,-0.10720923615212524,0.24534793624447032,0.4267234049453992,0.06401457929087698,0.061059895402203884,0.9960791507802845,-1.6733190302952814,-1.8385724156454577,4.1404600970998535,0.04958971296710532,1.369578837414859,0.07161561226324795,1.0,0.4984610577666628,0.5001754743584471,0.3865106594658669,-0.5709408319755281,0.5730302237311518,0.0020865078633861282,0.5879273556815113
5.4,-10.43448630605629,-5.113965654962904,-11.562880876336866,-0.11045729765517097,0.25058960837003275,0.4217678937441353,0.06372985820975456,0.060765457780013105,0.9961154357421627,-1.6721982955932617,-1.8399775820725373,4.140273140983793,0.04965077347397877,1.369767665863037,0.07158122190884672,1.0,0.49871595389751683,0.5004340546528159,0.3863129011985132,-0.5709780528589761,0.5730472310050284,0.002089704151060351,0.5878746187133808
5.5,-10.503104630459863,-4.964316455534595,-11.719545279289626,-0.1073601935679658,0.2505307703131547,0.42544725243591813,0.06422549120736191,0.06123322823669748,0.996054794820429,-1.67085324957424,-1.8410169086852015,4.140106716969767,0.04975637596151687,1.3699561078487494,0.07147858924466519,1.0,0.49912950645324144,0.5009122492642123,0.38594546145979003,-0.571069240043036,0.5730676780827685,0.002076423712274649,0.5877661506739401
5.6000000000000005,-10.525451107080842,-4.9773236469226045,-11.882308225469723,-0.10472730927822096,0.24869019251131635,0.4256706939484212,0.06445451554449923,0.0614194309419929,0.9960286983467935,-1.669537441164317,-1.8421034819989919,4.139908361062665,0.04973473149759802,1.3701488939336737,0.071422588732158,1.0,0.4994079694525553,0.5011984698758364,0.3859602054283297,-0.5710089857476528,0.5730316299841165,0.002106509894102068,0.5878597212339434
5.7,-10.396105008849627,-5.024545721486993,-11.74209351313173,-0.10819346786327591,0.2465602223657179,0.427426344677785,0.06423692990036999,0.06115643145632147,0.9960589510658557,-1.6685209325589878,-1.8432218113994154,4.139732001111094,0.04978577416435375,1.3703217532057634,0.07135355518965966,1.0,0.4997397534913996,0.501549728662333,0.3859631902462062,-0.5709481083413002,0.5729893954287366,0.002136790860640986,0.5879599003610025
5.800000000000001,-10.599691501724536,-5.120488304261144,-11.616533506672088,-0.10215450705527676,0.2509538410556865,0.42235868551473765,0.06426476831693323,0.06117911839558535,0.9960557774742818,-1.6675434112548828,-1.844689508477682,4.139522335590596,0.04982642520603323,1.370540458540265,0.07130678142146321,1.0,0.49997040275636,0.5017834428964035,0.38584035311382603,-0.5709569844031397,0.5729956547349604,0.0021330455639744657,0.5879451944975391
5.9,-10.475199889500296,-4.919865634863448,-11.550929399094763,-0.10763814722037485,0.2590427222547619,0.4203513028203947,0.06442980070847143,0.0613623075314967,0.9960338677178547,-1.6663476423626475,-1.84603920621693,4.139309406280518,0.04991311257639649,1.3707273964178708,0.07127618789672852,1.0,0.5003664579223895,0.5021790793368758,0.38550064989799454,-0.5710206089144542,0.5730377121076008,0.0021136536805247616,0.5878424764897237
6.0,-10.283125108552587,-4.940057028099965,-11.593424949947995,-0.10269917841113241,0.2484790209336723,0.41864957506463485,0.06434121349542724,0.06126146506616072,0.9960457935841922,-1.6649210203804603,-1.8470338053472988,4.139110114541409,0.04996916744224571,1.3708929079050594,0.07120266132302802,1.0,0.5007659587538377,0.5025942391135222,0.3852049267520133,-0.5710755674435546,0.5730472084411061,0.002097913651239674,0.5877798839065436
6.1000000000000005,-10.472363090120808,-5.1108585054942575,-11.669855814724475,-0.10136343991249061,0.24335155809792414,0.425684823077095,0.06428311676510132,0.06119272591327993,0.9960537572092756,-1.6637406664532646,-1.8480428862996432,4.138933581179065,0.04997621869602982,1.3710907800212102,0.0710938181906136,1.0,0.5009928972479547,0.5028175635642567,0.38524415896322595,-0.57101636530439,0.5730140726820614,0.002116959486625017,0.5878696297185396
6.2,-10.440704229737499,-4.921386550176349,-11.664432501429129,-0.10556043341610122,0.24092850260628731,0.42938864075075406,0.0647104416465336,0.06163508531593071,0.9959986402477543,-1.6626899418825971,-1.849311234991081,4.138746738433838,0.05000288330924715,1.3712657052223385,0.07104503226304716,1.0,0.5013037369359624,0.5031184642118902,0.38528067517510634,-0.570941236063668,0.5729733181258078,0.0021392811896846268,0.5879822320053422
6.300000000000001,-10.724463963276408,-4.930346781140682,-11.689074198932763,-0.10197941149981603,0.25145470245536533,0.422797750015664,0.06512473459225995,0.062066331643643224,0.9959450455619052,-1.6616986624298122,-1.8506567664274778,4.138538799407928,0.050100054118679314,1.3714500270842864,0.07099282887271406,1.0,0.5017507370604816,0.5035446336749115,0.38502611917503476,-0.5709606205747267,0.5729942204286904,0.00211395386868592,0.5879431301642034
6.4,-10.699509913659572,-4.969326205364012,-11.783619832241808,-0.10695342414905464,0.2584201933427781,0.41657290536547137,0.06529199962052155,0.062286923175277974,0.9959203064964007,-1.660406515193284,-1.8519251042838203,4.1383319255905135,0.050185848652189,1.3716211729284937,0.07092494797737793,1.0,0.5020161888846436,0.5037877882613164,0.3847726825861741,-0.5710156108426776,0.5730426505542072,0.002082301987229859,0.587842629313498
6.5,-10.550120536767997,-4.941766342610646,-11.670864485971192,-0.10451716996110172,0.2528634955791202,0.4158277369527666,0.06548155737153435,0.06250041478520695,0.995894481388596,-1.6591672632591319,-1.8530346355833949,4.138123480486698,0.05021828919987917,1.3717946873851812,0.07085658443488715,1.0,0.5023827039235829,0.5041439124778732,0.3845734685265439,-0.5710186408145823,0.5730530429128239,0.0020777855583940558,0.5878295710984551
6.6000000000000005,-10.414877549658222,-4.8971799160322576,-11.615848733819497,-0.10320528244493554,0.25019645947878727,0.42335052992543715,0.06567600692577698,0.06269421562484323,0.9958695147491115,-1.6579248030702816,-1.854118866808315,4.137948057181346,0.050195379848144484,1.3719651866617866,0.07080037989817789,1.0,0.5028303106530891,0.5045890919487328,0.3844968098652661,-0.5709530397263706,0.5730296979918146,0.0020996583111733873,0.587915966003309
6.7,-10.277019838916738,-4.9187750214081,-11.44073745101683,-0.10104847392735372,0.24993649550823652,0.4281967395082318,0.06546821670928767,0.06249106512038465,0.9958959029907472,-1.6568286082307557,-1.8554453194974145,4.137739141954872,0.05024298096687853,1.3721650809337134,0.07074982075445682,1.0,0.503065172483803,0.504825218538602,0.38443328066033644,-0.5709445609793173,0.5730192940787504,0.0021038464780006065,0.5879343251857495
6.800000000000001,-10.313376036230324,-5.126474558854418,-11.660919677055647,-0.11050892214266077,0.23871518612953385,0.41801690781186335,0.06526042649279835,0.06228791461592607,0.9959222912323829,-1.655735967221141,-1.8566933780693373,4.1375603675842285,0.05032752179886695,1.3723578464675545,0.0706777572631836,1.0,0.5034547801569245,0.5052155890728619,0.384205600476423,-0.5709673665861058,0.5730252068883285,0.0020857620601280897,0.5879064790942042
6.9,-11.227409934568177,-5.258181676234554,-11.640015903285873,-0.10485391101750444,0.19916867481476955,0.4102749141734185,0.06509347404558086,0.06210122905267863,0.9959449045208871,-1.654666995943897,-1.8577226040486474,4.137357556515298,0.05045951026337474,1.3725122658048257,0.07063011091777756,1.0,0.5037820113328773,0.5055521206833077,0.38399511102407946,-0.5709819977409412,0.5730432343923584,0.0020944662978140067,0.5878746660503715
7.0,-10.784271041622388,-5.440833604692923,-11.427418915658425,-0.10536344164473879,0.24302461588212584,0.42489199245452086,0.06496270945549139,0.06193017918458374,0.9959641048268872,-1.654181337057922,-1.8581618873537966,4.137333237801315,0.05041135821175499,1.3725849979854576,0.07058176367168387,1.0,0.5040928492562226,0.505888536571776,0.3838641738012521,-0.5709743818220896,0.5730313764188792,0.002115453247063581,0.5878935463159354
7.1000000000000005,-10.321804654118719,-4.795271012475578,-11.770780038957586,-0.11050966311758229,0.256406082799608,0.4234227125166291,0.06478590920758254,0.061802655259334614,0.9959835309181727,-1.6541701137179696,-1.8582214283089171,4.13730868141692,0.050374996353262716,1.3725849036459237,0.07066535257140595,1.0,0.5041973347728215,0.505976279226838,0.3838322659153108,-0.570966188221012,0.5730310792016293,0.0021128175487090837,0.587901803177529
7.2,-10.637126804327005,-4.589870788561466,-11.791599371919352,-0.10313405602437879,0.2521278673052091,0.42551662098159154,0.06482407167975297,0.06184534161926163,0.9959783703250086,-1.6541915179874922,-1.8581827719627522,4.137334799608944,0.05038659154858394,1.3725903154207482,0.0706143859200529,1.0,0.504252847219089,0.5059876994446529,0.3838208383603429,-0.5709612459420292,0.5730334565161894,0.0020842155913540577,0.5879043879669572
7.300000000000001,-10.522612667626461,-5.0567207387388375,-11.75788581155332,-0.10474333846688538,0.2493070789825942,0.41974110406110376,0.06506965296357238,0.062052264899286474,0.995949485893269,-1.654134406393686,-1.8581984761405719,4.137308292713802,0.05038723935673741,1.3725975224107103,0.07057205666766993,1.0,0.5042387399289927,0.5060112706504107,0.3838367807555606,-0.5709667945703081,0.5730107208545974,0.002100611525484587,0.5879211007567439
7.4,-10.25059736141185,-5.203224094988619,-11.714609397084375,-0.11204007491906359,0.24399236719983258,0.42404683800246645,0.06531533012828343,0.0622823652788001,0.9959190169146935,-1.6540868416465844,-1.858281751672262,4.13732148767575,0.050434259756623114,1.3725736120274752,0.07060623168945312,1.0,0.504234966498635,0.5060230061134986,0.3838304380440351,-0.5709736368666064,0.5730099423954498,0.0021091578734653968,0.5879151838253106
7.5,-10.628593400590402,-5.101289433063623,-11.810248211688869,-0.10653381316397381,0.25546395255086585,0.4213235372904968,0.06556110268010933,0.06253552339810904,0.9958869715495364,-1.6541562515134336,-1.8582581355237553,4.137320760593031,0.05042214501602085,1.3725852712125082,0.07058214773216437,1.0,0.504243341042802,0.5060378292021729,0.3837831167378219,-0.5709897648262815,0.5730228602488074,0.0021012305458710644,0.5878869576084306
7.6000000000000005,-10.61770702799367,-4.798005573842538,-11.894831880270292,-0.10286008544980939,0.2515975256356942,0.42013292611829056,0.06580687523193522,0.06278868151741798,0.9958549261843793,-1.6541208678361208,-1.858258420477487,4.137331350444383,0.05038712263824444,1.372607640325341,0.07057046890258789,1.0,0.5042534717843482,0.5060297429033423,0.3837988003621296,-0.5709746127142573,0.5730233401319518,0.002101837427180243,0.5879012039273732
7.7,-10.492859714943252,-4.593510020794656,-11.790138291701869,-0.09631237594815922,0.2486382643897953,0.41722434669182795,0.06542780260760662,0.06240463189781251,0.9959038158026352,-1.6541083688863547,-1.8582582391233693,4.137297469609557,0.050410910243652296,1.372573691838561,0.07057145682963978,1.0,0.5042505756556868,0.5060433399045778,0.3838137164421074,-0.570976143917843,0.5730172722315564,0.002108351631510311,0.5879056077759548
7.800000000000001,-10.49350057109816,-4.906658446063974,-11.67140591256791,-0.10096501038111051,0.25013303301426015,0.42647698121033545,0.06504343169314884,0.0620151791613996,0.9959533916981324,-1.6541452407836914,-1.858250375661859,4.137329768883735,0.050403225408109355,1.3725896834073215,0.07058191299438477,1.0,0.5042459483402207,0.5060446136919562,0.3838046396337791,-0.5709869101942668,0.5730166690729519,0.002107015021208038,0.5878957440218833
7.9,-10.334083103155555,-4.971679273979921,-11.726876145150532,-0.10799123035797321,0.250003486166331,0.4242111282046473,0.06505341530975844,0.06203090016086473,0.9959517234886691,-1.6541048885833698,-1.858265546809663,4.137336269321433,0.05038332416558974,1.3725972175598145,0.07059859469414205,1.0592821813223057,0.5042456059867574,0.5060466403630238,0.38378352642572766,-0.5709991143548362,0.5730124874618909,0.0021064092324548996,0.5878879686291214
8.0,-10.469982962160968,-5.022446381190083,-11.787977900807032,-0.106812723377831,0.25276871079053775,0.426258550423573,0.06548632543342528,0.062481150750753056,0.9958950984101683,-1.654088276658482,-1.858269830743307,4.137319533383238,0.05041017926986594,1.372594995399504,0.07060403876809407,2.0,0.5042402535025468,0.5060525701029935,0.38378666241451725,-0.5709958845404378,0.5730122983444899,0.0021115118292932577,0.5878912716664902
8.1,-10.387022737140686,-5.142053392425948,-11.823599289150799,-0.1096211536643531,0.2509848008706327,0.42283519914788953,0.06591923555709212,0.06293140134064139,0.9958384733316675,-1.6541086238757834,-1.8582694377392606,4.137331821080738,0.05039898931469722,1.3725737529857889,0.07055965887282249,2.0,0.5042642359128403,0.5060232070475954,0.3837968187811766,-0.5709775514089319,0.5730278786631312,0.002089161298124705,0.587893971279654
8.200000000000001,-10.457579542186352,-5.2585574399329325,-11.743871509603245,-0.11162024312547697,0.24673398271178323,0.42118038360730053,0.06646897159529017,0.06347941170170233,0.995767000282834,-1.6541352198674129,-1.858258651051601,4.137309368451437,0.05038884490982131,1.3725508335309151,0.0706181526184082,2.0,0.5042638005218274,0.5060209167030914,0.38379183192951516,-0.5709794136688371,0.5730315710774763,0.0020916177176257002,0.5878885547875496
8.3,-10.431397458583879,-4.952285674069307,-11.952466921715933,-0.10622459799247037,0.2542217960699048,0.4259385739508879,0.06666467529620868,0.0636802308699521,0.9957412229593012,-1.6541224126594565,-1.8582812448054244,4.137264482191413,0.05044616616367997,1.3725728485603932,0.07060623168945312,2.0,0.5042625908297038,0.506019574015269,0.3837933166054603,-0.5709760774746133,0.5730328824374489,0.0020885632105992783,0.5878905276502154
8.4,-10.37117501992286,-5.135973439357994,-11.623505444528243,-0.10622580740728171,0.25073142987741615,0.41844167880333116,0.06644387226987282,0.06347317279184779,0.9957691970803756,-1.6541213989257812,-1.8582707930385347,4.137319994543773,0.05039798852766041,1.3726105862420668,0.070615227240916,2.0,0.5042693316246614,0.5060264185410265,0.3837850083978374,-0.5709737956060256,0.5730357684580438,0.0020884074215585195,0.5878899313250647
8.5,-10.404342714676032,-4.938791188600793,-11.635425584687884,-0.10510922428546728,0.2492637133258852,0.42040834534408206,0.0663922233505122,0.06342333456900537,0.9957758340903884,-1.6541325440678571,-1.858270432966402,4.13731921275045,0.050375899154742415,1.3725977956939854,0.07059431076049805,2.0,0.5042626863554782,0.5060372588331693,0.3837791842438812,-0.5709802645622746,0.5730352553678563,0.0020831803288472173,0.5878841671159452
8.6,-11.00750277464518,-5.664059800643753,-11.43529201378367,-0.06012736731307041,0.21976093503405755,0.4193813855101275,0.06654743524189775,0.063565762601511,0.9957563776630493,-1.6541202965386625,-1.858269830743307,4.1372754315902185,0.050410910243652296,1.3726076440635018,0.07063007354736328,2.0,0.5042648185447866,0.5060310420997696,0.38380369640334316,-0.5709707252569635,0.5730274447853205,0.0020965688285141328,0.5879009974659771
8.700000000000001,-11.65328812692121,-6.2235205258998825,-11.45877057417384,-0.0320060608563852,0.16808078153365574,0.41463026879454506,0.0667026471332833,0.06370819063401664,0.9957369212357101,-1.654093293596853,-1.858269830743307,4.1372971534729,0.05044424714511928,1.3725946946390002,0.07056787171348353,2.0,0.5042654596776697,0.5060273174427438,0.38380545564847984,-0.5709709673877098,0.5730264221921244,0.002092526763245693,0.587901773429696
8.8,-12.149334949732257,-5.699988720241007,-11.743380654465366,-0.05505558294222825,0.11654764413812074,0.41265759154421017,0.06735387799999319,0.06436753093737747,0.9956506469586026,-1.6540861129760742,-1.8582745204225548,4.1373040954726195,0.050422831172607374,1.3725972175598145,0.0705515225984263,2.0,0.5042725365379298,0.5060196021432833,0.3838220423064356,-0.5709556722152743,0.5730306745616275,0.0020932676006409573,0.587912480397723
8.9,-12.461864821119445,-5.590977993659444,-11.751452371671357,-0.054577560652226166,0.09491303281668269,0.40672151537908946,0.06800704971989154,0.06500028673976312,0.9955651332011634,-1.6540861129760742,-1.8582589051866991,4.1373081197859705,0.050410910243652296,1.3725966999661938,0.07059480844667163,2.0,0.5042701567838689,0.5060250111645436,0.3838236196083841,-0.5709549730050897,0.5730299611464958,0.0020992732313255516,0.587913833381307
9.0,-12.36682693462971,-5.740348201775609,-11.151610506957663,-0.05739744269584731,0.07830852461686011,0.4089728610682742,0.06717886650377809,0.06417581638842418,0.9956739184349083,-1.6540942024074003,-1.858269830743307,4.137293798812429,0.05039372020208431,1.372591808669682,0.07060273725146275,2.0,0.5042504693947694,0.5060319872452492,0.38382782418255756,-0.5709714113529002,0.5730124678435589,0.0020960230112442814,0.5879149307519312
9.1,-12.30436766681505,-5.57648937641563,-9.888964892264958,-0.054174269299949625,0.07812547481636967,0.41307045394962383,0.06620297518549907,0.06320628226046057,0.9958020686289547,-1.6540842473823636,-1.8583029027700126,4.137340388465257,0.05040168007485668,1.372606867811505,0.07061725569835504,2.0,0.5042720471330632,0.50601737517126,0.3837792212827056,-0.5709797371179007,0.5730359239706925,0.0020890556967164526,0.5878840068296836
9.200000000000001,-11.80998867516276,-5.419699212862284,-8.909793969925257,-0.05873175308946498,0.0738438899890825,0.41212208995941324,0.06501182537548049,0.062015879653729594,0.9959547472412779,-1.6540949845649826,-1.8582945526679948,4.137306972826031,0.05038574533052853,1.3726103540877221,0.07062584245708625,2.0,0.5042550949145406,0.5060540312607339,0.3838075566200488,-0.5709916532634536,0.5730066065444794,0.0021019743128988504,0.5879009631424631
9.3,-12.206623270234758,-5.081472790878951,-8.363683374007795,-0.07407586049747587,0.08995665906983032,0.4123109294536486,0.06404208099234339,0.06104899551992446,0.99607791113942,-1.6540636373901367,-1.8583254061757175,4.137319835357666,0.05035194412051153,1.3725632086533766,0.0705965414780837,2.0,0.504260192921069,0.5060530939724351,0.3837816019148689,-0.5709881140367368,0.5730292842231212,0.00209103277043466,0.5878823357045702
9.4,-12.143676703697114,-4.838498630112509,-7.989129714530261,-0.09077728442825789,0.09510153811406588,0.4119450494558698,0.06345862079371134,0.060472717351922244,0.9961503253272835,-1.654097557067871,-1.8582921543349147,4.137298611008551,0.05039741031774256,1.3725986750954648,0.07060623168945312,2.0,0.5042442413000817,0.5060622358345445,0.38376784251061546,-0.5710031638771488,0.5730296857664543,0.0021078954292181582,0.5878672663531659
9.5,-12.20129730719558,-4.93720241712358,-7.905323565686106,-0.09795031925347755,0.09657523342237684,0.4116241984274561,0.06311960831480457,0.06013552674250745,0.996192566496489,-1.654088902945424,-1.8582980900526878,4.13734041973725,0.05035815243126214,1.3725819135756283,0.07054953326275053,2.0,0.5042684865166502,0.506044082526157,0.3837736573055959,-0.5709777821538602,0.5730474017525535,0.002093174520032962,0.5878747028506459
9.600000000000001,-11.925142748700235,-4.826883600509957,-7.8343372511911955,-0.09884784815791024,0.0874369817528262,0.41013099045004986,0.06317870411165682,0.060187714834647556,0.9961856677987085,-1.6540877300731,-1.8582834361483307,4.137317626378674,0.05039386850744862,1.3725698719916817,0.07060791616552174,2.0,0.5042631233592716,0.5060584879068796,0.38375656777930583,-0.570992388303352,0.573042958373444,0.002103670219528251,0.5878648100795392
9.700000000000001,-12.221676156170432,-4.515047771448689,-7.998584841324606,-0.09213650486142767,0.09207534747957538,0.40607763469240005,0.06322370175035141,0.060217846651834,0.9961809947437319,-1.6540960313688609,-1.858292083331415,4.137308597564697,0.05038983365898047,1.37259403902021,0.07060782095925534,2.0,0.5042583376577768,0.5060455213196464,0.38376447485342113,-0.570997471309032,0.5730291864552401,0.0020991078601667614,0.587873313712511
9.8,-12.303924077718225,-4.670835964427574,-8.073939700795563,-0.09546220868953662,0.10020593889134477,0.40940218591023686,0.063242754179397,0.060207387728630955,0.9961804175974907,-1.6540727615356445,-1.8582733370450226,4.137333393096924,0.05042107802174958,1.372560977935791,0.07061639946755041,2.0,0.504249508288405,0.506050418248914,0.38378205565143514,-0.5709936963614206,0.5730210087378068,0.0021095869776660437,0.5878849138253268
9.9,-12.152550699432453,-4.500264062676508,-8.134044710767114,-0.09187685800639095,0.0898486512999525,0.4107432277078181,0.06262492397317036,0.059610468623983774,0.9962546004389633,-1.654036285881651,-1.858281751672262,4.137312431901638,0.05039035214827586,1.3725848197937012,0.07062183948085127,2.0,0.5042521210425922,0.5060546538521731,0.38378462960738846,-0.5709829541511411,0.5730268134987513,0.002107952746496107,0.5878896951091437
10.0,-11.975458139650687,-4.689088810370448,-8.031567860238289,-0.0967836176378419,0.09111046742363968,0.41378151060709684,0.06188617223718204,0.05890220143358728,0.9963429775629907,-1.654099404678011,-1.8582917480073213,4.1373209953308105,0.05041283483754813,1.372577224889696,0.07058391457203643,2.0,0.504263731366828,0.5060378262994106,0.3837861175245267,-0.5709804540486121,0.5730323054461243,0.0020884010524271357,0.5878868399535617
10.100000000000001,-12.250628072057552,-4.714656248272628,-8.109420413999834,-0.0965210210027176,0.09433250475709994,0.4112542694556809,0.06156257557169768,0.05859652003288297,0.9963815515387935,-1.6541289698425823,-1.858260323239008,4.137311107526339,0.050389053241733185,1.3725959625789932,0.0705879948245182,2.0,0.5042581631857921,0.5060450241232464,0.383788914847452,-0.5709814025420521,0.5730224478388468,0.0021016160090960583,0.5878954800251806
10.200000000000001,-11.998420561739819,-4.87611344402535,-8.292451582619329,-0.10057787302406664,0.09134324184300802,0.4098024110107835,0.06208629902018094,0.059112505188700884,0.9963184786548372,-1.6540831016778632,-1.8582878911317045,4.137306658788031,0.05039071144899921,1.3725753144785704,0.07060211178903784,2.0,0.5042491046861759,0.5060553172326857,0.3837884094770923,-0.570991740699096,0.5730160689326551,0.002103665338411608,0.5878916493628117
10.3,-11.849165724984632,-4.997089103247761,-8.309046619128114,-0.1044685036457501,0.08619672987245354,0.4154392040290093,0.06250715813264299,0.059524649980714585,0.9962678626169972,-1.6540579689482011,-1.858282763621781,4.137308597564697,0.05039898931469722,1.3725878961202382,0.07057249280162549,2.0,0.504256694332145,0.5060526258189093,0.38377135174150706,-0.5709886833395972,0.5730353810560526,0.0020969836284102815,0.587875818702998
10.4,-11.863659340878984,-5.009996605791724,-8.295792910363096,-0.10501742639027138,0.08638614119389497,0.41345610808519756,0.06249115241394269,0.05951067077352314,0.9962696222952796,-1.6541033030344676,-1.858281751672262,4.137343022672954,0.050410910243652296,1.3725484768014267,0.0705885647939015,2.0,0.5042621240965034,0.5060427124152493,0.38378016895481043,-0.5709904674033317,0.5730288738939058,0.0020969508680109775,0.5878804288420086
10.5,-12.07105809160373,-4.561997296243404,-8.42833864559792,-0.09271733580159003,0.09344575612441644,0.41113925889371716,0.06199268051198091,0.05904260789173588,0.9963286382955194,-1.6541068332539843,-1.8582772352020878,4.137342669283037,0.05044730278403692,1.372575543607588,0.07058426155887539,2.0,0.5042700848907165,0.5060303978275202,0.38379317427745374,-0.5709767672954407,0.5730343310493621,0.0020916777739150277,0.5878884345960111
10.600000000000001,-12.021564487561568,-4.889778478916039,-8.145409145406102,-0.10517045378566373,0.08905997307435938,0.41300352414941455,0.0618887918557882,0.05893783080032803,0.996341361828534,-1.654097557067871,-1.8582914549104133,4.137308330634553,0.05040342469630516,1.3725904757797704,0.07060761690532188,2.0,0.5042742252830046,0.5060227743941916,0.38379069511501507,-0.570971412695868,0.5730418437456611,0.002092553708594922,0.5878863090935478
10.700000000000001,-12.130539744852461,-4.711177689998638,-8.311603952122052,-0.09798603914373512,0.08983125929433454,0.4143512752096927,0.06188256307048052,0.0589229674185448,0.9963426279151903,-1.6540731472279409,-1.8582659393669605,4.137310621080397,0.05037061027089356,1.3726086616516113,0.07057436027893431,2.0,0.504259111678617,0.5060426581416843,0.3837736319643834,-0.5709978319071253,0.5730274441671992,0.0020878112271582056,0.5878747019840619
10.8,-12.155837611325117,-4.953540124481626,-8.263259808168723,-0.10373681923823401,0.09207502059893125,0.4130391421228262,0.06355947179385137,0.060586987984187046,0.996134680845788,-1.6540951167128455,-1.858295425384232,4.137313885000586,0.05040407338766728,1.3725848197937012,0.07065058411531834,2.0,0.5042542214325088,0.5060387433279616,0.3837813907071467,-0.5709957988268477,0.5730229754310985,0.002081806253855926,0.5878810538135264
10.9,-12.004381359054083,-4.721519570944695,-8.227651592878114,-0.1114947268233497,0.08703011064708963,0.409691840734558,0.06464060390837517,0.061666673141013456,0.9960005750604763,-1.6541116547010783,-1.8582630127786026,4.13731344294372,0.050410910243652296,1.3725868075127428,0.07060878317157854,2.0,0.504264423578213,0.506024729139903,0.38378891091397543,-0.5709792508743662,0.5730312045733883,0.002085030592207676,0.5878890935402261
11.0,-12.049803183994104,-4.5112698051539075,-8.020343640018226,-0.11633961452228232,0.09201125211640104,0.4105219627472308,0.06308189120932285,0.06013852046150928,0.9961940563715492,-1.654095665045675,-1.8582758391028995,4.1372935928069206,0.05043081038865406,1.372560977935791,0.07058593354155132,2.0,0.5042758118776437,0.506020609377531,0.38379322157565393,-0.5709711608382948,0.5730358024259198,0.0020838905816548516,0.5878924731862929
11.100000000000001,-12.196424460411638,-4.248815873877124,-7.994924061733806,-0.10908994031995985,0.09205286015968074,0.4092836244944075,0.0630349027728954,0.060101445351949695,0.9961998895193521,-1.6541213989257812,-1.858281751672262,4.137308597564697,0.05038659154858394,1.37257936016444,0.07059704057512858,2.0,0.504271367613405,0.5060296674328011,0.3837904561527599,-0.5709752831947768,0.5730314569417518,0.0020869392008560188,0.5878926943079236
11.200000000000001,-12.045149289902826,-4.55367069977857,-7.923053652835258,-0.11901745403707441,0.08847924687047101,0.40761470242914755,0.06347378417244386,0.06051386549360421,0.9961471116091416,-1.6541040610418147,-1.858279612207149,4.137294267241556,0.0503888165923015,1.3726102765135548,0.07060837115456617,2.0,0.5042623553590063,0.506035706251877,0.38376949617566153,-0.5709881242070832,0.5730346758949214,0.0020810185468988947,0.5878771058633654
11.3,-12.074228120376146,-4.589020704952616,-7.854456867282014,-0.11928759651661662,0.08990776460290532,0.4097633707261344,0.06376794587887871,0.060737238631825057,0.9961147326622893,-1.6541213989257812,-1.858281751672262,4.137311415929778,0.05036545965709811,1.3725637963008723,0.07060894165587746,2.0,0.5042491944239796,0.5060448624641338,0.38380613168677336,-0.5709776070118268,0.5730214753492113,0.0021166314645967516,0.5879000603426611
11.4,-12.180877874300316,-4.3651809520015705,-8.016435410977936,-0.11250528821799773,0.08809003010080152,0.41312323362790304,0.06339167329379636,0.06042038981379393,0.9961580153682709,-1.6540888702472747,-1.858269830743307,4.1372971534729,0.05043475210156245,1.372594230516014,0.07058490003818528,2.0,0.504258165434133,0.5060393284062878,0.3837880816093669,-0.5709818193417606,0.5730312949433795,0.0021043413794250222,0.587886442048161
11.5,-12.114365455320366,-4.395212326946948,-7.934553852431651,-0.11179312143096547,0.0890040894429199,0.4110761154772735,0.06245425111923111,0.05948343833685005,0.9962733817613951,-1.6541041822345492,-1.858269542713833,4.137296876964605,0.05039898931469722,1.3725905923931363,0.07060651971892708,2.0,0.5042660925149107,0.5060232234989835,0.3838100515660226,-0.5709618433136425,0.5730297831653058,0.002098520948310983,0.5879073373374752
11.600000000000001,-12.080637590011442,-4.6978446110638705,-8.055457657599856,-0.12326524890546275,0.08756761935707302,0.4084142038860587,0.06222333184683232,0.05923895972036425,0.9963026597144115,-1.6540466891077465,-1.858279307634732,4.137303905012639,0.050405924407090824,1.3725635197348223,0.07062762950983315,2.0,0.5042493113476427,0.5060450273817946,0.3838187812775303,-0.5709660939036958,0.573019948277363,0.0021100989886338557,0.5879127537065533
11.700000000000001,-12.038528488648536,-4.5609333375600905,-7.957643480997019,-0.11996853675432871,0.08661811659350648,0.4063146616225971,0.06234828829730363,0.05935387210403112,0.9962880034976789,-1.654109001159668,-1.858281751672262,4.137288387385569,0.050408120655667805,1.3725760537063694,0.0706118108654221,2.0,0.5042428809606938,0.5060472631943227,0.38380475339604014,-0.5709838169442426,0.57301533961368,0.0021036338017424603,0.5879000562000576
11.8,-12.039877350855727,-4.5403016084392505,-7.902343832555659,-0.11847692832671469,0.08662731293294913,0.41196375798307094,0.06252277902648451,0.05952115816307376,0.9962670711175621,-1.654106010892819,-1.858261024675653,4.137319375602934,0.05039898931469722,1.372619439689848,0.07060467425880254,2.0,0.5042501228277855,0.5060327447157168,0.38380847937465395,-0.5709829567960195,0.5730178044490076,0.0021127935506458613,0.5878984563139505
11.9,-12.1341531939254,-4.448465883033554,-7.84553023912873,-0.11502747692917495,0.08741586833284497,0.4126071470807229,0.06274058197854401,0.05973088967689208,0.996240800344776,-1.654076177677038,-1.8582787015460178,4.137314941827285,0.050363151271745385,1.372603317812303,0.07058508512567876,2.04142331755777,0.5042604875037919,0.5060326501448741,0.38381467332484337,-0.5709727424597987,0.5730232223721012,0.002110951390404277,0.5879031024535055
12.0,-12.06198798037685,-4.47358135912753,-7.955386652698336,-0.116175164414343,0.08608976304837879,0.4086105259191885,0.0631247560665307,0.060103662892489654,0.9961940237102868,-1.6541005858636937,-1.8582729857389555,4.1373083753482165,0.05041652118131048,1.3725909075685176,0.07059746575614649,3.0,0.5042476735171069,0.5060430743394582,0.38380257691164305,-0.570981914955109,0.5730245595087554,0.002111771257220345,0.587892887706724
12.100000000000001,-12.082655750278125,-4.414101506696422,-7.499545914367613,-0.13020841864512753,0.09258022458926862,0.4077052271067579,0.06332831779563297,0.06031078460099864,0.9961686554513459,-1.6544758999372964,-1.8578799108649908,4.137308597564697,0.05039371313604076,1.3725024289125098,0.07060953050662244,3.0,0.5042450007308545,0.5060338450101658,0.383808360121219,-0.5709832210502552,0.5730171409008781,0.002107738216271575,0.5878988645613037
12.200000000000001,-12.020602651186064,-3.893389104894122,-6.63308126802718,-0.14665262862448727,0.10065910166784403,0.4070073161605713,0.0627645486602227,0.059814136562369585,0.9962342405879472,-1.655546266750812,-1.856761870776946,4.137342701257943,0.050377405863368134,1.3724106991380443,0.07064505637139029,3.0,0.504198537979241,0.5059372099141923,0.3838474237863561,-0.5709725044727887,0.5730207491963205,0.002092645785105038,0.5879058095989331
12.3,-11.57855370333447,-4.283251836000626,-6.587377202409622,-0.17394944467684995,0.09705123936806895,0.3805245641288241,0.062400492367491026,0.05949809328536962,0.9962760870834542,-1.6567487453779794,-1.8555399905915964,4.137570527297916,0.0503508287617187,1.3722276556174564,0.07069256704569774,3.0,0.5039820782130151,0.505623176668102,0.38397351685777753,-0.5709513952290477,0.5730464588354961,0.0020618417996894514,0.5879013600175584
12.4,-11.829790968217237,-3.9114431272819843,-6.571269715007638,-0.16429016349914022,0.10861239462602332,0.3583452172112569,0.06213149704109953,0.05926801575266447,0.9963066342647471,-1.657913677065315,-1.8542908669665088,4.137920319558401,0.0502169916107669,1.3720214667314192,0.07076937785748454,3.0,0.5035971440386794,0.5052038484191443,0.38416544053536367,-0.5709314119970043,0.5730525472868633,0.002060057825546847,0.5879148382248061
12.5,-11.971153459727814,-3.91184350459063,-6.538784823967826,-0.16044051032662834,0.08911594317051977,0.32598499557652855,0.06257211999884625,0.05965928448277555,0.9962554216722185,-1.6590794640927229,-1.8531934661591036,4.13806911390312,0.05021268831442185,1.3718246428369705,0.07086992263793945,3.0,0.5033277612800465,0.5050146806552898,0.38429127956212483,-0.5709540381675365,0.5730131971091722,0.0020815687978520555,0.5879311433409938
12.600000000000001,-12.025151546066773,-4.204526156924682,-6.526255162830387,-0.15568868435955166,0.08114402409444628,0.31025866499181226,0.06310943058945999,0.060122465857181284,0.9961937990753416,-1.6603270494542957,-1.8521172284940721,4.138295980555463,0.05020397671852213,1.3716445107192545,0.07091475913234054,3.0,0.5029572440901098,0.5047215546173075,0.38442047171914373,-0.5709845998303442,0.5730116813856173,0.002094860563838113,0.5879028927564716
12.700000000000001,-11.823407092790497,-3.9133265409009903,-6.248568304714975,-0.17149127480188556,0.0856123376918093,0.2812031601489568,0.06225768390840539,0.059299399361337796,0.9962962263991284,-1.661508556777925,-1.8507400006273471,4.138509848319724,0.050171061153076124,1.3714566230773926,0.07098555649948846,3.0,0.5025188785232998,0.5042810722674614,0.38449829409114444,-0.571015265320486,0.5730491078142522,0.002085505808540429,0.5878366588345669
12.8,-11.858818643128387,-3.7261757755354084,-6.172226966211622,-0.19526614445674337,0.0969778527050762,0.2676497055015199,0.06160667389191543,0.058664288971013195,0.996374941508709,-1.6625682789053464,-1.8494455352632322,4.138680078731163,0.050046500715520734,1.3712693320134832,0.07102928374825244,3.0,0.5022281926329347,0.5039860604191233,0.3846652590187492,-0.5709981964194668,0.5730371456499264,0.0020854620520438967,0.5878648996488316
12.9,-11.880001418322388,-3.719688199057165,-6.216111697142634,-0.18967600040595614,0.08831995869368933,0.24803736917767277,0.062119820161196736,0.059119215032990176,0.9963161395220601,-1.6635980428289008,-1.8482460552473825,4.138872313593959,0.05002306004069666,1.371047812991672,0.07110564400841882,3.0,0.5018310441002563,0.5035990701068926,0.38497859695111375,-0.5709568746532173,0.5730041979791918,0.002113914252832007,0.5879370440370171
13.0,-11.883762523011733,-4.491786088065037,-6.266895418303811,-0.17159413548042057,0.06486320297035195,0.23356019098035197,0.06276507519034061,0.059771925684757976,0.9962365405864578,-1.664944063900799,-1.8472507088591095,4.139076139599958,0.050001524603644605,1.370867060586374,0.07116727726117855,3.0,0.5016100901113517,0.5033712935982899,0.38512724278702437,-0.570943355549779,0.5730009870289796,0.002114138381350611,0.58795330089751
13.100000000000001,-12.023760480691616,-4.583607246777787,-6.085049044165603,-0.16304919944860966,0.05843840090998223,0.21611944571395486,0.0632223497477315,0.06028393241851009,0.9961769048863889,-1.6662113051838496,-1.8460992475833709,4.139244510715936,0.049907370204589796,1.3706888868646625,0.0712249121436946,3.0,0.5012849975735273,0.5030296862929722,0.3852084232342125,-0.57094976730847,0.573029392131086,0.002092185273365139,0.5879194687413101
13.200000000000001,-12.029854644090685,-3.976816477513863,-6.1157836203692115,-0.18082541632931548,0.07373990622660306,0.2288346205115368,0.06188657164620739,0.05904964425950385,0.9963344428383666,-1.667421486445264,-1.8446834006590145,4.139455804194383,0.04985599637959664,1.3704803374731778,0.07132449395258803,3.0,0.5008615035382404,0.5026032509998333,0.38520863725541094,-0.5710197881245802,0.5730931640532247,0.0020500509034831827,0.5877894386401616
13.3,-11.982653734994411,-3.6126634670230255,-6.03953613694632,-0.2041768205558719,0.09168789447848445,0.23098899764918718,0.06029255823949911,0.057402763300127606,0.9965276800145316,-1.6683404711348215,-1.8433212962281795,4.139675517891765,0.04980008184399409,1.3702807426452637,0.07137637918082375,3.0,0.5005966870941693,0.5023300143152084,0.38540529961573816,-0.5709884774430288,0.5730667482111957,0.0020707142264381052,0.5878455348682428
13.4,-11.967681295431339,-4.08211110992324,-6.157366061656274,-0.1920357133341202,0.07349962207657473,0.23305572388476786,0.05998215043027706,0.0570492945290215,0.996567809605306,-1.6694260496044255,-1.842262581195245,4.13986678503589,0.049724612022111044,1.3701019951638327,0.07142879793831858,3.0,0.5001367752668148,0.5018867109394922,0.3858481296193213,-0.5709095516077255,0.5729965483270631,0.002108797417817914,0.5879904697031987
13.5,-12.3237693433113,-4.041018657258769,-6.126280248766497,-0.16362922933933835,0.061021743084628495,0.23242854454170128,0.059755456813186246,0.05683173982983416,0.9965934989312694,-1.6707706451416016,-1.8412035321455142,4.1400541047097095,0.0497087092410743,1.3698962906838306,0.07150486309269062,3.0,0.4999144871228231,0.5016744602947376,0.3859214324276229,-0.570926298717989,0.5730043125704474,0.0021036701067579534,0.5879666604323148
13.600000000000001,-12.146192199177177,-4.015901105494722,-5.862249383310991,-0.15567612999650113,0.056667202458531005,0.23893949439301754,0.059035591536646906,0.05615158621402103,0.9966750463550335,-1.6720862512741295,-1.8399583967537885,4.140301935548128,0.04964522020241708,1.3697495212249347,0.07154858476194692,3.0,0.49963822462126406,0.5013997394639538,0.38589683214706055,-0.5709897447878437,0.5730398853009888,0.002077948233019148,0.5878704647560405
13.700000000000001,-11.96890370648376,-3.7861550985099837,-6.086163497170328,-0.17887454464475727,0.07179948200748892,0.2454251430517393,0.05933325492040129,0.05644979547709296,0.996640300363492,-1.6731402556951063,-1.838608294658441,4.140447407114542,0.04958100412577222,1.3695698756160997,0.07158121762374324,3.0,0.49927369607814975,0.5010301120035922,0.3859428530166722,-0.5710253423312559,0.5730699261163039,0.0020484042380748864,0.5878067048244716
13.8,-11.814638365289714,-3.6787808320149065,-6.074725148900648,-0.19137797365708079,0.07814551448087895,0.24491706416650413,0.06033378609097406,0.05742020721035293,0.9965252718990559,-1.6740992890552533,-1.837324041320031,4.140646839779755,0.04950787539553797,1.3694052696228027,0.07168388366699219,3.0,0.49889008678311075,0.5006404764091614,0.38619763920369843,-0.5709989074402237,0.5730487580820329,0.0020803976320969736,0.5878529072041773
13.9,-12.003511831870506,-3.551601323103094,-5.8156372669611605,-0.19606658271640004,0.0685843162017836,0.2463201329697053,0.061212332807992965,0.05822258125157691,0.9964248642532676,-1.6752631882864046,-1.836296636440263,4.140858173370361,0.04941780336465415,1.3692255020141602,0.0717707763096786,3.0,0.49839926997233,0.500150460983196,0.3866307482567269,-0.5709168930498404,0.5729864511969529,0.002120716237369033,0.5879931381722747
14.0,-11.675716226316986,-4.103680214161202,-5.624312808990208,-0.21722255382153735,0.05359953586844046,0.24984606748450858,0.06111290330330348,0.05807912857432991,0.996439040189496,-1.6765546798706055,-1.835146341428003,4.141093802099633,0.04939893479654285,1.3690385106750256,0.07177521139880733,3.0,0.4981317877610393,0.49992246663716766,0.3866630765280094,-0.5709700579212926,0.5729996521418701,0.0021201512738315276,0.5879286492094327
14.100000000000001,-12.12652428171381,-3.592236740600638,-5.536436906480913,-0.19664755559291738,0.06148193249049443,0.24300354250423747,0.06024044170967044,0.0571880560800274,0.9965437876384043,-1.6778596910482766,-1.8338836136978411,4.141289234161377,0.04932867879388953,1.3688390692961878,0.07187738969230587,3.0,0.4978424455170841,0.4996750489016153,0.38671418587409534,-0.5710056581255141,0.573016124535444,0.0021226748146858927,0.5878780091674295
14.200000000000001,-12.045456875245662,-3.5364186515621157,-5.4418248505066344,-0.21551487373191713,0.07154274406640156,0.24685379720919615,0.06009016911714487,0.057049909185156025,0.9965611586361103,-1.6788164846167133,-1.83255466726611,4.141481876373291,0.04924191705825528,1.3686786928985697,0.07194025595335508,3.0,0.49743494114329606,0.49925695890453087,0.38679269225673085,-0.5710412034975727,0.5730404328697207,0.0021078712815695557,0.587819838966998
14.3,-12.007060248576684,-3.728463765451683,-5.431027376965684,-0.2256464158948714,0.07108667636664279,0.2507137756652856,0.06052720178251116,0.05752406345060305,0.9965074725433198,-1.679882626037504,-1.8313965124816838,4.141666725787256,0.049136224879976396,1.3685086271667013,0.07202567626962487,3.0,0.4971913307343811,0.4989615258437862,0.38699203499597995,-0.5710017436068369,0.5730320434165013,0.0021017605580349458,0.5878663696950337
14.4,-12.205834459322705,-3.5036003248063183,-5.45408431841851,-0.21344931540516338,0.07162452057629068,0.24143205372434587,0.06052029164412981,0.05753123081439802,0.9965075091805445,-1.6810040007763454,-1.830257589122044,4.141885166782747,0.049012125007259724,1.3682946419308868,0.07204257229481446,3.0,0.49683667597946995,0.4986035708342259,0.38726577904057685,-0.570962317996138,0.5730093273630423,0.0021125489210469784,0.5879267635688029
14.5,-12.105633509204464,-3.5101173386080626,-5.434586002552277,-0.205384337208679,0.0583234359135066,0.2512505180095763,0.06013914976724879,0.05714474089039254,0.9965528326215664,-1.6821741640900412,-1.829006219095007,4.1420611918305195,0.048946277604655634,1.3681141033851811,0.07214270979997613,3.0,0.49645018649750666,0.4982399513640588,0.38744976524928204,-0.570966706779499,0.5730018754741814,0.0021178021652851096,0.5879297452642049
14.600000000000001,-12.190155371038905,-3.5806275754284687,-5.470982405955701,-0.1988332877846757,0.05550881209344487,0.24254851865439075,0.059801985360043705,0.05682305870008545,0.9965915808341473,-1.6834612657941819,-1.8278273730319772,4.142230797377997,0.048905095620553396,1.3679256045192425,0.07217003771103356,3.0,0.4961665338734072,0.49792296614926673,0.38752428552801865,-0.571001934237641,0.5730134403584817,0.0020867051425700073,0.5878843712219758
14.700000000000001,-12.189229772129666,-3.89317343136819,-5.514176164028545,-0.20897281099378595,0.06196693586791174,0.24727251984215054,0.059525683809950165,0.056579728275651844,0.9966219931118528,-1.6845116298361364,-1.8266065910465086,4.142439179755743,0.048757352065578345,1.367724887965439,0.07221078872680664,3.0,0.49580497142899893,0.4975437117084308,0.3876745814633892,-0.5709994438806132,0.5730173232646458,0.0020836319307918263,0.5878830162580205
14.8,-12.472732034439302,-3.446490933000272,-5.566057393556401,-0.19845658311800282,0.06574672757090771,0.24647852392165842,0.06004376493411718,0.05710784506094875,0.9965605272606254,-1.6856673297668763,-1.825451551212142,4.1426682472229,0.04870364943361527,1.367511711385413,0.07231807708740234,3.0,0.4955633048069847,0.49731486014875376,0.387811812311406,-0.5709857334615309,0.5730109892618378,0.0020934126519341566,0.5879024714967922
14.9,-12.268843503425739,-3.3044960666438623,-5.366972246682577,-0.20190242478147827,0.06813225205946818,0.2488014573618135,0.060557252630660294,0.057631332540967965,0.9964995965339192,-1.686781983888602,-1.8241220397635716,4.142819779960415,0.04861514150585933,1.3673259958247594,0.07234647509795201,3.0,0.495258142384874,0.4969894514624521,0.3879321630650351,-0.5709963875561173,0.573030373192863,0.002076661163291171,0.5878732893019767
15.0,-12.24269271918591,-3.440006669745925,-5.589213360073381,-0.2009304718499092,0.06304383801510488,0.24919559556874843,0.060823692900070836,0.05790515885226179,0.9964674960704518,-1.6875024621768016,-1.8233274490411793,4.142955303192139,0.04853621812375841,1.3671801021916297,0.07242419385235743,3.0,0.4948055624105111,0.4965293076184046,0.38816454081849766,-0.5709891039109667,0.5730309691603397,0.0020769078947224236,0.5878797819722246
15.100000000000001,-12.19317184248087,-3.753434459580591,-6.14175126523706,-0.19798406077573294,0.055764479982331396,0.25289453539154333,0.06075210151407937,0.05777247686513566,0.996479564803949,-1.6874570846557617,-1.8233284422692773,4.142967700958252,0.04855378094623536,1.367175579071045,0.07241724794840584,3.0,0.4946081855848318,0.4963628260114248,0.3882674567937838,-0.5709866186157363,0.5730212228486082,0.0020991992262386636,0.5878916166177757
15.200000000000001,-12.476875612362248,-3.7211854507854576,-6.152442701277655,-0.1902927092479604,0.0570928985319162,0.25106251366307747,0.060841635901920724,0.057891834976700855,0.9964671748234456,-1.6874700478892906,-1.8233333478312752,4.142967700958252,0.048547202737650036,1.3671870231628418,0.07243913888362255,3.0,0.4945681765930194,0.49630348036200156,0.3883244261970732,-0.5709571568554043,0.5730205540267088,0.0020989035028929352,0.5879208826896718
15.3,-12.44542410686606,-3.7095332619512567,-6.27256362808912,-0.18630523209293762,0.0536395685341502,0.25329380983411104,0.06127778368157003,0.05832214510113256,0.9964153515272333,-1.687477751637832,-1.8233401071133006,4.1429499297768,0.048538449186611266,1.36719239657818,0.07242040537230116,3.0,0.4945686197177948,0.4962994202586613,0.3883266412507539,-0.5709608696760003,0.5730163313743544,0.002096047159591029,0.5879214027941202
15.4,-12.442792215443163,-3.787863330103117,-6.380021343498341,-0.1816641907375219,0.04747136372023202,0.24679032338865198,0.06099385230508927,0.05802728205233675,0.996449942440266,-1.687499705017787,-1.8233314953246058,4.142990589141846,0.0485660855148238,1.3671888722752152,0.07240337270246132,3.0,0.494550857770983,0.4963077951559152,0.38832561109314584,-0.5709708524616494,0.5730142573465354,0.002102278419039775,0.5879137070542452
15.5,-12.256573763198517,-4.033880674782589,-6.246291801119854,-0.18603690595911487,0.045329528799498385,0.25758684689888794,0.060862872186965816,0.057901395546000975,0.9964653202004775,-1.687516212463379,-1.8233444977911235,4.142962748079343,0.04854733837573102,1.367215817899661,0.07241392135620117,3.0,0.4945556084908885,0.4963020811993346,0.3883203177038769,-0.570968121487581,0.5730177401141552,0.0020993109306080954,0.5879129754079474
15.600000000000001,-12.023937028833366,-4.1157330282570594,-6.2135623329951475,-0.18804325215552137,0.04259860692517656,0.2561385388091312,0.06092000120926743,0.05798164676504558,0.9964571648808002,-1.6874747651563766,-1.8233612386894438,4.142967700958252,0.048549040601898484,1.367204628611934,0.07240307201666192,3.0,0.49456429956759973,0.4962916708118733,0.3883225417727324,-0.5709598003073291,0.5730248242867355,0.002094985568755906,0.5879141673914973
15.700000000000001,-12.25409101132657,-4.180061097923004,-6.317442908132216,-0.18657234131920064,0.043611739979949334,0.25374670636323776,0.06035195980636183,0.057448408603943846,0.9965224345230699,-1.6875095332438643,-1.8233493690920972,4.142985332180523,0.04854909193350693,1.367199913017996,0.07240296935344503,3.0,0.49457458486737277,0.4962827997286787,0.3882933313148898,-0.5709835592255914,0.5730315220339797,0.002067590662669037,0.5878846612375148
15.8,-12.256397690716843,-3.9650112546909844,-6.338070396124,-0.19991684237407867,0.04238215688546102,0.25424305543413894,0.0599895868211022,0.057090205987955917,0.9965650740259921,-1.6874915916599702,-1.8233558140196742,4.142996398552153,0.04854136897396018,1.3671882489860563,0.07242509329910002,3.0,0.49456955241251976,0.4962833535721185,0.3882979620302739,-0.5709562749678171,0.5730384541506345,0.002085674496850752,0.5879043392435702
15.9,-12.521940256539587,-3.488136580207449,-6.288331319076917,-0.1943734630405365,0.046581805897196474,0.2558521697893329,0.05991967567010766,0.0569856884169915,0.9965752610010603,-1.6875417047137056,-1.8233308920430524,4.142970866672547,0.048538893261963686,1.3672010713213716,0.07240815157517282,3.0340417944158578,0.49455922190041657,0.49630403860348077,0.38829477048948946,-0.5709871511448193,0.573022823403732,0.0020987532944650184,0.5878895409178054
16.0,-12.358501674988242,-3.770242347712472,-6.2417582760750046,-0.19958804675934827,0.04479196077526044,0.2591244520637338,0.059997679443394125,0.05703744376999913,0.996567581431287,-1.687545992077915,-1.8233625431962235,4.143008386330461,0.04852131149836234,1.3672232627868652,0.07241190709489932,4.0,0.4945599852050036,0.496293211774684,0.388316501535361,-0.5709686138102443,0.5730225268053328,0.0021045227907051586,0.5879078131825286
16.1,-12.4960173962256,-3.7651509005857684,-6.314134067365735,-0.19911315483439382,0.0472127515175188,0.2540998341711925,0.06026589787522686,0.05729016194685879,0.9965369259600421,-1.6875292863130764,-1.8233373561658703,4.142996276739899,0.04854361593212886,1.367210865020752,0.07243122628926256,4.0,0.49455340363298833,0.49630122184951336,0.38832048006253456,-0.5709650560947653,0.5730176036989209,0.0021080091032683094,0.587916054269203
16.2,-12.517472910685445,-3.6189083330034766,-6.349299017999899,-0.19185372824873137,0.04762550950131543,0.2553026293680545,0.0607478245232389,0.05776649481668275,0.9964801542503271,-1.687527176292854,-1.823332929261244,4.142981902620506,0.048498268101017226,1.36721229895739,0.07243632927747332,4.0,0.4945434271143558,0.4963118922314037,0.3882875333332762,-0.5709837432460421,0.5730284554089052,0.002102991083031556,0.5878873460697438
16.3,-12.372577546073037,-3.625011218929051,-6.333310806511083,-0.19318401707651117,0.04109044793385215,0.25838358355485513,0.0599603326933889,0.056980910069635946,0.996572655105484,-1.6874933242797852,-1.8233677349486292,4.142998017877826,0.04853647291676354,1.367199420928955,0.07240895232606782,4.0,0.49454206097582776,0.4963191978632926,0.3882768356194935,-0.5709904044928147,0.5730295386918823,0.002108093422208547,0.5878798020903797
16.400000000000002,-12.347158199243061,-3.5872780936379325,-6.4834211149786265,-0.18938328486611275,0.04146894303463134,0.26129263521014984,0.05989041280531195,0.056903974055070784,0.9965813919028725,-1.687510796682909,-1.8233440027306693,4.143003106769174,0.048525907415449196,1.367210865020752,0.07243197562638674,4.0,0.49454585001732937,0.4963168093657265,0.38827988764322824,-0.5709844508717167,0.5730284385696045,0.002108866738491035,0.5878866541556159
16.5,-12.295303009415024,-3.7031979601303133,-6.320806989705032,-0.19223375220585623,0.04032135960444427,0.26224102636340185,0.0610741458842044,0.05807523099233397,0.9964418749094583,-1.6874960696521257,-1.8233503495544823,4.142985343255262,0.04852424654083925,1.3672165480645515,0.07240625431525896,4.0,0.49454566354899815,0.49631372202680724,0.38828499464150923,-0.570988039619001,0.573023699477972,0.0021084821617867637,0.5878877892519988
16.6,-12.054812370016194,-3.9640254261431087,-6.509148168219082,-0.1975171095741152,0.034480333601208675,0.26218689626853203,0.061669510166337135,0.058674458494085494,0.9963704125736478,-1.6875243427844195,-1.8233558140196742,4.142990589141846,0.048550054883720155,1.367217561530407,0.07242488531092874,4.0,0.49455188866186306,0.4963057172957473,0.3882627891536648,-0.570985582944504,0.5730374777130582,0.0021076113828689775,0.5878767482900136
16.7,-12.401183302113242,-3.867713630136282,-6.434397247540212,-0.19474598624489625,0.04177992520124135,0.2607466439114322,0.061212930005020455,0.05822816131020788,0.9964248063021931,-1.6875326545223626,-1.8233599574623403,4.142983122755008,0.0485197740742187,1.3672149093136223,0.07242220824153335,4.0,0.4945535225092666,0.49630982121464834,0.38826214951723054,-0.5709868949801389,0.5730349408283528,0.002103688518634422,0.5878779608434068
16.8,-12.158424284042432,-3.9118245994177747,-6.644373211927259,-0.197049232459152,0.03736708620910141,0.25775365798689387,0.06148746313659073,0.05850753137047297,0.9963914945889971,-1.6875361911109446,-1.8233577879503178,4.142998170023298,0.048524405694084956,1.367201103287235,0.07239934273802352,4.0,0.4945578535342706,0.49631544934170985,0.388272907169178,-0.5709880292150455,0.573030456781593,0.0021026722470134573,0.5878812336375592
16.900000000000002,-12.54610769523289,-3.5929129159279523,-6.616376741998238,-0.18995503860782018,0.04409036524899121,0.2546071308714752,0.061909340239144954,0.05893401542278131,0.9963402473106302,-1.687534473579455,-1.823349530927222,4.142978525604337,0.0485197740742187,1.3672167283707148,0.0724434010506142,4.0,0.49455937652770243,0.49631724445436276,0.3882661793407543,-0.5709892375828269,0.5730357212497023,0.00209791867981669,0.5878749454379124
17.0,-12.405683294837436,-3.759406165368329,-6.483352295141456,-0.1955261565871244,0.040040800987285935,0.2580670481885682,0.06213210638607027,0.05915485634395593,0.9963133260084887,-1.6875034625552883,-1.8233864724313693,4.14299699933331,0.04853169500317378,1.3671930107374914,0.07241944834818537,4.0,0.49455665675571797,0.4963034028667715,0.3882806620290648,-0.5709848187040454,0.5730294160560783,0.002095001972486583,0.5878853936871317
17.1,-12.31204595819427,-3.913527736562746,-6.522075333522017,-0.1964662792754944,0.03887671973206194,0.261233113380637,0.061875781677320565,0.05888457842311265,0.9963453038168504,-1.6875222263961542,-1.823350155760517,4.142991421652622,0.04854939855979739,1.3671930370956171,0.07241947267876296,4.0,0.4945486368591567,0.4963125310089921,0.38826901331063474,-0.5709975472664439,0.573018873479409,0.0020952215458949304,0.5878833061916011
17.2,-12.331298639101396,-3.6733755338735015,-6.448532197527562,-0.18888903251358008,0.04063594623700189,0.25958774450841965,0.06209543341972143,0.05912607592442644,0.9963172930080239,-1.6875109533625325,-1.8233612922497224,4.143002986907959,0.048508598484920055,1.3672133093743812,0.07243035604634625,4.0,0.494549080934099,0.4963046545359085,0.38827587452699347,-0.570989726990038,0.5730289994849549,0.0020936025595658025,0.5878810374977546
17.3,-12.370113479679405,-3.8457154161936256,-6.528295598110919,-0.19205565535566083,0.040665532755516716,0.2560152424800934,0.062194169355674234,0.05924836120763532,0.9963039075616099,-1.6875291743967031,-1.8233620457183877,4.142985127480814,0.048536299296471075,1.367210799389438,0.07240852532648323,4.0,0.4945627099190537,0.4962950347873623,0.3882886011023283,-0.5709766882872829,0.5730347582415659,0.002089775714585927,0.5878881016970663
17.400000000000002,-12.377558150484248,-3.950286485208421,-6.480245192944302,-0.19488145457251516,0.041253665975322464,0.2591129907536977,0.06210406593012651,0.05915688676598328,0.9963149418394346,-1.6875083424210997,-1.8233677349486292,4.1429827190995665,0.048547338900376415,1.367194469099337,0.07242644539063875,4.0,0.4945680182289849,0.49629050595382024,0.3882964453460914,-0.5709665667269047,0.5730324292253485,0.002086321680574043,0.5879002143204511
17.5,-12.316151033321452,-4.069115269964673,-6.444625102476475,-0.19849934458109386,0.04154261429749194,0.2602621180215946,0.06244728237257456,0.05946757024406174,0.9962750095248639,-1.6875249888414818,-1.8233422450201362,4.142999365519948,0.04852504353281201,1.3672232627868652,0.07240152359008789,4.0,0.49456226161549544,0.49628915730355405,0.38830080337657114,-0.5709674151611481,0.5730280614611318,0.002093936125426118,0.5879036205312883
17.6,-12.352698186894905,-3.8885322131220104,-6.476842370720336,-0.19300530260163612,0.04135982573378522,0.26466237990065217,0.062475323663954384,0.05949551278733568,0.99627160776989,-1.6875507942841277,-1.823383382590554,4.1429742519057875,0.04852659797790184,1.3672059718764908,0.07241392135620117,4.0,0.49454772338689224,0.49630009419252236,0.3882878139944178,-0.5709792267866842,0.5730279478486874,0.002106920524898191,0.5878922132910966
