xiamingqian9007/apple-picking-rnn/final_data/grasper_20191127_123510_noimg.csv
,/manipulator_wrench.fx,/manipulator_wrench.fy,/manipulator_wrench.fz,/manipulator_wrench.tx,/manipulator_wrench.ty,/manipulator_wrench.tz,/ground_truth.x,/ground_truth.y,/ground_truth.z,/joint_states.elbow_joint,/joint_states.shoulder_lift_joint,/joint_states.shoulder_pan_joint,/joint_states.wrist_1_joint,/joint_states.wrist_2_joint,/joint_states.wrist_3_joint,/mode./mode,/manipulator_pose.x,/manipulator_pose.y,/manipulator_pose.z,/manipulator_pose.rx,/manipulator_pose.ry,/manipulator_pose.rz,/manipulator_pose.rw
0.2,-0.19209430002302288,0.3949673916285146,0.022017008043843683,0.010462222934688445,-0.005809365877360816,-0.016760289468494092,-0.015252134019693475,0.018662151464131957,0.9997094594085764,-1.941695421846586,-1.9350833977300033,4.1731719705064245,0.7794233769809992,1.326785033462077,-1.5616455099537832,1.0,0.4566139040444901,0.458371138821941,0.3262922759941995,-0.6916621105811578,0.0062227027118865515,-0.5050634578465912,0.5162128498065718
0.30000000000000004,0.04573189767183694,0.13679656653934757,-0.24344742646005943,0.0113940724328425,-0.008923936146082674,-0.02867837089262159,-0.015516021399658929,0.019003793508422327,0.9996990068470257,-1.937170449507569,-1.9376295278765658,4.17223596572876,0.7779054019972514,1.3274557545391648,-1.5616080064552822,1.0,0.45707244817703874,0.4588954103832996,0.32625389575232133,-0.691696804406154,0.0061978933164506325,-0.5050314389453582,0.5161979877619959
0.4,0.0141511671346624,0.281697207586,-0.11718836974346238,-0.003774336080376142,-0.013341410926096569,-0.049892123356268775,-0.015531639505015713,0.01886161064921857,0.9997014478563636,-1.9328181038818315,-1.9406299928584632,4.171427864534118,0.7760062154911919,1.3284964405426842,-1.5615582251590572,1.0,0.4585443373303347,0.4601692855129224,0.32643962002773763,-0.6916314669680108,0.006308898234212905,-0.5051521294529351,0.51616609517859
0.5,-0.04755461596786904,0.11819741125014521,-0.4360453256479604,0.0029955509701210933,-0.008315950132147601,-0.06464800385227908,-0.015543064167890922,0.0187112556474605,0.9997041066471728,-1.9285333386437828,-1.9430101504538946,4.170723214461034,0.7746056398531151,1.3292759688146794,-1.5615428814529406,1.0,0.4591500067617175,0.46080714574438303,0.3263080367968677,-0.6917565081930857,0.006252594314639741,-0.5050684549707976,0.5160810926882109
0.6000000000000001,-0.01377092157167751,0.07091653886559039,-0.29316686074869985,0.011364813455620532,-0.010381097542114694,-0.07489006231831756,-0.01571007114099433,0.01904474988345024,0.9996951232977366,-1.9244251099340515,-1.9458072981727499,4.170052060137713,0.7728791129359247,1.3299479484558105,-1.5614706555849085,1.0,0.4601784598838746,0.4619365911306899,0.32657111875263306,-0.691618326012499,0.006200377856870876,-0.5050764838389985,0.5162590356700159
0.7000000000000001,0.1293470955315266,0.15348850195230174,-0.27901073146474736,0.0052848895468416155,-0.007882661287018465,-0.08430908025045948,-0.015881406915151487,0.019391706363876042,0.9996858160264555,-1.9203817309629891,-1.9481241648732528,4.169225698748276,0.7714571778131053,1.3305671623627173,-1.5614456312895058,1.0,0.4614904348525882,0.4633288694068632,0.3265324859891388,-0.6917148702601358,0.00618078603427108,-0.5050241284758008,0.5161811366199471
0.8,0.07367348188524343,0.045405938463727036,-0.16424012787611644,0.008063455766594146,-0.016982526067914797,-0.10185507572798452,-0.015268981833066105,0.018640632564181022,0.9997093739979398,-1.9163504877637265,-1.9507350356531998,4.168546468291733,0.7698405933728767,1.331359133335777,-1.5613983257118675,1.0,0.46210932205357835,0.4638628479629158,0.32667199887027853,-0.691634620251693,0.006241804855079147,-0.5050991934954959,0.516214487080368
0.9,0.02989202347771735,0.2958804049106481,-0.24849622885847106,0.015931297989643375,-0.014197828257202297,-0.11811527316278225,-0.01515205886928371,0.018459368475567766,0.9997145185987625,-1.912603345713896,-1.9530220889543306,4.167833392199348,0.7684961562063563,1.3321749844270594,-1.5613791546114422,1.0,0.46302119402879305,0.4647711129083787,0.32671692687896764,-0.6916356812366866,0.006242227687868022,-0.5051006985500625,0.5162115877796588
1.0,-0.04304413521242878,0.4830445963008464,-0.40478393021585274,0.01333065683043229,-0.01259187091970972,-0.12294448019838479,-0.015673376129850165,0.01902200507141634,0.9996957564371293,-1.9089792403033468,-1.955302358809558,4.167118549346924,0.7670663780595124,1.3327608986471546,-1.5613578382416695,1.0,0.4643131977073549,0.46605826023196834,0.32680364135835793,-0.6916202091753901,0.006205097794866574,-0.5050711596991334,0.5162616649158821
1.1,-0.09973739395829764,0.1635090653260945,-0.05615291870845274,0.012035590824450484,-0.011031215925458693,-0.13134508291031957,-0.01619469339041662,0.019584641667264913,0.9996769942754962,-1.9053528322038196,-1.9574838613837728,4.166426515760876,0.7656335060488658,1.3333682071594966,-1.5613313592562892,1.0,0.46488414762465047,0.46657083836289154,0.32678178133570296,-0.6916492595559165,0.0062399490669917965,-0.5050736567958573,0.5162198814480652
1.2000000000000002,0.07317482579163784,0.2797869234077612,-0.1650743460788942,0.012861257786869983,-0.021968831159758128,-0.1443653161823639,-0.016389627155891,0.01968226884335538,0.9996719308794009,-1.9019332377177196,-1.959746131965973,4.165910773865857,0.7644098580585496,1.3338758451039674,-1.5613229910479944,1.0,0.46600102023786033,0.4675909301258889,0.32683339551672824,-0.6916700727466178,0.006278119953562254,-0.5050980732339477,0.5161676395241092
1.3,0.0786496983207016,0.37753458388516226,-0.1564660611072852,0.016727577053814252,-0.017417637812229075,-0.151469126571384,-0.0164766275628836,0.01969329992875448,0.9996702918135576,-1.8985588565699896,-1.9616930680262221,4.165333271026611,0.7630187720831342,1.3344453275303259,-1.5612916991072594,1.0,0.4665516524320045,0.4682184869048239,0.32682149468794935,-0.6916925555894186,0.006268109236543578,-0.5050844967540495,0.5161509183247541
1.4000000000000001,-0.12338154287310085,0.6174775791478014,-0.2598111356974534,0.01892936967646682,-0.018970024345431734,-0.15565362930160412,-0.01644917456559835,0.019628069234318122,0.999672027729284,-1.8953179117259544,-1.9638155306027658,4.1648489237917286,0.7617533043826632,1.3351098894029072,-1.561234597464179,1.0,0.4673087753831116,0.4689700135023307,0.3268999833996463,-0.6916758535145895,0.006284485827332845,-0.5051039474274589,0.5161540673054404
1.5,0.214417272402382,0.5819716604037792,-0.16235348486771947,0.020793317005611534,-0.016197855591013662,-0.16134224110517273,-0.015606505738996595,0.019015715338379178,0.999697035238374,-1.8920501150708195,-1.9658879580006121,4.164325652960824,0.7605817172437661,1.3357237559628912,-1.5612235592449408,1.0,0.46837548183520245,0.4701714039716578,0.3268844857656478,-0.6917237900918383,0.00618486758419143,-0.505028401967963,0.5161649531299409
1.6,0.18170410135162016,0.3136933166076383,-0.271317170287648,0.019797049281023577,-0.021886244263438426,-0.16740297766096984,-0.015112192407968518,0.018658237936139847,0.9997117008779658,-1.8891868981589035,-1.9674561087433817,4.163778391054412,0.7593151961150962,1.3361632726373982,-1.561211659328565,1.0,0.4687791858859885,0.47063747513767273,0.32683713802662384,-0.691745830448567,0.006131334486968993,-0.5049907972909929,0.5161728464824926
1.7000000000000002,0.018636296280218956,0.41356159492656286,-0.2668899268866237,0.021766019000031826,-0.01949673318487141,-0.17845543875295564,-0.015195188591919094,0.018717674750069864,0.999709330827256,-1.8860028611474382,-1.969408842682118,4.163286295359507,0.7581692875589334,1.3366276046335002,-1.5611849938186562,1.0,0.46940062937216254,0.4712337404507763,0.3270200016670797,-0.6916916134711009,0.006163309078585955,-0.505028706975399,0.5162080303576297
1.8,0.04162071158232486,0.38978314516958396,-0.2605996890602458,0.014922017119262845,-0.018631668598258412,-0.1772219623864439,-0.015368570895772836,0.018824544987086172,0.9997046503172666,-1.883271650588462,-1.9713411314997396,4.1627671509645,0.757075839642281,1.3370826035401835,-1.561168755122557,1.0,0.47016727092477595,0.47197501153068855,0.32708488743467,-0.6916702114619077,0.006201771453640103,-0.5050526500446434,0.5162128217024062
1.9000000000000001,-0.0781912201398115,0.1290794857076949,-0.32221420850837246,0.013394245955193076,-0.017330202554652233,-0.1901485175949988,-0.015673292673829827,0.019000340418086775,0.9996966124941492,-1.8802949760847254,-1.9727048270289584,4.162280265372625,0.7559004511812121,1.3374999126974432,-1.561122766706534,1.0,0.4711460468053268,0.47291277452798564,0.327082246736472,-0.6917062222001186,0.006230931528998756,-0.5050589789062611,0.5161580237563743
2.0,0.3448624138223717,0.05942644853441309,0.07644966406246978,0.008470954865066237,-0.025930341709236488,-0.18866750438896737,-0.014549258328403791,0.01777239108146107,0.9997359900296945,-1.8777923255208024,-1.9744418977955047,4.161765368892808,0.7548886972614746,1.3379944321205646,-1.5611193815814417,1.0,0.4718819409442332,0.4735909759138962,0.32728522905525315,-0.6916433337835409,0.0062600280061816125,-0.5051005358028755,0.5162012781985332
2.1,0.08633745644388902,0.5621134513456058,-0.10070603734009902,0.021597279002085516,-0.02551788506070729,-0.20066259863636696,-0.014664221914047853,0.017845834748220327,0.9997331967166775,-1.875068122052286,-1.9761129304388587,4.1613003424656245,0.7539399969045609,1.3384814549035835,-1.5611061042703973,1.0,0.4722476610611979,0.4739098294227425,0.327264213420464,-0.691667219411446,0.0062649087877051125,-0.5051008206858268,0.51616893499321
2.2,0.06657243488736311,0.16881676702716386,-0.13929510396394762,0.0159492083917686,-0.02561502225617396,-0.20035266573156366,-0.014800939548655023,0.018079348153680674,0.9997269800185545,-1.872576509771547,-1.9776139497095477,4.160979459889613,0.7528935537095722,1.338963435151715,-1.561065860319411,1.0,0.4728342734231137,0.4744940979832939,0.3272652380607894,-0.6916482954846339,0.006267785647511834,-0.5051053416142885,0.5161898333839894
2.3000000000000003,0.27603538153663176,0.42368262380195787,-0.2562685154833521,0.021018415508039366,-0.025262589700436742,-0.20182250773048055,-0.01455419472993289,0.017888412798240043,0.9997337031786018,-1.870027925095209,-1.9790096571036913,4.160539150238037,0.751870153486848,1.339369176244106,-1.561065855036241,1.0,0.4736689539029416,0.47540976269291846,0.3273039210384744,-0.6916792174792497,0.006220685287476682,-0.5050486813325132,0.5162044097701379
2.4000000000000004,0.016694252869161645,0.41940132115981876,-0.1771110346366184,0.01737287989692445,-0.019840519010262674,-0.20711127123130496,-0.013655197712628972,0.016931914910727777,0.9997632105152768,-1.8677193824491352,-1.980572822223602,4.160187779223082,0.7510352675893484,1.3396878997728165,-1.5610442254306813,1.0,0.4740053407374686,0.47571570715797,0.32737928833706287,-0.6916538271806477,0.006239978736115614,-0.5050764213694531,0.5162110562438221
2.5,0.21469752722399962,0.28647774752636845,-0.22826085587505865,0.020994893559421923,-0.027692380298406667,-0.22031098050726317,-0.014440834927338273,0.017743752490027263,0.9997375654137506,-1.8653832280326312,-1.98206107614388,4.159783840179443,0.7501603189063331,1.340066937386657,-1.5610506864834608,1.0,0.4745262429159335,0.4762580894397217,0.3273745067374,-0.6916572544154579,0.006238315685416431,-0.505081697434522,0.5162013219166938
2.6,0.1292706027706705,0.6646043320677313,-0.3529095166728764,0.02240072261258834,-0.0288051115860047,-0.21261676997822024,-0.0149131269958633,0.01823271044470942,0.9997223941557906,-1.8632047179496585,-1.9833247263256846,4.159428834456896,0.7491481737663817,1.3403935432434082,-1.5610116163836878,1.0,0.4753329985825501,0.47708043587069704,0.3273751721763596,-0.6916829326543414,0.006229384221587597,-0.5050658476105188,0.5161825307237531
2.7,0.09332945664358874,0.5441554038626786,-0.16284062731031013,0.020494358671581944,-0.03027446045032993,-0.22716212379048745,-0.014615704862279052,0.017909399431832795,0.9997326497954588,-1.8608467486407696,-1.9846096285725805,4.159172534942627,0.7483153639543184,1.340710525368336,-1.5610030930435437,1.0,0.47561574862426426,0.47735748640138564,0.32738949384417726,-0.6916994977681566,0.00623626556553427,-0.5050541067375636,0.5161717379386419
2.8000000000000003,0.2396930631549786,0.563867938131467,-0.1809958147561646,0.017905128737550055,-0.028266841147811972,-0.22894825986463055,-0.014892835255660526,0.018170488536347583,0.9997238158442255,-1.8589756028280513,-1.985936606347925,4.158840384410815,0.7475539880939941,1.3409903698094445,-1.5609960553786792,1.0,0.47631718242500687,0.4780934604335082,0.3275460034382833,-0.6916129880490445,0.006260568641528398,-0.5051071873409263,0.5162354204611452
2.9000000000000004,-0.034698477390967736,0.5207343571540546,-0.18264145952169886,0.021264811865425736,-0.028190894842997215,-0.2359665181147976,-0.014297329004911402,0.017557683445517603,0.9997436232985865,-1.8568120157382648,-1.9871100183123056,4.158517343081136,0.7467261987873535,1.341367828097945,-1.5609484559448161,1.0,0.47658824336577776,0.47836721341236493,0.32747578843913583,-0.6916680137299434,0.006251568184043543,-0.5050760469138715,0.516192273781749
3.0,0.03782937434492448,0.549058978926391,-0.21603146193151218,0.023329554577704473,-0.020050557430996378,-0.23239270775671844,-0.014333425430776713,0.01761993631089584,0.9997420113531098,-1.8547515871536793,-1.9883418476150612,4.1582031405750834,0.7459189594849147,1.3417222731077492,-1.5609604794922414,1.0,0.47702437629225974,0.4788166439770515,0.32751765384738835,-0.691661884909262,0.0062511024109721995,-0.5050698374317697,0.5162065671793225
3.1,0.015889724388105236,0.6432681332644317,-0.12651083435615357,0.018472250488389776,-0.026039124786560622,-0.24518687747360904,-0.014455724776137803,0.017778185721099106,0.9997374335579043,-1.8530270064183039,-1.9896382990578274,4.157869287592509,0.7451084738693888,1.3420574480463836,-1.5609182296200148,1.0,0.47753469176873536,0.4793173811955849,0.32761810614467823,-0.6916094752523088,0.0062546733111252546,-0.5051009315171656,0.5162463189055094
3.2,-0.015208764684678078,0.5829927197079534,-0.20257885896646877,0.024756568137574292,-0.02535230041254591,-0.24412347676984944,-0.01583173688901401,0.019253107100399385,0.9996813175867243,-1.8509836196899414,-1.990703393925715,4.157578945159912,0.7444171386167285,1.3424121413611683,-1.560930110193348,1.0,0.47813675853700316,0.4799429604096391,0.3274512131777358,-0.6917515138959562,0.006210380173719107,-0.5050094067831811,0.5161460774444097
3.3000000000000003,-0.1379396781032637,0.49723308621087053,-0.20680789485620454,0.020301070783128667,-0.027686570381068677,-0.24450875878671674,-0.020604091274149385,0.024290553758143242,0.9994851206630129,-1.8491663305809922,-1.991752586418224,4.1572639727672485,0.7437448676764975,1.3426809937903457,-1.5609184161689296,1.0,0.4784410820272247,0.4802594740864494,0.32757477849482497,-0.6916745707839487,0.006197249773239213,-0.5050413136468768,0.5162181261210473
3.4000000000000004,0.1471701207053424,0.4375062800866612,-0.22741676227840704,0.020028544157667902,-0.026791135374894675,-0.2480062109539985,-0.027416992543111706,0.03133118929006254,0.9991001656230023,-1.8476152420043945,-1.9927588333647146,4.15698491971446,0.7430106836506347,1.3428997832450862,-1.5608824503406493,1.0,0.4790188226068777,0.48078487888314486,0.32766326769153997,-0.6916327476368731,0.006241062032491475,-0.5050727419213136,0.5162428855771884
3.5,0.09986129847615986,0.7737138066445315,-0.23933402011326446,0.025547298569541455,-0.026909006517843677,-0.24820349022015803,-0.03563265882500596,0.0398074141852263,0.9985218260356573,-1.845771511626716,-1.9937851909188875,4.156691074371338,0.7422950927529696,1.3431720393165802,-1.5608729930179184,1.0,0.479219943294921,0.4809765524407203,0.32764110334113006,-0.6916653709830018,0.006248599034575048,-0.5050644744728976,0.5162071737378969
3.6,0.06300126214726756,0.7539639094555564,-0.13529486967187432,0.022322580434904128,-0.0289576456690231,-0.24917544457861152,-0.04610980454610097,0.05068223910749162,0.9975401519858264,-1.844046766432612,-1.9949552021422328,4.1564376575834885,0.7416264620402987,1.3434108384903605,-1.560869952317649,1.0,0.4796477632819395,0.4814104899548805,0.3276729171362608,-0.6916745973980404,0.006240572390380956,-0.5050663103013469,0.5161931118962004
3.7,0.20597062410258557,0.38581629619664737,-0.3035361535225192,0.01807135284563795,-0.029503263437842996,-0.251178905923937,-0.05715706541864419,0.06214441776415631,0.9963974618161208,-1.8426184308962414,-1.9960296326252125,4.156162552776149,0.7410531974578597,1.3436463227472664,-1.5608552137957972,1.0,0.4802271259951118,0.4819810130838926,0.32762932767591707,-0.691700938475188,0.006257272319621483,-0.5050543750404971,0.5161692905511865
3.8000000000000003,-0.3484183869385476,0.7469921080502311,-0.19203815466409718,0.027226909267157103,-0.024061634883297198,-0.2544150298692168,-0.06653929290523906,0.07186623247526495,0.9951898143292114,-1.8409687707580087,-1.9967202254479772,4.155951661840772,0.7403948357780779,1.343925227090984,-1.5608556906329554,1.0,0.4804537975016706,0.4821833262108778,0.32759120743346243,-0.6917300921061627,0.006255564790169474,-0.5050517126366756,0.516132846413321
3.9000000000000004,0.17363937257840764,0.6322587794548836,-0.029473439709597763,0.02398493799684851,-0.030807054813425314,-0.2542897712996667,-0.06367173012145373,0.06888130939252116,0.9955878247204725,-1.8393911318252945,-1.9975443507009885,4.155694450568474,0.7397666266095887,1.3441143377310865,-1.5608405090541801,1.0,0.4809149696917663,0.48264743061699583,0.3278081795962266,-0.6916219598907859,0.006261659375901897,-0.5051133627576235,0.5162173447128388
4.0,-0.033278964216738066,0.64099867807737,-0.26424769923764796,0.02609108115270594,-0.026956719548574672,-0.26143281311801486,-0.062094519820549546,0.06722259991890309,0.9958032197453766,-1.8379214225988247,-1.9984766445555628,4.155454438803659,0.7391528072822126,1.3443300308008335,-1.5608367490259067,1.0,0.48113219948318414,0.4828508567400014,0.3278637345762268,-0.6916030645719887,0.006278521693222836,-0.5051286396193287,0.516227506702527
4.1000000000000005,0.10567434655334851,0.5088879172536532,-0.2988445637225119,0.024793767686960417,-0.024798877074602543,-0.25979459127872045,-0.06019467857763624,0.06522600398551716,0.9960454752496959,-1.836314008736626,-1.9995450648317818,4.155237064629446,0.7384943871299788,1.3445669071439434,-1.5608346985807586,1.0,0.4814346017831799,0.4831398680442902,0.32785781196938624,-0.6916245279324353,0.0062892267593829985,-0.5051105647873583,0.5162163067253891
4.2,-0.12417636931245851,0.6617777401781546,-0.0016713448567654554,0.02145669742473445,-0.02955469523107038,-0.26736024481611376,-0.054855820189679425,0.05966943816160452,0.9966985766364667,-1.8348077020103999,-2.000563433652291,4.155000152152166,0.7378596823873375,1.3448185920715332,-1.5607852684259726,1.0,0.48199288895675213,0.4837248330482397,0.3278399487580053,-0.6916510392900053,0.006282526039139821,-0.5050984166187151,0.516192753963953
4.3,-0.05017408056839295,0.5169197953506592,-0.024071653161630128,0.019394643566936105,-0.026873948323813356,-0.264652764922038,-0.05290658152666859,0.057660724827070214,0.9969332701218834,-1.8333380994489117,-2.001532638476576,4.154760837554932,0.7373508432103973,1.3450376676487665,-1.56078765481504,1.0,0.48222459616275626,0.4839595928551541,0.32778194854689713,-0.6917018874231144,0.006264710925132254,-0.5050715835920289,0.5161510900697254
4.4,-0.16172964702449277,0.5190824112420489,-0.1495067220921781,0.01934498756664657,-0.025375607717873137,-0.26633794784100306,-0.05262505610102456,0.05739141997134546,0.9969637783392626,-1.8317191888997844,-2.002333877791687,4.15455283175458,0.7367520460861119,1.3452869436243078,-1.5608026569090194,1.0,0.48255422093599565,0.4843198484688474,0.3277453527760813,-0.6917114908872583,0.006244719307626093,-0.5050641481260585,0.5161457382687514
4.5,-0.009643957177216472,0.8171113475238214,0.02521360315540933,0.035751461356179064,-0.02723516173534398,-0.2705149926636755,-0.05295154293856035,0.057730287773386756,0.9969269086855497,-1.8300254928951543,-2.0031399554378426,4.154284817077331,0.7360583978840332,1.345566229711867,-1.5607440402604467,1.0,0.483060615933178,0.4847966849142537,0.3278671547854485,-0.6916645285871257,0.006244008123174036,-0.5050996551086079,0.5161739345085845
4.6000000000000005,0.01933169208329236,0.8998871536441204,-0.3055083759363858,0.029248660715062384,-0.025760656164432152,-0.2682879339049678,-0.052880935665948876,0.05768475270801368,0.9969332999023489,-1.8286993978425994,-2.0039587906430114,4.154037340001217,0.7354049741881548,1.345780771062217,-1.5607905207314217,1.0,0.483261208309689,0.4850095357278806,0.32802578263927457,-0.691572127111614,0.006276077309747976,-0.5051378262733303,0.5162599929529446
4.7,0.05937702104366225,0.5123117057612812,-0.34684840426191327,0.02164985125220621,-0.02628711329798495,-0.2725171766377157,-0.052534048968381666,0.05735856796833703,0.9969703594039521,-1.8272344879952649,-2.005092362908612,4.15386020206648,0.7347934890899697,1.3460040243884537,-1.5607741172836465,1.0,0.4835491896872232,0.485313187698406,0.32803364176483363,-0.6916077116475333,0.006256027517735525,-0.5051006950715069,0.5162488965098526
4.800000000000001,-0.08399306802240153,0.5530867817628468,-0.21637561760461282,0.02225424835306955,-0.021750049088711806,-0.2767097746814061,-0.05176046524509546,0.05654944045253407,0.9970569192973227,-1.825445598931603,-2.006065296048013,4.1536126645633,0.7342015939899902,1.3462659231339504,-1.5607317660482762,1.0,0.48411729846291984,0.4858782056795724,0.3278528728104031,-0.6917426443975123,0.006237105980921138,-0.5050370513454339,0.5161305931634252
4.9,-0.14772439099798748,0.4477297230020444,0.014142595705207067,0.022254053359109793,-0.027424082903971636,-0.2696548422147628,-0.05165740947984461,0.05644970298748175,0.9970681311578873,-1.823915568066104,-2.0070187054076136,4.153399684348544,0.7336017328449707,1.3464734774280862,-1.5607376951761585,1.0,0.48431561048053395,0.48610161111671846,0.3279504415848053,-0.6916615320965768,0.006239924255160955,-0.5050757055817651,0.5162014335452668
5.0,-0.14319882224746922,0.6026469149815349,-0.26384680165359164,0.028068709710028127,-0.029784578518199677,-0.2736978818589277,-0.05185698831551262,0.05667348329434533,0.9970451119402919,-1.8225849432097334,-2.0078669222407552,4.153220728527266,0.7329473495776533,1.3466897010803223,-1.560708748316927,1.0,0.4847597665798968,0.4865671745607104,0.3279950700568234,-0.691642238795286,0.0062455102704656726,-0.5050876237110128,0.5162155552573636
5.1000000000000005,-0.03556544699310175,0.4812432459264281,-0.13599466922152106,0.027312667395880005,-0.02709169203750578,-0.2809970625328731,-0.05165259830002873,0.056491624941785896,0.9970660325589825,-1.8209536232521688,-2.0087447463287655,4.152984373129373,0.7323519461958478,1.3469395753940396,-1.5606969155020927,1.0,0.4849674367286654,0.48678186937549556,0.327974200413234,-0.6916859207939191,0.006240645201950637,-0.5050508688286538,0.5161930464645503
5.2,0.3113941873648759,0.6674821401533885,-0.21281511985225365,0.02837126546478813,-0.032626230840435685,-0.27573331008898183,-0.05185484945941196,0.05668862299029913,0.9970442631527567,-1.8192596683276987,-2.009606436220705,4.152715022687366,0.7316532324291444,1.3471392147330996,-1.560708896681933,1.0,0.48534019153427116,0.4871754094911043,0.3280605153736331,-0.6916512609829687,0.0062305898858376705,-0.5050640274135902,0.5162267342390433
5.300000000000001,-0.061571906143594056,0.29411993448803997,-0.12174253010663047,0.012970872795307075,-0.030378715071957434,-0.28297330681427857,-0.05219683035651473,0.057011739345809796,0.9970080519388396,-1.8178246693017068,-2.0106618487082986,4.152516422132585,0.7310419343585257,1.347413590217172,-1.5606873671161097,1.0,0.4858596123221408,0.48765072900228895,0.3281699911664215,-0.6915956342028404,0.006260471551639908,-0.505109482381592,0.516256424711327
5.4,-0.2034594491257641,0.4840044205835513,-0.3632430502560705,0.022945139473239198,-0.022770858259100846,-0.28506715454447984,-0.05172372593420232,0.0565441411909293,0.9970591619261105,-1.8163997023692249,-2.0116049422881552,4.152286844102846,0.7305013205493902,1.347592321798441,-1.5606883357198422,1.0,0.48604071083569184,0.4878863528506602,0.3281171989902753,-0.6916424987737386,0.006216405638274592,-0.5050796696429958,0.5162233407201593
5.5,-0.005079218396843638,0.3851611675212602,-0.11398719323946709,0.019238560837364426,-0.026973992866251014,-0.286831548627346,-0.05136939983589678,0.05618873493555771,0.997097735461632,-1.8146633156515302,-2.0125454919954424,4.152051066520101,0.7299023773983367,1.3478080270594075,-1.5606823130583298,1.0,0.4863722848623668,0.48820231897355193,0.3280213686050604,-0.6917080093535802,0.006219569034728586,-0.505049939790824,0.5161646104436206
5.6000000000000005,-0.11564375030029582,0.2736323196651876,-0.1378558146254883,0.017470327158131165,-0.02471411270822926,-0.2863233133844008,-0.05202291775527429,0.056785286334901194,0.9970299361551015,-1.813050745111163,-2.0134650669493617,4.151807564601981,0.7292148309895019,1.3480215072631836,-1.5606791686547006,1.0,0.4869154881139808,0.48872056261109836,0.32809447418977983,-0.6916640987004904,0.006264255576305272,-0.5050823502671854,0.5161911982196997
5.7,-0.20227860543789974,0.6360853566548621,-0.1812492919371036,0.025096619046494247,-0.022484172288855308,-0.28609649312120705,-0.052362925060422956,0.0571316410244775,0.9969925146691201,-1.8116057538284485,-2.014330332749501,4.15156308062526,0.7285018698848289,1.3482478138777285,-1.5606410993760833,1.0,0.4871342007735335,0.48891476529879513,0.3281395908874896,-0.6916377349840656,0.006282579943627795,-0.5051078751402406,0.5162013242976761
5.800000000000001,-0.010512345442694623,0.5614723416761345,-0.27630693355663355,0.02682359740714461,-0.022935289280396183,-0.2868262497673304,-0.05253509151727277,0.057349630572880866,0.9969708985351731,-1.8100571827141791,-2.0152392883854247,4.151332290014613,0.7279160668784711,1.3485056555055548,-1.560652318956595,1.0,0.4875980808522701,0.4894132160934273,0.3281493979452561,-0.6916932707429418,0.006228750146822424,-0.5050716906373559,0.516162967673256
5.9,-0.13174448236069222,0.3614769298510447,-0.23000981181669825,0.022799901233320482,-0.021321239670369,-0.2908903226321103,-0.05320891207339121,0.05802792393623083,0.9968957561336697,-1.8084472777708522,-2.016211413126157,4.151112551329271,0.727324210703892,1.348762849029505,-1.5606346349993385,1.0,0.48781460167949,0.4896040387366058,0.3281495539201359,-0.6916952581332624,0.006243602893606101,-0.5050645833742353,0.5161670794615598
6.0,-0.1169235486329311,0.754168218200679,-0.28699152900726227,0.027890960760525933,-0.020717447376438637,-0.2856004509390076,-0.0532088579218551,0.05803612717407365,0.9968952929217624,-1.8069630595880495,-2.0171212587039724,4.15088103622874,0.7266804829090013,1.3489830237658227,-1.5606277624713343,1.0,0.4881660330976561,0.4899456163208265,0.32819496267560083,-0.6916708640949082,0.006269637702644628,-0.5050816475763426,0.5161827551234621
6.1000000000000005,-0.0296151827112933,0.5219468058164061,-0.13827213441627262,0.026029447690677335,-0.02529340523379639,-0.28695555431856784,-0.052712878595591796,0.057551190427880365,0.9969497884280385,-1.8053486366762534,-2.018024171181231,4.150656287459408,0.7260181066995555,1.3492411885609017,-1.5605834086342687,1.0,0.4885698964054584,0.49037283156280403,0.32821251313247135,-0.6916685559649531,0.006246100409275646,-0.505078909954745,0.5161888120038639
6.2,-0.16698306917104638,0.8579308978089781,-0.28232288041229253,0.03510341964458061,-0.025181104178455142,-0.27673949888318267,-0.052631266106053474,0.05749554297811699,0.9969574229921065,-1.8038107363561067,-2.0189768276610316,4.150482654571533,0.7253915506550292,1.3494706065492248,-1.5605580610446084,1.0,0.4889045249077934,0.4907454241775227,0.3282878851211281,-0.6916420548050476,0.006231278833048565,-0.5050798658561535,0.5162235642586326
6.300000000000001,-0.20342326690807463,0.8256830987329129,-0.13362853276899334,0.028221380463481258,-0.028130857618997866,-0.2783867176473243,-0.05286927835388736,0.057771030808658835,0.9969289110429435,-1.8023004531860352,-2.019926829193432,4.150225242894179,0.7247368800592603,1.3496670321021045,-1.5605842899018618,1.0,0.48920300406980666,0.4910458336062955,0.32830040623518597,-0.6916516440648195,0.006221694698203269,-0.5050736628620535,0.516216900983127
6.4,-0.09230509598922107,0.6526380818916412,-0.13633898388540905,0.023136443641358948,-0.028744359066944614,-0.27914616774767936,-0.052273661821051844,0.05714279474234083,0.996996129385725,-1.8006732445766809,-2.0209658094572114,4.149975716615972,0.7240842511858657,1.3498977935748662,-1.5605581102933133,1.0,0.48973288188593506,0.49156775409003467,0.32823554877137917,-0.69170270687527,0.00623739983921036,-0.5050436258065149,0.5161776788828428
6.5,-0.180036898870983,0.6126604531150407,-0.1426927860168424,0.023959387151528157,-0.022232678713449347,-0.28152524463418627,-0.052389107409393426,0.05722860321104229,0.9969847039456432,-1.7989966357103628,-2.0217516620534783,4.149752804075842,0.7235089975544433,1.3500986823352266,-1.5605532051998763,1.0,0.48990077323338266,0.49174458980518854,0.3282000732786664,-0.6917338249561947,0.006223882418779339,-0.5050331816428272,0.5161463592226851
6.6000000000000005,-0.05375130970661575,0.4684583455095951,-0.035900476655507274,0.024143404086596893,-0.02426633010926211,-0.2811080932726879,-0.05358337242106843,0.058440646875499096,0.9968517113098895,-1.797567433821937,-2.0226167915831597,4.149508464939067,0.7228113734737347,1.3503365516662598,-1.560603443776266,1.0,0.49026481135311945,0.49208154351209205,0.3283085290019941,-0.6916767113492632,0.0062441541236219495,-0.5050738697001304,0.5161828393723336
6.7,-0.002704143473605163,0.5969971707469881,-0.29580264498458914,0.029154569249334246,-0.0272152521038266,-0.27992122547210646,-0.05230771251000317,0.05709681896200883,0.9969965729235658,-1.7960886435211971,-2.0235249790329135,4.149296283721924,0.7221948458465237,1.3505356582813757,-1.5605438391314905,1.0,0.4907508889318269,0.4925347678512024,0.3283941796976251,-0.6916536256308297,0.006260905247092016,-0.5050899840470044,0.5161978024290801
6.800000000000001,0.03945805934252217,0.6648311964307737,-0.2738889870281605,0.03297028455389356,-0.0261890380915474,-0.27289765693220197,-0.05276242934170874,0.05755782305627244,0.9969458789130338,-1.7942788705738648,-2.0244789383835795,4.149087473863361,0.7214780794276008,1.350724470621121,-1.5605341891423683,1.0,0.4911085034364002,0.49293304333438354,0.3284029246541995,-0.6916875014523199,0.006245258307010049,-0.5050687944837858,0.5161733332147457
6.9,-0.18240514666818994,0.7726559255285591,-0.22966071384333464,0.031317815704788456,-0.020205545843611453,-0.27376445123975063,-0.053626750333383356,0.05845536092383007,0.9968485841950198,-1.7927769610141033,-2.0254595239806585,4.1488518714904785,0.7208769832155484,1.350932953471229,-1.5605143254518314,1.0,0.4913289363688868,0.4931489444920635,0.3285031849388726,-0.6916288386808843,0.00626352312858028,-0.5051109004117951,0.5162105152630415
7.0,-0.24512871465496752,1.109779388030451,-0.35316207844652486,0.018509416717029516,-0.015232096035443798,-0.2819211297304676,-0.053428004604183704,0.058252667410757304,0.9968711425880057,-1.7920560836791992,-2.0261573703256035,4.148757457733154,0.7205255030310364,1.351084248597688,-1.5605098193250835,1.0,0.4916632830295576,0.4935143821750846,0.32848417720324774,-0.6916466006480707,0.006265821717585175,-0.5050875818344915,0.5162095058856989
7.1000000000000005,0.17110165146428113,0.9074472735339492,-0.2504204250057921,0.02457714702693718,-0.027391512053736793,-0.2696924378675846,-0.05349953339875989,0.058320374614050194,0.9968633451093276,-1.7920496274631381,-2.026058877934725,4.14873134144153,0.7204891080474769,1.35110007770862,-1.5605052303056814,1.0,0.4919944648785249,0.4938170548744223,0.3283295132678332,-0.6917454771748633,0.006247705814835082,-0.5050476824550272,0.5161162654160184
7.2,-0.20169862773255498,1.235475339212323,-0.10953136267723054,0.03553343188504118,-0.025788993537828327,-0.2727475115665539,-0.05313744421214133,0.0579437706519482,0.9969043316130739,-1.7920249646492759,-2.026044423911765,4.1487288317137585,0.7204815663319637,1.351087710594974,-1.5604906578824695,1.0,0.4919910645771394,0.4938347503432841,0.3283407177431633,-0.6917459578974005,0.006236538713910233,-0.5050302518267213,0.5161328124207142
7.300000000000001,0.21071752106457348,0.6547543405657797,-0.30844216152661474,0.03025671515014543,-0.02895221333737989,-0.26872642897705395,-0.05232711447593555,0.057107872357965425,0.9969957472042689,-1.7918912392012405,-2.026018281976217,4.148767400724087,0.7205131479289233,1.351093173996858,-1.560495678578512,1.0,0.49200398927664196,0.4938208340205146,0.3283834664040928,-0.6917164418958217,0.006241568076562346,-0.5050566630646689,0.5161464655821171
7.4,0.19404236742620992,0.6426354232927091,-0.08892953805557921,0.02881943762660333,-0.034778987535731797,-0.2675060508771599,-0.052974110208502435,0.05778261073853709,0.9969222209194905,-1.7919039321408359,-2.026011093311913,4.148754996955536,0.7204791742512207,1.351102352142334,-1.5605270912925915,1.0,0.4919978040844438,0.49382747501746194,0.32844554987872354,-0.6916776839848483,0.006249659868153497,-0.5050812170289102,0.516174280096833
7.5,0.06058031150159157,0.6617343607833369,-0.2708750844931845,0.03268321881449951,-0.0312518938951383,-0.2721436756430497,-0.053653370233457745,0.058490793688907944,0.9968450429227044,-1.7918883838976845,-2.0260202967182765,4.148745059967041,0.7204812284980261,1.3511014040284237,-1.5604966661971684,1.0,0.49199098154056475,0.49382950913732626,0.3284379822066067,-0.6916891285321988,0.006243732359364012,-0.5050727295912444,0.5161673208368021
7.6000000000000005,-0.18694617006290332,0.712708808144102,-0.38173540235592085,0.032436564349025684,-0.027353255040665842,-0.2706869486137427,-0.05260567381923534,0.057431776202091625,0.9969617399724587,-1.7919331373732177,-2.026018281976217,4.148745984626827,0.7205148055464374,1.3510905917195577,-1.5605204450962082,1.0,0.49199262054455406,0.49384460129301916,0.3284535221823883,-0.6916731013735243,0.006251340312654816,-0.5050685402624615,0.5161928043064649
7.7,-0.08841461674151435,0.4624017158299791,-0.24785214003809342,0.022919969553365595,-0.029330398703534655,-0.2656514398765779,-0.05213466175998319,0.056947013382673835,0.9970149209468109,-1.7919091092487973,-2.0259923401867357,4.148751443759017,0.7204719300225659,1.351082710147566,-1.560517420504851,1.0,0.49197730476155754,0.49385495110592875,0.3284546624793647,-0.6916736494023084,0.00623247439012136,-0.5050683450315305,0.5161924891284068
7.800000000000001,-0.021623573401435264,0.5631168461844167,-0.11009060226519361,0.025628247883794242,-0.028421867679392854,-0.2688287058878664,-0.05268440050452855,0.05748279439228323,0.9969553603473815,-1.7919403288910047,-2.026025458533885,4.148750924382467,0.7204850386666473,1.3510963213570848,-1.560495678578512,1.0,0.49198958423811684,0.493845163503699,0.32843026122071545,-0.6916831252863441,0.006247789942800765,-0.5050724999700702,0.5161755409634688
7.9,-0.0005941394297337282,0.39337761196474474,-0.023157525007880334,0.018145462910873322,-0.026524493608707074,-0.27065566697713384,-0.05231441516104073,0.05712105532613631,0.9969955530457736,-1.7919180910002384,-2.026008693481983,4.148740706476795,0.7204939977494436,1.351093147187869,-1.5605320836604977,1.1726695816474955,0.49198562902715165,0.4938480474691656,0.3284635480448153,-0.6916754598466834,0.006256812991925733,-0.5050640756943796,0.5161939460900766
8.0,-0.20593009963329598,0.5024572714356819,-0.08642143679368368,0.028348652416017757,-0.02417261016483139,-0.2731468332074619,-0.052086958169548135,0.05690236019510585,0.9970200718199023,-1.7919089336443355,-2.026037943651399,4.148756565545584,0.7204992214494453,1.3511101842026763,-1.560514539380239,2.0,0.49198469850708,0.49383455503133966,0.3284695630019218,-0.691661612511832,0.006242301297680315,-0.5050745179701757,0.5162024590693425
8.1,-0.26603462842015674,0.4996568646315511,-0.2962687685421618,0.029751120357025748,-0.02503743753465397,-0.27150249017743205,-0.05227738989776776,0.0570978974807798,0.9969989163512541,-1.7918996810913086,-2.0260086468149403,4.148752008700783,0.7204939492157193,1.351090908050537,-1.5605272552364717,2.0,0.4919903209153545,0.4938398977414265,0.32844493410777187,-0.6916734517205783,0.006243345938756936,-0.5050685131132918,0.5161924581761717
8.200000000000001,-0.2033643879259737,0.3207862603974687,-0.2179196660613756,0.029151898908870398,-0.029386080810634256,-0.27192839152148807,-0.05238643877803813,0.05720594325799285,0.9969870309780138,-1.7918815944672988,-2.026006361047262,4.148783418193659,0.7205039697834472,1.351095321805943,-1.5605000923339178,2.0,0.4919926843405901,0.4938451387220668,0.3284341820989248,-0.6916799193245711,0.0062452308372184925,-0.5050675224678459,0.5161847382896326
8.3,-0.10378258448406676,0.4323128465718607,-0.2681029710881548,0.02211579888865857,-0.027943061565338392,-0.2656514886330612,-0.052355733515891824,0.05716374483705106,0.9969910646130958,-1.791886329650879,-2.026006361047262,4.148802872668195,0.7204814430319999,1.351102352142334,-1.5605393888307313,2.0,0.4919971178345298,0.49384235225125894,0.328445135375235,-0.691674560542948,0.006248889879219448,-0.5050717806469684,0.51618770817126
8.4,-0.09845655637898104,0.3984972351531917,-0.30617584417616994,0.026759415055086555,-0.027486543005670834,-0.2632358956054392,-0.053260900960932445,0.05809314710799302,0.9968887408538696,-1.7919204423171244,-2.0259966556993256,4.148742478199319,0.7205016655791879,1.351090908050537,-1.5605632498273636,2.0,0.4919871610652809,0.4938369088091999,0.3284381296370489,-0.691676217036423,0.006238584087080237,-0.5050681821836652,0.5161891341363744
8.5,0.1414407336263036,0.34989022716508184,-0.2438171225918265,0.019876439015700985,-0.034151667050999174,-0.26157326219765287,-0.05382367612911214,0.05867026882881324,0.9968253087232314,-1.7919182817700883,-2.0260402782728444,4.148767533100827,0.7205086253259552,1.351090908050537,-1.5605172873609983,2.0,0.491992743807173,0.49383734006497026,0.32846304279752186,-0.6916618654715304,0.006256313396855133,-0.5050904872328794,0.516186324985441
8.6,0.10646459676966863,0.7017867128083568,-0.30276309369591414,0.022865417976597448,-0.03617623830964799,-0.2628092761455755,-0.05345420827781799,0.05828555107340733,0.996867784599757,-1.7918792138547388,-2.0259866810120988,4.148733615875244,0.7205039697834472,1.3510826721071707,-1.560529754054707,2.0,0.4919975415938176,0.49383451289211655,0.32846436389157835,-0.6916631133861016,0.006266135635786421,-0.5050764934849096,0.5161982263183655
8.700000000000001,-0.18339123836359972,0.6183375435004361,-0.3828918331169327,0.0214592162776494,-0.03051372917768638,-0.26220814528340186,-0.05275759509519773,0.05758449238391539,0.9969455835077143,-1.791886329650879,-2.025990624060593,4.148761510168775,0.7205059149525451,1.3510806175509464,-1.560535653211537,2.0,0.49198629754848194,0.4938474224085458,0.32845018937639103,-0.6916726599062083,0.006256331459140122,-0.5050680061994678,0.5161938579338567
8.8,-0.09642012326798091,0.9220401566446126,-0.31989462544803476,0.02453588128697204,-0.03125993248626558,-0.2582512138605385,-0.05275534901590849,0.057560463653454415,0.9969471536350826,-1.7918784883137762,-2.026016549882614,4.148757457733154,0.7204729957239769,1.3510721931896919,-1.560499142765718,2.0,0.4919752968842519,0.49385841406197234,0.32843855273408457,-0.691676986829337,0.006238777378496026,-0.5050551602871798,0.5162008413542175
8.9,-0.25668718310211097,0.07577233125578886,-0.22387208012980347,0.02952158823559499,-0.03665712902205627,-0.262618419605984,-0.05290807282792692,0.05768743177619207,0.9969317341801877,-1.7918785400942634,-2.0260057640885405,4.1487613833761685,0.7205202623278683,1.351090908050537,-1.5605405104471977,2.0,0.49199348018158595,0.49383555448382727,0.3284511808500036,-0.6916725952093481,0.006259078968988267,-0.5050884152746696,0.5161739413435632
9.0,-0.5234488186672795,-0.04210891232417542,-0.3678446900709407,0.045398675007367585,-0.04741261290526414,-0.25640049852835045,-0.053562218255298104,0.058408539984111704,0.9968547146835774,-1.7919007852808,-2.0260081093472904,4.1487933417855025,0.7205039697834472,1.351092058247924,-1.5605195204364222,2.0,0.49198924748338696,0.4938527893182242,0.3284493257287676,-0.6916655938269527,0.006249703291719681,-0.5050793327445539,0.5161923238087627
9.1,-0.6062971662021788,-0.10559064496909149,0.03697125010613955,0.05760287873046334,-0.04907297263917352,-0.26238482943724706,-0.05316779127422257,0.058036846110923176,0.9968973877282791,-1.7918884055057032,-2.026006361047262,4.148789185074591,0.7204695094635589,1.3510748034008089,-1.5605195204364222,2.0,0.49198748488775496,0.49385032570705467,0.328456673847866,-0.6916708405873471,0.006244007487259469,-0.505068824890697,0.5161956438940785
9.200000000000001,-0.45146015212205715,0.6279644259748425,0.10916269631765747,0.026085339943266526,-0.051656427647673975,-0.25893045378165386,-0.05289035387669862,0.05776272167725832,0.9969281069396437,-1.7919256673311414,-2.026006361047262,4.148779684229344,0.7205154138752441,1.3510875427136186,-1.560473519389061,2.0,0.49197524290259775,0.49386035136987766,0.32844660482363125,-0.6916778848499762,0.006233167914039897,-0.5050568438562524,0.5161980585988093
9.3,-0.38079818865737286,1.587208948834193,0.11305645606788621,-0.049464272818533134,-0.05451818182121469,-0.25581396050852007,-0.05353800767396696,0.05840469474343065,0.9968559578014168,-1.7918996810913086,-2.0260095996577645,4.148787950539317,0.7204791742512207,1.3510785102844238,-1.5605092188127183,2.0,0.4919876700156931,0.4938534447503809,0.3284341605339213,-0.6916814708855128,0.006243203436973771,-0.5050576364111002,0.5161923567308327
9.4,-0.26418961337940905,2.0746681340056163,0.5066667208480943,-0.09444109482362009,-0.06726645646222441,-0.25838318445994385,-0.053811988815024185,0.05867284031094712,0.9968257578475044,-1.7919158818958811,-2.0260047963391123,4.1488065236697125,0.7204708595757235,1.3510422706604004,-1.5605390824187149,2.0,0.49199087114392115,0.49384690536315035,0.3284408904039678,-0.691681948297391,0.006249397492520922,-0.5050708056198546,0.5161787565766502
9.5,-0.2942168734091127,2.551077323223405,0.8328926116271098,-0.13878897709997318,-0.07509467143481681,-0.2588011193242137,-0.05310376643713901,0.057945904031871,0.9969059532943996,-1.7919305806835983,-2.026026627193609,4.1487812995910645,0.720489712647321,1.351071358861297,-1.5605401919056958,2.0,0.4919778969024136,0.4938510437110474,0.3284530039316475,-0.691681375912288,0.006249366677535227,-0.5050611349985196,0.516188986269778
9.600000000000001,-0.38003858979770966,3.2258743898034634,1.3896601295485995,-0.18741557031141293,-0.07393576067395247,-0.2611045608133275,-0.052232391439156436,0.05702355385178529,0.997004803793424,-1.7919029974146397,-2.026013339144271,4.1487964361002305,0.720459602390958,1.3510857262953324,-1.5605213167782266,2.0,0.4919950973075142,0.4938446609634584,0.32845609201848835,-0.6916746200635867,0.006243889291126596,-0.5050797410850569,0.5161798997945048
9.700000000000001,-0.22721362337540016,3.765839721097208,1.802060917708733,-0.229686342787653,-0.07941682142526153,-0.25359679012448993,-0.051786348906311515,0.05655141964826691,0.9970554720157534,-1.7919199205794425,-2.026030202905172,4.148778540533294,0.7204379623252583,1.3511106113217912,-1.560527724434724,2.0,0.4919879017294442,0.4938473815490573,0.32842689487994364,-0.6916908804941807,0.0062364628262080585,-0.5050769827840965,0.5161608991722603
9.8,-0.23555816484702577,3.9709262084574286,2.202229854104825,-0.26719394083391224,-0.0712278389410602,-0.25684542480691125,-0.052490813788493206,0.05729710176929482,0.9969758090944381,-1.7918782205478387,-2.0260361230969695,4.148757457733154,0.7204791742512207,1.351056748623651,-1.560517917076443,2.0,0.49199558077201866,0.49384249173877504,0.3284232316180773,-0.6916976156195699,0.006252931319266171,-0.5050706970892386,0.5161578250282649
9.9,0.0966216595267149,3.752757807634423,2.3817820674899326,-0.29694225961084647,-0.06884454213329483,-0.2576084913262184,-0.0529905462473379,0.057818040205836,0.996919792406325,-1.7918818071454108,-2.0260211287576912,4.1487465112674,0.7204848678141685,1.351090908050537,-1.5605139385119635,2.0,0.4919881841693747,0.4938448616799614,0.3284358070525231,-0.6916854238234154,0.0062580257355497075,-0.5050599595188571,0.5161846073595435
10.0,-0.004254250711588518,4.081179366535984,2.3409583381773706,-0.3046166737275644,-0.06155245173813285,-0.25919232316319263,-0.0529770349784566,0.057789119402509116,0.9969221760358467,-1.791912724179682,-2.0260461268682137,4.1487730534924205,0.7204842377403796,1.3511114186655795,-1.5605059338860332,2.0,0.49200044164647033,0.4938338508999371,0.32844553566587076,-0.691668877772187,0.006250999493349661,-0.5050851027013542,0.5161822619539153
10.100000000000001,0.05688058295400132,3.8383993628098345,2.5358510856576686,-0.30580335822693394,-0.05873763322073774,-0.26397116136814375,-0.053157891187470274,0.05801434883953702,0.9968994667005794,-1.791911345167317,-2.026042481513171,4.148744711658706,0.7205153038831383,1.351067066192627,-1.5605315698942006,2.0,0.4919786645185708,0.49385566263330694,0.328445399255806,-0.6916692634924086,0.006236758551312468,-0.505069060751283,0.5161976139565725
10.200000000000001,-0.09636533412857959,3.7203189595292923,2.5033081227425487,-0.30760027445142296,-0.05443047514640097,-0.2608115680515228,-0.05320019830796412,0.058022389333003445,0.9968967542159459,-1.791916386924521,-2.026016736388622,4.148759065144254,0.7205007549612489,1.3510977772030517,-1.560488394412343,2.0,0.4920001257793571,0.4938360325676439,0.32843183007408594,-0.6916782528199421,0.006256259264033065,-0.5050834270324954,0.5161712753854901
10.3,-0.06164929092651141,3.861822064448274,2.438089118044331,-0.3026295185145671,-0.05040149958392003,-0.26111669127683074,-0.05318867213716179,0.05796523381924113,0.9969006953772209,-1.7918996810913086,-2.026026218078093,4.148754801181768,0.7205025883767263,1.3510785102844238,-1.5605305367958144,2.0,0.49200123073644497,0.49383440101249404,0.3284348211662963,-0.6916812643547133,0.006265385103272323,-0.5050793849112579,0.5161710844553756
10.4,-0.10485559033265562,3.878100942624869,2.545000059297794,-0.29744230164353164,-0.049236694241699214,-0.2613381478641371,-0.05315971197348811,0.05794430213331342,0.9969034569265274,-1.7918924930910407,-2.0260318053996142,4.148745059967041,0.7205262091469153,1.351103954636776,-1.5605034445131158,2.0,0.4920007612716155,0.4938284263911302,0.32843906074487317,-0.6916779980089673,0.006256756844267195,-0.5050835140658276,0.5161715256414418
10.5,-0.19311412555065366,3.6163609729658486,2.426352775992258,-0.29926825033734966,-0.047123071423848056,-0.2540850055147019,-0.052609633569375,0.05740413368283075,0.9969637705129548,-1.7918877792767263,-2.025998323044684,4.148757457733154,0.7205079044821756,1.351102352142334,-1.5605169318188377,2.0,0.4919944733639547,0.49383832839118846,0.32844929131403433,-0.6916785589265181,0.006254018980629771,-0.5050708090782194,0.5161832389617064
10.600000000000001,-0.2472742456554518,3.767384607063801,2.441067917005691,-0.28987587776582563,-0.0472164017183885,-0.26540315966297306,-0.05241284613664097,0.05721747121898334,0.996984981514463,-1.7918880118793354,-2.026025696936092,4.148716510530248,0.7204977001352827,1.3510830763330917,-1.5605091014971604,2.0,0.4919877815038281,0.49384145992042305,0.3284263783830418,-0.6916852784055268,0.006252437712078429,-0.5050618669357364,0.5161830036209197
10.700000000000001,0.3066351870079892,3.698156047811284,2.523437420502122,-0.28603472300868854,-0.06002761807140824,-0.2584318286812483,-0.05242585996754436,0.05724320354394027,0.9969828204780731,-1.7919183506468548,-2.0260260397853886,4.148758900948013,0.7205098630488658,1.351102352142334,-1.5604984539917013,2.0,0.49198773471631874,0.4938384829326811,0.32845070222264555,-0.6916726165682068,0.006250673492554741,-0.5050667959863038,0.5161951686743194
10.8,0.2736013206085687,3.5089671468838337,2.33642469612544,-0.29023331249803214,-0.05902115413338588,-0.2591529825743744,-0.05238500269540532,0.057225976218466174,0.9969859569795744,-1.7919225692749023,-2.026030202905172,4.148757457733154,0.7205039697834472,1.3511221653832652,-1.5605277807040165,2.0,0.4919786337169669,0.4938519984951628,0.32846618719720944,-0.6916577960005841,0.006238871314928096,-0.5050685017798864,0.516213500623677
10.9,-0.12408566377006858,3.444317126409603,2.338350860444958,-0.2895355390128627,-0.050785365605470534,-0.2594797831629443,-0.05230018357078358,0.05714379805259388,0.9969951173369387,-1.7919124372112492,-2.026004994351279,4.148745059967041,0.7205263902775351,1.351099618750368,-1.5605089662034501,2.0,0.49199897468336307,0.49384768661626355,0.3284448497060685,-0.6916755146762682,0.006252648962390302,-0.5050717382482376,0.5161864256266108
11.0,-0.1561741012370846,3.5960818740623286,2.3739519806275884,-0.2810124372414132,-0.049945576180968114,-0.26106069036935675,-0.052253426887288415,0.057091835154650376,0.9970005381079319,-1.7919124562381978,-2.0260196684919385,4.148768413522918,0.720507094780917,1.351111976877005,-1.560495678578512,2.0,0.4919824920702791,0.4938417143358737,0.3284393460884626,-0.6916670917416329,0.0062511580170866166,-0.5050628179047124,0.5162064579170511
11.100000000000001,0.007865783034651408,3.4265396419046823,2.40020069121907,-0.2845741284020561,-0.05331993487387631,-0.2597635962280698,-0.05245882913373372,0.05729789278302167,0.9969779032717221,-1.7919208817329286,-2.0260081189034844,4.148756543647918,0.7204810024216921,1.3510564262827363,-1.560521313449769,2.0,0.49198595195394795,0.49384710209681687,0.32846012653298323,-0.6916602520673223,0.006249161972220614,-0.5050689842299791,0.5162096132906767
11.200000000000001,0.08819789913230351,3.427271370894705,2.2996684111887182,-0.2873840687151642,-0.05500228592453515,-0.26196494286549143,-0.05282802390006828,0.05767201087693163,0.9969366837736221,-1.79190986179257,-2.025998388213731,4.148786216165094,0.7204729942866555,1.351093540114153,-1.5605292334976473,2.0,0.49199091707676784,0.493841699255224,0.32846318320729356,-0.6916638172832235,0.0062450813348191156,-0.5050750164980118,0.516198983464569
11.3,-0.14138818094827163,3.493994355666898,2.402210117300158,-0.28252570314055364,-0.04883406769396957,-0.25482908676873645,-0.05373439676140157,0.05859916551355085,0.9968343554678704,-1.791889180408941,-2.025986630859634,4.148769855499268,0.7204915720173339,1.3510881669370158,-1.5605383020821777,2.0,0.4919967038104103,0.4938379453458402,0.3284476015215615,-0.6916697200789748,0.006250025518793207,-0.5050732633293349,0.5161927296821833
11.4,-0.16940134713544525,3.528266726551077,2.3727449015234345,-0.28175910085621386,-0.04967693290724249,-0.25703952451492473,-0.053524041612472296,0.05838964396105779,0.9968579591284304,-1.791921331844523,-2.026018281976217,4.148756117183576,0.7205114953457097,1.3510997741623771,-1.5605221499759783,2.0,0.4919894352827952,0.4938463670590143,0.32845824728788753,-0.6916726564797823,0.006243347446383566,-0.5050717625283316,0.5161903443376189
11.5,-0.12584722931313322,3.4553423706800235,2.3506494965554072,-0.2831754826668314,-0.05165201301217036,-0.2565369588188267,-0.05363190510947159,0.05851310673448975,0.9968448937272388,-1.7918853146568285,-2.0260053037617927,4.148768755922379,0.7204915720173339,1.3511002375713956,-1.5604564954378641,2.0,0.491984491950239,0.4938404260504629,0.32848091941657415,-0.6916593543001159,0.0062387544313893305,-0.5050837938598685,0.5161964516852219
11.600000000000001,0.1438153566190532,3.2990519987952367,2.311322778375551,-0.28118136476697025,-0.05568088313334432,-0.2592411499941255,-0.053906181392763174,0.05880874882378228,0.9968127330234483,-1.791911483924546,-2.026000587427285,4.148757457733154,0.7204915720173339,1.3510964507257153,-1.5605195204364222,2.0,0.4919838285664175,0.4938533606477829,0.32845136483402254,-0.6916742359795436,0.006242275365469871,-0.5050657876610748,0.5161940869621374
11.700000000000001,0.16902844553428595,3.326937042804839,2.329655542576802,-0.2799573324561242,-0.057092931690323374,-0.25834351897441526,-0.054173720388341465,0.059085928133368604,0.9967818204525152,-1.7919225692749023,-2.026016332397656,4.148768841718415,0.7205049055811567,1.351112800329886,-1.5604728115098825,2.0,0.49198674204063286,0.49384094408415036,0.3284332007603622,-0.6916849314562981,0.006240001259889144,-0.5050707952791863,0.5161748828998011
11.8,0.02357437495194481,3.6112985178609427,2.432340342103002,-0.2735682720972279,-0.053828193878017946,-0.25621232997853094,-0.05395934907639083,0.05886270023656533,0.9968064569122682,-1.7919187731180852,-2.025995389157511,4.148788947526044,0.720514502797608,1.3511118648292662,-1.5605185713972178,2.0,0.4919643447732422,0.4938648348370375,0.32845156767806793,-0.691673038177004,0.0062164177180274865,-0.5050590378991549,0.516202608135728
11.9,0.010418174419173448,3.126561409713587,2.3705523459223423,-0.2857795736007833,-0.054526272564538965,-0.2624938465123616,-0.05346063759885858,0.058344218501651286,0.9968638688083139,-1.7918996810913086,-2.025994519601127,4.148792584717222,0.7205038108178073,1.3510784721326703,-1.5605319579439454,2.1626279811134244,0.49197513455150305,0.4938561358069117,0.3284853498745063,-0.6916479980939397,0.0062397336105632206,-0.505078324594142,0.5162170071610285
12.0,0.1552703734776183,3.300658902688464,2.9471504964196287,-0.2864370155582983,-0.05795720308604497,-0.2560938446579452,-0.053268416326483096,0.05817014187150143,0.9968845006610442,-1.7919245431815491,-2.0259832403964446,4.148771086822525,0.7204804388534853,1.3510776783092497,-1.560496510553686,3.0,0.4919910271886059,0.493843705888575,0.3284447574406864,-0.691675363474787,0.006233967471838105,-0.5050794212247057,0.5161793365361477
12.100000000000001,0.021545551309012922,3.5316393397452615,2.9885879454547015,-0.30051448841792094,-0.07532085651880972,-0.257067345384348,-0.053280623855282074,0.05822578326007027,0.9968806002447637,-1.7926612708341494,-2.0252555072518854,4.148880340226109,0.7208186823078613,1.351029396057129,-1.5605319182025355,3.0,0.4919649597140941,0.4938496465356392,0.3284526957045769,-0.6916649633649735,0.006227830079920798,-0.5050661347740601,0.5162063464257449
12.200000000000001,-0.2717166895514517,3.3129967134285616,2.8146968612587204,-0.3042989147684476,-0.0751183931354157,-0.2572738543350056,-0.05329918142782358,0.05821127060475893,0.9968804549334057,-1.7941746792927042,-2.0243233602375796,4.149066900129224,0.7215263086506347,1.3507657051086426,-1.5605302117528803,3.0,0.4917260715207351,0.49354973344561637,0.32867941656955807,-0.691530299091275,0.006272441364166278,-0.5051607286836894,0.5162936568599589
12.3,0.11666999865127937,3.234457367446525,2.667381097081253,-0.24972593867503826,-0.05080068667289271,-0.2569639320743217,-0.05332216032336873,0.05814791203584752,0.9968829241759702,-1.7960519790649414,-2.0236052358496606,4.1493561337049565,0.722184565892273,1.3505616188049316,-1.5605760559342863,3.0,0.4914195229105027,0.4932185656634984,0.3286728040722754,-0.6915171004335725,0.0063033945051979585,-0.5051574531335958,0.5163141626657508
12.4,0.04347514030537982,3.183712757854591,2.851813970742641,-0.24747390669957944,-0.03757708596330068,-0.253315223186874,-0.052972871540948804,0.05776290160395528,0.9969237224277696,-1.7975413878546616,-2.0228221879163946,4.149571531300867,0.722750107155774,1.3502984046936035,-1.5605089998535822,3.0,0.4912215725162335,0.49301437402323506,0.32843297387437265,-0.6916524467291852,0.0062788720056516706,-0.5050887060526392,0.5162004142946214
12.5,-0.09218533733227394,2.9048458506047226,2.7898731348197154,-0.2791886264183072,-0.04701425921788002,-0.256254943245246,-0.05238956056422505,0.057181128882495186,0.9969882892670604,-1.7989497783057342,-2.0218540200796373,4.149814631870482,0.7234322482689685,1.3500337600708008,-1.5605438391314905,3.0,0.49084602510545255,0.492686866814319,0.3282844219347296,-0.6917348929278788,0.006233058727749887,-0.5050463891434445,0.5161318937036546
12.600000000000001,0.15466053983151537,3.158591452631774,3.005117605333806,-0.271882477216489,-0.04604103644962506,-0.2522578908954947,-0.052254259432160666,0.057056788439773354,0.9970025071717753,-1.8005822203084492,-2.020894652756213,4.150029398940886,0.7241060255867368,1.3498518546516107,-1.56052099379234,3.0,0.4903723653810847,0.49225348751520737,0.328349599398513,-0.6916576606214527,0.00625903460806972,-0.5050765542611009,0.5162055591769311
12.700000000000001,0.1225684246904594,3.2084254730568147,2.9433116786782985,-0.26522350879273904,-0.04313793290209743,-0.2482245484613958,-0.05213399772815356,0.05692409152870476,0.9970163832526943,-1.8023524499422288,-2.0199014125718806,4.150222536165479,0.7247728413503789,1.349613633106046,-1.5605328765546658,3.0,0.4901195877984151,0.49200537241341846,0.3283465316378187,-0.6916512385521467,0.006259065831133053,-0.5050752873925377,0.5162154030727368
12.8,-0.053758673402237445,3.4024907624750624,3.074818546251646,-0.2755324866520642,-0.046972730056245804,-0.2532716715519439,-0.052025471011324945,0.056784874220149405,0.9970299926148358,-1.8037717165747746,-2.0189315281310023,4.150449283572773,0.7253570086556359,1.3493442497388817,-1.5605969853823687,3.0,0.4897707948880221,0.4916099781250501,0.32827646647688896,-0.6916868324785783,0.00626872407218471,-0.5050644837570778,0.5161781631582789
12.9,0.27123353477972995,3.00609236095472,3.041481646398898,-0.28104782240470955,-0.04950851172269993,-0.24708036352663093,-0.05216744340487366,0.05691424088092971,0.9970151093381903,-1.8052871372932482,-2.018103485838975,4.150674611263451,0.725974597743719,1.3491696541954326,-1.5605568676241703,3.0,0.48926041198871095,0.49109473977375545,0.3283074158171549,-0.6916513358876075,0.006270398978188398,-0.5050850398279687,0.5162055929603261
13.0,0.2513048863568916,3.3502616978377775,3.017298176077544,-0.2690399552724515,-0.03871429835834361,-0.2110144938472002,-0.05251819440316134,0.05726745898089749,0.9969764788579624,-1.8069288181305765,-2.0171587174518266,4.1509154829611346,0.7266074854084472,1.3489184379577637,-1.5607016284938813,3.0,0.4890577381479418,0.4908747093146788,0.3282738173842302,-0.6916526382635952,0.006261054095557422,-0.5050919458507064,0.5161972040038266
13.100000000000001,0.22937368400160005,3.3692782791991993,3.1650074524918335,-0.2689244501693889,-0.03199791314383425,-0.21441227643265073,-0.05280228784098456,0.05758117045702272,0.9969434407241977,-1.8084851799415291,-2.016248493053702,4.151155397394958,0.7272669191948238,1.3487256149288318,-1.5606997436805323,3.0,0.48872469568183474,0.490515968577103,0.3282034082736239,-0.6916892435603725,0.006259554564114837,-0.5050892773913241,0.5161507824113495
13.200000000000001,-0.05525007851432287,3.207042891921505,3.2101319713422667,-0.28069203571807905,-0.03130982156391333,-0.22997912549457059,-0.053029128411299004,0.05786094928567604,0.9969152059146008,-1.810053825378418,-2.015288798991927,4.15138352245145,0.7279388147541503,1.348475402610157,-1.5606151875306775,3.0,0.48824114792907203,0.49006170460495285,0.32815906845437054,-0.6917062218730907,0.006244351492176666,-0.5050707963434152,0.5161462984247057
13.3,0.1916698765571801,3.30899715392397,3.337500825941297,-0.2779650408225713,-0.031694181914155156,-0.22827698095486232,-0.05304635471508453,0.057909601700830975,0.9969114909137063,-1.8116114205672225,-2.0143899055075574,4.151599163709208,0.728633556357136,1.3482723064219175,-1.5606277624713343,3.0,0.4879785688149226,0.48984355214607017,0.3281752226196232,-0.6916783370070128,0.006228600307021084,-0.5050497465387108,0.5162044519128179
13.4,0.1301428045366287,3.324298365361676,3.2056097081829775,-0.28235967808407214,-0.034821724537966565,-0.2231808716514195,-0.052877874659351065,0.057753489213528554,0.9969294990735762,-1.813132982601699,-2.013467698850626,4.1518025398254395,0.7291609297968363,1.3480546473136519,-1.5606869183016612,3.0,0.48752283357337006,0.4893502828867797,0.32815074959154705,-0.6916601860736405,0.006246205087593751,-0.5050700007073804,0.5162087429596943
13.5,0.08191384599982374,3.331389450839111,3.03390409153664,-0.27460424328750516,-0.037336952987085704,-0.21551905319323614,-0.05278224018267385,0.05764868152551532,0.9969406508619623,-1.8146906255111925,-2.0124965988924433,4.152054316581318,0.7297717532130674,1.3478388846461877,-1.5606635435425709,3.0,0.48730176747821236,0.48914100988969117,0.3281380788551268,-0.6916674231510999,0.0062181230574736715,-0.505072426608921,0.5161970113982991
13.600000000000001,0.17659073767423566,3.2220253044516354,3.2506112659668833,-0.27663277691680876,-0.03333960864732615,-0.21636509106007373,-0.05275300175116413,0.05759063626035667,0.9969455533218837,-1.8162951361441135,-2.011503367500786,4.152270289039067,0.7303602499206445,1.3475871086120605,-1.560686396201249,3.0,0.48697803039922183,0.4888062838697365,0.3281339777190854,-0.691663796952698,0.006247024704707721,-0.5050738520673057,0.5162001265257589
13.700000000000001,0.19081240536767388,3.314668883521105,3.392515177694649,-0.2845905547372508,-0.03908645071042183,-0.21812517926772976,-0.05241186593413028,0.057234930909117465,0.9969838237540531,-1.8177900314331055,-2.01061494707698,4.152499200376985,0.7310440609719511,1.3473576658319726,-1.5606883835048178,3.0,0.4864675143630688,0.4882738263989623,0.32809240724760863,-0.6916881056750452,0.006249286545384808,-0.5050635744079642,0.516177582515545
13.8,0.18910984570577924,3.317850291477435,3.199844819092,-0.2960718987538324,-0.056469222001738664,-0.21738736021419014,-0.051786597582121535,0.05660812700527055,0.9970524887755875,-1.8191814489866196,-2.0096454336702356,4.152702808380127,0.7317137862564473,1.3470955021387978,-1.560699764882223,3.0,0.486251677778559,0.4880723672348884,0.3280919344112191,-0.6916782646223765,0.0062395526895834665,-0.505062262898864,0.5161921704430343
13.9,0.17884716150106883,3.4146148809236987,3.2918275131842827,-0.2698832182376689,-0.03390894156686315,-0.2168937198298119,-0.05213539871890173,0.05691813781955755,0.9970166073666549,-1.8209082122489912,-2.008830358927159,4.152930112721437,0.7322567283743888,1.346855640411377,-1.5606648066141422,3.0,0.4859455790622782,0.48775673103397127,0.3281628545011321,-0.6916069876379369,0.006263557162722379,-0.5051127185091742,0.5162380110979041
14.0,0.15834708722578889,3.2339738418312725,3.264653684312958,-0.2574278416577305,-0.02707713998762051,-0.2179902552236406,-0.05262929314817289,0.05739773076272366,0.996962797428922,-1.8225576508715757,-2.007954347405576,4.153172051832699,0.7329490122014533,1.3466396175090534,-1.5606763147657507,3.0,0.4853998249943892,0.487194872735275,0.32800347606472313,-0.6916813198774442,0.006247959476757974,-0.5050780178053396,0.5161725590001882
14.100000000000001,0.020380033071019904,3.4945980983759,3.237760816327795,-0.273695080548473,-0.04285899779367647,-0.21430654790640633,-0.05326809584658457,0.058046689583189495,0.9968910818248963,-1.823900248005194,-2.0069834380926648,4.153421351714057,0.7335011580449003,1.3463635632891342,-1.560723606740133,3.0,0.48515132083282925,0.486938634632664,0.3278995558446123,-0.6917456201763683,0.006255205823059991,-0.5050455552230105,0.516118064512766
14.200000000000001,0.2214448904673303,3.4244689591497854,3.232000636405219,-0.28799139740811086,-0.04957622946135021,-0.20326388586318678,-0.05390689854499623,0.05869564840365532,0.9968193662208705,-1.8254701147514605,-2.00597801710322,4.1536486236768075,0.734088075606877,1.346124935127483,-1.560700154125483,3.0,0.484863913769956,0.4866493176854881,0.3279687868355485,-0.691689100469563,0.0062664150593315406,-0.5050775636550794,0.5161623533600259
14.3,0.18115001839037076,3.4123522783923437,3.556201404457793,-0.285247099549121,-0.041607803634176904,-0.20797911485371676,-0.05308747672233419,0.05788376239012603,0.9969104693130411,-1.8271752486835908,-2.0049479499321956,4.153901500622302,0.7347590548147032,1.345919680998935,-1.5607593695269983,3.0,0.48433362585219064,0.48616077501577565,0.3280132402714677,-0.6916519506387556,0.006257296839545327,-0.5050849228852763,0.5162050426795931
14.4,-0.141108469671828,3.2111062794585403,3.536764744435087,-0.29240874488500795,-0.034330323338358795,-0.19615108859248181,-0.05258370077830484,0.05739057243400539,0.9969660196029606,-1.828654967017233,-2.0040386371883283,4.154153008129567,0.7354302653953352,1.3457035888030884,-1.5607608369534582,3.0,0.48409669372960723,0.48590591197203525,0.327994856486962,-0.6916664069902959,0.006260198336758032,-0.505078450252057,0.5161919705389645
14.5,0.08322860422384082,3.402553447909835,3.465622052393671,-0.2828168776298996,-0.04219495380379794,-0.1906049492516316,-0.052429549797288005,0.05725027808809749,0.9969822032885919,-1.8300588341605217,-2.0032364330687464,4.154439434140979,0.7360162036916378,1.3454761429280337,-1.560795124729202,3.0,0.4836192432488582,0.4854571459322322,0.327991907361642,-0.6916387527119626,0.00624276590965697,-0.5050818604513122,0.5162258980948933
14.600000000000001,0.38549131358653754,3.0966279943542596,3.4618182987180446,-0.26665441759653086,-0.03603023947004835,-0.19178459077173157,-0.0522921241085266,0.05712083440901679,0.9969968524295235,-1.8316541124991685,-2.0024450636098234,4.154632400000219,0.7366510420512953,1.345224380493164,-1.5607715989339561,3.0,0.4834153187443956,0.48524530877842,0.3279875219066684,-0.6916212925172596,0.0062564823161873236,-0.5051043593730937,0.5162271111711192
14.700000000000001,0.4692597291282306,2.9464161280028067,3.391256098163828,-0.26922682618599675,-0.028238508751150835,-0.18061821854751878,-0.0521734494187523,0.05700355559017165,0.9970097811672676,-1.833411313910426,-2.0014367524591017,4.154871463775635,0.7372513391813891,1.3450207710266113,-1.5607720709636934,3.0,0.4829594359072103,0.48481611847174416,0.3277701535576953,-0.6917513204246226,0.006217505133661672,-0.5050298772675849,0.5161262213720519
14.8,0.16398443212414698,3.3170437028679753,3.6450771044093804,-0.28788495587475976,-0.04456938835491603,-0.17890569750503157,-0.052293976877635824,0.05714409571398328,0.9969953055515975,-1.8347870920548783,-2.0003746355799454,4.155099012684899,0.7378347348660294,1.344829887312118,-1.560792994564086,3.0,0.4827174082693827,0.4845623719737455,0.32775027935571327,-0.6917505817099417,0.0062235958970830235,-0.5050258294317312,0.5161310988158523
14.9,-0.016498304209326298,3.549485305661457,3.686782780117115,-0.29554413532464785,-0.0563422319019774,-0.17812000853282073,-0.05269069033892427,0.05758231703972464,0.9969491885026862,-1.8363003425201847,-1.9992568171829972,4.1553031312135,0.7384149037873019,1.344565498017647,-1.5608300871659262,3.0,0.48235790181940236,0.4841828769383858,0.32783738265701173,-0.6916889645096929,0.0062301193251274554,-0.5050573386508068,0.5161827647875001
15.0,0.34653893568232963,3.06450334827191,3.542380732552153,-0.2840719359253904,-0.05625132474898661,-0.1753087840152465,-0.052983853360505206,0.05791438667562585,0.9969145489182047,-1.8379030227661133,-1.998431978146506,4.155556509666025,0.738990659483621,1.3443724159531358,-1.5608088251154857,3.0,0.4818512854487182,0.4836732658219092,0.327998187135855,-0.6915970808980967,0.006232258350919401,-0.5050930591342211,0.5162708962003507
15.100000000000001,-0.01455169303743642,3.1075436006648562,3.140637456801557,-0.28804378746590587,-0.05331053558425187,-0.17499166328753182,-0.0533053339879514,0.05826956846333564,0.9968765868131573,-1.837895393371582,-1.9984356759133854,4.155554294586182,0.7390109357883359,1.344301739945469,-1.5608074104455554,3.0,0.48162450356179665,0.48345540128094866,0.3279388177816984,-0.6916259383191995,0.006232233672760572,-0.5050788569303251,0.5162461321787231
15.200000000000001,0.08035708151577486,3.181570070876178,3.218106916964878,-0.28846397884306385,-0.05286015092683753,-0.17591480243553823,-0.053822712515096904,0.05881810320910194,0.9968166795664711,-1.8379078490936132,-1.9984485691191467,4.155590188126178,0.7390350769317985,1.344337594132037,-1.560819451008932,3.0,0.4815418578566898,0.4833921873140256,0.3278643845446523,-0.6916738346729701,0.006206476172404241,-0.5050565791520201,0.5162040661769042
15.3,-0.09755842071139953,3.2741481515096846,3.1753112069188716,-0.27975565293383886,-0.05172512138641046,-0.17654414499690174,-0.05258805712149551,0.05748659563441693,0.996959195196626,-1.8378839492797852,-1.9984470516597879,4.155555063446451,0.7390350002395842,1.3443371713557952,-1.560819451008932,3.0,0.4815288982362021,0.4833727042983266,0.327858802322371,-0.691664611808553,0.0062188899014897474,-0.5050707371347191,0.5162024221856272
15.4,-0.08615760194712342,2.9876607874966443,3.2224191852408257,-0.28057082977224745,-0.049706523655927266,-0.18103959119915705,-0.0520204973549887,0.05686179888899826,0.9970257612327643,-1.8379320793112288,-1.9984480224010202,4.155554740901805,0.7390233713337402,1.3443255424499512,-1.560854277300148,3.0,0.48153963473220496,0.4833516538841217,0.3278555699049793,-0.6916711723469535,0.006239883134542722,-0.5050694551648018,0.5161946325391119
15.5,-0.13776568271230585,3.3351959578807113,3.179072321512765,-0.26826534281501074,-0.05263509429944121,-0.17724695034544055,-0.05251875159076928,0.05736836204252834,0.9969707056273145,-1.8379429198499417,-1.9984717566835108,4.155542888231375,0.739035806836844,1.344314136095145,-1.5608556513235903,3.0,0.48154046537903694,0.48334116744410144,0.3278732629655033,-0.6916495178933589,0.0062400667399203445,-0.5050821341275042,0.5162112394651739
15.600000000000001,-0.11040559787897958,3.4374095209963675,3.190471468741141,-0.26481893820263736,-0.04895831926508172,-0.18402915339500472,-0.05207592823033866,0.05689114545956484,0.9970210017761646,-1.837942879464455,-1.9984240244168576,4.155542850494385,0.73901108061339,1.3443139913123912,-1.5607838940793035,3.0,0.4815377236906538,0.4833513722140976,0.32784970196884394,-0.691661604815564,0.006231552189993149,-0.5050818270027714,0.5161954476870216
15.700000000000001,0.09000621824480137,3.0005903469860398,3.1774060231589556,-0.27320184302721523,-0.05723732425588693,-0.1839010606871272,-0.05154201547543345,0.05631870622880446,0.9970814952005047,-1.8379201889038086,-1.9984269275832534,4.155559571729657,0.7390491499047839,1.344301700592041,-1.560849138250363,3.0,0.4815492060514252,0.4833481116202509,0.32784543807836386,-0.6916744780567412,0.006234659861247566,-0.5050796757959044,0.5161802655267378
15.8,0.018928749461170635,3.206697814530998,3.22033989235154,-0.2687855623973785,-0.056532464208127714,-0.1769052965331626,-0.051984352799704474,0.05676079611738544,0.9970332126147157,-1.8378850644227689,-1.998412631059285,4.155531277934079,0.739023928905232,1.3443019905292168,-1.5608078088657227,3.0,0.48154404770790404,0.4833554906877078,0.3278652023019857,-0.6916694627602239,0.006233360561519451,-0.505069926986077,0.5161965404333627
15.9,-0.036030591341855836,3.5114834810906794,3.3706311118182954,-0.2610994635365094,-0.054449606151165016,-0.17830534896787958,-0.052533177966950756,0.05731354926721339,0.9969730649106202,-1.8379200450731672,-1.9984238440512179,4.155554417869588,0.7389999198732852,1.3443138415177234,-1.560831115097456,3.0,0.48154790495876904,0.4833449078902135,0.3278565065671041,-0.691674674618197,0.0062512317164874365,-0.5050786610174647,0.5161807946627262
16.0,0.1652067766416912,2.9966644988393503,3.2530116618531273,-0.2768363084603311,-0.06662828849893299,-0.17824880918213487,-0.052329027573920425,0.05712134466397317,0.9969948106029889,-1.8379426859659713,-1.9984477611979912,4.1555651356991055,0.7390355572424117,1.3443140983581543,-1.5608077337890556,3.1660552239189856,0.4815571769657609,0.48333681784049787,0.3278774134243457,-0.6916599828914741,0.006251793205779952,-0.5050908578447061,0.5161885396538526
16.1,-0.13615178346782286,3.052831862055658,3.3195879987742996,-0.273998732286135,-0.0622287618550929,-0.18525381585227085,-0.05202980210735367,0.05683507736216614,0.997026896631886,-1.837884262109538,-1.998411972446225,4.1555543372447845,0.7390708773053828,1.344314141016757,-1.5607956535870662,4.0,0.48154951342308533,0.4833444879671929,0.3278455874944897,-0.6916673214736049,0.0062430719263597825,-0.5050770193188802,0.5161923527275535
16.2,-0.3005904967182974,3.146996936772384,3.2969361434110405,-0.270201620056314,-0.05859398745559029,-0.1857834856008663,-0.0519953868048875,0.05682179199974832,0.9970294696337948,-1.8379316556290484,-1.998459470972656,4.155565724383172,0.7389995443662529,1.3443255353025483,-1.560843754515769,4.0,0.4815392876734704,0.483350492017376,0.32782921937971216,-0.6916822321743655,0.006238666095020518,-0.5050596845811051,0.5161893874833894
16.3,-0.1099763680236098,3.2231609937733237,3.407290143218233,-0.2684533226686739,-0.06141010586157015,-0.1833217223697056,-0.05220178308641277,0.0570548931893149,0.9970052939997076,-1.8379201240486098,-1.9984594628276755,4.155554279619597,0.7390233077257568,1.3443255424499512,-1.560831356347695,4.0,0.48153553696356644,0.48334321638175703,0.3278632786057476,-0.6916563099117508,0.006244384996552358,-0.5050734518920831,0.5162105818453266
16.400000000000002,-0.2573586678836682,2.859648862554977,3.437339483490526,-0.2762204673305812,-0.056865860008763314,-0.18112340837674643,-0.052495186073696305,0.057345688616402754,0.9969732627292041,-1.8379319345284657,-1.9984594784178675,4.1555306511051535,0.73899952947583,1.344325447229048,-1.5608312727494462,4.0,0.48153680889783557,0.48335549912276204,0.32783540912305936,-0.6916844105313229,0.006227328229992864,-0.5050647895580919,0.5161816104431586
16.5,0.012785343386110403,2.833856058351895,3.5281774954013603,-0.27321160949452916,-0.0634138697076622,-0.185311955788933,-0.052310130986234875,0.05709091734731285,0.9969976211418726,-1.8379128915578247,-1.9984651000769957,4.1555304527282715,0.7390013171325446,1.344319287581965,-1.5608174471345586,4.0,0.4815584054019036,0.4833263850430067,0.32784380931006685,-0.6916805203780354,0.006250367919122433,-0.5050824590297853,0.5161692553909725
16.6,-0.17156118349661517,3.1925600267320906,3.435380471253192,-0.2660770198301343,-0.058708870675874346,-0.18091849485483183,-0.05257766712068236,0.05740273086645679,0.9969655706566518,-1.8379201889038086,-1.9984348449983307,4.155542850494385,0.7390117967917186,1.344325954061997,-1.5608202584017912,4.0,0.4815417570825489,0.48335037634803074,0.3278466843105275,-0.6916772337512594,0.006232677967591214,-0.5050656570328814,0.5161903138586598
16.7,0.09531925402165836,3.180248621318184,3.3581024047880526,-0.26742427465457774,-0.06549745696298376,-0.185629387622844,-0.05272569888590794,0.057572534623714706,0.9969480127779629,-1.8379201889038086,-1.9984475201210041,4.155565683373474,0.7390110483034437,1.3443255424499512,-1.560819469692886,4.0,0.48154081779937863,0.4833414171489911,0.32787459957955983,-0.6916563027118598,0.006235491628067323,-0.5050798059185082,0.5162044819801921
16.8,-0.13991857298325938,2.922010239183963,3.1996862636309125,-0.26854534439326655,-0.05850621668614265,-0.18346827489204437,-0.05247573997814922,0.05725908403827216,0.9969792660223,-1.837967872619629,-1.9984118563288205,4.155554279795756,0.7389995442662556,1.34433795500649,-1.5608194201955452,4.0,0.48155349190125935,0.4833278897487351,0.3278680190805536,-0.6916592628369886,0.0062670502934645995,-0.5050846110753611,0.5161954318543159
16.900000000000002,-0.23890646585194136,3.1059123180486936,3.1625099702788044,-0.26623503764049034,-0.05476330811263875,-0.18290021042227597,-0.052492431791666835,0.05727552279941128,0.9969774581298351,-1.8379199980604128,-1.9984587968343115,4.1555654115178715,0.7390231941220156,1.3443135803546518,-1.5608077004758658,4.0,0.48153640618304194,0.4833463052560497,0.32785614521972434,-0.6916667317679186,0.006232592646312603,-0.5050767607816261,0.5161935225017176
17.0,-0.24935539514852786,3.2171759580718198,3.4205031873860263,-0.26599322706890505,-0.05607914382315595,-0.18276804460410298,-0.05269022159316726,0.057492526496052666,0.9969544458862564,-1.837931669874463,-1.9984475574889125,4.155518080195061,0.7390233470713339,1.3443255550664024,-1.560843744956346,4.0,0.48155099153456926,0.48333595144163666,0.32787948221032676,-0.6916570470868199,0.00626391222486794,-0.5050879627382548,0.5161951593299761
17.1,-0.04699116515850285,2.8623120484610305,3.474312288959272,-0.27233566180742314,-0.05842682787863775,-0.18388365528558412,-0.05316183767538167,0.05799717586164659,0.9969002027737889,-1.8379426620123442,-1.9984360689298095,4.155531092635653,0.7390001866780055,1.3443023577942164,-1.5608070977101247,4.0,0.4815459309030427,0.4833470542562705,0.32785616580224625,-0.691667876827161,0.006251031585713349,-0.5050751048852464,0.5161933854619595
17.2,-0.48263631414424185,1.5985268000529,2.442780599003986,-0.163016613612106,-0.0870289885539628,-0.17133287868551506,-0.05269486670050231,0.057528374264185195,0.9969517171839396,-1.8379314277523142,-1.9984117947020472,4.1555544919355,0.7390474105409688,1.3443378375944188,-1.5607957078256811,4.0,0.4815479078520666,0.48333984201987384,0.3278413198323,-0.6916782927464755,0.006241237692557936,-0.5050792422425321,0.5161754985962579
17.3,0.42618252016780944,0.5552746206840081,1.4715369174308544,-0.05448835477079182,-0.02767204421759826,-0.18079754865588263,-0.05197892397433104,0.05680135283592928,0.9970312850766303,-1.8379069664218557,-1.9983999889145894,4.155542611000071,0.7390709353024034,1.3443617820739746,-1.5608198010390835,4.0,0.4815412963037229,0.48334384035019146,0.3278482803454533,-0.6916743677348844,0.006243489419188737,-0.5050675547074468,0.5161921667753786
17.400000000000002,0.44057373052668325,0.3032896878348347,0.7984326512726148,-0.002158424155395293,-0.01829477298628157,-0.178725654477991,-0.0522057225524949,0.057029623827592794,0.9970064704854944,-1.8379317446327914,-1.9983998737730921,4.1555427295541,0.7390701013752441,1.344349442452229,-1.5608553975853423,4.0,0.4815329499527789,0.4833510640247997,0.32789000843149896,-0.6916386480769321,0.006241631492358375,-0.5050786412282404,0.5162292017095331
17.5,0.11926713337489558,0.018461557363691428,0.4535575447554422,-0.008195817379249086,-0.02921327723088622,-0.1759941260533039,-0.05257019232278146,0.05740083341134257,0.9969661573658406,-1.8379068863921575,-1.9984117073292285,4.155565609366207,0.7390110190014927,1.3443255005109982,-1.5607957856441157,4.0,0.4815436245549575,0.48332248815978307,0.3278971786674221,-0.6916349159530257,0.006264007291906055,-0.5050907850576415,0.516222049216375
17.6,0.26315405983730045,0.09711014005549114,0.19201853537019253,-0.010720910876225873,-0.03158937077678845,-0.17884635610197927,-0.0525837229086543,0.057425724199896375,0.9969640104034078,-1.8379316378706179,-1.9983760395323888,4.155578136444092,0.7390233662556022,1.3443017032326727,-1.560831369398818,4.0,0.4815402869199721,0.48333140566507143,0.3278620751783977,-0.6916629894823025,0.0062376852735010055,-0.5050798418093313,0.5161954607129883
17.7,0.021727763770930292,0.14954813235493405,-0.08825321414444777,-0.009259713986010304,-0.036523195678381054,-0.1812101132577319,-0.052312509804588285,0.0571599944780571,0.9969934746726816,-1.8379431948170113,-1.9983878302091278,4.155565375678351,0.7390234988741499,1.3443255424499512,-1.5608436421635907,4.0,0.4815315327960082,0.4833466925134369,0.3278974267280114,-0.6916481736155504,0.006229950542236104,-0.5050734364352493,0.5162216727899003
17.8,0.30238821610400757,0.2551410142666784,-0.0284875375914021,-0.005674269788043902,-0.045543220571135204,-0.17994297591505942,-0.05227482989233927,0.057129432653892996,0.9969971087530363,-1.8379164375457921,-1.9983852627636562,4.1555472813016525,0.7390309690586468,1.344340153459387,-1.560819451008932,4.0,0.48153251681716536,0.4833460855092733,0.3278805611644391,-0.6916610413251382,0.0062402688746240565,-0.5050711397637376,0.5162065543318457
