xiamingqian9007/apple-picking-rnn/final_data/grasper_20191127_133744_noimg.csv
,/manipulator_wrench.fx,/manipulator_wrench.fy,/manipulator_wrench.fz,/manipulator_wrench.tx,/manipulator_wrench.ty,/manipulator_wrench.tz,/ground_truth.x,/ground_truth.y,/ground_truth.z,/joint_states.elbow_joint,/joint_states.shoulder_lift_joint,/joint_states.shoulder_pan_joint,/joint_states.wrist_1_joint,/joint_states.wrist_2_joint,/joint_states.wrist_3_joint,/mode./mode,/manipulator_pose.x,/manipulator_pose.y,/manipulator_pose.z,/manipulator_pose.rx,/manipulator_pose.ry,/manipulator_pose.rz,/manipulator_pose.rw
0.2,0.02500559341055198,-0.011807868156767263,0.23848136785459625,-0.0197008807676734,-0.0005809129570430965,0.020609564831237305,0.056234675852420986,-0.09856520930773532,0.993539964323489,-1.2229085892541618,-1.8193850414284611,4.1722893714904785,-3.581154870181772,-1.3521644499751866,2.0337484490215374,1.0,0.46149682181910034,0.4744729654740062,0.38669991333882797,0.800104402018972,-0.15075020050352106,0.3207616992815483,-0.4839620389989537
0.30000000000000004,-0.1132211407275256,0.7446563491809403,0.12416694970952027,-0.027204184234825502,0.005595131561076131,0.06061419691977757,0.05664660062228722,-0.09957576816982633,0.9934157703572103,-1.2212854749895543,-1.8214363239463511,4.171930962456394,-3.5809917812032315,-1.3524801192403328,2.033669284856097,1.0,0.46151651385003806,0.47448824816693513,0.38668450572793667,0.8001128672483082,-0.15075404712177404,0.32076379313217396,-0.483945457624676
0.4,0.2008946185521039,-0.31432597792133565,0.2800309291801164,-0.014439744007089642,0.005464217507302393,0.13510878271410862,0.05672124844905688,-0.0997300849968557,0.9933963289859328,-1.2182085212816471,-1.8244433103293272,4.171171256168581,-3.58063708216211,-1.3532727400409144,2.033471039668821,1.0,0.46187560983888043,0.47481650601193476,0.386479775475027,0.8001309108144615,-0.15078080816913542,0.3207484456319002,-0.4839174599782517
0.5,0.0465815496418041,-0.1578240243067329,0.6369842445262038,-0.019835190394200976,0.009854682323059055,0.21680464614981818,0.05642956234330139,-0.09895439306307974,0.9934906648260967,-1.215092636961705,-1.8280105162676414,4.170613471514624,-3.5803143667110953,-1.3538040947535552,2.0332196782170113,1.0,0.462914997317946,0.4758952985972202,0.38592811506826064,0.8001435789549467,-0.15079169899164263,0.32069892610882145,-0.4839259399588245
0.6000000000000001,0.19602016305565004,-0.20814699338567438,0.5864942914325528,-0.020889733238360648,0.0018347770184855077,0.24965855637615375,0.05660555170780044,-0.09922744326371319,0.9934534303085959,-1.2119462159519152,-1.8312870053462513,4.170031942309755,-3.580031613151623,-1.3543275827519652,2.0329924418931795,1.0,0.4638598172466388,0.4769474603985974,0.38548807234477395,0.8001250391749348,-0.1507439562970958,0.32071476111658614,-0.4839609729380455
0.7000000000000001,0.3895130346986245,-0.13339845593501867,0.44725652788571435,-0.021370549139261744,-0.0016687761966883334,0.24829260555903773,0.057992073188724236,-0.10275978371635734,0.9930137040658367,-1.208911101251088,-1.8346216490117027,4.169348873814903,-3.579702119344925,-1.3548856679083805,2.0327649116516113,1.0,0.4648871306748132,0.4779769563823253,0.38503298441794737,0.8000959660656654,-0.15077001103623747,0.3207719606777777,-0.48396301315339885
0.8,0.32459938636732694,-0.008587563541296445,0.40900948230671796,-0.01894482218709098,-0.003854076352723767,0.23996526490116815,0.0581215927772974,-0.1030716848457783,0.9929743743301092,-1.206026312959716,-1.837758399418544,4.168676853179932,-3.5794321499266566,-1.355582034416306,2.032560365345686,1.0,0.4656891539234284,0.47880986952489524,0.3846454954316045,0.8000868175247444,-0.15076901287673292,0.3207832629860285,-0.4839709571527391
0.9,0.33875949148891077,0.20604516854241817,0.5269547666674519,-0.014125695378162788,-0.003918912316213002,0.23953832058828042,0.0576262967775369,-0.10181342969486706,0.9931324403315273,-1.2030974475270018,-1.8411425089757867,4.16811917259676,-3.5791685133244497,-1.3562180682607416,2.032333086999066,1.0,0.4666810361898079,0.47979605417897575,0.384096845669122,0.8001254433980255,-0.15075639143456235,0.3207505503425295,-0.4839327119793686
1.0,0.4225643831311071,0.07542152516754919,0.4848156581583854,-0.015173403790154414,-0.005294758053569732,0.23932249900143504,0.057200583735619745,-0.10071215351869045,0.9932697971519928,-1.2003721013156907,-1.8437912587814305,4.167509190489295,-3.5789528542986884,-1.356787663127227,2.032123274630447,1.0,0.4672702924201387,0.48043347205250436,0.3837365815799889,0.8001611016356908,-0.1507363430121849,0.32071574577456685,-0.4839030654343225
1.1,0.47291486531754945,-0.24236114713247486,0.646145027925304,-0.019366113648306375,-0.007353335520725481,0.23471145824879208,0.05693867251708132,-0.09999621438546293,0.993357270036542,-1.1975576665114671,-1.847011713142861,4.166836864567316,-3.5786882926576435,-1.3572679153255003,2.0319132804870605,1.0,0.4676923933207168,0.4809230549579651,0.38346988060746817,0.8001857285792368,-0.15071669825393905,0.3206893479025473,-0.4838859563857857
1.2000000000000002,0.5200271234528336,0.05335534374037142,0.3924002592454502,-0.02172161600031316,-0.007620728058049398,0.2307737444008192,0.0568145616096689,-0.09993496922534807,0.9933705730616327,-1.1949398292344582,-1.8495103591336373,4.166286742368243,-3.5785032441559554,-1.3577040687116608,2.031708240509033,1.0,0.4693934242948143,0.48249539863514856,0.382733548513172,0.8001342397406445,-0.15078876549427433,0.32075498309133355,-0.4839051429954553
1.3,0.39060289865453024,0.07303696720239469,0.591667361323043,-0.017330354219166986,-0.003032449550561727,0.233689754059307,0.05670487049779348,-0.09994223300512199,0.9933761147529525,-1.192354973148741,-1.852367294535048,4.1658426946544065,-3.5783107904733975,-1.3581493883730091,2.031578890811477,1.0,0.4700004262308267,0.48308517002906054,0.38252500871305345,0.8000871327703062,-0.15080067201840838,0.3208037861065989,-0.483946968286669
1.4000000000000001,0.44957306086746907,0.05430951295516086,0.6074781351214981,-0.013363812487961368,-0.0017878393233608516,0.23294188842900831,0.05713312868291017,-0.10092870265158178,0.9932510939679886,-1.1898356809382449,-1.8548308903809614,4.165392155804342,-3.5781483827818303,-1.3586601677692367,2.031367370054124,1.0,0.47059875141591073,0.4837170728445046,0.3822128234081811,0.8000957817922708,-0.1507882111822361,0.32081022404225024,-0.48393228397849
1.5,0.4188740774428721,-0.03823726471783346,0.4520612230831775,-0.012015711865797496,-0.003283619570686779,0.2316174244959461,0.057622709646819925,-0.10202679550322354,0.9931111898958885,-1.1873687876057228,-1.8576230753140828,4.1649327918128645,-3.5779571592647845,-1.3591325225456667,2.0312061256481835,1.0,0.4712848298765007,0.48445870753018533,0.38186517252602287,0.8000945891464808,-0.1507733087864158,0.3208058102452354,-0.4839418249015247
1.6,0.37451015455356357,-0.25694315930664274,0.5621508807797225,-0.02012943876205388,-0.007137491231800056,0.2258222648158131,0.05719163168091516,-0.1007694673602067,0.99326323912341,-1.1850059232070493,-1.8600939586728953,4.164494517982136,-3.57784333937624,-1.3596361427778512,2.031062602996826,1.0,0.4720440182582368,0.4853075966312081,0.38149623546977474,0.8000852936657377,-0.15074614425038374,0.3207752906775127,-0.48398588382742125
1.7000000000000002,0.2057358624099242,0.044909598879160795,0.4002910400719349,-0.014250135749290094,-0.002868354879046086,0.22732518007817815,0.05664045041962686,-0.09920486600849891,0.9934533747173883,-1.182582549477847,-1.8624746005167834,4.164038547004705,-3.5776808981349726,-1.360081100651191,2.0309000315023846,1.0,0.4728660114679909,0.4862253996293109,0.38105169492137664,0.8001126853938908,-0.150702808354233,0.320736148695975,-0.48398003796189504
1.8,0.45133688234455094,-0.11013832227854581,0.31932288170677836,-0.012229488143249645,-0.005273120983989689,0.22622561539563263,0.0565867303227449,-0.09906353945690262,0.9934708627061573,-1.180405488147114,-1.8648024972879802,4.163589196144324,-3.577614577815436,-1.360464907051377,2.030773446759245,1.0,0.4735412549905033,0.4869025514178714,0.3807447545089322,0.8001017784609854,-0.1507002889098487,0.32073144036715007,-0.48400197332869416
1.9000000000000001,0.32863847343425556,-0.08086295345258745,0.3739828361595105,-0.02035422519223707,-0.006077889586604389,0.23123402259449735,0.05672584960538159,-0.09948948972408321,0.9934200970601683,-1.1781901537494444,-1.8671917363350061,4.16320038873045,-3.5774717874064086,-1.3607941503492809,2.0306549175390436,1.0,0.47419287389110887,0.4875421393436886,0.3803763652724259,0.8001212203412341,-0.1507196360084479,0.32073306125848333,-0.48396273358275954
2.0,0.35733273914642394,-0.2245930134262205,0.305516552210038,-0.01486712598574418,-0.0039033889315766537,0.23008826783052033,0.057078030312501624,-0.10055194140922231,0.9932930891614927,-1.1760291101929161,-1.8692415519067893,4.1627863804059375,-3.577394052783147,-1.3611187695653744,2.0305236818787074,1.0,0.47491174420706184,0.4882387610709495,0.38005471889585135,0.8000981356126423,-0.15075749167316316,0.3207673613376815,-0.48396637485888555
2.1,0.2770614763901925,0.058285599753025163,0.5029256704818976,-0.018037737412227802,-0.004440652940685462,0.22809876905563134,0.05647311639636442,-0.09912454538134502,0.9934701148501456,-1.1741600838574495,-1.8716733753408605,4.162395961537506,-3.5772670927100267,-1.3614792839543077,2.0303687611312577,1.0,0.4754246108749887,0.4887801905054238,0.37985458195132304,0.8000689011669013,-0.1507563868141621,0.32078920513580234,-0.48400056930613833
2.2,0.3121469431943292,-0.15671262708210798,0.41533630956344136,-0.017287073766253293,-0.003725386347158747,0.22894365767168967,0.05620976199280166,-0.09853241056351933,0.9935443662888672,-1.1718900758129056,-1.8734929966756553,4.161922516580355,-3.577182582862468,-1.361844081927273,2.0302419045011875,1.0,0.47586316885462393,0.4892370529139076,0.37953066939257,0.8001231614149256,-0.1507505748921084,0.32076352391983254,-0.48392969784837014
2.3000000000000003,0.3506123654197142,-0.3164491123138372,0.314180820884084,-0.013762103374465436,-0.0021708498409468,0.2294967434436161,0.056880811232567836,-0.10027124869487268,0.9933325208880535,-1.1700402827725527,-1.8754319969738669,4.161522388458252,-3.5771172088826964,-1.3622450555568137,2.0301500934435124,1.0,0.47657077772140793,0.489898297885533,0.3791461863984292,0.8001433680223082,-0.1507725222796219,0.3207656968201346,-0.4838880086123767
2.4000000000000004,0.5288474029404523,-0.17435801479731627,0.47155750717655204,-0.022830959976144236,-0.013711430078395878,0.22874550797534915,0.05678450395583552,-0.10009573145951906,0.9933560128520101,-1.1682723721917652,-1.877702602505251,4.161252571530601,-3.577057500878805,-1.3626039663897913,2.029984297302555,1.0,0.47726780169959004,0.49054050928311554,0.3789328210912416,0.800087235597428,-0.1507949129214558,0.3208055623641397,-0.4839474153534704
2.5,0.5215898661706013,-0.050703106435945125,0.36715194559735503,-0.012646739987849386,-0.006425304093573534,0.22269947094314058,0.05652660159846409,-0.09943852526265243,0.9934366460567948,-1.1661620281163865,-1.8792651574029986,4.160898975708473,-3.5769738677921112,-1.3628860607579816,2.029918767677981,1.0,0.4776659620552323,0.49100130030006583,0.3786122701194078,0.8001496923284244,-0.1507750195542759,0.32075496817324545,-0.48388388456045506
2.6,0.13343210580785142,-0.07458643734684271,0.36474591016500624,-0.01796728222658714,0.0005831748909529743,0.2199819206332487,0.056235286934369015,-0.09854175476490172,0.993542604777233,-1.164501709351565,-1.8810996887378353,4.160567422856621,-3.5769006699024515,-1.3632203026411165,2.029768466949463,1.0,0.47821891782776377,0.4916359175429833,0.37838775244019013,0.8001126237933378,-0.150752715942953,0.3207487416286116,-0.4839562507355663
2.7,0.4066658395424708,0.19223872494939231,0.3873029730917645,-0.016676104750106117,-0.010472982005130041,0.2242887590804381,0.056518057468115966,-0.0991795604341948,0.9934626596331091,-1.1628353665155442,-1.8830240027517355,4.16030494603456,-3.5769072200151713,-1.3635210475701456,2.0296483039855957,1.0,0.47876333641311375,0.4921798185285429,0.3781959867763503,0.8000716030335072,-0.150761554443804,0.3207715730877385,-0.4840061793199541
2.8000000000000003,0.3652820123730243,-0.20733041604948613,0.4039861828672317,-0.020061158197265932,-0.005068714289586927,0.22763755384933781,0.056920711006129984,-0.10013782307028199,0.9933438932236531,-1.161019852558398,-1.884631379453266,4.159993518598777,-3.57682329057827,-1.3637791063337368,2.029546130903465,1.0,0.47924710099624723,0.49269317244457367,0.3778679580194148,0.8001178341806843,-0.1507555654871135,0.32074831365024975,-0.48394703242317005
2.9000000000000004,0.459885155551881,-0.051397201038275574,0.45679814256184237,-0.015735659791736367,-0.00576498529168094,0.222966476296495,0.05696228740317981,-0.10026130972544679,0.993329231807957,-1.15938051364959,-1.886216281577649,4.159718457116409,-3.5767809779943005,-1.3640469320028739,2.029457968253486,1.0,0.4797383954708191,0.49318320290221584,0.3777075033979232,0.800072596021286,-0.15076340362814683,0.32077683852132455,-0.4840004722006794
3.0,0.39973923575325104,-0.04384877634515662,0.4582896206123653,-0.019797881168853157,-0.008413401186183422,0.22434140719510273,0.05692490960323878,-0.10020226179239318,0.9933373342985083,-1.157881736755371,-1.8880264869963403,4.159424304962158,-3.5767316365417576,-1.3643004028516124,2.029360294342041,1.0,0.4802345277682625,0.49369347780516665,0.37742563358884273,0.8000927048072359,-0.15076796210846138,0.3207664211563874,-0.48397271449372603
3.1,0.42954149042292605,-0.1487899740353865,0.4376359831634972,-0.01829086167084059,-0.008294045107691442,0.2282304638125201,0.057225950377273425,-0.10082423254888155,0.993256882292802,-1.1562390888392484,-1.889532649017989,4.1591877374031,-3.5767007703558793,-1.3645378216139752,2.029279708627602,1.0,0.4806086324552269,0.49412908934652844,0.37715563521722323,0.8001325686995562,-0.15074099131612756,0.3207412292194052,-0.48393190628652105
3.2,0.4037130987432114,-0.04586613469202078,0.4844170123937493,-0.014166944924390018,-0.0055687515499789715,0.22825669981718907,0.05742523727100727,-0.10122483827933713,0.9932048008322034,-1.154758429088631,-1.8910416888012316,4.158945575790381,-3.5767041728510667,-1.3647785582887475,2.029204384565328,1.0,0.48093113725457903,0.49447559645563555,0.3770069940307635,0.8001291343272806,-0.15073519355175025,0.3207391658281784,-0.4839407580783389
3.3000000000000003,0.28506734511329046,-0.062011103341807865,0.3423768419869882,-0.015920295251428216,-0.006359541956234655,0.22208140201060436,0.057211967543743816,-0.10075712538293967,0.9932646783426697,-1.1532787857764446,-1.8925359479428454,4.15868278129036,-3.5766754590158047,-1.3650115172015589,2.0290809899412374,1.0,0.4814081894017677,0.4949596096860215,0.3767919464938142,0.8001218685519318,-0.15074923251913247,0.3207387896186794,-0.4839486472693171
3.4000000000000004,0.47396561304455254,0.08053646287085764,0.49006374123924135,-0.014379282727088308,-0.005775027775370273,0.2242704051543954,0.05692376219432026,-0.10007911491976201,0.9933495054249928,-1.151775554008447,-1.8939238199122348,4.1584296226501465,-3.576645592398354,-1.3652505190140471,2.0290024536809317,1.0,0.48187256578119186,0.4954379764432575,0.37656932154426165,0.8001167456442662,-0.1507421269352417,0.3207553611880519,-0.4839483472187817
3.5,0.3541190606815491,0.13923472784937344,0.4203241567436729,-0.015304144703403829,-0.0016997294355756793,0.22346756248153635,0.056616353366528455,-0.09934721226675333,0.993440726243027,-1.150437355041504,-1.8953137808921254,4.158154010772705,-3.576627163400477,-1.365509806660581,2.0289159695285033,1.0,0.4822983627419253,0.4958675059731313,0.37641976022923934,0.8000836177755992,-0.15074508897237252,0.320767878013241,-0.48399389578041496
3.6,0.43837497301007317,-0.01899519787180727,0.44193298602528164,-0.01935043119089358,-0.004767258843356549,0.22634462948815604,0.05696984828175547,-0.10027969667030426,0.9933263102705386,-1.14917106419927,-1.8967869534072002,4.157986164093018,-3.5766537982259567,-1.365709795451122,2.0288483598840847,1.0,0.4826534696176464,0.49619576839519874,0.376231024026886,0.8000950119543621,-0.15076895476762023,0.3207643293464971,-0.4839699775222848
3.7,0.4088905460911614,0.1581109597669447,0.6540398866084861,-0.01336437393639486,-0.005236255604911336,0.22444043576132788,0.057212808255190185,-0.10092883363046407,0.9932469178256895,-1.1478762276315932,-1.8980487951982108,4.157747749081505,-3.5766085420696534,-1.3659282200135008,2.0287756254872695,1.0,0.48295065164856826,0.4965095256994403,0.37600469010930687,0.8001386258392946,-0.15076265724351096,0.32074813196746577,-0.48391056659290055
3.8000000000000003,0.6474215121038538,-0.01114752899323459,0.4712022413675428,-0.015486868434563962,-0.0062907137531607905,0.2262777959816835,0.056709521982181724,-0.09968577955646367,0.9934013480616278,-1.146389426464156,-1.8992263722782101,4.157524553353486,-3.5765773002895243,-1.3661375229947794,2.0286993468988306,1.0,0.48338899997263657,0.4969824326834344,0.3757908013125025,0.800136363453659,-0.15074466903711098,0.3207504962490827,-0.48391834413670776
3.9000000000000004,0.38881922455625484,-0.09472505468495657,0.4066340485932202,-0.015049141677374474,-0.009789143479251451,0.22902226731205505,0.05678802363080191,-0.09985295134349309,0.9933802248825827,-1.1453002795569798,-1.900401525307291,4.157297295758324,-3.5765951750587175,-1.3663526797183918,2.028618065585765,1.0,0.48373816688108656,0.4973158726391939,0.37574315055148944,0.800069323134472,-0.15076055658018697,0.3207843161005579,-0.48400181332581543
4.0,0.4513029578817854,-0.0989966415228935,0.4625564495848779,-0.022957389108168903,-0.008145582984170039,0.22787420719100746,0.05681111614870342,-0.09990641158687473,0.9933733943259154,-1.144208661034688,-1.9018882872902343,4.157076371068498,-3.5765594162748546,-1.3665698333078982,2.028581142425537,1.0,0.48408117457178396,0.49766337088433027,0.37552633234962957,0.8000946237747466,-0.1507548660480457,0.3207686084562449,-0.48397217192585273
4.1000000000000005,0.5297840724622659,0.028539154526362118,0.4695473049608842,-0.018334835087497087,-0.01122868635488186,0.2238840880473258,0.05635523180180122,-0.09884698026508439,0.993505589317214,-1.1430387496948242,-1.9030305347838343,4.156888786766363,-3.576607582279089,-1.366746481621364,2.0284619331359863,1.0,0.48442283317692175,0.49801652790891904,0.3751683955279971,0.800189100507096,-0.1507524006624521,0.32071845141048466,-0.4838499685326152
4.2,0.60309967466869,-0.3924762077424872,0.29853809122407055,-0.016390528844296426,-0.008132554600810946,0.23074709286915762,0.056493544766765075,-0.09917438296212724,0.9934649785612727,-1.1415174623070152,-1.90406528381153,4.156653295978238,-3.576582914860001,-1.3669646422015589,2.0284405837214696,1.0,0.484687001470525,0.4982861811112513,0.3750374583964673,0.80018865691515,-0.15075764696228044,0.32071245212261645,-0.4838530440952326
4.3,0.39178297921622124,-0.262166374382494,0.38293922852719076,-0.021971073845815075,-0.008168657061949178,0.2295792147595211,0.05687213154416974,-0.10001214656726874,0.9933593729821343,-1.1403058083701472,-1.9051538906493128,4.15642786026001,-3.576615444810493,-1.3671493228148552,2.0283842796398,1.0,0.4849720438348147,0.4985705834706544,0.37504726079120976,0.800115395582254,-0.15075781397251842,0.32074673162734035,-0.4839514122604249
4.4,0.7802021014874648,-0.20607464158296782,0.2927341101151081,-0.016198331340798296,-0.01028698956592648,0.22609077082794854,0.0570970283040263,-0.10055301631511249,0.9932919497321762,-1.1392548194673968,-1.9064834997414375,4.156205861302678,-3.5765767242933,-1.3673408043543631,2.028280610285833,1.0,0.48528085607150107,0.49888500921993495,0.3750650130314269,0.8000271678029656,-0.150752958051937,0.3207955361359191,-0.484066421486788
4.5,0.3651931073023802,-0.1279640782374735,0.32062101956958117,-0.021167309620107544,-0.005130942464660179,0.2262911106709709,0.05742888704666567,-0.101365811387349,0.993189457353339,-1.1381958878957963,-1.9078895537491876,4.156025138026834,-3.5765977976427883,-1.3675155410628639,2.0282177602954774,1.0,0.48577135507974906,0.4993908264840671,0.37465982612199866,0.8001178362621884,-0.1507624858076903,0.3207494871530693,-0.483944095386278
4.6000000000000005,0.27374887083573646,0.11743412138845552,0.37856750662490796,-0.007500967634185757,-0.002333831642696596,0.22836654604797413,0.05834347804548055,-0.10353607089904604,0.992912039438275,-1.1367160205785212,-1.9089794532046176,4.155835187836587,-3.576583705622849,-1.3676895135963665,2.0281641828193497,1.0,0.4860575549259849,0.499696491032958,0.3743790707194463,0.800183079050723,-0.15075290784923842,0.32071814478020433,-0.48385997187683094
4.7,0.3778846622847429,-0.011112626043330992,0.3462907394141287,-0.022421173070251058,-0.010077527521768907,0.2309315423362339,0.057671688342489105,-0.10197262820616236,0.9931107801780081,-1.1353796868740031,-1.9100185611601477,4.155630163887217,-3.5766264400877894,-1.3678515593158167,2.028078556060791,1.0,0.4865126915979028,0.5001287384271004,0.37431330282695563,0.800102974000293,-0.1507729375541568,0.32076787861910544,-0.4839532212346308
4.800000000000001,0.3618790953004562,-0.01227772375843586,0.3618501285704877,-0.022851026068677747,-0.010549153974171718,0.22922490845987847,0.056584934765786396,-0.09942187664404024,0.9934351513639842,-1.1342663817215723,-1.9111553983083958,4.155437292155192,-3.5766054136144683,-1.3680269493395258,2.028014360371664,1.0,0.48668714241826055,0.5003225436260442,0.3743448694674868,0.8000448432797791,-0.15076742760807557,0.32079925890327177,-0.48403023356086883
4.9,0.18152651107236895,0.23980561247815937,0.47238006896480295,-0.02179581513374646,-0.010093334694448702,0.22619194109764731,0.056454583521417995,-0.09907950593140452,0.9934767640986647,-1.1331601781262635,-1.9125896892943324,4.155246445401099,-3.576636765068411,-1.3682391452070064,2.0279221534729004,1.0,0.48682268614587215,0.5004876322725164,0.3743258221958991,0.8000215318301268,-0.15075282253262134,0.32080995543133334,-0.48406622233199775
5.0,0.2924002827305848,-0.1141895812253921,0.2981315326868125,-0.02096307089966274,-0.004661377387897782,0.22269432386053092,0.056627509437279164,-0.09956126681912433,0.9934186914139228,-1.131864939789274,-1.9137576193849377,4.15502064907017,-3.5766431941243084,-1.368386512248146,2.0279036215597124,1.0,0.48746431977422977,0.5011354067405308,0.37376497838164285,0.8001398794518041,-0.15077214533952274,0.3207466386451868,-0.4839065274393233
5.1000000000000005,0.5113784472370992,-0.308121590416152,0.22043859345767605,-0.024576559767129084,-0.005652055875503768,0.2294220607195726,0.05667078300510136,-0.09970007962309399,0.9934023813263226,-1.130500721460819,-1.9150134748387155,4.154854369634152,-3.5766433566722875,-1.3685975769959413,2.0277957418990007,1.0,0.4877318625752418,0.5013892661701105,0.37368188390279516,0.8001180113901654,-0.15077001850755115,0.3207730278200404,-0.4839258558823275
5.2,0.6374261419582183,-0.1987918220459553,0.27335737986470315,-0.022686359669464157,-0.01040268877099673,0.23127359491771934,0.05658819713515178,-0.09949864679221665,0.9934272813052586,-1.129262924194336,-1.9160486519842188,4.154642525716821,-3.576764012689136,-1.3688033403393092,2.0277791023254395,1.0,0.48806347595790345,0.5017476190342279,0.3735872860934812,0.8000832642114721,-0.15077016599497883,0.3207883141893373,-0.4839731241031111
5.300000000000001,0.5974459786180081,0.030580992441264304,0.2676985385565304,-0.02150618808905128,-0.01206974393406749,0.22987118604630133,0.05649740549164716,-0.0992625660841477,0.9934560112310602,-1.128092568239094,-1.9173102129634763,4.154447737090695,-3.5767551703664613,-1.368955585780081,2.0276890308261195,1.0,0.48835619820105364,0.5020384161912774,0.37348475460798075,0.8000737106390919,-0.15076451837239996,0.32078914733134417,-0.4839901243812336
5.4,0.3308878188876971,0.2794199552078369,0.28543679587244775,-0.015247970857871301,-0.004402389069244955,0.22980366843462424,0.05640661384814255,-0.09902648537607876,0.9934847411568618,-1.1268953373244266,-1.918637787588971,4.154272752274949,-3.576743452185412,-1.3691519922312454,2.027584181518321,1.0,0.4886173370346802,0.5023001419557042,0.37333963394992337,0.8000873316879714,-0.15075887035315744,0.32078116288885783,-0.48397465865263445
5.5,0.5084147432685245,0.1253209478401753,0.08211051940212716,-0.01665445474446344,-0.00936325315978183,0.2291161952373111,0.05636086167117131,-0.09889784028418869,0.9935001870864034,-1.1256171333163234,-1.9198522878815676,4.15404187315397,-3.576727022262353,-1.3693483511554163,2.0275737241454284,1.0,0.4890370383353602,0.5027536350045118,0.37304223015680016,0.8001172610304519,-0.15076583422008527,0.3207610026503953,-0.48393637082964003
5.6000000000000005,0.4687039333727007,0.005322473150999235,0.3858249415044626,-0.02068990464428013,-0.006992685488235643,0.2228564371283206,0.05654986920806661,-0.09932918305304594,0.9934463926940446,-1.1243119131096344,-1.9209727366512181,4.153892187225971,-3.5767222843565882,-1.3695448878127947,2.0274629358953593,1.0,0.48939136148863954,0.5031208808863088,0.3728823657569406,0.8001023273405088,-0.15076991248422877,0.32076516634776775,-0.4839570304600274
5.7,0.5402994369040942,0.07877347199035323,0.415541258713975,-0.017367603271733336,-0.007705563919030149,0.22500688118525847,0.056246709250071386,-0.09860468688878594,0.9935352118529237,-1.1231960850165505,-1.9221995569498918,4.153676983363891,-3.5767580471434535,-1.369736406582923,2.0274357362271207,1.0,0.48972084226414714,0.5034854345639561,0.3727475631796882,0.8000857883643309,-0.15075347661800487,0.3207697914160912,-0.48398642693766636
5.800000000000001,0.3129630202411371,0.13062992247686994,0.31382586513145905,-0.016251093045639445,-0.008908820845069103,0.22470046508401334,0.05582481576437884,-0.09759200476608433,0.9936594663948076,-1.1218336518010175,-1.9234237583516296,4.153509645781196,-3.576764394040746,-1.369911793322004,2.0273529015157403,1.0,0.49001583909946284,0.5037714105989147,0.3725812345027042,0.8000981311403963,-0.15075388491573485,0.3207777485567973,-0.48396062108325577
5.9,0.4782210733813568,-0.13812937278247733,0.28634736225893226,-0.02228684986443571,-0.010955931631509475,0.22607504124179448,0.056309102106649064,-0.09864819299216197,0.9935276755950389,-1.1205339431762695,-1.9245582685259393,4.153347492218018,-3.5768186054625453,-1.370133358874985,2.027308054091718,1.0,0.49027194570553484,0.5040542211766114,0.37246125554300974,0.80009010086499,-0.15075125170940668,0.32077214680448196,-0.48397842972630634
6.0,0.471727597354846,0.019502934780131917,0.38773617453055703,-0.017346443117568208,-0.0073131748828557715,0.2250581121428286,0.05644422257763902,-0.09888918065421928,0.9934963233835785,-1.1193446530287527,-1.9258174392751812,4.153139177742338,-3.57685859642138,-1.370306327181239,2.027207827359929,1.0,0.4906347132343204,0.5044751579536243,0.37230108916354826,0.8000808654897481,-0.15073600580569638,0.3207526604293315,-0.4840113594311884
6.1000000000000005,0.42983336833763686,0.0014464281391010914,0.3947592389803746,-0.018135511331700712,-0.0057584008787642926,0.22742507888634594,0.056409024573627606,-0.09875027790758345,0.9935121096960391,-1.1181650496757058,-1.9271253290423047,4.152918702186354,-3.5768782101073207,-1.3705160847552602,2.0271495123219467,1.0,0.49096589327505447,0.5048139652276444,0.3720963691722691,0.800113718051602,-0.15072821451630028,0.32073481591565994,-0.48397130224210305
6.2,0.3033621719263256,0.199318030121923,0.31538532473982495,-0.015877358577066947,-0.0033416992673845018,0.22172032857795074,0.056630779312902335,-0.0993384102593329,0.9934407065481204,-1.1168365520660473,-1.928391435529478,4.15272217558543,-3.5769333763581845,-1.3706663290606897,2.027067977772011,1.0,0.49124033721358634,0.5050763858503026,0.37191945579630936,0.8001378418934595,-0.15072799523273187,0.32073399156194193,-0.48393203250037387
6.300000000000001,0.20506024005164689,0.3412409353976752,0.14527441723417756,-0.005892338116481176,0.001288968018162989,0.21704843228190676,0.05674968318686367,-0.09966152674417392,0.9934015789836237,-1.1153630504732817,-1.929519139519256,4.152546858524044,-3.576970276794521,-1.3708653965215643,2.026997015154652,1.0,0.49163286738079465,0.5054750233049192,0.3717251734409854,0.8001364139858382,-0.15072328858230677,0.32074724155669276,-0.4839270774885308
6.4,0.48008266470954375,0.17500319465570158,0.40918296173770025,-0.012025597040689503,-0.007911132421659405,0.22268270948928193,0.05620391292244482,-0.09826367888848238,0.9935717885223286,-1.114224292201647,-1.930655667997175,4.152282957576351,-3.577022214929098,-1.371028202260127,2.0269387489104065,1.0,0.49198360467504715,0.5058577880358652,0.37166794983226925,0.8000797244231617,-0.1507222133329722,0.32076036213453984,-0.48401243688389484
6.5,0.2979256919245545,0.06517925373649286,0.43714287598500956,-0.016485000101526384,-0.0014150806989232513,0.2210249855442439,0.05678312264454287,-0.09969198642891194,0.9933955811303119,-1.1131200661814717,-1.9319381329155234,4.152120481726293,-3.577053212559145,-1.3712391157565962,2.026869477989569,1.0,0.4923016584440863,0.5061600856686627,0.3715288096211312,0.8000730854120952,-0.15073854405240833,0.3207629952159011,-0.4840165805385743
6.6000000000000005,0.1785465183505076,0.08260893469007112,0.19802867645568673,-0.014804772298660458,-0.004834389185887724,0.223205079641191,0.05732549907672812,-0.10103214520502428,0.9932302127980014,-1.1118800094550003,-1.9333934415299074,4.15192243591618,-3.5770698986449183,-1.371396843587057,2.026822919265422,1.0,0.4926372684621072,0.5064842346809312,0.37126339495869054,0.8001232252548449,-0.15073911744050214,0.3207481446550643,-0.48394335472385364
6.7,0.2655753533962366,0.18339637610012763,0.29667283426355473,-0.013498846999040475,-0.005673471283125983,0.22123250562857236,0.05751265589436526,-0.1015221988138331,0.9931693761711137,-1.1103824296026537,-1.93444205913706,4.151692628130691,-3.5770946903079204,-1.3715957911889702,2.026723844757873,1.0,0.4929155451120035,0.5067675249090771,0.37103050752221467,0.8001643911571893,-0.1507460251692247,0.3207266694212944,-0.48388736968601265
6.800000000000001,0.33198805347296245,0.11690598378893097,0.36114179962177295,-0.016620336707875882,-0.003910339525833911,0.2247252717992524,0.05765006428502778,-0.10188535617329295,0.9931242487948828,-1.1090275920755364,-1.9355092610796607,4.151517870381257,-3.577229968759786,-1.3717713268779723,2.0266871452331543,1.0,0.4932863083777435,0.5071387109978296,0.3708778294067436,0.8001413907834427,-0.1507621021919432,0.32074365194694815,-0.4839091371668235
6.9,0.3492428219608721,-0.013341079174824508,0.35855728576669693,-0.004186636881917193,-5.64368829206012e-05,0.2162280733434296,0.057751611791308444,-0.102157041058081,0.9930904453469805,-1.1078312123377705,-1.9367115193315532,4.151305735142119,-3.577353488403322,-1.3719397570492708,2.026615619659424,1.0,0.49374688533438366,0.5075777652858209,0.3708818500079786,0.800048278586275,-0.15077836675914327,0.3207971430486869,-0.48402255015689477
7.0,0.30169981363697146,0.09836744208526975,0.3959283797024345,-0.01902281075302421,-0.005854046970111189,0.22237447593768997,0.05767860966417766,-0.1019975983361413,0.9931110308124601,-1.106804981636732,-1.938117740095223,4.151168249705702,-3.577355143964852,-1.3721278349505823,2.0265651716199824,1.0,0.49395390938689065,0.5077893961159017,0.3707386185408883,0.8000807689334253,-0.1507722215486074,0.3207718535927411,-0.48398751878005464
7.1000000000000005,0.11956806484642292,0.23261161998335983,0.33720801802237116,-0.013604647813311882,-0.004896218591562517,0.2178970835924009,0.057493184103165784,-0.10155619090951137,0.9931670913546323,-1.1056988318806733,-1.9392298165073085,4.151024965670639,-3.5771737553264433,-1.3722519545607175,2.0264954566955566,1.0,0.4941920932206528,0.5080556775424852,0.3705033761934047,0.8001278174587227,-0.15077366375264295,0.3207449567738392,-0.48392711305680514
7.2,0.4551848728896463,-0.0930443288305213,0.4993573217222864,-0.01906283105618082,-0.009372147404492406,0.22625866230620478,0.0575702697222956,-0.10170071763356642,0.9931478315241927,-1.1056657160543841,-1.9391535898583407,4.151018178172695,-3.5772030465532216,-1.3722383153576214,2.026475717997787,1.0,0.49448725034120344,0.5084035036558392,0.3702275600844974,0.8001636122828664,-0.15077610559723986,0.32072296003148526,-0.4838817443012364
7.300000000000001,0.30610673935407295,0.46925057966464395,0.41292128824395385,-0.008909835534648278,-0.0038418246889614406,0.22195131149746705,0.05750911283881856,-0.10155182795257868,0.9931665691224988,-1.105698370496247,-1.9390810729416506,4.15101451583996,-3.5771816663769678,-1.372279281329861,2.0264655298054985,1.0,0.4945972438270551,0.5085484312508748,0.3702114512901145,0.800125883052627,-0.1507538837369816,0.32074827474319584,-0.48393427452158594
7.4,0.4418625744426149,0.2727871714561226,0.3411448824038741,-0.017208272249482175,-0.007840428919927991,0.22343341199863823,0.057340475675116125,-0.10117423845495,0.9932148980748893,-1.1057269505991518,-1.9390846691527308,4.150989519026673,-3.577187520483386,-1.372251864924918,2.0265010382272663,1.0,0.49459910074781094,0.5085238465910233,0.37023991748972235,0.8001178094152468,-0.15075731126586647,0.320759807531496,-0.48393891146382406
7.5,0.5327169166789603,-0.008110563441269203,0.377253630712215,-0.021926688470402873,-0.010035272168038921,0.2239429869590204,0.057217968009751194,-0.10088323064646096,0.9932515172149395,-1.1057195663452148,-1.9390730917220025,4.151022434234619,-3.577189659483597,-1.3722482506156992,2.026496796410054,1.0,0.4946048369408219,0.5085144016084847,0.37024288784588283,0.8001159234602269,-0.15076310081650174,0.32075342591727307,-0.483944455717714
7.6000000000000005,0.2212538662512644,0.13065312627173786,-0.0055344875463157975,-0.01245554863859572,-0.003726749484679613,0.22646204588734806,0.05710433018487071,-0.10061340604690044,0.9932854749220805,-1.1057137608040162,-1.9390665188451859,4.150999546051025,-3.5771900616087855,-1.372255941449714,2.026520252227783,1.0,0.4946090789614769,0.5085140680688228,0.3702502563103157,0.8001103415923739,-0.150770209804844,0.3207521025012773,-0.48395234667614584
7.7,0.29441307306299086,0.15957031772806393,0.2657649620579718,-0.015052025643917805,-0.0037997728363778774,0.22037685674302773,0.05719255076528718,-0.10082566551422785,0.9932588641664817,-1.105691169467599,-1.9390852138701495,4.150980550156053,-3.5771964059634582,-1.3722478120205233,2.0265009653895785,1.0,0.4946192449962069,0.5085019541374658,0.3702503356672754,0.8001058111156674,-0.15077832416298986,0.3207655246788678,-0.4839484127043199
7.800000000000001,0.2898524407926859,-0.1376515099938469,0.3238609220197886,-0.02181561387476173,-0.0015431770159829898,0.2192922831238443,0.05707079814223805,-0.10056288165169891,0.9932923721586395,-1.1056623702307984,-1.9390435914748214,4.1510059194481705,-3.577167225841084,-1.3722797887563722,2.0265316036600796,1.0,0.4946003552786446,0.5085299115208495,0.37024903799393816,0.8001169847279621,-0.1507401145472217,0.32075193217401765,-0.48395085145369793
7.9,0.3388314614030009,-0.029009677408979084,0.36015344795965804,-0.017532830948518797,-0.0022811573238253665,0.22214373372828644,0.056780926607869736,-0.09991824440364946,0.9933741673121261,-1.1057242182281004,-1.9390848163391796,4.151006942468164,-3.577185584458945,-1.3722309482654507,2.0265125063445555,1.0,0.49461276335933013,0.5085108293749128,0.37028213550787126,0.8000904764818584,-0.15076598631202975,0.32078157497769616,-0.483966969915533
8.0,0.44288709125689657,0.052474654443423335,0.3674626104253017,-0.019364550048016068,-0.006827105287281602,0.2208300514219122,0.05736214050460154,-0.10116236190597681,0.9932148569429988,-1.105696678161621,-1.9390613322069472,4.1510065471260145,-3.577194689751294,-1.3722543370265798,2.0264798612984096,1.3591786535479387,0.4945979644385616,0.5085301645890008,0.37024019476813297,0.8001175509703028,-0.15074860754678085,0.3207536982234319,-0.48394609930030824
8.1,0.27996217110609883,0.25197963137623075,0.4878494576991237,-0.01259826687374508,-0.00305557209553439,0.21584124805077062,0.05774897264662522,-0.10217153912460135,0.9930888323318214,-1.1057427660584007,-1.9390488284834675,4.151010192233302,-3.5771670176603956,-1.3722359212206985,2.026473366421483,2.0,0.49461515795307653,0.5085017978201531,0.37024755966556744,0.800112337668939,-0.15077658621840087,0.32076824761591094,-0.4839363589147736
8.200000000000001,0.3409586251960068,-0.07034754391807992,0.27359682317086875,-0.02161112663451435,-0.004134170023985508,0.21955775359674498,0.05780600830966334,-0.102309762400773,0.9930714112487735,-1.1057312400302255,-1.9390607124982138,4.15101026606172,-3.5771781406798304,-1.3722593272096395,2.026474016674168,2.0,0.49460014223280807,0.5085136779103414,0.37025027574846975,0.8001149464406259,-0.150762256078157,0.32075385009887347,-0.4839460530589008
8.3,0.3508571401106097,-0.06308457303090478,0.23713422299055553,-0.017777763715933276,-0.007683352841482978,0.22164268184770924,0.05751551379515545,-0.10152878314194298,0.9931685897549667,-1.1057057331344573,-1.9390797643757778,4.151010990142822,-3.5771875729432017,-1.3722611926351898,2.0264820733295488,2.0,0.49459553840251685,0.5085229770326356,0.3702500000739774,0.8001127551986177,-0.15075144812540922,0.32075434458487695,-0.4839527149283238
8.4,0.22249160605148954,0.024165231248546325,0.2545645754412596,-0.01673738073778531,-0.00831479030478483,0.22151039447403656,0.05707579413421102,-0.10052706886344628,0.9932952358542609,-1.105692088529564,-1.9390372248944117,4.150991529189098,-3.5771704321587467,-1.3722750985059147,2.0265004542814298,2.0,0.49460504837807107,0.5085164142445979,0.3702336148360255,0.8001199006936923,-0.15075538552749745,0.32076283427898344,-0.4839340475660757
8.5,0.22786871779934692,0.26046682711577196,0.3156998673750701,-0.017789954132326518,-0.0006530189666667553,0.2240197604142369,0.05663254140340649,-0.09952012844000231,0.9934225796313094,-1.1056993672659923,-1.9390577226077452,4.150995566542052,-3.5771900616087855,-1.372251253368703,2.02646960393176,2.0,0.4946079617959385,0.5085087836821457,0.37025218302875423,0.8001125646078873,-0.1507622344349584,0.32076114971321135,-0.48394515955780276
8.6,0.42021383219003206,0.017839235054854075,0.35413197428165777,-0.011905943461075149,-0.00311942476844737,0.218943566140901,0.05666006357556266,-0.09958192427346844,0.9934148509207112,-1.1057215795578035,-1.9390800653380726,4.150994942236367,-3.5772036906713325,-1.3722439768009054,2.0264902754914176,2.0,0.4946116710159379,0.5085114470466903,0.3702727190409611,0.8000975885980306,-0.15076382082637646,0.3207653413564908,-0.48396664640644693
8.700000000000001,0.39457963194987966,-0.15609183297796364,0.2880865715335011,-0.028532616701945332,-0.0069657182860733795,0.2193043144533441,0.05670314283739376,-0.09967903725252378,0.9934026586442141,-1.1056995191334207,-1.9390765729466162,4.1509993911864465,-3.5771859254934024,-1.3722516677727112,2.0265157746431326,2.0,0.49460995434318555,0.5085177511025467,0.37025941828744097,0.8001015456452956,-0.1507650891590383,0.32076349607649446,-0.4839609324435816
8.8,0.3463576372466635,-0.2597830917984242,0.4044781465168357,-0.03300489399571189,-0.00925336846295877,0.2217968100008889,0.056779079901615376,-0.09984751374840597,0.9933814012741639,-1.10570909904779,-1.9390680751412903,4.150999546051025,-3.5772013147307136,-1.3722708860980433,2.0264840126037598,2.0,0.4946026247035969,0.5085213641763173,0.3702398981149865,0.800114410106072,-0.150761915820948,0.3207558101306549,-0.48394574669691737
8.9,0.42010255817203235,-0.19867477931395863,0.3965879339513982,-0.023333633582971757,-0.007199497148840549,0.2239371111312275,0.05698544825730694,-0.10031625459033236,0.9933222148391637,-1.1057276783846082,-1.939056671310861,4.151010990142822,-3.5771663494936354,-1.3722672069512418,2.02650772471891,2.0,0.4946076248333745,0.508515437206562,0.3702565425813589,0.8001096409450353,-0.15075753015491494,0.32076424530619563,-0.4839494069647605
9.0,0.3553952787212957,-0.05998037127069658,0.2310500392213537,-0.026581650338384638,-0.010566172029277152,0.2231624675941179,0.057198467575149896,-0.10080031596938525,0.9932610932420582,-1.1057141614395616,-1.9390596897488181,4.150982430516457,-3.577183770789886,-1.3722546564767215,2.026482507314385,2.0,0.4946101443428768,0.5085138796764525,0.37027714309431203,0.8000962511508385,-0.15076155143947934,0.3207607623680141,-0.48397259925229896
9.1,0.3516315339569619,-0.24761858732946757,0.23966272013855022,-0.03576736168103435,-0.013551881993579578,0.2231191845723248,0.057543419483004024,-0.10164405742370802,0.9931549538604203,-1.1057444319180043,-1.9390598035799413,4.150974680478236,-3.577166539147572,-1.3722595120468093,2.0265251430195454,2.0,0.49460611612330296,0.508516645756993,0.37028375439120753,0.8000925666568688,-0.15076301632467995,0.32077089752451937,-0.4839715167139723
9.200000000000001,0.36704022634439337,-0.01602284737884263,0.235822099068256,-0.027710134668498688,-0.011541386758582232,0.22444158506674694,0.05750116273704059,-0.10156724247208093,0.9931647691403516,-1.1057478593774435,-1.9390790685262536,4.150974076862536,-3.5771835258975972,-1.3722458937467115,2.02647654180786,2.0,0.4945999890326158,0.5085169057372295,0.3702839587109614,0.800096135196634,-0.1507552278937749,0.32077060409080876,-0.48396823786001014
9.3,-0.09835003210221732,-0.12129710191170101,0.3966315734446872,-0.012002331713606103,-0.06066049804488491,0.2151065220979416,0.056929052671890704,-0.10022692443225628,0.9933337132434856,-1.1056876038578416,-1.9390768085385073,4.151014057954208,-3.5771781406798304,-1.3722665234519955,2.0264812938040584,2.0,0.49460114499980135,0.5085108064242121,0.3702693480697681,0.8001044806318914,-0.15075764417032342,0.32076422212085887,-0.48395791821622836
9.4,-1.0459602881482184,-0.8892639219102727,0.6004124594353872,0.0032054169115299062,-0.14578059085720654,0.20128129135541623,0.05681556367718245,-0.09990697566969624,0.9933729992852384,-1.1056757664825327,-1.9390601343455605,4.151010459020776,-3.577174094999478,-1.372278761346646,2.0264887512333725,2.0,0.4946079892890837,0.5084994616407643,0.37024239102960477,0.8001177331831396,-0.15076824414079576,0.3207608053015562,-0.48393497020454374
9.5,-1.8631557125898996,-1.2335335331365187,0.7419443344375808,0.018288860921328542,-0.23872891898126658,0.18815881990185415,0.05733449914281943,-0.10099408500175346,0.9932334908171372,-1.1056870863020385,-1.9390639237868637,4.151018136801225,-3.577201382067065,-1.372295328426629,2.02650785446167,2.0,0.49458568980022183,0.5085280380801307,0.3702405498468659,0.8001269090774077,-0.15072944142056663,0.32074413172631977,-0.4839429375684771
9.600000000000001,-2.591788240426494,-1.3066060786701121,0.7663522357302347,0.03283144731817562,-0.30638748677911176,0.18122247736775307,0.05707507228378013,-0.10034217882485391,0.9933143753284859,-1.1057006493755352,-1.9390722713866175,4.151038625470032,-3.577178629794357,-1.372274533664677,2.026520252227783,2.0,0.49457934099442064,0.508536990768063,0.37025491860093424,0.8001205319960323,-0.1507236066252537,0.320737440331847,-0.4839597328845008
9.700000000000001,-2.73972566704294,-1.3805683559148645,1.156761698328186,0.0335768726569799,-0.3413957926995783,0.17635095734516693,0.05682715868216215,-0.09975424736321116,0.9933879925179101,-1.105715663536366,-1.9390723102580432,4.1510073516687225,-3.5771462807018137,-1.37225848833193,2.0265003131787216,2.0,0.4945817160597567,0.5085313180327224,0.3702708441628243,0.8001097171953203,-0.15073501692724364,0.3207437776157607,-0.4839698588159592
9.8,-2.947041102255448,-1.564732152473222,1.191569828594789,0.033281977991432427,-0.3627808439995407,0.1738950618672226,0.05670944368817407,-0.09951502709682075,0.9934186864874154,-1.1057116245618495,-1.9390765731859405,4.15103931052427,-3.577170532820593,-1.3722589651690882,2.0264995817706644,2.0,0.49458862283940985,0.5085253238887993,0.37026215814867613,0.8001104086393356,-0.15074495481895012,0.32075692014396784,-0.48395691002751934
9.9,-2.781064170791182,-1.0736286075676875,1.3271135763754158,0.01787688532521198,-0.3654982710379977,0.17288962304782077,0.056591728694186,-0.09927580683043034,0.9934493804569207,-1.1056933064515269,-1.9390754022602765,4.151028695981937,-3.5771692302063167,-1.372256075606457,2.0265142313169004,2.0,0.4945883849987786,0.5085474456586391,0.3702603230813597,0.8001084800053291,-0.15072799856498076,0.3207632076847813,-0.4839612125655599
10.0,-2.2204869493422343,-0.6737000585157994,1.8369638280292018,-0.01734179850132709,-0.34540967628737695,0.17925708148321684,0.05686077241669483,-0.09998956833876871,0.9933622186949858,-1.1057018060102821,-1.9390846691527308,4.151005862294161,-3.5771847200997637,-1.372252385749155,2.0264908552004903,2.0,0.4945915666582382,0.50854061542451,0.3702479315585903,0.8001156213448024,-0.15073963494467502,0.3207550944355332,-0.4839511590340695
10.100000000000001,-2.3664421931304087,-0.2990003359020726,2.231897183472402,0.003102064708180203,-0.32151577272539517,0.17815164416368665,0.057058324392134166,-0.10049545124576885,0.9933000612550262,-1.105708122253418,-1.939077292794705,4.151022434234619,-3.5771682909947358,-1.3722328589362374,2.0264890340118473,2.0,0.49460221600316934,0.5085263400446173,0.37022653822576385,0.8001265677553511,-0.15074648766602178,0.32076264686036915,-0.4839259203716307
10.200000000000001,-2.0842793331860476,-0.5084208414903488,2.6983833245695426,0.02262091765938337,-0.31961017157004745,0.1824963123569569,0.0570627840968721,-0.10047407283229616,0.9933019678187606,-1.1057100655212804,-1.9391113864263128,4.151010990142822,-3.5771929370244573,-1.3722515669967748,2.0265112067145,2.0,0.49459832867518516,0.5085204471992074,0.370234919816437,0.8001210225882823,-0.15075442409741946,0.3207491983931201,-0.48394153010204416
10.3,-2.3330982652975853,-0.7333872256839415,3.157333211885846,0.008701229271443199,-0.3255543249755425,0.18737744853505192,0.05698646022856604,-0.10027161782025876,0.9933267899435505,-1.105702627488237,-1.9390973081361262,4.1510100431398325,-3.5771781406798304,-1.3722527679538632,2.0265152499041568,2.0,0.49459952077841474,0.5085277767548032,0.3702291835457916,0.800120191986631,-0.1507533174501192,0.3207455591692791,-0.48394566009651013
10.4,-2.1485382102524766,-0.8199788623928852,3.373455342177727,0.04142232040818034,-0.32354107145715816,0.18468045889013726,0.05689831053874499,-0.10005246951210513,0.9933539479035394,-1.1056682498285533,-1.9390925217009798,4.150971443188414,-3.5771662197508753,-1.3722391916918841,2.026480705273375,2.0,0.49459401006952947,0.5085310279236689,0.3702412463359526,0.8001136961690839,-0.15075775612671946,0.3207414173345383,-0.48395776197568685
10.5,-2.4466028001321796,-1.2926422716143056,3.5501765084331276,0.050514262657413295,-0.3348684337588172,0.1865459406223956,0.05681080655524436,-0.09985254815941158,0.9933790771330467,-1.1057118905132661,-1.9390926648110107,4.150998767086111,-3.5772059078084157,-1.3722828070269983,2.026511936743172,2.0,0.4945986628652799,0.5085349192947217,0.3702088737735647,0.8001325517017328,-0.15073552809964913,0.32075223814257,-0.48392633943847874
10.600000000000001,-2.649218217503074,-0.9112609729229973,3.820345823346678,0.07526235673188231,-0.3378040483330733,0.18359585470799217,0.0568183451678104,-0.09986188801780818,0.9933777113324496,-1.1057134171933505,-1.939096590081686,4.150998179409772,-3.577155857807614,-1.3722644807315179,2.0264840126037598,2.0,0.4945905620216948,0.5085272169345468,0.37023768007084223,0.8001243279597603,-0.15074969545384134,0.320736013924713,-0.48394627645969424
10.700000000000001,-2.538544335987026,-1.387120546218608,4.013003046540963,0.06678980219270064,-0.3531513164623007,0.18759670240627654,0.05687794145638248,-0.10001957307066378,0.9933584057819866,-1.1057011760242084,-1.9390704259212046,4.151013438509445,-3.5771662197508753,-1.3722708860980433,2.0265184067623703,2.0,0.4946068278623103,0.5085168416117265,0.37026046690150927,0.8001056556297755,-0.15075517585169307,0.3207515949335684,-0.48396511354718985
10.8,-2.407381718468358,-1.506500056564028,3.709561115413541,0.06331481430363534,-0.36199147702487855,0.18908755910728747,0.05700529626385689,-0.10039190682104168,0.9933135584345436,-1.1057026317770422,-1.9390660697038873,4.151005505265793,-3.577159770000836,-1.3722594476055936,2.0264964159692203,2.0,0.494621962046971,0.5085150861801947,0.37023882076431797,0.8001129612119335,-0.15075624926503656,0.32076365312697563,-0.48394470907413256
10.9,-2.723211219583088,-1.122876592733864,3.7495177376632896,0.06906369833862024,-0.3579849889584673,0.1843003701322033,0.05705798033240196,-0.10052275757634964,0.9932973124029544,-1.105723552848296,-1.9390655527149487,4.150995175280672,-3.5771781406798304,-1.372269369683661,2.026520252227783,2.0,0.49462682497315635,0.5085189758827421,0.3702310281174089,0.8001116637652362,-0.15076841204062688,0.3207612145769097,-0.4839446814055499
11.0,-2.8588891223796664,-1.0415768856339018,3.8003720693622736,0.06624466105249317,-0.3557033266522978,0.18174460234908862,0.05709529884872888,-0.10060391658327335,0.9932869518764313,-1.105707907953307,-1.9390842030402837,4.151010775842711,-3.577183989529667,-1.3722648140189246,2.026520698686348,2.0,0.49461913563803617,0.5085238818679118,0.3702531610121866,0.800098742710303,-0.15076845339542697,0.3207617008076368,-0.48396570815413753
11.100000000000001,-2.950289003045867,-1.0811842999887689,3.8542416627559506,0.06787913912533372,-0.3653982316089478,0.18242876781117823,0.05705952153777709,-0.10051906336399691,0.9932975408084049,-1.1057059746084705,-1.9390631489028856,4.150974750518799,-3.577209061567295,-1.3722708860980433,2.0265111297440512,2.0,0.49461168187207594,0.5085262459786519,0.37025398349899574,0.800097167077807,-0.15077166961921457,0.3207645326214189,-0.4839654341856088
11.200000000000001,-2.8014941690846435,-1.24065328412527,3.887254154574056,0.06664604419226938,-0.37991339899686927,0.17993409743621724,0.056868900744957616,-0.10008253601920003,0.9933525082940885,-1.1056922019943145,-1.9390925935037335,4.151018597519785,-3.577186133835735,-1.3722549685911358,2.026508102630808,2.0,0.4946094349456862,0.5085215137990381,0.37025052292488125,0.8001011990797335,-0.15077676636135984,0.3207624061174834,-0.4839585899418535
11.3,-2.720787335464777,-1.5055784847381903,3.91342904248889,0.062485212822909884,-0.3809032610344608,0.18044014644921588,0.05673760624174783,-0.09977167851781252,0.9933913907932828,-1.105687657211823,-1.9390801590659825,4.150999546051025,-3.5772103583576804,-1.3722589651690882,2.0264840126037598,2.0,0.4946062330396918,0.5085124655999439,0.37026489008634134,0.80010034792653,-0.15076844147483112,0.32076381958367706,-0.4839616538003669
11.4,-2.6981614448515305,-1.412790891312185,3.7655767214851705,0.06310623285041037,-0.38308830199264937,0.17888576326442954,0.0567360790987154,-0.09973570494967665,0.9933950897971169,-1.1056912034574207,-1.9390762097547323,4.151010755252583,-3.5771976353936212,-1.372262752061506,2.02648377771352,2.0,0.49460876469708054,0.5085206198000611,0.37026611952040717,0.8000956443159332,-0.15076076270002056,0.3207659510352031,-0.4839704092537702
11.5,-2.7500542812286923,-1.1647459908979454,3.7738508715333547,0.06598081952311538,-0.3785917925288879,0.1824241661645884,0.05673455195568296,-0.09969973138154078,0.993398788800951,-1.105694175728254,-1.9390528981597202,4.150999546051025,-3.5771684540663817,-1.3722544965380754,2.0264940866817462,2.0,0.49459749440692946,0.5085201196012719,0.3702514674238063,0.8001113141677745,-0.15075114344071627,0.32075524871201544,-0.4839545930309235
11.600000000000001,-2.862817446664484,-1.0878654884973031,3.6761424513446994,0.06451557751582218,-0.376234811491931,0.18309833283419705,0.05657597405482018,-0.09934323798404422,0.9934434349169621,-1.1057150436014622,-1.939048332075499,4.15102041252564,-3.5771994839916035,-1.3722661749066343,2.0264934349865777,2.0,0.4945973061541053,0.5085192076114046,0.370260243847371,0.8001092101035856,-0.15074916225189008,0.3207635586851931,-0.48395318100760576
11.700000000000001,-2.7124046613341464,-1.1402637206220358,3.7292685332416493,0.058331925461642245,-0.3784902800670399,0.184433501515268,0.056379788037824875,-0.09890999139457397,0.9934978864218251,-1.105706095591879,-1.9390603504576625,4.1509943701651695,-3.577206887449333,-1.3722421393285404,2.0265062201930584,2.0,0.4946046658308289,0.5085186678847781,0.37025262859631775,0.8001084017656105,-0.15074400628522755,0.3207743466331057,-0.4839489730697484
11.8,-2.5809079257851613,-1.3980856217002722,3.919715068294001,0.05477570421772297,-0.380657588167311,0.1805682707805369,0.05641861526586843,-0.09902375673049797,0.993484340761441,-1.1057206914492463,-1.9390781331709,4.150999888910456,-3.5771729271624215,-1.3722708860980433,2.0265024435838708,2.0,0.4946137744173751,0.5085053965495637,0.3702611747755126,0.8001050026097306,-0.15076139173771874,0.32077643375386744,-0.4839477937839366
11.9,-2.7067617630591676,-1.4297482591053148,3.8339394962771745,0.05526226681853451,-0.37818642097772,0.18045971376260134,0.056516169647783235,-0.099274214164379,0.9934538033779494,-1.1057082720868143,-1.939079850428439,4.151006679266858,-3.5771900616087855,-1.3722790918104193,2.0264968574205957,2.0,0.4946166116038543,0.5085026806714759,0.3702632272894968,0.8001058332270486,-0.15076769625447767,0.3207753584104952,-0.483945169248321
12.0,-2.684030481987297,-1.159082136655216,3.8753082555716754,0.06278715577863143,-0.3799889646040399,0.18470168550363955,0.05662070520535051,-0.09952917701375746,0.9934223587703994,-1.1057272269703857,-1.9390685883937469,4.151003624157081,-3.577194616551999,-1.3722656065242014,2.0265037763556144,2.0,0.494612841483061,0.5085054686902616,0.3702274797490476,0.8001240383144482,-0.1507620917403436,0.32075973263927815,-0.48392717316000616
12.100000000000001,-2.782623001329535,-1.3372458650290306,3.8847375063662613,0.05723306097181122,-0.3768557280290036,0.18189012762495754,0.05674233177872022,-0.09979516982876019,0.9933886931356914,-1.1057165973421372,-1.9390859994704868,4.150999546051025,-3.5771869856551874,-1.372262618668367,2.026492487692479,2.386191013686301,0.4946018088790408,0.508503533925236,0.37021838993994893,0.8001355989421309,-0.1507513850709793,0.32075129065510377,-0.48391698952173984
12.200000000000001,-2.8575548882966024,-0.8275821265974095,4.44124908611898,0.0296548810520629,-0.38261639889968796,0.18828930450029663,0.05686395835208993,-0.10006116264376291,0.9933550275009836,-1.1059065087888424,-1.938692119637502,4.151007153167945,-3.5771741438309994,-1.3722504946342682,2.0264848581674837,3.0,0.49460319550651416,0.5085037552730164,0.370235122118014,0.8001283383172616,-0.15075160864731718,0.32075543695106756,-0.48392617657885983
12.3,-3.0942985273304204,-0.30306464071888234,5.064266973747058,-0.017147874152238042,-0.39876958869898205,0.17734632350951554,0.05683724885876105,-0.10005204352724319,0.9933574929605798,-1.1070046425653046,-1.9374549479355578,4.151050870982891,-3.5771855748292567,-1.3721187532806915,2.0265438770767035,3.0,0.49455335763548874,0.5084283535641408,0.3703155385351843,0.8000985691071808,-0.15075662312166588,0.32078435348201806,-0.4839546661193766
12.4,-2.7525079164286748,-0.280851200556993,5.0288571046145565,-0.037926676964085866,-0.41210391642128275,0.1473442208007695,0.0567429991390684,-0.0999018926944359,0.9933779741715936,-1.1082167956112017,-1.9364625216073463,4.151220758467581,-3.5771415717074833,-1.3719584633514885,2.026632745772268,3.0,0.49431838174418924,0.508071362118832,0.37061808608347113,0.8000202018817456,-0.15079735875105488,0.3208265812652756,-0.48404352896039415
12.5,-2.943377504162215,-0.4448377102097368,5.027972635448712,-0.049763885304368836,-0.4097011275485083,0.12728682108417258,0.056579589360166646,-0.09958175927697042,0.9934194402341848,-1.1094358719249053,-1.93536947860964,4.151564121246338,-3.577057500878805,-1.3717342539340136,2.026663847328691,3.0,0.4940254391869528,0.507736342212698,0.3707574724806275,0.800022473949894,-0.15081252031979434,0.3208379900420738,-0.48402748789262484
12.600000000000001,-2.765292411450064,-0.38473402136770174,4.888322058961915,-0.043081858838389005,-0.4171817782655035,0.1006401688536054,0.056470283004759675,-0.0993040402103967,0.9934534253485621,-1.110886063967226,-1.9343061144233187,4.151734594530779,-3.5770251806679685,-1.3715317361448678,2.0267695458387784,3.0,0.4936579637876496,0.5074987971101776,0.3708165953839764,0.8000720420033645,-0.15075559845632783,0.3207979596670395,-0.4839898203600006
12.700000000000001,-2.8571641541577217,0.1408442573252657,5.225570510000232,-0.0670576723395844,-0.42297765587696234,0.07926194264702546,0.056377513624504494,-0.09903928529694804,0.9934851238746473,-1.1123798624644154,-1.932960318996372,4.1519629134558675,-3.5769621334471644,-1.3713282404462603,2.0267995515018664,3.0,0.4933235790067073,0.507189791496992,0.3708266543754833,0.8001437162254792,-0.15075535582752825,0.3207509180919701,-0.4839025776097433
12.8,-2.916780016961846,0.2517405374028203,5.3256531647692675,-0.10832901514696798,-0.4508152308928362,0.05399005143581264,0.056547143904333776,-0.09938806948108574,0.9934394727150725,-1.113493346107704,-1.931514260308502,4.152186870574951,-3.5769509688140886,-1.371143643056051,2.026896004690918,3.0,0.4929821053054456,0.5068236729903851,0.37093148889746347,0.8001745090641899,-0.15076781841738351,0.320732732525002,-0.48385982914537506
12.9,-3.2247332316929427,0.46836217015434917,5.336541241827101,-0.12416202849060722,-0.4766663216082979,0.03425344201847144,0.05747498165219593,-0.10150968342258816,0.9931703185627786,-1.1145947498159954,-1.9303527302221515,4.15234355660726,-3.5769268009553405,-1.3709563860656149,2.02697734566976,3.0,0.4925998676440311,0.5064395783499274,0.37129005730537856,0.8000931932689694,-0.15076480890863658,0.3207673419542137,-0.48397227897373873
13.0,-3.1720102989760943,0.36501815096096063,5.237068356649657,-0.10745998649239502,-0.4748589036471921,0.020156063780420837,0.05820451498120133,-0.1031986362668774,0.9929563046493215,-1.1158612707736333,-1.929312000512888,4.152569342204995,-3.576860199212839,-1.370748212019788,2.027047634124756,3.0,0.49233787083084046,0.5061853491430116,0.3714605011392667,0.8000694935265085,-0.1507596198011964,0.3207827058665595,-0.4840028906758338
13.100000000000001,-2.912447508613593,0.4149735021898848,5.222238859307737,-0.11233663299674428,-0.4783142751079543,0.006432801818866753,0.0583367480331694,-0.10358439781205905,0.9929083751838206,-1.1173334121704102,-1.9281200428350467,4.152727434483341,-3.5768347678843155,-1.3705400172553746,2.0271091654223508,3.0,0.4920794142731391,0.5059179338519866,0.37153460078031003,0.8000930721654946,-0.15076685031138898,0.32077757656394257,-0.48396505978606325
13.200000000000001,-3.068357113667683,0.6600240798658225,5.482669895669156,-0.13525494257755658,-0.4864865132522129,-0.01755308503001672,0.05732757149142853,-0.1012212831626778,0.993207044537632,-1.118544733266994,-1.9267888173799843,4.152966022491455,-3.5768047772320117,-1.3703743115028884,2.0271657350252426,3.0,0.4917273495531849,0.5055457211073532,0.3716351749312226,0.8001300102953339,-0.15077696860964207,0.3207582135737989,-0.48391367079947334
13.3,-3.3819537115116374,0.7663273788637797,5.4817208698854065,-0.15447438581355433,-0.49053527711647626,-0.02703472431224383,0.05617174217603612,-0.09850674237564254,0.9935496747129855,-1.119691266332354,-1.925519711261539,4.153128645249775,-3.5768118279886867,-1.3701809301210122,2.0272335588932036,3.0,0.491343988779818,0.5051452311527381,0.37182032894154415,0.8001375712360519,-0.15076918128181546,0.3207570915560144,-0.4839043389851033
13.4,-3.2674926777011697,0.6241827344302181,5.337908706214314,-0.15210195545919972,-0.4814388836212438,-0.03511193855280016,0.05587765580867507,-0.097873494371472,0.99362869969515,-1.1209279210007321,-1.9244426942319937,4.1533168845302075,-3.5767905621798963,-1.3700462873906063,2.0272827249548007,3.0,0.4910024457866272,0.5047631128127439,0.37211076732225223,0.8000856163144303,-0.15077692454709798,0.3207997463096621,-0.4839595523993028
13.5,-3.218354780431127,0.8464734259695146,5.434929528243946,-0.14917050803543286,-0.47952603275026723,-0.030027538584370208,0.05573593971692589,-0.09757786640436235,0.9936657689595038,-1.1222113224498012,-1.9232614424999128,4.153529368802462,-3.5767379530582954,-1.3698413654367578,2.027383327484131,3.0,0.4906845885357942,0.5044324267686411,0.372262552585169,0.8000884457232353,-0.15077438334766277,0.32079828423467494,-0.48395663563835795
13.600000000000001,-3.2321290314940176,0.8663755171304605,5.6090709730018995,-0.15559487927262386,-0.48682870998392214,-0.02817418353932177,0.0561381178465361,-0.09848739204372323,0.9935530749424125,-1.1235313415527344,-1.9219830049971713,4.153757572174072,-3.5766157486235177,-1.369657065843565,2.0274485408689147,3.0,0.49037471657291853,0.5041358138206552,0.37235480602540566,0.800104653420064,-0.15077209200511357,0.32078498492147056,-0.48393936944300486
13.700000000000001,-3.428005454307897,0.8816609526080363,5.524992867990589,-0.1594852984964388,-0.5045803447861702,-0.019982799469517518,0.05647878589311786,-0.09925283825543237,0.9934581122074863,-1.1246706416172705,-1.9207650038720736,4.153936862945557,-3.576648010453637,-1.3694861687940674,2.0274996523508717,3.0,0.49010411594505093,0.5038719125209747,0.3724781783717171,0.8001019157539085,-0.15076983742616798,0.32077957337792495,-0.483948185070353
13.8,-3.3805213133978507,0.8459926408910441,5.613957182074943,-0.16130272001354706,-0.5056663842444211,-0.017305864138177213,0.05648211918238459,-0.09922812135293277,0.9934603917045893,-1.1259104964023914,-1.9196217864536373,4.154149062961869,-3.5766537510906953,-1.3692734047390853,2.0275716856425325,3.0,0.4896924957619316,0.5034561691226532,0.37270853565200956,0.8000958563662721,-0.1507668005023079,0.3207756183696185,-0.4839617703408069
13.9,-3.4489921445350142,0.9749885917841726,5.608192295214189,-0.17054906565198638,-0.5020423616358453,-0.016231619593207458,0.056024173554400876,-0.09808770428898157,0.9935985292915227,-1.1271502927072325,-1.9183498384328397,4.1543657735116755,-3.57667636362121,-1.3691017804845076,2.0276430156345744,3.0,0.48934362836050105,0.5031100770251917,0.3728489017429297,0.8001172406437884,-0.1507667326340133,0.320749991819449,-0.48394342262629975
14.0,-3.5727393126060805,1.01868732283684,5.623355760200709,-0.1840447217907486,-0.504398400499549,-0.018143312494414657,0.05547669356303079,-0.09672664058058819,0.9937634083838236,-1.1283667635588674,-1.9170648852626058,4.154572010040283,-3.576676187717244,-1.3689013981731784,2.02767475422633,3.0,0.48897204041212783,0.5027485755718474,0.3730391334806688,0.8001250029291069,-0.1507512323615853,0.3207462424079745,-0.4839379026386803
14.100000000000001,-3.5293816078974287,1.1917837886715528,5.72641153270215,-0.17686542540834335,-0.5039690851982865,-0.012214784835763024,0.05609329143350585,-0.09815286869344722,0.99358800602248,-1.1295563252143983,-1.9158937643638076,4.154771138103593,-3.5766622028746546,-1.3687422292507534,2.0277741440850385,3.0,0.48868692991642804,0.5024511944428847,0.3732283948440262,0.8001041683833305,-0.15074439986295418,0.32076099081414333,-0.4839647016234824
14.200000000000001,-3.5987514627604984,1.1322626818447648,5.763255522845445,-0.1653674814894805,-0.48984167666407186,-0.010578420613685573,0.05662327339136401,-0.0993736972201692,0.9934377915873756,-1.1308308605431836,-1.914876221739597,4.154959252198087,-3.5766748954558096,-1.368583077901843,2.027847716490878,3.0,0.488428134009021,0.5021906451452682,0.3733776553269348,0.8000885004996287,-0.15074703707250864,0.32076167027693453,-0.48398933155935
14.3,-3.3375042867009044,0.8241745926081935,5.866766640391914,-0.1730940507200499,-0.49581417714386106,-0.013150579855950062,0.056500640521755324,-0.09904692541089444,0.9934773576861269,-1.132126380480336,-1.9135704115989043,4.1551594734191895,-3.5766418057983937,-1.3684171569037062,2.0278917237146765,3.0,0.4880250099659086,0.5018043865398337,0.37351504504388766,0.8001220790734169,-0.1507351396809531,0.3207351118552035,-0.4839551262956377
14.4,-3.508918455507293,0.8629317683803392,5.84604855257993,-0.18908605468223894,-0.523259098029224,-0.011140701107427892,0.05635821007266984,-0.09867779640242078,0.9935221769985044,-1.1333742141723633,-1.9122639494967786,4.155360264306403,-3.576609638541951,-1.3681966420232727,2.0279672533810467,3.0,0.4876890299645821,0.501449574666921,0.37364392920135603,0.8001481357831244,-0.1507215376885051,0.3207331131801465,-0.48391760557906394
14.5,-3.931188199499808,1.263021949013633,6.068543287399659,-0.1889680041079101,-0.5603801087717198,-0.012150272539375697,0.056039093712635275,-0.09793064540724512,0.9936138792561465,-1.1343801490839016,-1.9110200220498479,4.1555581293712,-3.576657627559553,-1.3680188268260622,2.0280173294122705,3.0,0.48729745240146377,0.5010413267608519,0.37392473699618084,0.8001045728959236,-0.1507288132028522,0.3207525703721809,-0.48397446823270596
14.600000000000001,-4.023533798039915,0.7092793518570394,6.099598092689554,-0.1705137548681078,-0.5639855330277844,-0.01936332011806112,0.055716510316738715,-0.09718110484285288,0.9937058785188249,-1.1356287783881276,-1.9099503662230843,4.155772575925007,-3.5766297876131934,-1.3678164225116312,2.02808732734105,3.0,0.4870304999390311,0.5007579897097433,0.3741433610173336,0.800061541360754,-0.15073383423396763,0.3207767492042991,-0.48402801408854795
14.700000000000001,-4.036293619978242,0.4446832471705116,6.138487183402268,-0.15680398851633112,-0.5612889648138514,-0.017688657613167208,0.05535999739556791,-0.09640817918746199,0.9938007843680755,-1.1369619369506836,-1.908869380503947,4.155956826254905,-3.5766315432055333,-1.367579427389479,2.028174877166748,3.0,0.4867760059415267,0.500498407907954,0.37421212321283326,0.8000922343316229,-0.15072795298853098,0.3207667143253057,-0.48398575984326864
14.8,-4.062532317264934,0.543358275566773,6.235543796222224,-0.1606978761716355,-0.5633305907715869,-0.01523136431406519,0.05503127549371268,-0.09569631133382482,0.9938882101887736,-1.138346841410398,-1.9075640943789527,4.156115316283245,-3.5766005990345224,-1.3674132153679197,2.0282406031890114,3.0,0.48638103477313654,0.50007214567754,0.3742552298562049,0.8001671119128031,-0.15074179945543348,0.3207371135867612,-0.4838772642706979
14.9,-4.204735370847395,1.2203920809865896,6.398348768609031,-0.18203476424049353,-0.5893373658609492,-0.014490643406194825,0.05500790532367463,-0.09565531147875758,0.9938934497590635,-1.1393197817934102,-1.9061398994093344,4.156331282695116,-3.5766174195937195,-1.367237393056051,2.0283123872345956,3.0,0.48610330093026854,0.49976993476424786,0.3743920244170968,0.8001620331995667,-0.15075042538196148,0.320744309572478,-0.483878205491803
15.0,-4.189993136703242,1.1363712352087105,6.511016652940113,-0.19414747153584677,-0.5993831227818928,-0.011488601868444713,0.05510160243471032,-0.09588739641151417,0.9938650307744242,-1.140322036544031,-1.9050361118712367,4.1565275677106515,-3.576637358857851,-1.3670305250579513,2.028365753046556,3.0,0.4858455646939193,0.4995057185097568,0.37465170938327175,0.8000952662976599,-0.15074491620051889,0.3207781572743164,-0.48396788003282787
15.100000000000001,-3.956332816862778,0.5606033218448684,6.265644666719188,-0.17207144999332621,-0.5777208274576077,-0.008862844247288292,0.05667705928195192,-0.09957600685213487,0.993410584201075,-1.1415680567423503,-1.9040460071959437,4.156714725494385,-3.5767636102436327,-1.3668511867470505,2.028434467315674,3.0,0.48538932556687614,0.4990337324819737,0.3750359868496627,0.8000343155004355,-0.15074312564258646,0.32080819300196595,-0.4840492819910661
15.200000000000001,-4.083025467212136,0.27652713239317245,5.976668976621755,-0.15568335415508489,-0.5679179451574773,-0.01341143504961505,0.057382690535004575,-0.10126124701652678,0.9932035953396593,-1.1422910690307617,-1.9034966506667006,4.1568191101281595,-3.5767668610701575,-1.3667803370791907,2.0284805449066017,3.0,0.48510978231709484,0.49873910995189835,0.375050462055443,0.800113888994703,-0.15074313854860344,0.32077313980860706,-0.4839409711892726
15.3,-4.2027226376345395,0.2953710278799855,5.82434527210543,-0.16462796988982875,-0.5758951504067688,-0.01295289249053672,0.057402251285792905,-0.10136050819582114,0.9931923404114688,-1.1422785199032177,-1.9034935436644496,4.15686636701967,-3.5767129623570297,-1.3667388361321764,2.0284680846690963,3.0,0.4849629159420949,0.4985864457016737,0.375045640195768,0.8001453797226383,-0.1507497643724071,0.32075823508362117,-0.4838967188111726
15.4,-3.9696681324883447,0.8183542733090858,5.987646055734358,-0.16608033682336723,-0.5794763382421894,-0.00988669487173563,0.057521659249829146,-0.1015677845072292,0.9931642441022868,-1.142262801327787,-1.9034133538901854,4.156868800320707,-3.5767017271798305,-1.3667705974309012,2.0284546994469275,3.0,0.48490948942827683,0.4985642303033936,0.37505364595771634,0.8001490333545817,-0.15074605340141045,0.3207440621345459,-0.4839012279495254
15.5,-4.102332314390862,0.9178328776996,6.02373247853788,-0.16410289105781023,-0.5885843804956928,-0.011253437883776581,0.05722182894393711,-0.10081150882960033,0.9932578380514335,-1.1422662734985352,-1.9033614597716273,4.156829393982382,-3.57670515778699,-1.3668006470543024,2.028495785841287,3.0,0.48488826837375343,0.4985595296183761,0.37509589778396596,0.8001317276629154,-0.15074207212270913,0.3207432551104495,-0.48393161746311164
15.600000000000001,-3.9557128265745978,0.7940866702002772,5.969932261852807,-0.1609284723254904,-0.5962209311424793,-0.00881628379053221,0.056583444376464224,-0.09928108247216665,0.9934493239480732,-1.1422850413776797,-1.9033646869701757,4.156824588775635,-3.5767044516909565,-1.3667715231524866,2.028464946962527,3.0,0.48488417838643955,0.49852908967521703,0.37515950790962754,0.8000960362291967,-0.15074837227490898,0.3207557307566294,-0.4839803944929739
15.700000000000001,-4.160637109744278,0.6306112096138885,5.97768806356026,-0.1666681706970024,-0.5954959262023973,-0.007374252056071992,0.056847525964982874,-0.09997778378675073,0.9933642413331949,-1.1422723228795573,-1.9033318012011957,4.156821796753625,-3.576616779508275,-1.3667564063633584,2.028456305756711,3.0,0.4849076030815511,0.4985150380440898,0.37515352645447847,0.8000912469921013,-0.1507657508978283,0.3207578761402189,-0.4839814766464253
15.8,-4.228111205570605,0.5138556077964628,5.855066456449515,-0.1601526733509117,-0.5985849933296467,-0.013012918162193944,0.05666886891714165,-0.09960787092650972,0.9934111380341007,-1.1423081383139246,-1.9033735345303724,4.156821679325419,-3.576629793772465,-1.366765663578147,2.028491836348512,3.0,0.4849197448120882,0.4985104027786731,0.37514328640751765,0.8000928018175009,-0.15077245293831382,0.320771392455762,-0.4839678601898857
15.9,-4.0971624131340265,0.47470027687912,5.888626091887177,-0.15885198837587283,-0.6012403240086347,-0.011210088823850248,0.0560557012927181,-0.09819116634304212,0.9935875612860883,-1.142280502723032,-1.903325696984762,4.156810161136766,-3.5767045110852997,-1.3667864276285135,2.028449566459122,3.0,0.4849085378594057,0.49851381144694773,0.3751478150713589,0.8000950916538759,-0.1507603925381881,0.3207791593789615,-0.4839626837486899
16.0,-4.134285597994518,0.639439462791493,5.902368742029928,-0.15527204116739976,-0.6012069773154171,-0.011286557362481296,0.057551759105473686,-0.10163175214947895,0.9931522786121819,-1.1422953833990386,-1.9033392555875952,4.156832742225807,-3.576732278097661,-1.3668039952977271,2.0284857749938965,3.0,0.4848948348548785,0.49852544212771976,0.37514792296981564,0.8000996898909867,-0.150752683114459,0.3207668120312951,-0.48396566724243806
16.1,-4.3215097567716185,0.8312056551216147,5.98878162238816,-0.15063439858913716,-0.5967836821295082,-0.012825310424770085,0.058484921421757624,-0.10380655723659393,0.9928762775782113,-1.1422998668585944,-1.9033522953676347,4.156830740339504,-3.576711147995739,-1.3668072859393519,2.0284619331359863,3.378242108200174,0.4848888360233618,0.4985208633142218,0.3751492127033515,0.8001060762683907,-0.15074669038850935,0.3207611001233479,-0.4839607615323487
16.2,-4.275978233651691,0.6389412586513814,5.751859934695264,-0.1569896276795567,-0.594292608326943,-0.007177421514682449,0.058822582441533246,-0.10464188939539826,0.9927688329300868,-1.1422996377381753,-1.9033554693874954,4.156825125452102,-3.5767250999016627,-1.3667596022235315,2.028477206286483,4.0,0.48489868750349663,0.4985131286483859,0.37514336509741447,0.8001035411785673,-0.1507598373418545,0.3207620479119995,-0.48396022921049425
16.3,-4.223854795314771,0.8185972020885603,5.9664908206642755,-0.14833976727056633,-0.5963511627173758,-0.009802568963978717,0.05877136764558986,-0.10446502745895185,0.9927904927161244,-1.1423163991989322,-1.9033583340399536,4.156821588073228,-3.576677249535283,-1.3667809003475075,2.0284285890537883,4.0,0.4848901668717159,0.4985256255523935,0.3751386731775875,0.800105815170208,-0.15075241755009092,0.3207531110462424,-0.4839647041756012
16.400000000000002,-4.224158805523197,0.6308516577064437,5.92728889298433,-0.15576747403488114,-0.5983717738959925,-0.0055034453512196975,0.05896476056069838,-0.10490575544988415,0.9927321696272334,-1.1422742006898132,-1.903325696984762,4.156824751864459,-3.576678422433259,-1.3667834440814417,2.028474493990924,4.0,0.48489181281201676,0.49852332639914715,0.3751487387495454,0.800103651391098,-0.1507454507946243,0.3207624265639796,-0.48396427740086934
16.5,-4.08541385719464,0.5544972273058872,5.861533652176236,-0.15857092697271963,-0.5996581167900288,-0.00704136697592692,0.059437438009564934,-0.10605227308832349,0.9925824833580258,-1.1423215559102176,-1.9033422324043434,4.156813482989375,-3.5766814302419387,-1.3667751763716511,2.0284730389222463,4.0,0.48489201488741646,0.4985217687765708,0.375145574237232,0.8001015790200954,-0.15075009246384208,0.32076453839255264,-0.4839648580026297
16.6,-4.006152442839627,0.43877370579185776,5.664615819179859,-0.1611003305728129,-0.600848233670588,-0.004586535398622505,0.0594074839781174,-0.10600698904728294,0.9925891700859024,-1.1423101723215632,-1.9033243517395495,4.156807645328292,-3.576686044732565,-1.3667889434369878,2.028475199310154,4.0,0.4848872002108427,0.49852207919931046,0.37514124867096255,0.8001008816204052,-0.15075364409085332,0.32076284373760167,-0.48396602783764203
16.7,-4.19278198550001,0.6373128765755124,5.8114600731887975,-0.15235543782973957,-0.5950555079135739,-0.0024159783924324624,0.05850769701573853,-0.10388141987043986,0.9928638858137028,-1.142282649861968,-1.903325696984762,4.156813144683838,-3.576675414316537,-1.3667715231524866,2.028455706533919,4.0,0.48489799986324783,0.498510818243543,0.37517243034002007,0.8000912827342155,-0.15074786838497978,0.32078468180573116,-0.4839692215305623
16.8,-4.318768553041757,0.6826816581671463,5.862640589897516,-0.15218880224924466,-0.5918328152854629,-0.00892159198127184,0.057496926060468585,-0.10145745798365205,0.993176700457189,-1.1422856010745406,-1.9033571191159497,4.156813066760253,-3.57669796566152,-1.3667843198321734,2.028458294604813,4.0,0.4848959708058164,0.4985262840640936,0.37516291798147017,0.8000928152340896,-0.1507367053805358,0.3207725344359269,-0.48397821625912335
16.900000000000002,-4.1065077129772405,0.6253709343776142,5.943215637022324,-0.15271754050212305,-0.5954695616652789,-0.005070686039252168,0.05785554708392298,-0.10226440688693002,0.9930730422599523,-1.142293095453219,-1.9033314220786253,4.156803968751972,-3.576719657180271,-1.3668105077735997,2.028494950925762,4.0,0.48487981346111514,0.4985358115781528,0.3751284282423387,0.8001146305053204,-0.1507354923351583,0.32075081222432017,-0.4839569256238112
17.0,-4.367051237480522,0.8898761484576846,5.8811485544772815,-0.13919441892999337,-0.5927682450201867,-0.006407717445492863,0.057969248148405476,-0.102548383971802,0.9930373977151333,-1.1422662734985352,-1.9033168307505595,4.15680685630723,-3.5766983856993653,-1.366795841847555,2.0284741519149967,4.0,0.48488101447312754,0.49851927310255256,0.3751339767465653,0.8001133877139583,-0.15074649385391523,0.3207442801900967,-0.48395988275577245
17.1,-1.4124077297254163,1.8371014278820303,5.432328618109786,-0.22181171933742608,-0.3487165313942032,0.038124443836242784,0.057735346294119735,-0.10209013273328808,0.9930982816206527,-1.1423113741734847,-1.9033577184720964,4.156775003440446,-3.576686044732565,-1.3667065371725637,2.028471532607823,4.0,0.48490750295132695,0.49850975866814506,0.37512921786751735,0.8001064610313113,-0.15076367474036792,0.32075873673513794,-0.48395640113837723
17.2,-0.9328056078868615,2.220448099925173,4.978901972570693,-0.2499807478123605,-0.26275891811014934,0.04670011172745194,0.056586336273280975,-0.09945317409624814,0.9934269491742754,-1.142292709350586,-1.9033290502267133,4.156743884548064,-3.576718931114637,-1.366744656608809,2.0284578206462243,4.0,0.48491228663398506,0.4984963311682292,0.37513512719363223,0.8001048759833015,-0.15078172851663058,0.3207653664043349,-0.48394900298355403
17.3,-1.119626453684888,2.1672749616171454,4.961718066363208,-0.25112646022344015,-0.25303036655004857,0.05226023426549795,0.05533656104966142,-0.09657631169609412,0.9937851031586707,-1.1423075279792787,-1.903313776055807,4.156774954911868,-3.576660595621469,-1.3668316046344202,2.0284654156383195,4.0,0.4849278939727953,0.49848555285901697,0.3751615140909214,0.8000854311624119,-0.15078712879573905,0.32078148666462714,-0.48396878251022146
17.400000000000002,-1.0923738535601466,2.1812113914894615,4.881576715070899,-0.248817132107186,-0.24891852183040852,0.051755547034547926,0.05513264753801306,-0.09606826172979253,0.9938466685250494,-1.1423139572143555,-1.903313776055807,4.156803245572085,-3.576676622457971,-1.3667812920127684,2.0284619331359863,4.0,0.48492215554209034,0.49849013073100706,0.37516887962099993,0.8000836440823011,-0.15077566963085187,0.32077212763431395,-0.48398151003143663
17.5,-0.8247222838859712,2.2631015247752684,4.86200101034655,-0.2493413147584817,-0.25087113988968207,0.05249417736032757,0.055055624187269815,-0.09584761017137323,0.9938722499969689,-1.1422910690307617,-1.9033201565578934,4.156768120372915,-3.576676894017044,-1.366832444709638,2.028453148449086,4.0,0.48490473026810715,0.4984958012774128,0.375160994269899,0.8000986379245696,-0.15075990726052657,0.3207657886412628,-0.48396583432241874
17.6,-0.7975024529605308,2.3677663355948595,4.817372864241912,-0.243059985807493,-0.24954429343449264,0.05009491997537237,0.05490208539313214,-0.09546126210311127,0.9939178480513965,-1.1423025131225586,-1.9033218377591414,4.156770620458151,-3.57669796566152,-1.3668047061942847,2.0284857749938965,4.0,0.48491140276948524,0.49849469720231293,0.37515588867060323,0.8000968830104056,-0.15077250143675827,0.32076430950867907,-0.4839657925442218
17.7,-0.5076306950814489,1.543492117512978,4.3407620876271285,-0.17496313849304013,-0.2070839146977133,0.03691417446425465,0.054625095545560415,-0.09480757704008111,0.9939957411313401,-1.1422880836531464,-1.9033468733269443,4.156757653800302,-3.5766767893193374,-1.3667877386797422,2.028475112930985,4.0,0.48491419412899445,0.4984991004813454,0.37514985857283734,0.8000939486753069,-0.15076746570672295,0.32076940062601367,-0.4839688380459586
17.8,0.017173014786705208,-0.27330252081548556,2.769316177682844,-0.021700693160963208,-0.11095076666002604,0.026567025980092116,0.057225682158552484,-0.10091954459278651,0.9932306451396999,-1.1422489945469165,-1.9032747312107154,4.156782515501951,-3.5766895499983153,-1.3668016754972154,2.0284504890441895,4.0,0.48490482804678753,0.49849353548740866,0.3751750764899704,0.8000838652405255,-0.15076889583763214,0.3207743586198954,-0.483981775980952
17.900000000000002,0.17779566471523492,-0.6886980665599156,2.093325282172816,0.02461353273623995,-0.07772988170105882,0.024970640615188174,0.05901642350199004,-0.10512796837939145,0.992705824880764,-1.1422834170357794,-1.9032839771247314,4.156779535573098,-3.5766649429926582,-1.3667596022235315,2.028453119557473,4.0,0.4849050089337581,0.49850023654060654,0.37520666514213574,0.8000637482310073,-0.1507617724035675,0.32079034176846455,-0.48400665633476353
18.0,0.3704488387367787,-0.6230244523508491,2.043564578235525,0.029765063894762828,-0.07162907320418879,0.027624358324166338,0.05867791862516864,-0.10433111604938147,0.9928100382741013,-1.1422548294067383,-1.9032750286796587,4.156803354979934,-3.57668353698044,-1.3667809363293169,2.02844527291977,4.0,0.48490270368755084,0.49850280502575706,0.37520654719956675,0.8000673003002954,-0.15076423718522214,0.32078679622171086,-0.4840023668805413
