xiamingqian9007/apple-picking-rnn/final_data/grasper_20191127_121145_noimg.csv
,/manipulator_wrench.fx,/manipulator_wrench.fy,/manipulator_wrench.fz,/manipulator_wrench.tx,/manipulator_wrench.ty,/manipulator_wrench.tz,/ground_truth.x,/ground_truth.y,/ground_truth.z,/joint_states.elbow_joint,/joint_states.shoulder_lift_joint,/joint_states.shoulder_pan_joint,/joint_states.wrist_1_joint,/joint_states.wrist_2_joint,/joint_states.wrist_3_joint,/mode./mode,/manipulator_pose.x,/manipulator_pose.y,/manipulator_pose.z,/manipulator_pose.rx,/manipulator_pose.ry,/manipulator_pose.rz,/manipulator_pose.rw
0.30000000000000004,0.13032979428147318,0.22919347201992724,0.2558108218772825,-0.006624696604457878,-0.012362615129239377,0.020852460240296,-0.007713730188751539,0.18980462718334562,0.9817914903931163,-1.6369696199178865,-1.7399623224124245,4.15710913777716,-0.15313893804679762,1.3669657707214355,-0.7892610298499787,1.0,0.47799940858553464,0.48802276702120406,0.4313844155759579,-0.7794307459359626,0.2794225510339745,-0.23416227079451296,0.5094887449195831
0.4,0.033968687846924195,-0.049101978484807574,0.3520302214430443,0.004490596004108744,-0.023172441763223472,0.06858626033108575,-0.007726780326380373,0.18993300272881566,0.98176644364131,-1.634457882768047,-1.743377498435605,4.1563897132873535,-0.1523732202799441,1.3675742149353027,-0.7894509810739612,1.0,0.47843359480868486,0.48844122928902717,0.43117869798236047,-0.7794144175760259,0.27942519123087434,-0.23414864770981236,0.5095185364202952
0.5,0.20743588573024277,-0.1336566690740994,0.19225529732172503,-0.004189853282785885,-0.018240117147426675,0.06590457742922937,-0.007807776993315629,0.19081501521528088,0.9815949429303831,-1.6315063855591254,-1.7471409475645634,4.155804816319601,-0.15153733176077477,1.3681361064171818,-0.78973895708193,1.0,0.47917983023005867,0.48914954496925306,0.4307835762482877,-0.779399547203429,0.27944648956409546,-0.23415968918379781,0.5095245286055826
0.6000000000000001,0.5566745776789674,-0.024438249058938353,0.31587808803825024,-0.003982105723877911,-0.01425538787553219,0.06659880753530172,-0.007769578305506135,0.18984872397708516,0.9817820496447474,-1.6290326958637393,-1.7504775768818184,4.155215100607767,-0.15078071149000538,1.3685698509216309,-0.789930914829435,1.0,0.47994146912697344,0.48994083320506937,0.430267515570392,-0.779438991911501,0.2794507970362925,-0.23416801916484656,0.5094579950537393
0.7000000000000001,0.2725374454732764,0.047325924399792996,0.09161989749268841,0.0010376424051775446,-0.019461892278642028,0.0665896199221967,-0.007727641164990209,0.18882446239200334,0.9819804037512814,-1.626192633835012,-1.7540699940953073,4.154700153406135,-0.1499205269384982,1.3690614700317383,-0.790204399822358,1.0,0.4808749372399729,0.4909142469869633,0.4296643150706926,-0.7794685427967512,0.2794591566683198,-0.23417250198246492,0.5094061344937
0.8,0.3626243163123312,-0.06219735715091804,-0.018358721718646887,0.006298325464669849,-0.011548340544745612,0.05907047841225703,-0.0076648064243531894,0.1886547588711249,0.9820135490470625,-1.6236411621423517,-1.75700710398234,4.154097574364093,-0.1492042843446518,1.3697044987247675,-0.7904120979690007,1.0,0.48185281997049584,0.4918415241773342,0.42922352327939434,-0.7793998173350185,0.2794906217288472,-0.2342231256923369,0.5094707494004677
0.9,0.35163896859542776,0.03215031768359598,0.2626061012453277,-0.012563366398849241,-0.018774459837013778,0.06144625495071066,-0.007601029735300062,0.1885235741088783,0.9820392476419443,-1.6211117057599642,-1.7603798417377692,4.1536239069723155,-0.14858484637215486,1.3702739893172209,-0.790614352496563,1.0,0.4829619164741335,0.49305095709958585,0.4286427857173055,-0.7793684989680627,0.2794217353148968,-0.2341914577293615,0.5095709938531403
1.0,0.3146184739530951,-0.17573507874187194,0.07415527563484656,-0.00784676335858125,-0.015626589517102732,0.05672737054219784,-0.007710297618977377,0.19039026919452473,0.9816770818094671,-1.6186454429264692,-1.7633684674790362,4.153143405914307,-0.14796707786619762,1.3707272727572377,-0.790816496507811,1.0,0.4837092370979812,0.493837575214817,0.42816332532714185,-0.7794080128778238,0.27940247312321226,-0.23415720744915197,0.509536858013323
1.1,0.24475734970766055,0.17129243890217338,0.16791236078668942,-0.0006980850051763765,-0.01758040571050769,0.054498307338443595,-0.007766043658646488,0.19142291002783418,0.9814769143889106,-1.6163190298468895,-1.7663591906129597,4.15272155471732,-0.14734422756735913,1.3711230360171136,-0.7909876735850325,1.0,0.48454391278826997,0.4947408035104285,0.42767608855158273,-0.7794180140090434,0.27938605763706537,-0.2341400494907,0.5095384455178132
1.2000000000000002,0.4108922582850677,-0.07135921097738074,0.15862168874857815,0.006369979215928818,-0.01759895344116022,0.05566258715425966,-0.007737603545517962,0.1911991364639585,0.9815207658128552,-1.6139789646088631,-1.7692317988499853,4.152231954955423,-0.14668531256827022,1.3715431348489353,-0.7911757357849385,1.0,0.4850969697738205,0.495339470551846,0.4273563212371505,-0.7794140433353594,0.2793787160088513,-0.23414167619458756,0.5095477971315951
1.3,0.23756966751283476,-0.14916660801686088,-0.11199305360692394,0.0018338657170720888,-0.015606011776140708,0.059774357268089474,-0.007829217051115094,0.1915740350352843,0.981446882847616,-1.6115318659041877,-1.7721398022071853,4.151704668611601,-0.14609797418627934,1.3719397798080954,-0.7914258803375953,1.0,0.48603393824737545,0.4963134096633993,0.426801635996226,-0.7794121225090469,0.27937059415092347,-0.23414962480336035,0.5095515357784213
1.4000000000000001,0.2989642395224011,0.07520006594294082,0.18881760512749102,0.006363050221406362,-0.019168501097550254,0.0588662227143657,-0.007866696792668253,0.1914799952759001,0.9814648176883547,-1.6096468193925046,-1.7748527239132796,4.1512966940716485,-0.1455956543694791,1.372335234776913,-0.7915226168138844,1.0,0.48697340552614043,0.49720578156085626,0.4262645109419032,-0.779409820622005,0.27940062986640024,-0.23418311307339124,0.509523197803091
1.5,0.40297256796427194,-0.05294635145200907,0.0672765378880397,0.012811370276500159,-0.015121107006965062,0.05900059052718883,-0.007810654747655079,0.19063086047260333,0.9816306638368262,-1.6072835154904153,-1.7774868121974219,4.150829840486098,-0.14506803116591116,1.3727913397562503,-0.7917382848035746,1.0,0.48753917148324266,0.4977906070889331,0.4258678859952953,-0.7794470056324299,0.2794062273558996,-0.23417396490898884,0.5094674471290441
1.6,0.33715404111892894,-0.05782017741119784,0.2826402216122603,-0.002336375980126727,-0.021645527670146755,0.05624988539923201,-0.007824059989105892,0.1909792060345335,0.9815627199658692,-1.6053238652039397,-1.7800673445935882,4.150426778349008,-0.14458901979964456,1.373210354901235,-0.7918699423419397,1.0,0.48842729975581944,0.49866525796444516,0.42540434248275333,-0.7794299275738845,0.2794225663735452,-0.2341745680959938,0.5094843364230599
1.7000000000000002,0.3842697447053653,-0.0021059130047110936,-0.015312942501416446,-0.0009180124123581044,-0.02107158360406015,0.05817006980172661,-0.007845399904200577,0.1914643692660489,0.9814680645040089,-1.6033353899349703,-1.7823063302487994,4.149977201259141,-0.14415819433171795,1.3735690271171321,-0.7920611386134795,1.0,0.4890136461439463,0.4992672978314719,0.4250193291617631,-0.7794550116330814,0.2794218027166062,-0.23416064563619154,0.5094527780294432
1.8,0.070606473855096,0.13919098661830182,0.26489142685952866,0.007420877342287689,-0.013452852014069688,0.05958178893379721,-0.0078154242427594,0.19138523294184145,0.9814836663400415,-1.601141524389154,-1.784921645165439,4.149582712821129,-0.1436781955466256,1.3739760672191965,-0.7921815621094586,1.0,0.4897137374622108,0.4999888038215234,0.4246462694490773,-0.7794433723192453,0.2793996009040225,-0.23414089232032137,0.509491839881385
1.9000000000000001,0.19380158471887937,0.1972148887521564,0.1902090815709489,0.002563699507446263,-0.016663928095078415,0.05751112211158268,-0.007705172357398558,0.19042332689056454,0.9816717506878554,-1.5994887807155047,-1.7869037825322993,4.1491991783536575,-0.14324731775906413,1.374275500827015,-0.7923479739065795,1.0,0.49017141021763755,0.5004726185844715,0.4244113246660335,-0.7794355691064797,0.27940029625859486,-0.23413370855518617,0.5095066972871535
2.0,0.39383724626972094,-0.15886203148618552,0.13876318976593632,-0.0023217903412088682,-0.017370185435964705,0.058972410606833586,-0.0077042059022155674,0.19011722665851524,0.9817311425740346,-1.5975191100285604,-1.7893471181467437,4.148851916881708,-0.14284007898254222,1.3746099472045898,-0.792480055600485,1.0,0.4909108168532417,0.501155703024725,0.4240621432600249,-0.7793967650432093,0.2794137957280643,-0.2341736324902573,0.5095403058084161
2.1,0.2399451329029893,0.2435585861281897,0.19594187411033517,0.004435701925278882,-0.01867089590326724,0.05362854052555533,-0.007717989691654667,0.1898996404785446,0.981773164850312,-1.5956384259782719,-1.791458410198738,4.148480198888441,-0.1424216898872136,1.374909471988563,-0.7925883303327778,1.0,0.4916660664077106,0.5019315310169721,0.4235651393232568,-0.7794167918670936,0.2794211145915815,-0.2341716344249174,0.5095065759210269
2.2,0.2155552935989898,0.19472986577332105,0.15915810270309688,0.0015421387247606063,-0.019567546154960605,0.05569103631012062,-0.007706079482548043,0.18973472868810357,0.981805135131356,-1.5939760230383395,-1.7935635041107523,4.14816713390989,-0.14206202503558593,1.3752083778381348,-0.7927191893206995,1.0,0.4921396153569059,0.5024534587010607,0.42330289708011215,-0.7794114781137094,0.2794089162820023,-0.23415908052978687,0.509527163448785
2.3000000000000003,0.1443709187068319,-0.16956196903756446,0.0635423333564482,-0.0014480436740284437,-0.019464408743631017,0.051336601246777885,-0.00769036456809953,0.18957761679423635,0.9818356169371868,-1.5922018759089744,-1.7956297612345182,4.1478563788928415,-0.14171425485316894,1.3754838116048584,-0.7928630447792566,1.0,0.4926289810040224,0.5029278574047052,0.4230868692263218,-0.7793781738124356,0.2794049888940353,-0.23418508514833752,0.5095683077468444
2.4000000000000004,0.43645562081060385,-0.09344734739790594,0.17473303546034694,0.0011492706146557276,-0.02260914012106927,0.060199989635137396,-0.00793036134575741,0.1917451611210108,0.9814122535013219,-1.5906094004110698,-1.7976113980169812,4.147581512500228,-0.14137867419943947,1.3757596646885308,-0.7929947798820891,1.0,0.4933934587483176,0.5037073242027624,0.42252390550801133,-0.7794464596080444,0.279429217224479,-0.23417342873126049,0.5094559200186463
2.5,0.34947135885899394,-0.08719914129526705,0.20338707249501742,-0.0036358880167979436,-0.019544218194382075,0.058971594415685294,-0.007922944802315434,0.19170443026775041,0.9814206473596541,-1.589003268993621,-1.799510826452395,4.147268363884098,-0.1411035817912598,1.3760707680543398,-0.7931022602150354,1.0,0.4937116044783187,0.5040662879526661,0.42237110365173763,-0.7794282909742286,0.2794265590924137,-0.2341652105834457,0.5094889512591786
2.6,0.24191115937332627,0.1494821378637378,0.2818833569561299,0.0013755959956821,-0.014926438127598859,0.05311248744403536,-0.007838464810648756,0.19090727411490657,0.9815765503258417,-1.587400835217125,-1.8012989676988589,4.146934377192557,-0.14081505450686754,1.3763472919237756,-0.7932223978670968,1.0,0.49445496338984346,0.5048052151554118,0.4219608043715203,-0.7794215308275706,0.2794268109683372,-0.23417293900779912,0.5094956027591616
2.7,0.11801068179379592,0.20790125231515488,0.31472722362577243,0.0020450495766840557,-0.01326067672598841,0.05538109337828416,-0.007811783109749986,0.19084983982008027,0.9815867209257101,-1.5859376780343255,-1.8032123051085414,4.146694094332447,-0.14046863636293092,1.3766684609729527,-0.7933531651990396,1.0,0.4948717542398352,0.5052337929726138,0.42172507584192825,-0.779429846296276,0.27941768883595774,-0.2341646101713219,0.5094917126033047
2.8000000000000003,0.1997346716859424,-0.029823325687016483,0.3053646504869834,0.002701774196306168,-0.01829880181111638,0.052856510268511764,-0.00800562732650779,0.19349221735927025,0.9810682573540288,-1.5845383178829338,-1.8049044698968477,4.146441800055518,-0.1401922122732795,1.3768970601426873,-0.7934257937704554,1.0,0.49542528474423647,0.5058352839346022,0.4213740319662251,-0.7794468795685376,0.2794102688498361,-0.23413399217673142,0.5094837949331834
2.9000000000000004,0.298565665766335,0.09522270144505367,0.14602440959771246,0.0070663580677837205,-0.01721154165838775,0.05257337987087388,-0.007909340131218105,0.19273653088648723,0.9812179844112934,-1.5830274687609496,-1.8064545990541792,4.146165662294594,-0.13991734337194894,1.3771719932556152,-0.7935101164894424,1.0,0.49589023006159677,0.5063314711050215,0.42106566070206647,-0.7794622020956158,0.2793991103145173,-0.234119343312667,0.5094732041496937
3.0,0.3278480608030784,-0.1441753926778852,0.20034082057943342,-0.0032152912958081136,-0.02134502838693137,0.05917709760677644,-0.007930009272990509,0.1930136341540798,0.9811604984111058,-1.5815362956852734,-1.808213272492258,4.145909783568877,-0.13962500916744558,1.3773933384620747,-0.7935890397010357,1.0,0.4963131119454059,0.5067507166464096,0.42090620260192335,-0.7794241829886619,0.27938839614837135,-0.23413572765662538,0.5095297126810172
3.1,0.3416691084161889,-0.12278582294826894,0.09286159125765454,-0.005184810771960642,-0.018833480991910324,0.055980246174986766,-0.00834963171793418,0.19721968446636495,0.980321323866491,-1.5803529508359158,-1.8098913542281947,4.145703138342096,-0.13941828955197463,1.377622601385018,-0.793701473866598,1.0,0.49667675356642543,0.5071160407388785,0.4206929731186027,-0.7794251653418482,0.2794013324696159,-0.2341446259478534,0.5095170273757057
3.2,0.31527833267521016,-0.14095510430037,0.1471449771493265,-0.01100656394191733,-0.023319188898542096,0.057083916977400645,-0.008426601639952628,0.1978680418160569,0.9801924309211468,-1.5791590268293978,-1.8111773727559726,4.145410790408284,-0.1391866969366645,1.3778309624864393,-0.7937853878669167,1.0,0.49711842929078354,0.5075604743935094,0.4203730090772724,-0.7794544486366279,0.27941724078349683,-0.2341491593770598,0.5094614207342144
3.3000000000000003,0.5030718636262672,-0.06906573376387361,-0.03039728063616609,0.002425005435262889,-0.020721237995758746,0.054285918962344415,-0.008456056116213096,0.19805752919028438,0.9801534370846988,-1.5777302326100429,-1.8125184240099201,4.145205702102901,-0.13893972165585153,1.378023570643131,-0.7938954928129517,1.0,0.4974811432447085,0.5079257615505222,0.4201749065943779,-0.779460012430171,0.27938878642705406,-0.23414989882028808,0.5094681736120756
3.4000000000000004,0.3322283052846661,-0.1417116941067636,0.11025268449480123,0.0030230163247299954,-0.021573575677698978,0.05267669983470691,-0.00857291108644814,0.1992378026769471,0.9799124962546363,-1.5763205988402802,-1.8142670286413722,4.144979953765869,-0.1387196016380738,1.3782243728637695,-0.7939645851590112,1.0,0.49791644740481206,0.5083797632333728,0.42005759879145155,-0.7793928835808324,0.2793796569503896,-0.23416786920774213,0.5095676101721373
3.5,0.23230594859281808,0.08597959326582039,0.17483004101775304,0.0012433635496736455,-0.015836645405001744,0.05346769534825965,-0.008689766056683182,0.20041807616360982,0.9796715554245738,-1.575303077697754,-1.815651043438378,4.144737648931402,-0.13852051912622343,1.3784259930151384,-0.79407245317568,1.0,0.49852067634689323,0.5090033406522806,0.41962965754304815,-0.779439574383843,0.27939700127003175,-0.2341637342333463,0.5094885780226504
3.6,0.3480311797784015,-0.0048556858436337395,0.13488192176010574,-0.003948097225792962,-0.019444289322585382,0.04958171999130113,-0.008856289181626406,0.20208696708281398,0.9793272292974629,-1.5742977028855365,-1.816776148576468,4.144560539149375,-0.13831259807281623,1.3786424043801555,-0.7941555260840552,1.0,0.49881656444380573,0.5092815584260159,0.4194264072780835,-0.7794494436368778,0.27941860476349545,-0.23415720072340862,0.5094646341754847
3.7,0.34380803781244573,0.079008107504968,0.13072197724373194,0.003953598223732859,-0.01956294848849756,0.057549690891155726,-0.008908452361360491,0.2026730233566947,0.9792059409137215,-1.573194342801699,-1.8179787660799882,4.144344722960253,-0.1381448877158498,1.3788111179317966,-0.7942160616515395,1.0,0.49901654849020394,0.5094728938277578,0.419333313700287,-0.779438000545268,0.279426536669542,-0.23415738132422415,0.5094777077382701
3.8000000000000003,0.2157535612064686,0.09869016158272775,0.18752435030715092,0.008258286736853995,-0.01610383596710936,0.05654252836363388,-0.008969851291314092,0.2033433115313695,0.979066214641505,-1.5718637122727528,-1.8194103620957496,4.144140720367432,-0.13795311868701177,1.3789674796496587,-0.7942876479059043,1.0,0.49946117599894896,0.5099101852169586,0.419107958372589,-0.7794243909709032,0.27941664490555274,-0.23416105116524008,0.5095022663605635
3.9000000000000004,0.19389650281156406,-0.03139220502167542,0.2558933677387338,-4.7583211336068784e-05,-0.0191546124704693,0.054304595642324,-0.009099130107459505,0.20480273185728173,0.9787597936061092,-1.5707869972322535,-1.8207387762014469,4.143960043344314,-0.13778527200732427,1.3791342058866538,-0.794373537176356,1.0,0.49991815658483785,0.5103679322127967,0.4189352185614612,-0.7793865464894609,0.2794075872005645,-0.23418564518378915,0.5095538194890139
4.0,0.34039486552051645,0.08776721109442229,0.05344280635752596,0.0046211994971502015,-0.020464122284209272,0.05143396039796883,-0.009290232710531199,0.20703286702714616,0.9782894759948053,-1.5698193372072256,-1.8218801520697767,4.14376974105835,-0.1376063656038531,1.3793019323721636,-0.7944213848042923,1.0,0.5001964656286176,0.5106807642391734,0.41874666000242045,-0.7794039913421276,0.27941120548849985,-0.23417230667621702,0.5095312819772339
4.1000000000000005,0.33543361166336283,-0.09217922471702891,0.04682324327783581,-0.0009559391661704596,-0.023466116907206472,0.05427014757192332,-0.009186062496120915,0.20571381836883315,0.9785681843895347,-1.5689201688715189,-1.8228566002790687,4.143589427084482,-0.13743769248302748,1.379492794468623,-0.7945155044237172,1.0,0.500522396051167,0.5109982489208093,0.41849653808381626,-0.7794286714681329,0.27941940107199403,-0.23416875723550729,0.509490664814153
4.2,0.3602779675676245,-0.24203867135072712,0.04896247634054509,-0.004830261134468594,-0.02382733490624793,0.054042489526666015,-0.009097422169915796,0.20464085811335453,0.9787948389744441,-1.5679494696323468,-1.824203069913944,4.143397808074951,-0.13727009132581441,1.3796597732536293,-0.7945866950284355,1.0,0.5007751110778658,0.5112198349854774,0.4183845674633138,-0.7794079870016108,0.2794280108371451,-0.23417172649396117,0.5095162206137608
4.3,0.19924971421858442,-0.2626735596471851,0.12257989168009159,2.7674605670522057e-05,-0.021809810175693348,0.05283181344338331,-0.009060834993017618,0.20439273807605518,0.9788470193648992,-1.5667516381399973,-1.8254859028258263,4.1432061195373535,-0.13712675989184575,1.37984527860369,-0.794640502470288,1.0,0.5011112538627729,0.5115755574265484,0.41816274674488907,-0.7794260832787412,0.2794243878320759,-0.23415831725486175,0.5094966875749066
4.4,0.19105955930573534,-0.07797722677617829,0.20901908714599277,0.0018993553451570446,-0.02018305927902125,0.05568303549315061,-0.009055245981277646,0.20433257340975383,0.9788596435867932,-1.5656372298025425,-1.8266422709690464,4.143013202721186,-0.1369582455839391,1.3799958229064941,-0.7946954771085466,1.0,0.5015173005546995,0.5120170002640602,0.4179180031059036,-0.779434125047417,0.27942160811079847,-0.2341560172432185,0.5094869666842681
4.5,0.09469356351875798,-0.04726629470384147,0.06589813511198953,0.006098562534347308,-0.016192935104447453,0.059027621975769315,-0.009037106771907662,0.2041488097019894,0.9788980285449858,-1.5646455665074155,-1.8277147864667926,4.142832676678937,-0.13678781853025973,1.3802047917078746,-0.7947846544004046,1.0,0.5017805865827338,0.5122862250304376,0.4177725837217389,-0.7794324481543725,0.27942567097747817,-0.23415575371764097,0.5094874249319516
4.6000000000000005,0.33357949324183883,0.39244837348691197,-0.05581261758063192,0.01562307161622855,-0.02365897980381174,0.05262664893204306,-0.00892727482107015,0.20323191559282353,0.9790897672705421,-1.5636378746924218,-1.8289387647008655,4.142678737640381,-0.1366422324587953,1.3803874856871432,-0.7948951767473448,1.0,0.5020746819800932,0.5125857027060442,0.4176419548684541,-0.7794235834081499,0.2794171650079437,-0.23415523492091644,0.5095058895491326
4.7,0.18967594794552978,-0.03185163460011999,0.019144452943468802,0.003147284867184206,-0.017846222826578245,0.05015387225362314,-0.009015403647145913,0.2044573798668328,0.9788325678408982,-1.5626640377202003,-1.8301876559026233,4.142510610040908,-0.13644372235931884,1.380534919010442,-0.7949573253503016,1.0,0.5024718869830668,0.5130353973068622,0.4174082792544178,-0.7794259997015316,0.27939620254886743,-0.23414697060793954,0.509517486594587
4.800000000000001,0.32258880764461995,0.06527612324501914,-0.05157384938150353,0.005872045708793808,-0.023041994640492378,0.05624523116154237,-0.009095115094258286,0.20548304659861333,0.9786166392705743,-1.5615160458601998,-1.8313761049190318,4.142308779556196,-0.13627820995348192,1.3807128758908127,-0.794972465096447,1.0,0.5027430731437695,0.5133159555539707,0.4172268219456492,-0.7794334029008232,0.2793941873661224,-0.2341450490573319,0.5095081496015613
4.9,0.254735161300189,-0.1831003724993616,0.08907893547049785,-0.002247351928689667,-0.02049970120549041,0.04860963297514044,-0.008788461733666663,0.20187084168634115,0.9793700826970548,-1.560439109802246,-1.8325187168517054,4.142115116119385,-0.1361406223421994,1.3808895315546343,-0.7950581138881682,1.0,0.5031262271133722,0.5136657771333181,0.4170321728845558,-0.7794292321011859,0.27940197561142355,-0.23415732331855138,0.509504618337146
5.0,0.3055757154910382,0.12231148906447858,0.07552393182647818,0.004371843677989341,-0.017041125498031072,0.04692919615918661,-0.008739642182396002,0.20127111882672413,0.979496392679061,-1.5594529228931968,-1.8337641590555496,4.141945468349013,-0.13594219013292133,1.3810090892472358,-0.7951199707747443,1.0,0.5033439911012061,0.5138951597540523,0.416929215055943,-0.7794174635628267,0.2793944939903004,-0.23416289426946588,0.5095241634785739
5.1000000000000005,0.20459542712900755,0.3231908317332231,0.11019761695040793,0.0096901998270202,-0.018635112585061956,0.05273887518384148,-0.00883717592814918,0.20221660771092284,0.9793007294814384,-1.5583933557554137,-1.8350610356131543,4.141737215813806,-0.1358421691264205,1.3811992628719798,-0.7952044475117063,1.0,0.5037028562100014,0.5142415484358214,0.4167170473617102,-0.7794155698922465,0.2794051705768846,-0.23415972991589848,0.5095226598986154
5.2,0.3323302979694562,0.2557789707433964,0.042602143491245234,0.0039847468646628074,-0.019940446713747242,0.04939859171907241,-0.009038859052287029,0.2037601487919243,0.978979042401673,-1.5572991327124834,-1.836138989269817,4.141560549044681,-0.13570923681411337,1.381351591257304,-0.7952966144708258,1.0,0.5040165226662595,0.5145187404750774,0.4164720767836923,-0.7794472669498707,0.27943479840969854,-0.2341687522408411,0.509453773129688
5.300000000000001,0.26002136789377195,0.19995027983931007,-0.018328571108272698,0.006177591315681789,-0.017335897926012804,0.04855193627651161,-0.009092128567091809,0.20443970692913058,0.9788368599377526,-1.5562525106399951,-1.8372191965917553,4.141407489776611,-0.1354987210759091,1.3815253257386597,-0.7953347034894229,1.0,0.5044654196012279,0.5149864083810235,0.4162919629397051,-0.7794039844304572,0.2794335502653858,-0.23417194672429364,0.5095192041595334
5.4,0.28901094573581626,-0.15739204555972636,0.0016442618738018167,-0.0017437777594278229,-0.020592823362152915,0.05177021045161503,-0.008972481385267779,0.20365595265903175,0.9790012675492568,-1.555214663370633,-1.838525997189905,4.141228761661442,-0.13539826497783816,1.3816508614541254,-0.7954137961017054,1.0,0.5047652692082516,0.5153379115878471,0.4161687426827712,-0.7793912537258401,0.27939335020775574,-0.2341757440002476,0.509558976368075
5.5,0.25754633457297854,0.10128078078149061,0.14285840365569524,0.005171578935528224,-0.02195209851896038,0.05091616014847196,-0.008940505540111035,0.20329500463563518,0.9790767068493418,-1.5541753529902163,-1.839944365289536,4.141026293303782,-0.13521166913950894,1.3818317023280726,-0.7954827684021553,1.0,0.5049469467287416,0.5155196063578602,0.4160519915607117,-0.7793970737578605,0.2793938766785927,-0.23416986834691766,0.5095524858643896
5.6000000000000005,0.27190694571566715,-0.043119104332098035,0.1681459847444705,0.0030270176918901735,-0.02131746448775154,0.05126601825322878,-0.00899053787309059,0.2035825230377335,0.9790159723727245,-1.5531435012817383,-1.8410169086852015,4.140854504634517,-0.1350772112193589,1.3819833827484147,-0.795498980815455,1.0,0.5053360950927583,0.5159232359935882,0.4156823093680525,-0.77946690699564,0.2794086838272386,-0.23415777177388017,0.5094430941905798
5.7,0.2512765097120498,-0.23561559922587666,0.03883527940145211,-4.965106388735499e-05,-0.015798625533841926,0.051760328597707676,-0.009204906174053295,0.20588776528635278,0.9785322004316002,-1.5520283433862043,-1.8420618957545936,4.140688419342041,-0.1349454927692651,1.3821734426749326,-0.7956175011013332,1.0,0.5057920626427285,0.5163753832392228,0.41545117512809265,-0.7794499377412314,0.2794190558089546,-0.23414739424359055,0.509468137938929
5.800000000000001,0.24216525859200852,-0.031390173975224936,0.09133329835417428,0.002407406997515031,-0.019987993955893187,0.054007536905653866,-0.009131535686550465,0.20496340931694398,0.9787264900269219,-1.5507824974111502,-1.8431290035592076,4.1405205726623535,-0.13478008283539722,1.3822943611093577,-0.7957002175156718,1.0,0.5060946856661924,0.5166596780935058,0.41539882749302776,-0.7793940853197139,0.2794168659019144,-0.23418608107797434,0.5095369998808118
5.9,0.2137739133603616,0.14383031156194573,0.11212114184801271,0.010937562788152841,-0.017173371145560917,0.05546031030980333,-0.009331357262708668,0.20741982367974784,0.9782061000438163,-1.5498955997714472,-1.8445014906508443,4.140341281890869,-0.1346585822354031,1.3824620246887207,-0.7957122486126473,1.0,0.5062235922095688,0.5167951954088834,0.41543982942426794,-0.7793420949353725,0.2794073206800728,-0.23419794672022867,0.5096162968000109
6.0,0.2868414986634306,-0.024422251861949296,-0.01057601386333638,0.003253246925521735,-0.020695254112486166,0.05602644219414889,-0.009334817497411593,0.20733798407848952,0.9782239802117911,-1.548949508828668,-1.845908156778091,4.140197277069092,-0.13451806293535162,1.3826055526733398,-0.7958090257659329,1.0,0.5065888406582303,0.5171755962335155,0.41511390549625804,-0.779392542491504,0.2794278943595244,-0.23418407186696277,0.5095342354015489
6.1000000000000005,0.11992702837852347,0.49187854281768156,-0.010196095523013237,0.007768923436258027,-0.021121903384473277,0.055129792924425124,-0.009205795757313211,0.20562805547878815,0.9785866669066808,-1.5479434871543252,-1.8469040329182318,4.140028476715088,-0.1343711179545899,1.382784366607666,-0.7958585230847747,1.0,0.5069653993694229,0.5176048791835397,0.41471592760616954,-0.7794739430517272,0.2794299723992183,-0.23414799106390008,0.5094251475036391
6.2,0.09012519857622793,0.4339292516621122,0.05464488089431968,0.010825498125599159,-0.01731842672322523,0.05267710488939678,-0.009008515047918194,0.20380444737936693,0.9789693534159861,-1.546719925907143,-1.8479148694186605,4.139871924662049,-0.13426033514971214,1.3829422815586314,-0.7959858441073745,1.0,0.5074161896151369,0.5180603356483285,0.41452724367894894,-0.7794446456246029,0.27940228858952854,-0.23415832186030297,0.5094804077112657
6.300000000000001,0.2179613074580701,0.019560751858574754,0.003366065883578309,0.007673565742070503,-0.01855159543101162,0.054470117165766635,-0.008891672146729545,0.20269978658548746,0.9792003997330871,-1.5454289591860497,-1.849070570413929,4.139673836272339,-0.13410742700610356,1.383120059967041,-0.7959903554274498,1.0,0.5077268881263434,0.5183805043707419,0.4145048180119959,-0.7793867296765002,0.27938548226865484,-0.23418910192681003,0.5095640709865591
6.4,0.345448624466352,-0.14052423631273986,0.25141956193447657,8.961383555624463e-05,-0.02246139421686907,0.0494245562706208,-0.008831753454966736,0.20210391025378283,0.9793241333541948,-1.5445568398808736,-1.8504676130537692,4.13951419604041,-0.13399919900823043,1.383263111114502,-0.7960727710173031,1.0,0.5079844205845564,0.5186424327861593,0.4144103781835945,-0.779362336926992,0.27939164586132936,-0.2341904920519522,0.5095973601139038
6.5,0.3342705567567651,-0.06597284542143388,0.06742497276205339,-0.002347382391614779,-0.023889278483946882,0.049591342542453516,-0.008823397436722669,0.20200767912907622,0.9793441583157636,-1.543608046456886,-1.8516829972600255,4.139344356301577,-0.13380732846927015,1.3834435235246263,-0.7961338472664048,1.0,0.5082080111081133,0.5188599277573174,0.4142240974922641,-0.7793876846559018,0.2794071747211608,-0.23418453905195297,0.5095528131509786
6.6000000000000005,-0.0590482045859565,0.2718810776657406,0.05922642596596704,0.005989428423645632,-0.013112665875399367,0.04824561597397166,-0.008852998724342262,0.2022792564334349,0.9792878392663998,-1.5427099457023736,-1.8528539371895296,4.139142200495454,-0.1336396268648126,1.383634471870558,-0.7961942832532626,1.0,0.5085442686955935,0.5192126093235175,0.4138891552220534,-0.7794430917623443,0.27941684971151654,-0.2341562541106572,0.5094757496310446
6.7,0.12013939912172511,0.10737334686456798,0.1439112409856647,0.0001942623856962668,-0.022639880788211407,0.05007718035115008,-0.008868885890144212,0.20263957775863323,0.9792131470733633,-1.5414138846484182,-1.8538864814536686,4.138998189279731,-0.13353350317554677,1.3838247815435647,-0.7962982985857732,1.0,0.5089001938798636,0.5196220437254804,0.4135265324968878,-0.7795079211060326,0.2794008434456899,-0.23412226336461092,0.5094009574115657
6.800000000000001,0.19112844755666253,-0.22148728136637988,0.07680829724964063,0.00455868666859347,-0.015934052389117014,0.049203358544208764,-0.00887372928699745,0.20307136326322014,0.9791236592735587,-1.5400508269527535,-1.8551252777890763,4.138796098511859,-0.13349713319021142,1.3839821238024643,-0.7963597832769725,1.0,0.5093551457900034,0.5200244773808922,0.4135549384481985,-0.7793809820814597,0.2793999165841046,-0.23417145296401903,0.5095730585492674
6.9,0.2791015031282711,0.03671651030686951,-0.06497902483019535,0.00024505897940832835,-0.020799649210607486,0.049963906603076404,-0.00876998456086822,0.20213986845114087,0.9793168074785215,-1.5390230388724648,-1.8564749260594318,4.138662167428362,-0.1333523959701264,1.3841500012426917,-0.7964538591518213,1.0,0.5095944124801749,0.520308278737613,0.41347151451911435,-0.7793696929741255,0.2793800471724868,-0.23416971690245686,0.5096020158919505
7.0,0.33673430926511716,-0.08090122420959776,0.07443749152063685,-0.0010933261107069394,-0.025038367067020038,0.04614768352021241,-0.008528842318547305,0.19924907098438585,0.9799100113580301,-1.538252364456384,-1.8575944455877054,4.138438151546477,-0.13312856923755353,1.384326499994382,-0.7965105743708306,1.0,0.5099135353822369,0.5206363084809348,0.41319499285161587,-0.7794120490770081,0.27939309257182454,-0.23415428696260693,0.5095371698647355
7.1000000000000005,0.4692661855682911,-0.6807703315569988,0.623829245853147,0.02140526844549831,-0.021949786193110582,0.04345314460233717,-0.00842765754977717,0.19797190973710413,0.9801712745509157,-1.537911747533294,-1.8580063555268214,4.138375759124756,-0.13302942874398502,1.3844007140213959,-0.7965398105128405,1.0,0.5102377467442346,0.5209527596932735,0.41288698144637126,-0.7794542923838713,0.27940949312819297,-0.2341336670613132,0.5094730289059735
7.2,0.37441579476405795,0.11889954684966575,0.18089305555081114,0.004910798169952377,-0.029963242525461876,0.05166229013927492,-0.00848897348556929,0.1987900694144246,0.980005326689616,-1.5379373815520077,-1.8580468302020203,4.138395893070335,-0.133019073807613,1.384376049041748,-0.7965135933919928,1.0,0.5103560302486604,0.5210686928701274,0.4127846282444456,-0.7794657788093862,0.27940023221659743,-0.23412856658882997,0.5094628781466305
7.300000000000001,0.19255084442579076,-0.11682708392756735,-0.013400625977816535,0.001861914061125549,-0.025909861146916124,0.04398560753523818,-0.008159058594533242,0.19509253358695522,0.9807470581700785,-1.5378362041753353,-1.858056502655112,4.138386791052511,-0.13302583511022475,1.384373369897277,-0.7965148130999964,1.0,0.5104091783780494,0.5210950438214623,0.4127531778818095,-0.779462226393925,0.27939972295621346,-0.23413726588498945,0.5094645946097907
7.4,0.22193149022033612,0.026636271829592217,-0.11481591973278744,0.0037277203032011594,-0.01885116523617231,0.04588157148333837,-0.00827579302429636,0.19623805088996918,0.9805049653019262,-1.537732325789398,-1.8580429602508055,4.138351715806061,-0.13301743438964134,1.3843287850358958,-0.7964922303719906,1.0,0.5103977526745724,0.521105093554127,0.41278523548598783,-0.779454770832516,0.27938043683254465,-0.23415440439296947,0.5094787008747861
7.5,-0.0015429417153434016,0.3427375548335959,0.18938412987711917,0.00523394374626591,-0.017953334779032725,0.043439242529205536,-0.008883321255513077,0.20270677216847835,0.9791815620894146,-1.5377609313143894,-1.858124474282186,4.138327121734619,-0.13300064852584856,1.38434671115324,-0.7965386549579065,1.0,0.5104161093604251,0.5211238391029206,0.4128402900278965,-0.779419349529606,0.279405966452386,-0.2341524450930996,0.5095197895534358
7.6000000000000005,0.2878184165601299,-0.09810377652632507,0.1516531098615475,-0.0018073365216341754,-0.025279385424556787,0.04818124963286209,-0.009164897681233929,0.2056142149862516,0.9785898754922303,-1.5377693907428156,-1.8581189133106601,4.1383567252522075,-0.13301424584676502,1.3843536346394636,-0.7965179171252981,1.0,0.5104299682739563,0.5211188856884337,0.4128193545578619,-0.7794233676568759,0.2794076784889286,-0.23416891669228865,0.5095051340339977
7.7,0.6061746598001845,-0.25619489836050974,0.20478411683602907,-0.003401606838326051,-0.0267277301514303,0.051848283597932185,-0.009076840586313008,0.20448312243397226,0.9788279649051038,-1.5377572400001585,-1.8581114553509686,4.13834337981901,-0.13301373086633636,1.384376049041748,-0.7965082402251173,1.0,0.5104436695669604,0.5211099429119523,0.4128286758683686,-0.7794186514679227,0.27941031806761807,-0.23417444270289284,0.5095083613504955
7.800000000000001,0.3023507855119713,-0.04013284956005875,0.31014930448641526,0.00027397525521768995,-0.02253430589628637,0.04471205738556671,-0.008930497179259898,0.20287245210678395,0.9791643793520856,-1.5377687910261755,-1.8581205292781364,4.138363361358643,-0.13303136764215542,1.3843453179268537,-0.7965081888144346,1.0,0.5104495112488744,0.5211056332172797,0.41281392381979803,-0.7794189979727697,0.2794267385193036,-0.23416601837792575,0.5095026979679476
7.9,0.20760220843339405,-0.02105687208004474,0.23802094622447154,0.0007419378164064475,-0.02055234857871083,0.045257360597913694,-0.008711040032025575,0.20046669907518694,0.9796585653682336,-1.537755012512207,-1.858097180059511,4.138349696862937,-0.1330226581037179,1.3843237394844514,-0.7964957752461947,1.0,0.510448722253601,0.5211065087912826,0.41281557605413766,-0.7794176586007383,0.2794262119860485,-0.2341667224855129,0.5095047120457901
8.0,0.219627679257675,-0.13991999532025517,0.2998218305694992,-0.0012488106175748755,-0.01973915541889657,0.046157794258400366,-0.008487910720369748,0.19802067978901733,0.9801607347638995,-1.537767162970896,-1.8581063161763267,4.138340473175049,-0.13301785409960942,1.384340924615055,-0.7965148130999964,1.473749129290774,0.5104533330282044,0.5211043800135048,0.41282041674008785,-0.7794144564519169,0.2794246969886065,-0.23417206128127888,0.5095079876722888
8.1,0.10948102431600149,0.215804772545223,0.10159988655449723,0.0069736379924942,-0.019279506000933165,0.049442348590311665,-0.008730491009479075,0.2006337969282293,0.9796271211948853,-1.5377435684204102,-1.858147201386856,4.138352846707817,-0.13300786950601087,1.384341745753081,-0.7965167494353529,2.0,0.5104479657891648,0.5211098833221885,0.4128093077832453,-0.7794274732107858,0.2794118742882421,-0.23417764030645852,0.5094925429203855
8.200000000000001,0.156415754537652,0.140975029245073,0.13376535654875366,0.007023659103872987,-0.01922208899625474,0.04958152443513705,-0.008777594765378236,0.20145170177576333,0.9794591021180599,-1.5377770003456397,-1.8580927628450432,4.1383389613372366,-0.13300863288103307,1.3843870429584644,-0.796513463244807,2.0,0.5104311783001664,0.5211207968543125,0.41284982695495204,-0.7794112230277362,0.279400812822755,-0.23417204883340487,0.5095260373695909
8.3,0.3635149907615315,0.23048204308355796,0.11902611270108186,0.007875228898766067,-0.025465318841306588,0.04698974314426216,-0.008666637272456177,0.20023161678123247,0.9797092396673824,-1.537755012512207,-1.858096519615555,4.1383571631369875,-0.13301462585916415,1.3843636512756348,-0.7965347823921757,2.0,0.5104383142739455,0.5211114627543314,0.4128403998265696,-0.7794081710433876,0.2794166794773758,-0.23417397111202815,0.5095211216370348
8.4,0.11648874805334045,0.13606011944600915,0.13564120124762694,0.00039518834295849427,-0.0199853728596396,0.049321937765795215,-0.008544036670375637,0.19885684158473374,0.979991133538549,-1.5377683639526367,-1.858122167888183,4.138367165713323,-0.13300498634173896,1.384327087981188,-0.7964992341376947,2.0,0.5104387766795082,0.5211173719958759,0.4128027750890519,-0.779433227798074,0.279405488239468,-0.2341662897715694,0.5094924585119565
8.5,0.009100351788409476,0.23111350010240939,0.15819167086183955,0.0023384346444356215,-0.021249777913536334,0.05391732845705658,-0.008577591391760767,0.1991932041564595,0.9799225626851474,-1.537765845086762,-1.8581019840636195,4.138346917617051,-0.13301785409960942,1.3843467908965603,-0.7965300125311341,2.0,0.5104476387644857,0.5211100062847606,0.41281880689246775,-0.7794191232193238,0.2794214569279892,-0.23415932556907168,0.5095084788473084
8.6,0.09121547421357314,0.0726910559715706,0.08352047366166086,0.003971154405321063,-0.01971624604182101,0.05131677509434416,-0.008626121807127005,0.19969366920645953,0.9798203813703807,-1.537755012512207,-1.8581150526130121,4.138340473175049,-0.1330523493405676,1.3843516104212104,-0.7965510527240198,2.0,0.5104465724518048,0.5211178397256642,0.412805568281932,-0.7794234350982084,0.2794203094578875,-0.23416329361024613,0.5095006883290436
8.700000000000001,0.02657531218319995,-0.05091334899718053,0.14601730370672666,-0.0017667390545392813,-0.018009615546951626,0.050654554116920714,-0.008816426598995546,0.20181348274197303,0.9793814729883448,-1.5377376473793434,-1.8581315790993735,4.138357440317575,-0.13299442681496668,1.3843521449199472,-0.7965565757747499,2.0,0.5104359850189221,0.5211260835683461,0.41283079608667667,-0.7794172833587119,0.2794114345620714,-0.2341623191554696,0.5095154138251585
8.8,0.25425547432656725,0.13355297360170562,0.1491821178919488,0.005013514872037254,-0.021645108369735707,0.05158893278781147,-0.009021931265361506,0.2041069094109358,0.9789064635188722,-1.537760399413521,-1.8581210161882138,4.138347299922862,-0.13301074290397025,1.3843255870264464,-0.7965223234936376,2.0,0.5104334111424608,0.5211264258547438,0.41282135733319797,-0.7794228748541696,0.2794152661372833,-0.2341572909709414,0.509507069910362
8.9,0.21112282223298695,0.19731395910599658,0.1363741665099151,0.0012413493675025179,-0.022795369135493293,0.05035379436997006,-0.009105575474597375,0.20497904545147905,0.9787237393593583,-1.53774963386837,-1.858120223167533,4.138346328986493,-0.1330234568536062,1.3843456362818813,-0.7965021767500797,2.0,0.510445570563139,0.5211200863211647,0.41280513502700406,-0.7794256936409837,0.2794224606950775,-0.2341660748697486,0.5094947751758347
9.0,0.25964088736152424,0.22744551614151287,0.13531417004690377,0.0017484753898366068,-0.025698275900060578,0.0576791014630829,-0.009174845684234805,0.20568353374636877,0.9785754915921617,-1.5377435684204102,-1.8581244278086326,4.138326621371522,-0.13301259269158033,1.3843705771773978,-0.7965253359160546,2.0,0.510443169841946,0.5211182107815795,0.4127983702245279,-0.7794322222985158,0.2794120569841661,-0.23416187227864968,0.5094924246989658
9.1,0.3356789306955654,0.1557482557627184,0.08652921187344971,-0.006111949520169081,-0.02395075187333344,0.05281965649417313,-0.00910820144421006,0.20496455318008108,0.9787267744345653,-1.5377810993823067,-1.8581443964448239,4.138327121734619,-0.13301785409960942,1.3843327699080774,-0.796509286011752,2.0,0.5104351590687851,0.5211126944991991,0.412809465099712,-0.7794273600119797,0.2794192879730235,-0.2341535263563519,0.5094997331385855
9.200000000000001,0.1629340081068308,0.4029543047981403,0.04216486353601299,-0.01242136712690825,-0.02997659387096868,0.05278256650947292,-0.009024161148782765,0.2040187122334142,0.9789251583594863,-1.5377787474265054,-1.8581333276091172,4.138362300740714,-0.1329865105541117,1.384361441654951,-0.7965408645785903,2.0,0.5104444715029907,0.5211144786604538,0.41281352074857697,-0.7794235095172768,0.27941752910517237,-0.23416595333242662,0.5095008768789779
9.3,0.1610986666940944,0.603394517313725,0.015265369308697731,-0.03452794390493306,-0.035183249591306975,0.05791010437355736,-0.008940398761639656,0.20300197555382626,0.9791374101892832,-1.537722504080682,-1.8581267642722668,4.138339422222224,-0.13302883667782733,1.3843608737574529,-0.7965066831080194,2.0,0.5104540790064168,0.521115294883855,0.4128127715989964,-0.7794208208870805,0.27942307867743443,-0.2341682952109758,0.5095008700562927
9.4,0.2836220707849048,1.0569635483121604,-0.16572118931105453,-0.050416547433179214,-0.03480362820448358,0.05890752832357889,-0.008998106703335446,0.20358826392583046,0.9790148771471304,-1.5377734811320172,-1.8581258259215296,4.1383455903544295,-0.13300341289349588,1.3843346922383442,-0.7964963016372741,2.0,0.51045503591703,0.5211140308466979,0.41279223437989265,-0.7794253589268495,0.27942944784950957,-0.2341625348964253,0.5094930821779142
9.5,0.20405575808094523,1.2562472889656484,0.0986543768525846,-0.08524890633655953,-0.03457038289451535,0.0585865983666902,-0.00907755405397348,0.20442088534468086,0.9788408985099987,-1.537755012512207,-1.858120000149567,4.138321270383907,-0.13303611399183657,1.38435146096165,-0.796496797014049,2.0,0.5104489078239797,0.521111739348864,0.4127905044952535,-0.7794272914181937,0.27942690245744195,-0.23416419398563007,0.5094907593181623
9.600000000000001,0.16152356505591564,1.1398473531979303,0.5758681429047342,-0.09392382775610225,-0.029940603025753052,0.06168011662173787,-0.00897149569783092,0.20331349837903842,0.979071973219502,-1.5377588087319873,-1.858150144616598,4.138372234063532,-0.13306601465258794,1.3843419232537142,-0.7965148130999964,2.0,0.5104394410924303,0.5211156539177354,0.41280129271591864,-0.7794291829851634,0.2794161843855312,-0.23416787806021602,0.5094920504770288
9.700000000000001,0.23154860550142034,1.5207881189904575,0.8314172255258975,-0.11482907690269901,-0.024647100308581353,0.05927631316554265,-0.008966446888179646,0.20328315689980936,0.9790774765080693,-1.53777347211454,-1.8581179470695668,4.138327121734619,-0.13305409372363286,1.3843159675598145,-0.7965243890190504,2.0,0.5104372475366797,0.5211232395068165,0.4127928773065398,-0.7794403554186558,0.27940028620292595,-0.23416688303977054,0.5094841344948838
9.8,0.5210348597371697,1.915593088045479,1.3007261999304014,-0.14660283671806057,-0.028216692318297532,0.06544064627275861,-0.009208541578581876,0.20587617125802668,0.978533948259879,-1.537746847645255,-1.8581604889951469,4.138340473175049,-0.13303895663184923,1.3843621377872448,-0.7964817896388016,2.0,0.5104478240686476,0.5211210292660614,0.41278770555590116,-0.7794375704402168,0.27940784747693126,-0.23416531228892917,0.5094849704114817
9.9,0.3815953886617498,2.075822872572593,1.846210909856404,-0.19397899268889446,-0.024905839712680095,0.06321519661495813,-0.009173578565957552,0.20569563351660705,0.9785727538279262,-1.537739572355765,-1.8581590022440633,4.1383727558880015,-0.1330343399484316,1.3843536487374801,-0.7965028921710413,2.0,0.5104598321779534,0.521116523769231,0.4127706251436767,-0.7794434206709803,0.27942052352924074,-0.2341705264226573,0.509466671685501
10.0,0.45899413239148695,3.4458911308970412,2.957434101022132,-0.24407499462771567,-0.013920779457815148,0.06696062282774279,-0.009086242909157383,0.2049908069514851,0.9787216388538488,-1.537800457106291,-1.8581746199657885,4.138364020189574,-0.13306601465258794,1.3843630431240057,-0.7965035256623216,2.0,0.5104374186133199,0.5211341571025375,0.41275614428930085,-0.7794527050777278,0.2794233011999381,-0.23414183914069783,0.5094641287248328
10.100000000000001,0.6949650943712538,3.6776599745642993,3.284894395071247,-0.2855404246047749,-0.012057592904382117,0.07131557170885403,-0.009086894860489499,0.20484386195705231,0.9787524809839327,-1.5377944093296803,-1.8581739864745082,4.138327121734619,-0.1330390763164866,1.3843491714209053,-0.7965668283374404,2.0,0.5104338928823882,0.5211396376704304,0.4127542763251484,-0.7794563565084656,0.2794201550360626,-0.23412986740129432,0.5094657696536862
10.200000000000001,0.7238994087732169,3.799301641455002,3.156004084390878,-0.30630767030436046,-0.009763215997792658,0.07634211915977365,-0.009105317387085645,0.20480959051575717,0.9787594823686048,-1.5377912521362305,-1.8581536098827682,4.138317340970584,-0.13303157696697301,1.384341611356133,-0.7965113478338262,2.0,0.5104443967079665,0.5211303887256711,0.41274208790534994,-0.7794569970235928,0.2794296643876815,-0.23414301597360077,0.5094535312684927
10.3,0.6720482733754438,3.938251990725537,3.203536699003604,-0.3222201942484637,-0.0068228686559918626,0.07743605486899065,-0.009018631720249203,0.20387303277785332,0.9789554095967855,-1.5377489436332117,-1.8581377468504847,4.138338968115464,-0.13302708742216376,1.3843310529323285,-0.7965042359742417,2.0,0.5104516408855205,0.5211155757389899,0.4127746429200665,-0.7794374866953331,0.279427899058854,-0.23416333768233277,0.5094750090505787
10.4,0.8068190160417815,3.9500477370142946,3.1982641494136432,-0.3272289816052185,-0.008020846291917514,0.07680200177636667,-0.009020515716539099,0.20383079046389171,0.9789639452400096,-1.537798812166309,-1.8581461106205908,4.138340473175049,-0.1330071188902707,1.3843283653259277,-0.7965171845392292,2.0,0.510449523936705,0.5211193231574778,0.41281612042002475,-0.7794185178185434,0.2794149652065899,-0.23417454569965318,0.5095059699812224
10.5,1.0331188225511454,3.8446177365143077,3.333602803745915,-0.33229860401566497,-0.010002816354856513,0.08065357888532294,-0.009170618381996344,0.20531282299482606,0.9786534042169422,-1.5377665947658412,-1.8581475588820506,4.138351917266846,-0.13301785409960942,1.3843398094177246,-0.7965501681306221,2.0,0.5104476749336921,0.5211169221315417,0.4128037973027767,-0.7794269218914581,0.27941203126739883,-0.23417772471277856,0.5094932614492356
10.600000000000001,0.9280216575455728,4.087603438484695,3.4294082648602364,-0.3385607221348273,0.0014064803588619565,0.08344534078679804,-0.009113209019632399,0.20492626323930366,0.9787349664258171,-1.5377789200178609,-1.8581831323204239,4.13836432338743,-0.13301785409960942,1.3843206296993207,-0.7965482406398732,2.0,0.5104459329541902,0.5211136357500867,0.41280124720075634,-0.7794298833382909,0.2794124775674592,-0.23416583401979513,0.5094939514034358
10.700000000000001,1.094919214609685,4.253069877076347,3.374796665040608,-0.35287127937016305,-0.0035640097889275218,0.08182684483954285,-0.009150562047818691,0.2054273307722708,0.9786292086816464,-1.5377880847416938,-1.858136704944387,4.138349750102162,-0.13301997958804843,1.3843532074136915,-0.7965137711938989,2.0,0.5104404193943012,0.5211188123001363,0.4127945174458334,-0.779435491014104,0.27941686264711996,-0.234147778853899,0.5094912657483235
10.8,1.1707888339554122,3.9383563132572434,3.169692825257418,-0.37203596372045267,-0.007091180200640024,0.08225503136135195,-0.009211503570247881,0.2061493487378178,0.9784768227803731,-1.5377448215034897,-1.8581391043571542,4.138331089831038,-0.13303950999313363,1.3843424200074739,-0.7965496952173503,2.0,0.510440976662866,0.5211194355571767,0.412805296720705,-0.779431785600432,0.2794058903506302,-0.23415109627023306,0.5095014270328806
10.9,1.0528006945295572,3.685280253699701,3.2448038152970935,-0.37528723137994224,-0.006936263088571056,0.08328642083008715,-0.009221358108757979,0.20624187210065806,0.9784571907463141,-1.5377759213905704,-1.8581239573379416,4.138332802228727,-0.13302727176089355,1.3843845601539981,-0.7965349177907303,2.0,0.510455895541321,0.5211071561813582,0.41281927010616853,-0.7794186623823582,0.279407029831317,-0.23417198472585013,0.5095112775793029
11.0,1.1376379527779177,4.093760205864063,3.336431242984006,-0.35943530339511887,-0.012457794726623585,0.08364596106979987,-0.009105784665571937,0.20478886994116247,0.9787634939769682,-1.537758990987746,-1.8581335533451726,4.1383557427240945,-0.13301976682823394,1.384348381726589,-0.7965271785861595,2.0,0.5104542819895163,0.5211134848529082,0.4127948875853859,-0.7794326605990864,0.27940514249055914,-0.23417859887386291,0.5094878583153223
11.100000000000001,0.937430106220381,4.082849398518468,3.206655601361936,-0.3578813362233821,-0.007336347610378738,0.07714112728753908,-0.009153250519242137,0.2051031707175961,0.9786973547045094,-1.5377398877336346,-1.8581200033677636,4.13835005404964,-0.13301183335847055,1.3843617880584296,-0.7965048330222967,2.0,0.5104514546847285,0.5211176764065951,0.41278067413676006,-0.7794384420326432,0.27940767416705453,-0.23416426906081744,0.5094842115252407
11.200000000000001,1.1211015844814196,4.157150985178117,3.266145969904402,-0.3545893377918409,-0.010044185470238552,0.08041978836692097,-0.009169856612780209,0.20515414680502386,0.9786862884802561,-1.5377364564304619,-1.8581182370944231,4.138340473175049,-0.1330192791331122,1.384352207183838,-0.7965467206221714,2.0,0.5104649564343673,0.5211058229092755,0.4127759219986325,-0.7794394567076891,0.2794190667496997,-0.23417847395793676,0.5094698821311044
11.3,0.8662555398776537,4.047018703195979,3.17007929140532,-0.35930694623628423,-0.005904522121832085,0.0818527249451198,-0.009000243885677953,0.20340173120502286,0.979053721103243,-1.5377534128412846,-1.8581274922454072,4.138350317595923,-0.1330404398178451,1.3843538068547603,-0.7965198787245842,2.0,0.5104651625723339,0.5211084086730958,0.41277706546554144,-0.7794333751550039,0.27942556598298907,-0.23417159547508126,0.5094787833091973
11.4,0.6759259872267356,4.293130729530796,3.3809899332543067,-0.36676020788100755,-0.004849229008515428,0.07863627896450653,-0.008888570651171407,0.20234177492809488,0.9792740589854229,-1.53778585349528,-1.8581156808613082,4.138361656524658,-0.13300118675138353,1.384374202138265,-0.7965438782143356,2.0,0.5104637564179327,0.5211046601490377,0.41280406894754035,-0.779414660122727,0.27943237016880074,-0.23417338381059696,0.5095028600531262
11.5,0.7353071705107292,4.1749461968302946,3.1816526864451813,-0.3696591846088706,-0.009634456923702161,0.08065067079482867,-0.008871084448623445,0.20230433562687952,0.9792810067158821,-1.5377765361002003,-1.8581290349437585,4.138347135194505,-0.13301470799938503,1.3843505712117212,-0.7964941173423106,2.0,0.510451107090464,0.5211184870555442,0.4128095102078791,-0.779421634709788,0.27941660775150323,-0.23416275380113472,0.5095057206658565
11.600000000000001,0.860212568226381,4.099944010741491,3.1009826233216207,-0.3682444942747217,-0.011969330051113575,0.0807248906260269,-0.0091316915911496,0.2052859442801217,0.9786579061279701,-1.537755012512207,-1.8581192050236053,4.138325448040609,-0.1330386161949072,1.3843584907191049,-0.7965201131310271,2.0,0.5104376818934443,0.5211333645881442,0.41279177691252805,-0.7794313546162055,0.2794085984383582,-0.23415303839520885,0.5094997087046776
11.700000000000001,0.8555412247545299,4.416985651959057,3.241551369732107,-0.3578638061209472,-0.010638608456670305,0.08260291552520035,-0.009317952805279308,0.20723877637171484,0.9782442037493139,-1.5377336926565368,-1.858110217785218,4.138355184616686,-0.13304217279467778,1.3843727816919074,-0.7965094922177196,2.0,0.5104425544182954,0.521120267510048,0.41280041391656846,-0.7794228104640819,0.2794239359613204,-0.23416529405147804,0.5094987356234957
11.8,1.1429347721500183,3.8071761051056385,3.1391100553663764,-0.3712101668243611,-0.01747512721011862,0.08364052056313086,-0.009478654261389712,0.208837920231298,0.9779024914267872,-1.5377593234501006,-1.8581336017178949,4.138333422336156,-0.13301370896701956,1.3843201126924043,-0.7965189582325862,2.0,0.5104490096142561,0.5211227477255931,0.41280866554258483,-0.7794223780980847,0.27941631019512875,-0.23417392217816757,0.5094996136294511
11.9,0.9262583418364759,4.0295286947069044,3.1923963621596765,-0.36758682838614465,-0.013607358666596353,0.08190638341754258,-0.009576007565407548,0.209812694171805,0.9776944582725267,-1.5377455578563157,-1.858133602192348,4.138340473175049,-0.13300800549972264,1.3843719043836114,-0.7965447528436522,2.0,0.5104468485109395,0.5211231447390361,0.4128177901691636,-0.7794262739880425,0.2793984850004172,-0.23418152947947318,0.509499932529184
12.0,0.8918988704677162,3.9397370601059056,3.3299141886130053,-0.3684514536559431,-0.014005221585113359,0.0791175297772273,-0.009468817871543602,0.2087714583185548,0.9779180578798906,-1.5377349876072968,-1.8581153962835555,4.1383231937493665,-0.13300742446163533,1.3844062041985692,-0.7965356723759446,2.0,0.5104520944137675,0.5211164682121044,0.41281780003459984,-0.7794246895045447,0.2794074274196966,-0.2341757619541135,0.5095001034412668
12.100000000000001,0.7605110400748266,3.9798960646038672,3.212904200423067,-0.37184275052012544,-0.01049593320655591,0.0775742916397526,-0.00937951107819775,0.20793375644086795,0.9780979348819482,-1.5377667106657953,-1.8581228736235984,4.13831874803267,-0.1330313102234887,1.384365186470559,-0.7965148130999964,2.480572159305596,0.5104435729187494,0.5211237183075937,0.4128083467074258,-0.7794245729279945,0.2794173314581075,-0.2341620951508298,0.5095011316880637
12.200000000000001,0.8085881042095188,4.022943669206572,3.260192489569241,-0.37941662996399145,-0.0180315515440485,0.07818979645200577,-0.009350310476320584,0.20778015231864402,0.9781308558975651,-1.5379674509271135,-1.8576591712424038,4.138360495623529,-0.1330630295118446,1.384309480372373,-0.7964924638124579,3.0,0.510435088177973,0.5211001983397643,0.4128340194049539,-0.7794192706499831,0.2794164018318406,-0.2341602645520524,0.509510594032851
12.3,0.8913305259639094,3.4667096961771025,3.1378822166411373,-0.38806982845638044,-0.02778144711512947,0.06161088430544489,-0.009380465281776993,0.2079062857246454,0.9781037516910779,-1.5388524272331108,-1.8564264934767627,4.138473033905029,-0.13314457270000613,1.3841407850494012,-0.796436853372455,3.0,0.510349323033121,0.5209675932327006,0.4130285858234118,-0.7793484218867083,0.2794210375302795,-0.2341919759026712,0.5096018441008652
12.4,0.7411213602847958,3.280003228633573,3.205309020681604,-0.3484380599245384,-0.010923369110564464,0.03697720258286952,-0.009408358275916313,0.20781446195741585,0.9781228616307648,-1.5401533935557712,-1.855305277912741,4.138657597994262,-0.13332409341737336,1.3839700362560423,-0.7964048016876576,3.0,0.5101558245867349,0.5207136603492867,0.41324688113130803,-0.7792978977261893,0.2794347988580509,-0.2342281190624696,0.5096549499682704
12.5,0.7985743626379738,3.1839012852318946,3.2724330537399853,-0.3253274805449704,0.003795232694683015,-0.00016713606566808037,-0.009375148600177031,0.2070263514806849,0.9782902310284707,-1.5413710614968028,-1.8541277540816172,4.13894008013221,-0.13342882635606373,1.3837977069427645,-0.7963107267962855,3.0,0.5097624546164288,0.5202985654540002,0.4133919453449774,-0.7793372246781264,0.2794365970014272,-0.23423201263324425,0.5095920355981218
12.600000000000001,0.854022744994292,2.9710146704043368,3.0486105578468,-0.3071705678622502,-0.0015731181852767992,-0.022489842495922827,-0.009468823988241025,0.20825864997484111,0.9780276514097811,-1.5425674569240417,-1.8530210803317164,4.139061545779845,-0.13355504576565563,1.3836440495090785,-0.7962179473616846,3.0,0.5094091566302318,0.520004276910039,0.4134381212431257,-0.779404081280854,0.27942017106155737,-0.23420099890885243,0.5095130402617519
12.700000000000001,0.9403426547633563,3.0678352525904273,3.1564352126874065,-0.3147912364579218,-0.0005466980989761024,-0.046418355439530656,-0.009381522931182421,0.20708080835040782,0.9782782613042976,-1.5434906982454337,-1.8519737314308062,4.139231483861735,-0.13370464856419978,1.3834558526309346,-0.7961453636069076,3.0,0.5091795096587197,0.5197889725005745,0.4134875194811017,-0.779435727249399,0.27943024774648123,-0.23417887085835598,0.5094692730430816
12.8,1.248164194263927,3.386553292239804,3.3251520036549294,-0.33861111109858416,-0.003708600835616911,-0.06437641866428187,-0.009215740389571016,0.20502053097925382,0.9787138092423577,-1.544401625968233,-1.8505585799030906,4.139468597708301,-0.13384516656909184,1.383298324881152,-0.7960509030359545,3.0,0.5089374147308446,0.5194978969760388,0.4135680007274406,-0.7794692061617083,0.279447861638488,-0.23419505993293613,0.5094009453999093
12.9,0.8912012852953746,3.0683178806944653,3.1206141834397085,-0.31475627316546373,0.0015140245602649157,-0.0932958427945941,-0.009335920818150273,0.20696578430469295,0.9783017716651434,-1.5455416170248042,-1.849240103992379,4.1396041883451655,-0.13395299578095707,1.3831817404423346,-0.7959954329669392,3.0,0.5085030381426536,0.5190794426213162,0.414037070317486,-0.7793686377617683,0.27942749312187987,-0.2341944134510479,0.509566265827426
13.0,0.9572254519935951,2.796596376154698,3.1682170471721998,-0.2923964901153603,0.002777526038613373,-0.11295892802528111,-0.009252834347813928,0.20650559152288836,0.9783994196903306,-1.5467455204493412,-1.8481888660761991,4.139796373998156,-0.1340992509235773,1.3830151086639608,-0.7959370838980652,3.0,0.5081879261678126,0.5187925781875407,0.41424256025518547,-0.7793555016893419,0.27941135596273026,-0.23418628879183745,0.5095989386640528
13.100000000000001,1.0759015392886375,2.723470788535021,3.2116335345375076,-0.2762645091221662,0.002911627066857766,-0.12817412029844957,-0.009033185375156577,0.20417400531682034,0.9788929341781372,-1.5479115488509223,-1.847121042177677,4.139975929496674,-0.13425004888191197,1.3828410643301865,-0.7959111389239112,3.0,0.5078479939277104,0.5184598013138224,0.41433148035785367,-0.7794027968843713,0.2794197360214091,-0.23417215190844226,0.5095285022460616
13.200000000000001,0.6582667609689382,2.8715952796383153,3.334066152435205,-0.2831340149420688,0.007451719409082597,-0.14589412516534223,-0.009062746100704299,0.20413272501763374,0.9789012698489341,-1.5488132549830582,-1.8459372500951508,4.140177495801647,-0.1344184660588009,1.3826848488671504,-0.7957964487931706,3.0,0.5074421220633999,0.5180612771874337,0.41438571410706615,-0.7794854256135394,0.2794261934146357,-0.23415070292103057,0.5094084039466498
13.3,0.815319920778788,3.0961727609785417,3.30128665085669,-0.29901118584344466,0.007676849005683029,-0.15804707102920745,-0.008972047677989474,0.20334989596122852,0.9790648394464343,-1.549785086212846,-1.8445513110936567,4.1403118199143965,-0.13454507812548053,1.382490983667591,-0.7957431624902435,3.0,0.507021536093841,0.5176293020069733,0.4147737020935427,-0.7794141275174198,0.2794263561060696,-0.2341627108764382,0.5095118783448929
13.4,0.740570923324277,3.04628106737668,3.494062183269823,-0.28653876014645424,0.011500213928625455,-0.1522538429046739,-0.008953711059667871,0.2036678354480426,0.9789986705313645,-1.5508179539271763,-1.8432351765541777,4.140532420489253,-0.13468875572899897,1.3823307785501286,-0.7956687666522425,3.0,0.5067479321196233,0.51735774784515,0.41507814413560756,-0.7793495589615114,0.2794057401838694,-0.23418769400910217,0.5096104603258271
13.5,0.7836381051357578,2.531564453612593,3.523628295323012,-0.26978144926174946,0.01182752686405757,-0.14338881359318245,-0.009031854827062114,0.2048137194226434,0.9787592699996822,-1.5520542910087907,-1.8422599920101974,4.14068329501115,-0.13483803126388,1.3821627815626272,-0.7956146587489207,3.0,0.5065297417312166,0.5171457260578288,0.4152320193935809,-0.7793427030990248,0.2793962886472431,-0.23417611743987637,0.5096314462797966
13.600000000000001,0.7796167627562834,2.612914968678144,3.5093956458492226,-0.2563072265571365,0.012735984492154889,-0.14013748859329217,-0.009199340346535502,0.20553921601498457,0.978605553597125,-1.553241811027219,-1.8411773364395354,4.1408798974104615,-0.13496726963693256,1.3819881537880556,-0.7955563704120081,3.0,0.5061277829527981,0.516700317520423,0.41527746562878326,-0.7794226379235187,0.27942718914367054,-0.23417464919128933,0.5094929156874975
13.700000000000001,0.8255437681114238,2.7869767668611782,3.522871886997196,-0.2668676341636132,0.014374350372405477,-0.14359136176964585,-0.009277666100548363,0.20655567133792616,0.9783906112792429,-1.5541365198360593,-1.8398866888305832,4.141074565342858,-0.1351182400288927,1.3818462660791397,-0.7954497564308489,3.0,0.5059441817004,0.5165674512936816,0.41525899142591294,-0.7794745863344154,0.27941548876411526,-0.2341482187349404,0.5094320028823843
13.8,0.6604351592230696,2.931316482396744,3.4920335613201203,-0.2611456577788895,0.019891954300880886,-0.13645847866421634,-0.009201618468988176,0.20586825274397796,0.978535438345813,-1.555175317370011,-1.8385998428329724,4.141291802992384,-0.13529964040550657,1.381648527539657,-0.7954153124572034,3.0,0.5055826210389496,0.5162158575309139,0.41550743415294655,-0.7794560202457569,0.27939941306988003,-0.23416096519325066,0.5094633675335436
13.9,0.8946358126439127,2.5972669942523208,3.5672210625806398,-0.26482820705629045,0.01554491765565666,-0.13246570169297964,-0.009026881165584123,0.20410102149787224,0.9789081835708107,-1.5561497636180106,-1.8372652451011091,4.141441077916783,-0.13546259820971684,1.3814705618743688,-0.7953583204628415,3.0,0.5052304505301075,0.5158326375481491,0.41578538717069696,-0.7794280283269682,0.27939393201144647,-0.23417223608599438,0.5095040169223434
14.0,0.8008614035486418,2.66621104860919,3.497414916803368,-0.24806867717816047,0.016527944557854588,-0.13661552261293178,-0.008938127438287853,0.20339851494311662,0.9790551115447959,-1.5571997075721467,-1.8363194047768465,4.141639616534676,-0.13562824176650926,1.3813290813742163,-0.7953006709838449,3.0,0.5048922401011275,0.5154954490136316,0.4160865403571592,-0.779380411251992,0.27938606553252776,-0.2341875816711621,0.5095741138774055
14.100000000000001,0.7605099850119766,2.5037801656496863,3.4516543991151196,-0.2416042000853112,0.018805137318462884,-0.1320827536508589,-0.008918086454886825,0.20300594522898785,0.9791368889107888,-1.5583254563049642,-1.8351052818977718,4.1418245767029465,-0.13576069461859486,1.381141074065436,-0.7952069219600463,3.0,0.504508831520213,0.5150964082902109,0.4162562495012915,-0.7794079839791503,0.27940285398042963,-0.23417588000568917,0.5095281120023785
14.200000000000001,0.8003216498776047,2.2762048388572715,3.5395366060604183,-0.2470187881916065,0.01906246573893634,-0.13124308544171784,-0.00894997606759372,0.20311979091680107,0.979112960354057,-1.5593397627021766,-1.8339045179061295,4.141973972320557,-0.13591970276219745,1.3809948538574404,-0.7951189579761229,3.0,0.5042054225754476,0.5147872277452966,0.416344422441927,-0.7794447538591673,0.2794224574333978,-0.23414676441658636,0.5094744926652819
14.3,0.7792489218703272,2.2679477684808877,3.5987110848931176,-0.245575410663363,0.0160420207830468,-0.12377721303268098,-0.008984923577713154,0.20348270659101703,0.979037268958698,-1.5603726203754293,-1.832617005620756,4.142169915243328,-0.13614183416695225,1.3808309969975452,-0.7950549344003217,3.0,0.503782568298286,0.5143520256437966,0.4166240766497792,-0.7794306884554333,0.2794130465716952,-0.23416878896633542,0.5094910495518574
14.4,0.8638058151884124,2.3404831309521996,3.6409667923469646,-0.2373498953847337,0.017977115258451328,-0.1330196454987706,-0.00907570627741448,0.20450007359901667,0.9788242091605238,-1.5613963284795167,-1.8315102574760838,4.142319865642433,-0.13629031993225715,1.380687355583967,-0.7950179700464187,3.0,0.5035074593488565,0.5140443422068668,0.41681976507644086,-0.7794215864523897,0.27940428162719727,-0.23419008038404107,0.5094999943377291
14.5,0.7977156921750367,2.188378273412516,3.726479051662408,-0.2376417937094983,0.018811171690145238,-0.12559185558520378,-0.009113093222521707,0.2048188651915677,0.9787574505272741,-1.5624629032934954,-1.8302953921780432,4.142500400543213,-0.13642321183321213,1.3804948078242587,-0.7949196127164523,3.0,0.5032242188012449,0.5137894358293126,0.4169905747255947,-0.7794222895037672,0.27938643531598667,-0.2341761583520471,0.5095151040407033
14.600000000000001,0.8397982685513357,2.4553251500176936,3.755720213191535,-0.22642210413391237,0.017412964181578214,-0.13047405712961047,-0.009099812556201117,0.20449841249325068,0.9788245082418581,-1.5634650172059295,-1.8291458345597742,4.142680644989014,-0.13661473798620924,1.3803228825958846,-0.7948605637959161,3.0,0.502872356815157,0.5134065429506702,0.41717035695002597,-0.7794164365784708,0.27942833289337143,-0.23417556060800682,0.5095013562118117
14.700000000000001,0.9257506053805484,2.54327524268312,3.7968127019836926,-0.22007302450686642,0.018340261308917662,-0.13173796793063833,-0.008869912454247833,0.20212827344256126,0.9793188806723151,-1.5644594038314668,-1.8279979296290791,4.14287168525634,-0.13675608598680913,1.3801611139672778,-0.7948112338305567,3.0,0.5026137298342186,0.5131366357946179,0.41731869277233125,-0.7794221754983386,0.2794226479820739,-0.23417101689680242,0.509497783097867
14.8,0.8058363062393116,2.201027483293089,3.6068982053913587,-0.21796826480098982,0.021939743622766406,-0.12819534285372872,-0.008983858286812052,0.20374317336264736,0.9789831490007189,-1.5654975688623431,-1.826794066893024,4.1430277824401855,-0.13694338516006835,1.3800230773243176,-0.7947468726371455,3.0,0.5022406192124669,0.512766348263929,0.41758550662915145,-0.7793926258262898,0.2794208130561189,-0.23416824276515788,0.5095452660156277
14.9,0.7670991716355237,2.3066628801925884,3.7095192920636015,-0.2136104598696471,0.01874000170603545,-0.12873535523644006,-0.009114843581361843,0.20530301566455136,0.9786560022700881,-1.5666147028737676,-1.8256130975897367,4.143212837615483,-0.13711126631568932,1.3798330005644397,-0.7946512796290628,3.0,0.5019925092411122,0.5125236502892266,0.41770832634211635,-0.7794002840247135,0.2794197210513384,-0.23415870790780052,0.5095385326555166
15.0,0.82951507181162,2.5042737929985526,3.975164903509434,-0.2144298845007808,0.013935085077351755,-0.12811204455770567,-0.009167366730576382,0.20574879982395694,0.9785618976781256,-1.5677238499685349,-1.8242827709862408,4.143432975018748,-0.1372415441720821,1.379706859588623,-0.7946022747519224,3.0,0.5016919435575569,0.5122272158522221,0.41778970089882184,-0.7794524653693038,0.27941025777575174,-0.23414576854698022,0.509469843220329
15.100000000000001,0.6548138365386792,2.291868330670477,3.5610951268766113,-0.21580601172837155,0.02268666329911443,-0.1273506887977052,-0.009161630564111295,0.20604349207540104,0.9784999445587688,-1.5683832168579102,-1.8233773515103064,4.143530368804932,-0.13738596124099728,1.3795543707304536,-0.7945387999164026,3.0,0.5012438229395694,0.5117775243999964,0.4180675310217762,-0.77944451633628,0.2793902908402712,-0.23414343875512805,0.5094940249163037
15.200000000000001,0.7795277339869758,2.3437082640437463,3.1058700690879704,-0.2181906359789425,0.01231492318740484,-0.12770026112132848,-0.00894669593776066,0.20363484257828096,0.979004289568203,-1.5683991836289228,-1.8234039745726527,4.143535599466097,-0.13740284860644536,1.3795681851472816,-0.7945337704345123,3.0,0.5010411212921174,0.5115513231053301,0.4182297500892069,-0.7794179339885938,0.2793957706843344,-0.2341605948059993,0.5095238005635846
15.3,1.0096590854411023,2.0772685701778038,3.346472369085212,-0.22949140587973282,0.01277037259682161,-0.12123637954375799,-0.008859687945274562,0.20255290257476166,0.9792311209586675,-1.5684153779254462,-1.8234061494728984,4.143522002406411,-0.13741156360490395,1.3795225365863348,-0.7945085461974996,3.0,0.5009729889547033,0.5114877731462092,0.4183161965838925,-0.779391418778349,0.27940823339796567,-0.23416995902494242,0.5095532216897041
15.4,0.8322296343148136,2.535715244796701,3.638827629184502,-0.2280478502059886,0.021016901922225467,-0.12261081265638708,-0.008929581890157435,0.20311596380417513,0.9791138333085084,-1.5684089660644531,-1.8234081874289454,4.143546979427338,-0.13740284860644536,1.3795305446624755,-0.7945149580584925,3.0,0.5009769732293395,0.511479984926388,0.4182966387285609,-0.7794048425558262,0.2794136619725761,-0.23416968028239069,0.5095298398916849
15.5,0.6684577886385688,2.839845115751619,3.66067160873789,-0.22472842258705336,0.028490427891317806,-0.12630220447693657,-0.00903232845705208,0.20415385310682788,0.978896469597509,-1.5684469570344821,-1.823411802822732,4.143566608428955,-0.13740284860644536,1.3795496505560045,-0.7945646018736537,3.0,0.500970868080265,0.5114865513011837,0.41826987967065854,-0.7794212081795988,0.2794062306699429,-0.23416934673882683,0.509509033826271
15.600000000000001,0.886412575605967,2.1670366051870884,3.5316758136912956,-0.2397712079727367,0.024147656142748854,-0.12166800951831037,-0.009175113020905588,0.20577042270311213,0.9785571416482167,-1.5684353612529536,-1.8233850817050887,4.143527815474341,-0.1374345740060764,1.3795161247253418,-0.7944871744297218,3.0,0.5009662777861352,0.511495532283534,0.41827144274530703,-0.7794167266231342,0.2794120855003027,-0.2341622845556317,0.5095159244107467
15.700000000000001,0.920608398578208,2.5998510885556683,3.423819611051909,-0.23117087752848195,0.0228520019888002,-0.12124282060471003,-0.009185435226602895,0.20577170745423162,0.9785569125903752,-1.5684518474110385,-1.8234194037515263,4.143532872049432,-0.1374083832637062,1.37950733726903,-0.7945273558246058,3.0,0.5009778042792813,0.5114915988471596,0.4182583129823736,-0.7794270861575631,0.27940336826420786,-0.23417148870633836,0.5095006271277824
15.8,0.680469365160915,2.4493643986566616,3.3404095488325733,-0.2317534380254877,0.02897333134466953,-0.11937735078991119,-0.008924916850158728,0.20322907095254591,0.9790883423257096,-1.5684434843555883,-1.8233996908957906,4.143592171619753,-0.13738701407345405,1.3795523643493652,-0.7944964544171949,3.0,0.5009604510382096,0.5115072324511843,0.41826180328032986,-0.7794281414212316,0.2794011150461678,-0.23415263793844593,0.5095089120104472
15.9,0.7414696368120576,2.503338222999384,3.4227549649646236,-0.22929712222404441,0.025737742239473563,-0.11720237599017445,-0.008770329465158126,0.20155223387084154,0.9794384955955128,-1.5684468834235428,-1.8234205944469337,4.143557419830914,-0.1373884046391873,1.3795238235461291,-0.7945487542309464,3.0,0.5009634226779193,0.5115018022502356,0.41826261762684513,-0.779430445176235,0.279403645543632,-0.23414969406959774,0.5095053530203765
16.0,0.8150476116268711,2.312360292127327,3.4682796935902602,-0.2379695780385964,0.023581211449646828,-0.11842850484961581,-0.008797721050996203,0.20139727165975663,0.9794701299244533,-1.5684301525333724,-1.8233880646093892,4.14355819969715,-0.13739455051584848,1.3795413002285695,-0.7945387999164026,3.0,0.5009776199655422,0.5114857678180531,0.41822996972915616,-0.7794453596086391,0.27940762896438537,-0.23417078321186485,0.5094706591659635
16.1,1.0282810606875474,2.5087982536819764,3.579007157208084,-0.23215772206261015,0.02051382765458263,-0.11789059570287043,-0.009018458230505714,0.20404749203662134,0.9789168724316837,-1.568414669244726,-1.823419147596548,4.143563870902424,-0.13740855178671826,1.3795493986956233,-0.7945487465971832,3.4989883453468917,0.5009697446967023,0.5114872247888471,0.41827604619569736,-0.7794151759809932,0.27941278023893945,-0.23416275402413667,0.5095176997097307
16.2,0.9220944014153087,2.379096941247452,3.519507288656272,-0.23318625419374492,0.023860676489488076,-0.1204627203278064,-0.009056574359281016,0.20456190844973643,0.9788103340630765,-1.5684719473605766,-1.823397435466537,4.143551497123198,-0.13740284860644536,1.3795312795079246,-0.7945301128410752,4.0,0.5009690321614163,0.5114961953431969,0.4182547698608091,-0.7794244532897434,0.279404269002307,-0.23415825543302426,0.5095102427722463
16.3,0.980880184423203,2.4101981089038356,3.5653454644882485,-0.23215736710186022,0.02557102886105194,-0.12018915842360303,-0.008890832229197024,0.20267316549580586,0.9792060500465289,-1.568456512725979,-1.8234270988459504,4.143555508777772,-0.13740284860644536,1.3795292400760675,-0.7945380823317904,4.0,0.5009719710582425,0.511486402583673,0.4182565298866957,-0.7794249784225407,0.27940730704030453,-0.23415776006868866,0.5095080010982376
16.400000000000002,0.7441453864525207,2.6626517366721587,3.4253931913346696,-0.22818437943326986,0.02742872777870389,-0.11259646722833393,-0.008905492988512745,0.20301461766844375,0.9791351983045785,-1.5684328079223633,-1.8234165200096624,4.14357868145088,-0.13740253635241806,1.379553288621286,-0.7945612325971461,4.0,0.5009590902395992,0.5114972442219846,0.4182652689093326,-0.7794257210829044,0.2794018300446381,-0.23415284268560374,0.5095121283584451
16.5,0.9562634949626885,2.5682675726405213,3.6385281015856186,-0.22884179318616946,0.021725218817373396,-0.11473520968857981,-0.009011723189534413,0.20424851005999503,0.9788774770114788,-1.5684333544709272,-1.8234158955016078,4.143579598289346,-0.13740341792786617,1.3795621232497566,-0.7945143887370717,4.0,0.5009630261711085,0.5114935418304833,0.4182677817376803,-0.7794254953571773,0.27939625941867263,-0.23416081243921302,0.5095118657380613
16.6,0.8266751461089021,2.771373879672773,3.503615141428121,-0.22414826856537085,0.0277001823618034,-0.12017012522726338,-0.00887402676886409,0.20268567261284975,0.979202449449901,-1.5684328079223633,-1.8234039745726527,4.143559161625976,-0.1374337121808243,1.3795474651368789,-0.7945364482944092,4.0,0.5009565048831559,0.5115020294229388,0.41827065179512624,-0.7794245103793682,0.27938947733615216,-0.23415534586382386,0.5095196037220813
16.7,1.1475294660783595,2.5709317686046083,3.1695297817233965,-0.2199206614640359,0.04348682323415924,-0.11448780763226367,-0.00881243288231855,0.2019119779014716,0.9793637807108864,-1.5684236998511052,-1.8234031754077316,4.143567407593876,-0.1374124642519741,1.379537692036938,-0.7945030371295374,4.0,0.5009705389499532,0.511490793590388,0.4182600315938516,-0.7794212920190091,0.2794081889356315,-0.2341639686814696,0.5095103034036432
16.8,0.9887193591263179,1.0533201631264033,2.610179991784937,-0.12332281804497366,0.05236483500643423,-0.12091057005852424,-0.008906512577641466,0.20281303464789152,0.9791769742727662,-1.5684328079223633,-1.8233962210556642,4.143550368058288,-0.13737468730682376,1.379536317869375,-0.7945149580584925,4.0,0.5009801969631523,0.5114851504462238,0.4182631195922735,-0.7794208788689996,0.2794094797636456,-0.23416771535076786,0.5095085056097564
16.900000000000002,-0.22223566375872136,0.08324332490407174,2.1174221169943013,-0.04191158907914285,-0.047486815109751265,-0.12753875899423944,-0.008914134636246547,0.202803211556554,0.9791789394956921,-1.568425211367727,-1.8234082989469715,4.1435938028731725,-0.13734526599116842,1.3795475631378882,-0.7945005382628807,4.0,0.5009853054232576,0.5114790367993608,0.41826614230376896,-0.7794166624365556,0.279413685345953,-0.23417202995075637,0.5095106663715641
17.0,-0.1765138874518056,-0.13372696195623834,1.5953296773775922,-0.01998429781272259,-0.04697918482792597,-0.1289820785013171,-0.008687097232642957,0.20074763897893602,0.9796026658217349,-1.5684355810194388,-1.8233587026624611,4.143560831143382,-0.13739393186598867,1.379563808441162,-0.7945179622469909,4.0,0.5009676178135339,0.5114803467705477,0.4183159364815332,-0.779392812319407,0.2794019113592224,-0.23417650719657793,0.5095515474521397
17.1,-0.0038169259667756097,0.015346465985730182,1.5205030390205454,-0.014673569492801998,-0.03886813763018355,-0.13157856668081971,-0.00853425348957151,0.1994007707185285,0.9798807041711982,-1.5684058154761458,-1.823382697712389,4.143557361251149,-0.1373790067485352,1.3795613681803869,-0.7945508295988604,4.0,0.5009563330147409,0.5114879301305693,0.41830159713623416,-0.7794041688519966,0.2793907534645336,-0.23415985632658182,0.5095479468506994
17.2,-0.0880897674405963,0.02967105846727247,1.2712157645282176,-0.008514681878370485,-0.03763910329376122,-0.1316935945931633,-0.00862031234300489,0.20026124271802162,0.9797045162534441,-1.5684213638305664,-1.8234030814206121,4.143555164337158,-0.13740456620652344,1.3795382489831738,-0.7945166756585705,4.0,0.5009616096799896,0.5114892348998169,0.41828768912529957,-0.7794103458455275,0.27939575369080033,-0.2341574779612042,0.5095368496226285
17.3,0.029902148145907127,-0.05146454930330491,0.8101127979701432,-0.007901806013019375,-0.032662397088830744,-0.13245190004213397,-0.008690304380831257,0.20082626846146218,0.979588249075128,-1.5684057517839873,-1.8233843394552645,4.143542766571045,-0.13738359849135892,1.3795307265280106,-0.7945219375075845,4.0,0.5009595755401437,0.5114892257197993,0.4182907442106612,-0.7794111793512695,0.27939440009060235,-0.23415916188146105,0.5095355430264382
17.400000000000002,0.14597351917452647,0.1765252680292332,0.08556217078877687,-0.020150141928992366,-0.0219198364063942,-0.13733169659271388,-0.00882285138772262,0.20208085868886544,0.9793273737899864,-1.568400287793986,-1.8233897885874788,4.143570327924601,-0.13739092767749028,1.3795382498929538,-0.7944875397624611,4.0,0.5009658089440281,0.5114818503896458,0.4182961901816486,-0.7794110284033349,0.2793999338269045,-0.2341676597153528,0.5095288342421969
17.5,0.07604329034924923,-0.2492463234184467,-0.11586631503111747,-0.03067145165864855,-0.021439157591155243,-0.13149191885688322,-0.009103337098888224,0.2050240187943783,0.9787133844989383,-1.568427549855961,-1.8233838070262043,4.143557117818862,-0.13738307650208428,1.3795577852059095,-0.7945252395527602,4.0,0.5009665558176203,0.5114860385084301,0.4183100705605779,-0.7794019792243406,0.27940729541025333,-0.2341710391406157,0.5095370864623221
17.6,0.07585803732080834,0.09083602717163264,-0.07362666237135089,-0.02381078266088608,-0.01989962738569325,-0.13493629132385876,-0.009108492114805992,0.20509819994102246,0.9786987982504737,-1.5684663421405678,-1.8234283521100294,4.143530368804932,-0.13735978863612316,1.3795498305110971,-0.7945178889147965,4.0,0.5009743205893769,0.5114815506299438,0.4182907842957912,-0.7794056918093437,0.2794122150414312,-0.2341709485910679,0.5095287513936765
17.7,0.33314967969107934,-0.3745445601851643,0.1377849592974515,-0.02998960249553123,-0.029425591690426314,-0.1383462138899722,-0.009044616467587294,0.2044530732753757,0.9788344937912528,-1.5684544096308046,-1.8233962447028407,4.143555164337158,-0.1373747632806021,1.3795384925107357,-0.7945257589127132,4.0,0.500976525665858,0.5114804143844206,0.4182760637900615,-0.7794115898319747,0.2794115149283566,-0.2341642720421681,0.5095231816708599
17.8,0.143603968053705,-0.0850131628129738,0.11020266653001103,-0.019901302010977378,-0.02721246678565374,-0.13491481357779844,-0.008975874460124605,0.2035346046099048,0.9790262956905752,-1.5684337189239452,-1.8233796558775843,4.143542766571045,-0.13741287161543805,1.3795513774309849,-0.7945407357947643,4.0,0.5009651464970839,0.5114939945886999,0.4182763104643564,-0.7794160643653046,0.2794054552661911,-0.23416108112186262,0.5095211264163952
