xiamingqian9007/apple-picking-rnn/final_data/grasper_20191127_112529.csv
,/manipulator_wrench.fx,/manipulator_wrench.fy,/manipulator_wrench.fz,/manipulator_wrench.tx,/manipulator_wrench.ty,/manipulator_wrench.tz,/ground_truth.x,/ground_truth.y,/ground_truth.z,/joint_states.elbow_joint,/joint_states.shoulder_lift_joint,/joint_states.shoulder_pan_joint,/joint_states.wrist_1_joint,/joint_states.wrist_2_joint,/joint_states.wrist_3_joint,/mode./mode,/manipulator_pose.x,/manipulator_pose.y,/manipulator_pose.z,/manipulator_pose.rx,/manipulator_pose.ry,/manipulator_pose.rz,/manipulator_pose.rw
0.2,-10.957885264933202,-5.001346336808607,-9.524963709466352,-0.12186631949800772,0.13625022207298682,0.3010080987143696,-0.034293112217399495,0.04847698260956838,0.9982354132100058,-1.6892890548706054,-1.7165252552428187,4.14532353401184,-0.13593727052722174,1.3631158065795899,-1.214678093587057,1.0,0.47770463441620775,0.47146775804928204,0.4194645365542418,0.8232028143816,-0.11417730932996284,0.33840357008153155,-0.4413430549860927
0.30000000000000004,-11.566654576119515,-4.811101501617334,-9.71352011111093,-0.12415066706452484,0.12493967259031082,0.3786621357195445,-0.03416171585967637,0.04829919000466244,0.9982485481270076,-1.6868993008576139,-1.7194051907553016,4.144759824964633,-0.13506228635072567,1.3637736457194285,-1.214851258837875,1.0,0.47774866486922124,0.4715409885899172,0.4194836949396475,0.8231795789256708,-0.11415857524052647,0.3384169645276859,-0.4413809677123326
0.4,-11.725872002298013,-4.761748938718677,-9.303296953995297,-0.13139336059790027,0.11728675147142785,0.45935674630548423,-0.03417745971625155,0.04828544541540735,0.9982486743603305,-1.6843867209649854,-1.7234724196757956,4.1442085017637345,-0.13415401979423192,1.3642537497212022,-1.2151200949550724,1.0,0.47886754605655624,0.4726215884015453,0.4189626912051287,0.8231169392823006,-0.11418944436260431,0.33842336909754367,-0.4414848789158749
0.5,-11.603692461726855,-4.92279897305325,-9.365670195206866,-0.11634550256623606,0.12367333979101153,0.4514113584831645,-0.034196453837016944,0.04827532457641853,0.9982485132374135,-1.6817754389957458,-1.7267465805967845,4.143539905548096,-0.13320780635969579,1.3648093990446266,-1.2153842533555796,1.0,0.4795587245399002,0.47334191329227293,0.41842411552758924,0.8231810343198993,-0.11417743356701252,0.3383998020650457,-0.4413865339613442
0.6000000000000001,-11.486328995024472,-4.887292619906773,-9.273733484118953,-0.12399713607223245,0.11860592274421647,0.44319443365571465,-0.034215447957782336,0.04826520373742972,0.9982483521144965,-1.679204864754582,-1.7302799311751684,4.142922163945519,-0.1322043808166926,1.3652821511206032,-1.215637509022848,1.0,0.4802838527284854,0.47404055457002875,0.41796688064060994,0.8231942432091515,-0.11418441608299115,0.33840466007396147,-0.44135636747567747
0.7000000000000001,-11.594239071192849,-4.547712020807218,-9.181887043147151,-0.12031276922881898,0.11513041176471019,0.43376416184824307,-0.0342556501358523,0.04835506411630421,0.9982426085428685,-1.6767701397860848,-1.7337219780893265,4.142353638910202,-0.13134503118984633,1.365918532110306,-1.2158800796846436,1.0,0.48120810461726204,0.47491280604324443,0.4173834490706639,0.8232122123720323,-0.11419883198306853,0.3384062226749547,-0.44131792239848555
0.8,-11.464945127064611,-4.868055167675132,-9.526090433339288,-0.1256025929803404,0.1124853330366873,0.43810762417784505,-0.03431967674754307,0.048557240104953894,0.9982305938320766,-1.6741071331219215,-1.7369176362250744,4.141777515411377,-0.130583683122315,1.3665106247927041,-1.2161127429396235,1.0,0.48233585573141236,0.47606784179729933,0.41675353613891786,0.8231879289016645,-0.11418800846782426,0.33840720793698037,-0.44136526148875516
0.9,-11.776892520632105,-4.963293164429707,-9.616484080929835,-0.13776094439447698,0.11387084975033247,0.43229291834233036,-0.03433046276605718,0.04859663891348671,0.9982283173942582,-1.6719004413021874,-1.7401574563907052,4.141130072076056,-0.1298243724617047,1.3670833372942621,-1.2163190707644105,1.0,0.4835191880716921,0.4772195372925607,0.41605747700296325,0.8232026262635175,-0.11417784727615404,0.33837695934425294,-0.441363669425983
1.0,-11.550560132744797,-5.024639513052906,-9.698090048222312,-0.1262685598254653,0.11595814783098017,0.4357888705253811,-0.03427904968570645,0.04844587090916239,0.9982374178357593,-1.6693572657670401,-1.7432097510613922,4.1406374658961305,-0.12898831899332858,1.3674673920477418,-1.216525124346658,1.0,0.4843991623226969,0.47804994151387414,0.4153943132560675,0.8232813641731752,-0.11418151073887643,0.3383320008830654,-0.4412503089959312
1.1,-12.011360545425044,-4.495948417493936,-9.629217361178618,-0.12751355376414186,0.12425962096820123,0.43295858820537697,-0.03421693349185657,0.04832045956677128,0.9982456186247651,-1.667272486763394,-1.7460996508963509,4.1401950152801295,-0.12830640335956928,1.3678986414230458,-1.2167747394828694,1.0,0.4849028616957963,0.47853667248942455,0.4151869793678318,0.8232367271894273,-0.1141889204672689,0.33838046262245297,-0.4412945093295122
1.2000000000000002,-11.778062557564894,-4.851677541310178,-9.637707591105846,-0.13068006045337535,0.1191835132671607,0.42884602546910794,-0.03415421648702984,0.048196471600935674,0.9982537689124757,-1.6650436985289818,-1.7490502788651217,4.139711790670741,-0.1276799533721541,1.3682993640539407,-1.2169535795794886,1.0,0.48566063775218915,0.4793281798305656,0.4147323224197481,0.8232352485529661,-0.11416231705404883,0.33838888561539215,-0.44129769203652053
1.3,-11.839834638953633,-4.777369794043185,-9.569415842933738,-0.12108456043375693,0.11949446376104932,0.4269616004249475,-0.03434121181267206,0.048527498129664656,0.998231270534803,-1.6627670975235187,-1.7516491306787658,4.139281868287782,-0.1270521572930853,1.368701457977295,-1.2171509987494882,1.0,0.48682604956052106,0.480496562743857,0.4141004703273883,0.8232199344678233,-0.1141674492101125,0.33840055026225785,-0.4413159872674565
1.4000000000000001,-11.792893000059731,-4.7447984004695085,-9.379784160402117,-0.12372970645708838,0.11419571956384988,0.42488568849996444,-0.03434769057197409,0.04852702797358166,0.9982310438592059,-1.6609607817907877,-1.7544338229836756,4.138847007092509,-0.12642733600642103,1.3691159218008382,-1.2173212874561874,1.0,0.48720219982236934,0.4808817433288494,0.4139652410204692,0.8231811050634821,-0.11415589270285639,0.33843483880077807,-0.441365109986698
1.5,-11.704366964266264,-4.953329684651594,-9.354202474322694,-0.12761302045664605,0.11670042324101171,0.4291957247040666,-0.034085965159914584,0.04803437111251219,0.9982638923418994,-1.6587739880074932,-1.7566558632251554,4.138338479356368,-0.12575514734301763,1.3696369791276792,-1.217493239418516,1.0,0.48777329659253765,0.48145044687981,0.41349683556129174,0.8232429980361997,-0.1141523429714747,0.33839596270261896,-0.4412803884210811
1.6,-11.860161525813597,-4.8409343935079185,-9.384976638261055,-0.12764191613364617,0.11749162539198627,0.430699256826645,-0.034550867231742055,0.048886625728126264,0.9982064918126328,-1.6568122137270822,-1.7595227954808312,4.138002418347443,-0.12519281340780675,1.3701041971407526,-1.217647266340851,1.0,0.48845745772869265,0.48211535809972444,0.413066076579224,0.823255486451504,-0.11415250543685507,0.33838260045075297,-0.4412672945530547
1.7000000000000002,-11.607367444999646,-4.881070942085684,-9.479221441037392,-0.12734483600157964,0.11765350135191677,0.43075553894776614,-0.0342932421296412,0.0486006839381122,0.9982293119649185,-1.654903681381889,-1.761751737136607,4.137564874731976,-0.12468106127813991,1.3704332766325578,-1.2178385893451136,1.0,0.4893561804981883,0.4829942808389551,0.4127076763306105,0.8231742998918954,-0.11413663283783475,0.33841695199559624,-0.4413964970906987
1.8,-11.6032543339621,-4.869241603936,-9.558997949475685,-0.12984188267055785,0.11519476372624855,0.4302809522924243,-0.03414633453704095,0.04839537098008372,0.9982444057292771,-1.6530925416285223,-1.7641473303918918,4.137150825607112,-0.12422191991749225,1.3707519925776912,-1.2179231299597435,1.0,0.4902801208989002,0.4839115102138328,0.41211734818374507,0.8232035878977993,-0.1141429432680725,0.3383816889384816,-0.44136727785987095
1.9000000000000001,-11.49184323443492,-4.829341119401914,-9.49989026304405,-0.12042317865486775,0.1137062051744854,0.43037016490159563,-0.03431654527920027,0.04855938601083353,0.9982306124140763,-1.65131915234375,-1.7663178493895473,4.136762549591064,-0.12369691446337895,1.3710619407653808,-1.2180996229754846,1.0,0.49070752927980615,0.4842963023406284,0.4118255209637321,0.8232265825211433,-0.11416978990025443,0.3383781801994745,-0.44132013331546843
2.0,-11.717719992160774,-4.742680565187034,-9.41516184520746,-0.11814262854268544,0.11645802017443885,0.42823260082658154,-0.03440110485897021,0.048632034309545574,0.9982241665669692,-1.6494562679447249,-1.768569148039383,4.13631151491828,-0.12323983762239574,1.3713998956041815,-1.2182699064887312,1.0,0.49153952272788315,0.48510426028794107,0.4113728597171552,0.8232158520981921,-0.11417046316139053,0.3384037637516223,-0.44132035855430146
2.1,-11.591718957968386,-4.611851268456298,-9.384090095603078,-0.11831815999000606,0.11837382964875756,0.4281873158318864,-0.034738984421812925,0.04921419221586835,0.998183766161042,-1.6478748267821945,-1.7706345192182562,4.1359773326725024,-0.1227721883594413,1.371735028838712,-1.2183891348456246,1.0,0.49183689254754637,0.48539306543571903,0.4112291852391868,0.8232050792726127,-0.11418048151222288,0.33839743385435955,-0.44134271474919895
2.2,-11.539755055030447,-4.617130732849997,-9.383763224579083,-0.12479392202804471,0.11447338170994104,0.42492092967147505,-0.03479741957723052,0.04927769117838992,0.9981783229762772,-1.6462302401529973,-1.7728948507753488,4.135652596663257,-0.1223162716653756,1.3720120275057208,-1.2185420913264204,1.0,0.49244951269279125,0.4859760781767626,0.4108732681236769,0.8232018453318009,-0.11419596580469737,0.33841505520198745,-0.4413312289526836
2.3000000000000003,-11.433632458728972,-4.919070831152025,-9.587277158993325,-0.12368807484013239,0.1154954200000554,0.4238791747460617,-0.03423249470151046,0.04817109389471455,0.998251614681826,-1.6444515749396924,-1.7747804559684095,4.135258197784424,-0.12185129112460284,1.3722773030815478,-1.2186635080330108,1.0,0.4932987700245991,0.48681497768410986,0.41026103030496786,0.8232524942848893,-0.11420834070507618,0.3383934543121421,-0.4412501055476336
2.4000000000000004,-11.223572870997986,-4.544684447901096,-9.42318526011181,-0.12519967826813164,0.1237270665531646,0.43058468310435,-0.03392313399319423,0.04758018449794464,0.9982911411464515,-1.6429129643287523,-1.776753014118764,4.135008234383797,-0.12150514974586965,1.3726206080345071,-1.2187836805926722,1.0,0.4936450256311457,0.48710672798777055,0.41016476686613046,0.8232035994956906,-0.11423317079353537,0.33842867290002937,-0.4413078855254217
2.5,-11.377350515486745,-4.422193114227755,-9.258438309095165,-0.12649086333743353,0.11901663023424035,0.43177544992593514,-0.03413663582081786,0.048044328628591954,0.9982615868018415,-1.6416709058930212,-1.7787081080287142,4.134715872243843,-0.12115330301008477,1.372898669567995,-1.2189157644854944,1.0,0.49414040797373954,0.4876432437749332,0.4098535968023458,0.8232067222180721,-0.1142028328264181,0.3384123656406025,-0.44132241757124735
2.6,-11.636529735169253,-4.9094298729487225,-9.562179665366612,-0.1277386156785609,0.11096669781462011,0.4262548693165321,-0.03422411112940424,0.0482771317148478,0.9982474594202341,-1.6401674115594058,-1.7802369437485932,4.134438748589174,-0.1207955054121264,1.3732127097838702,-1.2190320879667635,1.0,0.49487336998176357,0.4884026550501443,0.409266504817485,0.8232929934180542,-0.11417648273115713,0.3383505932491094,-0.4412156545589217
2.7,-11.459889349157537,-4.738586061133577,-9.558675527924823,-0.11998414235614563,0.11516300078843578,0.42688496972696416,-0.034042542848861344,0.048016063944624626,0.9982662657856453,-1.6384739076106087,-1.781991004530089,4.134182039502973,-0.1204752015552167,1.3734850883483887,-1.2191265975977892,1.0,0.49514919269972896,0.48867177312370597,0.40919298378958013,0.8232513263436485,-0.11417387666022749,0.3383655534267381,-0.4412825985873631
2.8000000000000003,-11.45240171163773,-4.959140856700558,-9.354533870210012,-0.1354088670082458,0.11341116116782089,0.4276160970950819,-0.034277279879978126,0.04848941534696722,0.9982352150123646,-1.637230126435464,-1.7839701915607105,4.1339209393909515,-0.12012847567616612,1.3737386622156176,-1.2192290532983792,1.0,0.49582098109507594,0.4893749821747027,0.4089758212498361,0.8231766668370922,-0.1141688897702092,0.3384043827528089,-0.4413933772920736
2.9000000000000004,-11.502289210402001,-4.742316024598971,-9.560215872079823,-0.11975695415701346,0.11793065194194777,0.4245875980084093,-0.034462914453472604,0.0488506398513326,0.9982113404257247,-1.6360671915288925,-1.7853639033041935,4.133662691060929,-0.11978895122743229,1.3739732701418876,-1.219347311705816,1.0,0.49610319404992154,0.48967366651435146,0.40867492894156937,0.8232416208773641,-0.11416472876333818,0.33835674286424183,-0.4413098264483865
3.0,-11.63758990283555,-4.770860287968522,-9.608989442589,-0.12791924757133788,0.11479649036734212,0.42756903193552054,-0.03430584014360983,0.04854780457004814,0.9982315304292718,-1.6346653544008816,-1.7867698817924005,4.133412153899653,-0.11946661890063481,1.3741909369539675,-1.2194300541649141,1.0,0.4964581370535856,0.490019338066812,0.40842369038898674,0.8232544129916053,-0.11416354192383794,0.33835259747713137,-0.441289448056182
3.1,-11.714860894183854,-4.900872413492407,-9.584715817745591,-0.12591818844715558,0.11607266062382653,0.4267529736968594,-0.03422175875439674,0.04843851840483962,0.998239740670077,-1.6332035064697266,-1.7885585327186728,4.133159619417467,-0.11914282843650977,1.3744421185586075,-1.2195293799861573,1.0,0.4968884188049438,0.49043706365230333,0.4082701063385817,0.8232068764075748,-0.11416389531327636,0.33838379856775214,-0.44135410784203877
3.2,-11.613693664503522,-4.7848261757793145,-9.535085365008678,-0.12314302688475362,0.11705123053688521,0.4258691402318887,-0.034223941168994305,0.04842414945673261,0.998240363515808,-1.6320683087091221,-1.7901617022291894,4.132929964602958,-0.11886976206723981,1.3746593756070025,-1.2196550247427498,1.0,0.4973637641800734,0.49090248886068943,0.40806072427376466,0.8231810995117269,-0.11416116840680579,0.3384039117225018,-0.44138746874550727
3.3000000000000003,-11.747301662400846,-4.4594980351140805,-9.5181573164981,-0.11805653568429135,0.11478553202484669,0.42395762544663046,-0.0342562399742156,0.04845801136189493,0.998237607597598,-1.6309819146930549,-1.791431566277975,4.132689027106166,-0.11858343872761823,1.3748513837408936,-1.2197312631343915,1.0,0.4978921567474968,0.4914120840866616,0.40769127904919084,0.8232163219446348,-0.1141624928973283,0.3383885659794844,-0.44133319715806907
3.4000000000000004,-11.63247585718686,-4.661667775947818,-9.31300192532572,-0.12356429263252265,0.11319172079518787,0.4251857550321723,-0.0343193818252192,0.0485881327226914,0.998229108829781,-1.6299246369398397,-1.7928508499286813,4.132460933784322,-0.11834496501881181,1.375072233445906,-1.2198443974675333,1.0,0.49837504680873335,0.4918914266615738,0.4074039301234633,0.8232085323315215,-0.11415560354661089,0.3383878674887351,-0.4413500443094094
3.5,-11.750486803074226,-4.413135278251909,-9.536333824180913,-0.11974037023234757,0.11733625012836083,0.42483582394342717,-0.034369910574409,0.04868038656159922,0.9982228853860395,-1.6286249986684667,-1.7943244276766421,4.132244229529009,-0.11811335504565434,1.375256061553955,-1.219916686976466,1.0,0.4985833388987057,0.4921244842145515,0.40722467983356886,0.8232309371087912,-0.11416091134260539,0.33836819053226813,-0.4413219665327406
3.6,-11.853092933902932,-4.746954684860841,-9.549729596823198,-0.1251728407603117,0.12053628160621419,0.42858785569042246,-0.03438517754111983,0.04866677616983906,0.9982230229456269,-1.627479830993778,-1.795558841425369,4.13201482729701,-0.11787124810908098,1.3754330944794422,-1.219999564868981,1.0,0.49916831719353244,0.4926811778705433,0.4069243856161737,0.8232269927070396,-0.11415674359827814,0.3383917123077457,-0.44131236716298006
3.7,-11.884561509830455,-4.5345012187951115,-9.614369405314106,-0.1247139875342183,0.11917336285266124,0.4221557524021972,-0.03440044450783066,0.048653165778078905,0.9982231605052144,-1.6264867782592773,-1.796779702012339,4.131831589241329,-0.11762642290610574,1.3755932305800709,-1.2200396696673792,1.0,0.4993466133186674,0.4928535203024709,0.40683284714442003,0.8232162314102107,-0.11415783559580003,0.33840350907742067,-0.44132311287642845
3.8000000000000003,-11.791556139394995,-4.796757350510074,-9.568170850268116,-0.124927867664135,0.12117487819733389,0.4247278321537169,-0.03439964169071318,0.04862897341337645,0.9982243664957201,-1.6255460397051886,-1.798056335275219,4.1316044412650825,-0.11741695178077052,1.375781190782511,-1.2201876042930169,1.0,0.4996356415714357,0.4931278443490753,0.40668444166043405,0.8232061380489466,-0.11417876621631026,0.33840717964830946,-0.4413337109108446
3.9000000000000004,-11.626200728088666,-4.913517777296291,-9.386411895554582,-0.12725844991549126,0.11008645606291464,0.4284576297008173,-0.034351103900586245,0.04857334750867222,0.9982287462390028,-1.6245370646311754,-1.799289301552652,4.131402313731747,-0.11719461136519609,1.375974178314209,-1.2202313582049769,1.0,0.5002238365761384,0.49372143613875313,0.4062628459492641,0.8232530487480155,-0.11415498581993531,0.338368680324649,-0.44128187489959686
4.0,-11.58662882182317,-4.89060428504692,-9.43883284990649,-0.12408265562198724,0.11458590401529253,0.4257469564865546,-0.03427263489416549,0.04843567392334543,0.9982381170798695,-1.6234947763912007,-1.8003836359798742,4.131225913856881,-0.11699898660693364,1.3761529922485352,-1.220313134586673,1.0,0.5003928122138811,0.4938700229866,0.4061792272735904,0.8232452111984178,-0.11417245934463909,0.338367995509154,-0.4412925009346824
4.1000000000000005,-11.468227037562725,-4.939513496937063,-9.493694249257924,-0.12543479181222383,0.11873628031355701,0.42982817805652485,-0.03418385172828245,0.04826972708466525,0.9982492078300065,-1.6224660873413086,-1.8016366598899474,4.131012043682083,-0.11680777490649419,1.3763377110683037,-1.2203677639988357,1.0,0.5006798593659737,0.4941426643472539,0.40609052686210023,0.8232061457284847,-0.11417275057324047,0.33840171606472896,-0.44133944218236343
4.2,-11.569504050558269,-4.738532951331341,-9.48072369340264,-0.12501280730377473,0.11332105261898123,0.4261801516979625,-0.03435009952117582,0.04854131889373974,0.9982302663458337,-1.6214258899103624,-1.802990905889977,4.130798816680908,-0.11655963630138662,1.3765456037361257,-1.2204355589797826,1.0,0.5011156716645858,0.49455084160739726,0.4058600846559014,0.8232035403484531,-0.11417746904434303,0.3384139717248442,-0.44133368380604837
4.3,-11.597634046939675,-4.710091616929272,-9.460319456360777,-0.12424349388795827,0.1183218875823278,0.42358149745757706,-0.03450596132251771,0.04880065603667318,0.9982122846674172,-1.6205130913759456,-1.804154500375599,4.130599622385631,-0.11637340851403037,1.376733399846046,-1.2205184141742151,1.0,0.5013914621862894,0.49483245826534766,0.405652630645444,0.8232233400982945,-0.11419127291501005,0.33838380416159186,-0.44131631126504595
4.4,-11.55521263650439,-4.797422871187286,-9.407945178277043,-0.12425781977155122,0.11937449293707658,0.4214120574827497,-0.03429015643451638,0.04844201090369716,0.99823713998127,-1.6194550250063557,-1.8052432915865282,4.130443344198382,-0.11614826387396433,1.3769316673278809,-1.22060608773076,1.0,0.5016951993029011,0.49512961287866886,0.4054316095696502,0.8232464251483005,-0.11418874021047595,0.33836250278248436,-0.4412902353332345
4.5,-11.665601923395934,-4.664749883879195,-9.325065638478884,-0.12106805546549997,0.11899664747507417,0.4184952906581617,-0.03414742066237183,0.04820851270968791,0.9982534077512049,-1.618365604782615,-1.8064052067198695,4.130190665566119,-0.115944344125374,1.3770879247006107,-1.2206708302781477,1.0,0.5020943968221273,0.49551460871396963,0.40525274725051436,0.8232264010493376,-0.11418073499107544,0.33837497821506024,-0.4413200952712334
4.6000000000000005,-11.746020299858579,-4.687037479601129,-9.413171103864716,-0.12306656577889845,0.11703400045960484,0.4204978761909461,-0.03427636378322845,0.04844032439992061,0.9982377461020161,-1.6173892410672628,-1.8077580656873755,4.130055904388428,-0.11573753940881777,1.3772244963508387,-1.2207754804103077,1.0,0.5024370223089976,0.49583092731827666,0.4051363287448996,0.8231911341444982,-0.11418662210361123,0.33840462148172323,-0.4413616251536526
4.7,-11.513247503570994,-5.013621998245656,-9.558061075926405,-0.12950765664680583,0.11284413823948927,0.4252754692045353,-0.03437765673424171,0.048613800019744406,0.9982258632508427,-1.6164346877616347,-1.8090946436958668,4.129890555528968,-0.11550801133231704,1.3773980140686035,-1.2208154263777173,1.0,0.5028521964476721,0.4962787126460513,0.40473896467636344,0.8232604334301755,-0.1141652869761348,0.3383573823711904,-0.441274095991293
4.800000000000001,-11.734445244472871,-4.8055880565873705,-9.548739882680957,-0.12720673036782312,0.11888744401609834,0.4229759154961761,-0.03437107247578099,0.04855967730932137,0.9982287233899434,-1.6154966354370117,-1.8100361431169127,4.129688694102982,-0.11532642145159167,1.3775784837836684,-1.2209143696441194,1.0,0.5030480698319564,0.49647983371335436,0.4045748254134437,0.8232792490071874,-0.11417768421374547,0.33835482489693747,-0.44123774436318436
4.9,-11.837695893837902,-4.619008211817825,-9.564872769149433,-0.1267107396271212,0.12048721678808408,0.4242298616787973,-0.034377547744761504,0.04855671461632121,0.9982286370950408,-1.614381656317047,-1.8111718613733598,4.129525795312592,-0.11514256709011038,1.377735024787441,-1.220959124860407,1.0,0.5033414325598111,0.4967527521092276,0.4044387175732378,0.823258773529687,-0.11417565091123649,0.33837048995447166,-0.441264460469413
5.0,-11.6533429309519,-4.828936987088377,-9.66374019752818,-0.12704061255565402,0.11730864159939491,0.42706915306473525,-0.03444058827076816,0.04877534336665685,0.9982157887919069,-1.6131989122999646,-1.81224970589254,4.129307477842174,-0.11494387541342793,1.3778878397467778,-1.2210355546574665,1.0,0.5038185522459313,0.4972227594609059,0.40434714331051175,0.8231753472811497,-0.11418659609327678,0.33841064197610166,-0.4413864591245551
5.1000000000000005,-11.84495574772263,-4.376911018979532,-9.668791421355667,-0.12465988182758743,0.11581999907008497,0.4230063264258226,-0.034484818754947,0.048931397672954395,0.9982066446827891,-1.6123246781140772,-1.8137639665145406,4.1291516535716575,-0.11474310966330598,1.3780521325939659,-1.2211131352714506,1.0,0.5039858497755041,0.4974173939731534,0.40434118856715495,0.8231339653887033,-0.11416476725255695,0.3384298912575536,-0.44145451594138085
5.2,-11.681589096727565,-4.439219545206894,-9.39892184553746,-0.12395338530075932,0.11227505876802166,0.42171207773349223,-0.03444155667040876,0.048796394739982984,0.9982147301711644,-1.6114094442059474,-1.8150241389517416,4.128981370322891,-0.11454998250767391,1.3782325481475382,-1.2212114094611104,1.0,0.5043169521889941,0.497751291318183,0.4039828445682933,0.8232151726853282,-0.11416505251292022,0.338393002117204,-0.4413312773455935
5.300000000000001,-11.470555338625346,-4.651604772930582,-9.21074896614944,-0.12898754236591703,0.10993581724023535,0.4265248267470793,-0.03439829458587052,0.048661391807011574,0.9982228156595395,-1.6104621262355991,-1.8160004041777518,4.128777876321787,-0.11436894951892435,1.3783971845916783,-1.221271816884176,1.0,0.5047847125928527,0.4982244714103783,0.4035420911183002,0.8232842204742217,-0.11417816624989122,0.3383503555377548,-0.4412317708160192
5.4,-11.398089720955115,-5.027701826166157,-9.383275714696962,-0.13244832990709823,0.11111786058327945,0.42631200688441945,-0.034297383004888334,0.048435689841757855,0.9982372142791027,-1.609316937097303,-1.8170686725309821,4.128604382764017,-0.11419254815485995,1.3785278814293942,-1.2213516444358652,1.0,0.5049793244109965,0.4984119371358144,0.4034863156075509,0.8232584831209354,-0.1141789113547936,0.33836038114267686,-0.44127191010105454
5.5,-11.394638175443307,-5.070566660021629,-9.562415390575417,-0.13229081878385077,0.11439520934759109,0.42356154211882274,-0.033908414503275724,0.04775679252259846,0.9982831576864217,-1.6081646820909972,-1.8183514080443324,4.128419451862216,-0.11402203962752985,1.3787540600454207,-1.2213976492932,1.0,0.5054099203450066,0.4987903942381469,0.40343921932392446,0.8231723000414368,-0.11418765831463672,0.3384326064533496,-0.44137502650501453
5.6000000000000005,-11.430026064107007,-4.809379257532184,-9.573995293384666,-0.13321271270884502,0.11252189252479351,0.41862852777092097,-0.03384319548201183,0.047699239747967824,0.9982882224026282,-1.607156351459861,-1.8196259755009998,4.128234901503811,-0.1138115495116443,1.378904636715646,-1.221511189137594,1.0,0.5056198493826223,0.49905127292113816,0.4033429107471489,0.8231648631539218,-0.11415376748865431,0.3384280222422858,-0.44140117715985594
5.7,-11.454385176266124,-5.00704750398595,-9.653354279388905,-0.12831243332187048,0.11020900925512223,0.4207856627059848,-0.033940417665368164,0.04792913857288425,0.9982739325789477,-1.6062221433873287,-1.8209463558592738,4.128077030181885,-0.11359675348315434,1.379040737369948,-1.2215831915484827,1.0,0.506111458045393,0.49955780703291414,0.40297920489725814,0.8231982663802083,-0.11416026887697567,0.33839483877394055,-0.4413626403873746
5.800000000000001,-11.413873601633437,-4.904536483439467,-9.40435049964716,-0.12377219738133742,0.11283479984506121,0.42218645709930597,-0.03400330079157995,0.04795357419666602,0.9982706174979521,-1.6053586087954694,-1.8219963128408978,4.12787993040093,-0.11341092317235617,1.379247150127376,-1.2216304663135908,1.0,0.5063308578888122,0.4997639960860998,0.40275502134004715,0.8232425462027176,-0.11417261117691524,0.33837106087951047,-0.4412950828391201
5.9,-11.622834060610673,-4.910952972138685,-9.43250563983761,-0.13198385480855743,0.11882850628911719,0.42401227367351113,-0.03409021198960241,0.04804520430828745,0.9982632202569527,-1.6042904036723624,-1.8230916920725346,4.127703240869143,-0.11324725735583602,1.3793954542338878,-1.2217028776751917,1.0,0.5066287796626376,0.5000292131988505,0.40255641232052036,0.8232552377502522,-0.1141745184563281,0.3383782376160611,-0.4412654089772845
6.0,-11.73181371145594,-4.656744843298414,-9.519561623088457,-0.12822308714677044,0.11530897703517656,0.42463371953847645,-0.034322787016060764,0.048544183225324083,0.9982310760009138,-1.6031255722045898,-1.82443909267568,4.127538204193115,-0.11311323297534184,1.3796089248657226,-1.2217921415912074,1.0,0.5070173098005469,0.5004295269322192,0.40241648032947114,0.8232173906189255,-0.1141673103324203,0.33839136798373615,-0.4413278091261915
6.1000000000000005,-11.602980087189142,-5.033652456156407,-9.598999774253436,-0.13106725668328217,0.11796997822863353,0.42853629852281006,-0.03428973230565454,0.04852031827931105,0.9982333513293664,-1.6019786086386822,-1.825684642060264,4.1273254994331525,-0.11289514657033851,1.3797413359297084,-1.221857030890316,1.0,0.5073075808967663,0.5007432308808996,0.40227240710436246,0.8232025411003622,-0.11416758168618808,0.33838717063371354,-0.44135865502824806
6.2,-11.715339892634615,-4.765180130871947,-9.568445020254941,-0.12058681099124098,0.11777202158549444,0.422708358649429,-0.034102550872113495,0.04819308288888095,0.9982555979826863,-1.6010350327541707,-1.8268085377789804,4.127182440998667,-0.11268780508194826,1.3799396643283113,-1.2219060103045862,1.0,0.5077242968149527,0.5011311680206694,0.4020160442035703,0.8232146335922997,-0.11417936277500275,0.3383904278998726,-0.4413305546430376
6.300000000000001,-11.553892947553628,-4.767418892318048,-9.528143438561596,-0.12818606672860658,0.11386594312665485,0.4223329260556608,-0.03393084963006848,0.047892325060963706,0.9982760227284743,-1.6001649478433573,-1.8279729438295331,4.1270222663879395,-0.11251814783129888,1.3801154020753543,-1.2219621926962323,1.0,0.5079739015324519,0.501395319148244,0.40188875354334547,0.8232016429317996,-0.114161816149226,0.33839188695073863,-0.44135820560380923
6.4,-11.384227975795737,-4.881706614716593,-9.412095824409798,-0.13375345582874984,0.11120058005887051,0.424717348195143,-0.033868047301455165,0.04777782964386405,0.9982836308530576,-1.599131923248575,-1.8292031303346554,4.126746753953222,-0.11231329533069707,1.3803054776995936,-1.2220482952551563,1.0,0.5082337364445375,0.5016497648715559,0.4016786114220859,0.8232292822816629,-0.1141508921575013,0.33837363491937505,-0.44132347071633765
6.5,-11.49796410301404,-4.870527998721312,-9.440426861893728,-0.13360375838559313,0.11404485531615591,0.4206812323639586,-0.03380524497284184,0.047663334226764394,0.9982912389776408,-1.597941688542712,-1.8303864320299708,4.126622323370281,-0.11214427572077873,1.3804557126205426,-1.2221321862541372,1.0,0.5085839810749764,0.5019762223769948,0.4014480196949687,0.8232430124639687,-0.11416088591379979,0.3383612284299523,-0.4413047854397232
6.6000000000000005,-11.46823050789563,-4.876374090505776,-9.303118432415891,-0.12611455642353311,0.11454658351314681,0.4216013393973155,-0.03392319169863684,0.04788629076772506,0.9982764693225861,-1.5969035746265985,-1.8316091082225328,4.126431409861398,-0.11205797030455482,1.3806343631488556,-1.2222019295111515,1.0,0.5088786301348192,0.5022701516910908,0.40131465440316283,0.8232267219654461,-0.1141591891225347,0.3383666845851532,-0.4413314293631976
6.7,-11.418043588684816,-4.559167989553289,-9.430415273565991,-0.12087614548082637,0.11134871243499019,0.41846590187727584,-0.03415651080721092,0.04832464338144708,0.9982474158984317,-1.5957946953192608,-1.8328026352682871,4.126194727233678,-0.11188623844295427,1.3808171368003708,-1.2222627846526477,1.0,0.5091247749427069,0.5025332980485568,0.40122549906334515,0.8232045203841704,-0.11414088476446554,0.3383801999653035,-0.4413672125517415
6.800000000000001,-11.676902894285991,-4.529687062781773,-9.377135202709084,-0.12274760242772662,0.11606091277641503,0.4200909815618695,-0.03423092070851823,0.04844638131398762,0.998239042016322,-1.5948641626475244,-1.8340994645359925,4.126059044811313,-0.11167224922970295,1.38097872507106,-1.2223636437120085,1.0,0.5097245540018083,0.5030999785163986,0.40089901837352926,0.8232029919123698,-0.11414565304703361,0.33839371945064944,-0.4413584650070101
6.9,-11.669390538637886,-4.869952199455068,-9.430822701276895,-0.12693906631202084,0.11707970922981642,0.420240017212849,-0.03420062923472612,0.04835950960668069,0.9982442933767375,-1.5938666142128053,-1.835282317156023,4.125839444289392,-0.11149270726715643,1.3811372529816561,-1.222406414352789,1.0,0.5100372120025919,0.5034098994044346,0.4006308173829021,0.8232427791929833,-0.11415182880485013,0.33837054055091154,-0.44130042349221127
7.0,-11.682043685974618,-4.775491059819031,-9.58099100297428,-0.12292056129746622,0.12033023142748861,0.41952624849033804,-0.03417686309327984,0.048321945134687516,0.9982469289737279,-1.593276023864746,-1.8358380468601658,4.125744753090905,-0.11136538558861013,1.3812123010472788,-1.2224446977000893,1.0,0.5102259706554344,0.5035924569979247,0.400493745206786,0.8232543933612346,-0.11415958993124434,0.33835386995971106,-0.4412895313979732
7.1000000000000005,-11.733824642134612,-4.636800555612999,-9.563309167800066,-0.13220845295059533,0.12093883843880023,0.4196153163264061,-0.03415756424837841,0.04831813680418716,0.9982477737974227,-1.5932905506631518,-1.8358236996373174,4.125746866319354,-0.11135500220463915,1.381262080715022,-1.2224562803851526,1.0,0.5104263563497579,0.5037814559637255,0.40041245183458646,0.8232357501527726,-0.11415915199775808,0.3383601134456031,-0.44131963622145054
7.2,-11.768279819642188,-4.779159714238723,-9.434221348368284,-0.1267656406238886,0.12174798449539806,0.41858269509153834,-0.034149011911824595,0.04832938752715862,0.9982475164138003,-1.593276023864746,-1.835831210072039,4.125729084014893,-0.11134512842211919,1.3812465195136092,-1.2224682013141077,1.0,0.5105094611163706,0.5038635389670986,0.40038584352040363,0.8232226697759499,-0.114145392927403,0.3383760167564992,-0.4413354013949156
7.300000000000001,-11.669963270968744,-5.082333356762664,-9.40922078939153,-0.1348646999586212,0.12028391133033144,0.41777791477257087,-0.0342654711371135,0.04851581661816272,0.9982344373160241,-1.5932470469829703,-1.835841795007223,4.125743012729037,-0.11134037467301379,1.3812327482431908,-1.2224682013141077,1.0,0.5105137600910838,0.5038625273706876,0.4003775101129205,0.8232245457821049,-0.1141475778115319,0.3383792597874867,-0.4413288504587931
7.4,-11.78471319020862,-4.868402331404178,-9.41441982084425,-0.12952467957645888,0.12186207372405734,0.41985613413881273,-0.0343819303624024,0.04870224570916683,0.998221358218248,-1.5932629807925065,-1.8358661137022914,4.125730682995335,-0.11136563907077374,1.3812370366801487,-1.2224476906654531,1.0,0.5105243573309899,0.5038555276738313,0.4003709294777139,0.8232254461522053,-0.11416874170393095,0.3383759629168446,-0.44132422429019463
7.5,-11.561191339885417,-4.890473269416016,-9.527720778562479,-0.1278859502561998,0.11884402486407772,0.41886349904517706,-0.03449558146728356,0.048879846640029645,0.9982088031305479,-1.5932705933532172,-1.8358871271687802,4.125731799270657,-0.1113747401985287,1.3812403678894043,-1.2224738580969503,1.0,0.5105248111213825,0.5038650923063032,0.40040069394071476,0.8232043983613713,-0.1141688096852707,0.3383908618312664,-0.4413520432065929
7.6000000000000005,-11.502307947980517,-4.8510189649348945,-9.36414786638309,-0.12842856758926294,0.11741498533955735,0.4146931501991775,-0.03456974337640989,0.048933301560979664,0.9982036169350144,-1.5932418051749602,-1.8358389682823366,4.125727351785546,-0.11138317245171182,1.3812201348426325,-1.2224920431720179,1.0,0.5105476906065874,0.5038487643686343,0.40039560138556235,0.8232099018955202,-0.11417159932555705,0.3384038640205082,-0.4413310867643495
7.7,-11.297997186158605,-4.80923681619368,-9.429390243811389,-0.12825796109578144,0.11153467242292647,0.41982702693322804,-0.0346959970466336,0.04913357217921155,0.9981893482702655,-1.593235673992242,-1.8358572418223877,4.125742489249622,-0.11137263720168748,1.381226962654675,-1.2224682013141077,1.0,0.5105566652068126,0.5038567161206163,0.40036705535457984,0.8232189788587763,-0.11419058849219997,0.33838750274312906,-0.4413217877397262
7.800000000000001,-11.310879833776788,-4.677965846717142,-9.285400281248824,-0.1259284640013201,0.10986777994248326,0.42401697134365746,-0.03486402486874142,0.049451579289894874,0.9981677960650779,-1.593276023864746,-1.8358656368651332,4.12572402109098,-0.11141068585344502,1.3811851360950624,-1.222500773517031,1.0,0.5105354094164931,0.503875837082664,0.40035278280596753,0.8232336283983576,-0.1141595178849734,0.3383848372004685,-0.4413045428082037
7.9,-11.599210331461384,-4.658319596849535,-9.430373645379492,-0.12537646396843877,0.11897559437784132,0.42241729661182,-0.03489407752145956,0.04951603604483102,0.9981635848711392,-1.5932340051960872,-1.8358687671809775,4.125729084014893,-0.11137812043403568,1.3812165260314941,-1.2224592903042337,1.1074124241884566,0.5105347973652726,0.5038686562631954,0.4003696606624518,0.8232252216435765,-0.11416184238018123,0.3383870575752248,-0.4413179210725854
8.0,-11.60381193016914,-4.862199469787077,-9.572267358900792,-0.12912492792784624,0.1162407382801753,0.4203469359224806,-0.034808660529891566,0.04936829976883084,0.9981738861464322,-1.593274259167142,-1.8358637986384623,4.125729084014893,-0.11137088203576712,1.381220202484836,-1.222478284016392,2.0,0.5105371822385777,0.503864490400328,0.4003966703369205,0.8232088707659275,-0.11417824439733229,0.3383954120168422,-0.4413377716948562
8.1,-11.459225381740097,-4.992146097737814,-9.512828634694612,-0.126465343122677,0.12027339854784162,0.42548277357686887,-0.03464098939533824,0.04906266559928841,0.9981947323476387,-1.5932531356811523,-1.8359122213187307,4.125717639923096,-0.11140363380467173,1.3812339374039297,-1.222503964100973,2.0,0.5105433124834401,0.5038592181573969,0.4003948332379199,0.8232078629850443,-0.11417775248658334,0.3383990306820288,-0.44133700410250254
8.200000000000001,-11.721852025497423,-5.05037295583834,-9.483274684485748,-0.13145956231769043,0.11016689080177221,0.4249112308576835,-0.03440571424245715,0.04862732561153038,0.9982242381957803,-1.593272513380958,-1.8358881271832286,4.125710654152822,-0.11139146059812476,1.3812182812733882,-1.2224700296910807,2.0,0.5105427053392896,0.5038612256371356,0.40036204043649926,0.8232236603600755,-0.11418238808262504,0.3383897404918892,-0.4413134609378455
8.3,-11.481009725020186,-5.131650835258038,-9.576148504816327,-0.13553167928654458,0.11490764182439618,0.42332935043045655,-0.03436791483397783,0.04857386509690489,0.9982281389126824,-1.5932660693807883,-1.835881137980911,4.125722232880599,-0.11134984551360932,1.3812387541475788,-1.22246975298894,2.0,0.5105515787621465,0.5038524907835191,0.40034979106119967,0.823231768178003,-0.11418474456613818,0.3383875060432814,-0.4412994399777691
8.4,-11.730674623185397,-4.693096641666153,-9.767623936338904,-0.12756915956270926,0.1215241840875438,0.4163594355989397,-0.03433011542549851,0.048520404582279394,0.9982320396295844,-1.5932468525319785,-1.8359005074893509,4.12573977663643,-0.11136545297031292,1.381223560650927,-1.2224871568624958,2.0,0.510531192871972,0.5038726769281597,0.400386098329687,0.8232139009813156,-0.11415641228037726,0.33839783325640194,-0.44133218012486897
8.5,-11.660380542540826,-5.0819545570535825,-9.561942259975508,-0.1397189552963625,0.11488863095605246,0.4195078594209775,-0.03429398510037603,0.048469551363166274,0.9982357559687616,-1.5932208507807017,-1.8358780346312464,4.125721594646668,-0.11138960705358628,1.3812330040463814,-1.2224838041645743,2.0,0.5105398442399968,0.5038736597270362,0.4003705517283053,0.8232262131875747,-0.11415944739621167,0.3383915719131979,-0.4413132295197512
8.6,-11.551097802404248,-4.9103089651339324,-9.421841251077147,-0.1355840693894632,0.114918115784638,0.42145110996516527,-0.03436236865867868,0.04858196055879015,0.9982279270295364,-1.5932247244328501,-1.8358937219311136,4.125725468298817,-0.11137745102039402,1.3812116610072052,-1.222475734055932,2.0,0.5105434280682429,0.5038630390043283,0.4003647839622239,0.8232289084684793,-0.11416810445486256,0.3383845712982984,-0.4413113301222237
8.700000000000001,-11.712841654991715,-4.765993755596206,-9.350547792559913,-0.14095809372540333,0.11436491953479075,0.41998098130120454,-0.03443075221698133,0.04869436975441403,0.9982200980903113,-1.59322692296987,-1.83589738875548,4.125751390595492,-0.11140072217037611,1.3812358801557276,-1.2224755824550233,2.0,0.5105456288407161,0.5038551094773795,0.4003803497156214,0.8232185506169543,-0.1141780747028856,0.3383893768007846,-0.44132438732256785
8.8,-11.589744456886308,-4.670688453629664,-9.281284170884405,-0.13368775977546726,0.11313183691178241,0.42132890141223334,-0.034427929187058434,0.048693951103644245,0.9982202109723199,-1.5932222583623847,-1.8358762823041295,4.125717639923096,-0.11136897028002934,1.3811995453981842,-1.2224682013141077,2.0,0.5105457303688751,0.5038559452153034,0.4004020419762873,0.8232055434756705,-0.11418169669840754,0.3383979127293401,-0.44134116734157575
8.9,-11.653699949914145,-4.649157386298817,-9.34469201755077,-0.12654583517149362,0.11012125557541064,0.42509935660346904,-0.03435459089435317,0.04858180002142561,0.998228188570575,-1.5932397842407227,-1.835904588016423,4.125735321974338,-0.11138775745947412,1.3812253670571153,-1.2224947546992844,2.0,0.5105344285439671,0.5038665829859951,0.40037922290068784,0.8232191408189345,-0.1141676998669981,0.33837904606607994,-0.4413338913791055
9.0,-11.837787451010895,-5.0940973254520925,-9.324056168637066,-0.10252401777036287,0.09666253948095407,0.4188480324453934,-0.03428125260164792,0.04846964893920697,0.9982361661688303,-1.5932269258465275,-1.8359004683558844,4.125715008004555,-0.1113918808418256,1.3812248028213756,-1.2224801222430628,2.0,0.5105292782545573,0.5038652619243077,0.4003674161344983,0.8232254249242255,-0.1141817578546576,0.3383784352256982,-0.4413190008437847
9.1,-12.854573278108447,-5.980366214919903,-8.931052605677696,-0.06914640637554029,0.01189804857709717,0.41255465424348664,-0.034207914308942655,0.04835749785698834,0.9982441437670854,-1.5932312779254223,-1.8358957561214553,4.125734652553696,-0.111372152871234,1.3812433056659008,-1.222444679262645,2.0,0.5105310247054016,0.5038754475748136,0.4003940652007715,0.8232163442855515,-0.11415809334462867,0.33839133315749687,-0.4413321718036694
9.200000000000001,-13.561003897052844,-6.4530134995389545,-8.67727140624684,-0.04331269773826412,-0.04891619791887564,0.414897877324991,-0.03421285810416845,0.048426435027722085,0.9982406301652341,-1.593220472977891,-1.835897407478456,4.125721216843858,-0.11136258921214152,1.3813041434681501,-1.2224682013141077,2.0,0.5105356571475543,0.5038679786323723,0.40039900716683563,0.8232130458020304,-0.11415802747336866,0.3383869411087832,-0.44134170896457825
9.3,-13.847459086571579,-6.4537377929717445,-8.480952845364655,-0.026402321469464883,-0.08588362011361628,0.40757279758421144,-0.0342183443851425,0.04849662711894912,0.998237036930705,-1.5931833033688956,-1.8359018764891566,4.125735754293084,-0.11137167015453528,1.3812531354490962,-1.2224920431720179,2.0,0.5105266482439853,0.5038902637103526,0.4003749904683974,0.8232277972017343,-0.11413679975261973,0.3383670470138071,-0.441334936699744
9.4,-14.038757847162524,-5.622352202003699,-8.237934985231417,-0.06153386812264665,-0.10285988845708244,0.4139083696762149,-0.0343876246231407,0.048704739014124476,0.9982210498249561,-1.5932336455094065,-1.8359137974181117,4.125748282095085,-0.11136990464762386,1.381216049194336,-1.2224894925179406,2.0,0.510538892320663,0.5038799797554685,0.40035844803148557,0.8232276906933025,-0.11415389471717177,0.33837920501289975,-0.4413213921979214
9.5,-13.557166829373722,-5.421990472904878,-7.32827925210173,-0.100527895291008,-0.08723820739309286,0.416782518817814,-0.034559686802682205,0.048915193393963004,0.9982048522167818,-1.5932531356811523,-1.8359099564510193,4.125752925872803,-0.11140136893696041,1.3812122082272436,-1.2224564793989916,2.0,0.5105435846766494,0.5038750222683075,0.4003654452755257,0.8232249467214325,-0.11416704032634406,0.33839461077270766,-0.44131129761043414
9.600000000000001,-13.274207681789456,-5.294836672498037,-6.998033382393852,-0.11939487810184007,-0.07192983506458987,0.4174361559339903,-0.03482358770704501,0.049361269265982596,0.9981735149303386,-1.5932615155388208,-1.8359178696239928,4.125752925872803,-0.11139123271272201,1.3811843586133519,-1.2224811302148155,2.0,0.5105340392126274,0.5038859321122685,0.40036689194224784,0.8232281157665894,-0.11415409406740123,0.3384002592083685,-0.4413044037699499
9.700000000000001,-13.325149525873739,-4.637125785543364,-6.6653410615468625,-0.10238788791116833,-0.053267239668670516,0.4147392388465554,-0.035090663194107585,0.04981548984944313,0.9981416543117084,-1.5932570039641205,-1.8359278136670079,4.125744718746572,-0.11138136804614263,1.381249877839717,-1.2224562803851526,2.0,0.5105460232420374,0.5038786417396108,0.4003466621462951,0.8232333985770849,-0.11416660170444931,0.3383880057241496,-0.4413007093859166
9.8,-12.936169301894061,-4.90125242025275,-6.602582163608175,-0.10374968289976354,-0.045984744565921935,0.41863343340081755,-0.03508479095500851,0.049801328079383415,0.9981425578172012,-1.5932287999025232,-1.8359233183782373,4.12575042990522,-0.11137887207855995,1.3812041282653809,-1.222499164163314,2.0,0.5105431868882736,0.5038805521201032,0.40033979125487457,0.8232397241180123,-0.11415888835619725,0.3383814939751796,-0.44129589775852385
9.9,-13.029855712825249,-4.851340125220921,-6.783447032982457,-0.12248423938749572,-0.03810737062889985,0.41984434302526613,-0.03474813245683571,0.04921953217396787,0.9981831682739217,-1.5932370301770613,-1.8359137974181117,4.125748580858735,-0.11138554594428465,1.3812205368137105,-1.2224759443449207,2.0,0.5105397444484968,0.5038768528872161,0.40033758710755146,0.8232362657017861,-0.1141647773862165,0.33838212156070124,-0.4413003447152658
10.0,-12.950872691535347,-4.807551533016925,-6.904407151946738,-0.12844186200965663,-0.034779154090425396,0.42384910417582483,-0.03446871032526285,0.04874930610959348,0.9982160628486311,-1.5932620358125171,-1.8358899555602015,4.125752925872803,-0.11137172623716404,1.3812307260804257,-1.2224496593737644,2.0,0.5105516482931793,0.5038658909849901,0.40032932008433586,0.8232392014125962,-0.11417955626081745,0.33838317637673354,-0.44129023571208337
10.100000000000001,-12.950057111687483,-4.683669133165011,-7.102166498691821,-0.12504535225351027,-0.036510663082046084,0.4182496509418983,-0.034261581668069245,0.048420000441183116,0.9982392117327659,-1.5932604929935916,-1.835893565502401,4.125744566133189,-0.11138913348171987,1.381227970123291,-1.222475966749685,2.0,0.5105431594482847,0.5038788265052349,0.40033148087004017,0.8232432547370194,-0.11416542860777282,0.3383744398588385,-0.4412930283734602
10.200000000000001,-13.031207370624994,-4.346089521111806,-7.073822503597747,-0.12044355530400927,-0.03337188451334609,0.41714766933795916,-0.03417624780942201,0.04829307603128861,0.998248341716143,-1.5932319204416034,-1.8358821303599544,4.125725503722215,-0.1113808379598256,1.3812396886242257,-1.2224682013141077,2.0,0.5105410985298744,0.5038814979449061,0.40035796636276605,0.82322911942452,-0.11416689223674728,0.3383786899172638,-0.44131575981196114
10.3,-12.989753266145495,-4.487414526399327,-7.039330409220966,-0.131573224944916,-0.02909142108424894,0.4238626122308233,-0.034249127796618845,0.04842904886839247,0.9982392608708981,-1.593264751557433,-1.8359137974181117,4.125725174545548,-0.11136897028002934,1.3812518119812012,-1.2224838984442168,2.0,0.5105377580282178,0.5038798751765492,0.4003696727701928,0.8232200998895346,-0.11416965824992317,0.3383820053620733,-0.44132932682986536
10.4,-12.670050700843134,-4.5563617551742945,-7.1533468818628245,-0.13441569709408502,-0.03550483730855187,0.4232599483709024,-0.03443492414527428,0.04874988570116579,0.9982172122847383,-1.5932483751800666,-1.8358984564549976,4.125729084014893,-0.11140520990405278,1.3812274465293142,-1.2224383498011187,2.0,0.5105366716700495,0.5038790295931599,0.4003673833823709,0.8232195575557283,-0.11416168007316235,0.3383871501398016,-0.44132845759240064
10.5,-12.958214410076572,-4.464980544494195,-6.921983321228345,-0.13090524481690824,-0.02884222642775885,0.41953068483149664,-0.03451256810574014,0.04887813431550128,0.9982082888684466,-1.5932180302207841,-1.8359084276047115,4.12572279494396,-0.11135049823551939,1.3812518119812012,-1.2224404932473427,2.0,0.5105415240379052,0.5038737126075188,0.40036937104542997,0.8232184602881313,-0.11415412785288552,0.3383970737644982,-0.4413248488388235
10.600000000000001,-12.741323188665927,-4.783231240593022,-7.081136306421013,-0.1376534946407257,-0.03203641246527012,0.41946103416114866,-0.03442565663946609,0.04871516946503153,0.9982192533371983,-1.5932191140124405,-1.835887139371199,4.125726623266516,-0.11136290045339427,1.381227970123291,-1.2224682013141077,2.0,0.5105400945025219,0.5038646685865733,0.40038266261281785,0.8232146574032417,-0.11415855273877798,0.33840000376195184,-0.4413285512256845
10.700000000000001,-12.981621537625667,-4.6664931318735245,-6.9798656631762395,-0.13025097202876115,-0.03795050759558559,0.4166411740267647,-0.03436743233464126,0.04861122993181168,0.9982263406392647,-1.5932468377339024,-1.8359155450395959,4.125742888209431,-0.11137588812910959,1.3812368411428144,-1.2224869044480435,2.0,0.5105561422899335,0.5038647817952197,0.4003376573141104,0.8232342370786361,-0.11417645635714851,0.338384283012967,-0.4412994501753659
10.8,-12.979722731704996,-4.666377656912273,-6.934298844316377,-0.1276227818836693,-0.03930478277940444,0.4184934946184021,-0.03435084643014393,0.04859296355916083,0.9982278003710031,-1.5932299603587425,-1.835908734262434,4.1257511706455015,-0.11136897028002934,1.381218146241311,-1.2224545926665935,2.0,0.5105523764910362,0.5038795526417993,0.4003391897786052,0.8232280301975882,-0.11417740807794838,0.3383793759793171,-0.4413145450735203
10.9,-13.06522955705998,-4.7655552960454415,-7.08109899890769,-0.1284167076765429,-0.03477310302901801,0.41828887309967777,-0.03433426052564661,0.04857469718650999,0.9982292601027414,-1.5932375539561356,-1.8359182271331165,4.125733336541297,-0.11136147906607906,1.3812429525511916,-1.222469569530167,2.0,0.5105424387991834,0.5038810436065813,0.40035974169348854,0.823225489501584,-0.11416804389895452,0.33838133591879677,-0.4413202042610039
11.0,-13.070888667360569,-4.665091839734171,-7.12759826150629,-0.1297750271518643,-0.03564267261708288,0.42120706302363753,-0.03431767462114928,0.04855643081385914,0.9982307198344798,-1.5932602940405098,-1.835916789737818,4.1257439972635535,-0.11138882467047324,1.3812165260314941,-1.2224652089944015,2.0,0.5105440108605557,0.5038763501336353,0.4003662324702741,0.823221023712347,-0.11416968785839846,0.3383799741938078,-0.4413291533050012
11.100000000000001,-13.130916128771709,-4.658224546611259,-7.094808687558512,-0.1286082346157065,-0.03297615618340087,0.4155116958838741,-0.034122067405697176,0.04819765424445059,0.9982548019574351,-1.5932397842407227,-1.8359063161212636,4.125746842543321,-0.11139772860720476,1.3812386706701643,-1.2224831639078038,2.0,0.510541139026001,0.5038730362320308,0.40036400693424323,0.8232260058716372,-0.11416423568986081,0.33838100309735764,-0.441320481383775
11.200000000000001,-12.979377474442849,-4.635422653263991,-7.107811520332842,-0.13210574922428173,-0.03912470419854217,0.4177477478079517,-0.03420472011211312,0.0483440654387887,0.9982448731889161,-1.5932551292039698,-1.8358854120174228,4.125722001724163,-0.1113766427616529,1.3812256131170513,-1.2224920431720179,2.0,0.5105389589029578,0.5038749097646489,0.4003533147091976,0.8232320727042473,-0.1141598479178868,0.3383803330082952,-0.4413108131777753
11.3,-12.97573480457583,-4.708404110859416,-7.050822190184273,-0.13196286555696912,-0.038096322329726165,0.4194902821479403,-0.034325764994584576,0.048560406611844145,0.9982302409488427,-1.5932666508580444,-1.8359165864707883,4.125760575063251,-0.1113542602983976,1.3812256579077726,-1.2224682013141077,2.0,0.5105414780132352,0.5038786979514853,0.400369185161249,0.8232195162944523,-0.11416891304107998,0.3383833024877886,-0.44132961364993883
11.4,-12.85799045279095,-5.004300499755661,-7.011559204355292,-0.13902403521016504,-0.039555248864535944,0.4157106345159187,-0.034103434973115285,0.04815072162143203,0.9982576945794088,-1.5932651327911918,-1.8358711913126458,4.125742034799249,-0.11133593026155267,1.381227970123291,-1.2224283179770303,2.0,0.5105386031691359,0.5038724859768671,0.4003551170490919,0.8232276298827632,-0.11416743159948076,0.3383812099614093,-0.4413164666139691
11.5,-13.142294432403133,-4.564131706642866,-7.058244433884048,-0.12901137803865734,-0.033122809300119016,0.4151928698100931,-0.03407849557858903,0.04811043139198292,0.9982605068906693,-1.59321404227911,-1.8359102183018274,4.125722908436361,-0.11135061645677108,1.3812463239465493,-1.2224617684198045,2.0,0.5105406816625002,0.5038615323724579,0.4003902152336455,0.8232100812503931,-0.11417413700214621,0.3383971383953235,-0.4413352527199621
11.600000000000001,-13.096671801082138,-4.37771803116728,-7.102778278514148,-0.12409023783404818,-0.03459902265212015,0.41497551440840236,-0.034092752999343674,0.048143110671146495,0.998258444080316,-1.593259223883586,-1.8358899555602015,4.125734439904256,-0.1113780702698243,1.3812454701036658,-1.222462622262688,2.0,0.510541764573585,0.5038658605640174,0.4003831304427687,0.8232130439279958,-0.11417031931627886,0.338390232245089,-0.4413360094249476
11.700000000000001,-13.032235384478513,-4.621180624096366,-7.016286460375394,-0.12932736764900876,-0.03566727795712791,0.4141917997430243,-0.03410701042009831,0.04817578995031007,0.9982563812699629,-1.5932354667459119,-1.8358944529506294,4.125733401509703,-0.11137669076009767,1.3812369649041467,-1.2224652751660083,2.0,0.5105362292374325,0.5038727386770621,0.4003660874861861,0.8232248853078373,-0.11416232408740176,0.3383764839355899,-0.4413265311402078
11.8,-13.047664516178255,-4.6712554625372995,-7.016377986798964,-0.1281550737806537,-0.03726379870028656,0.416963457260878,-0.03410347959287282,0.048167359986905675,0.9982569081785742,-1.5932381982203918,-1.835870565900866,4.125754193766192,-0.1113886903308292,1.3812482972845517,-1.2224682013141077,2.0,0.5105444607543427,0.5038672982919788,0.4003626773794398,0.8232297572708857,-0.11415578797849724,0.3383862065582796,-0.44131167900456075
11.9,-12.881318661792351,-4.633279768589869,-6.931663813277002,-0.13236772301208818,-0.03978333877729773,0.4175779222947025,-0.03406758663529077,0.04808414004596495,0.9982621465586471,-1.5932531356811523,-1.8358780346312464,4.125729084014893,-0.11136100182738448,1.381227970123291,-1.2224721855404301,2.1015375061075603,0.5105414756494542,0.5038604779847664,0.40039687886987185,0.823207322333605,-0.11416589829408627,0.3384011388108375,-0.44133946274332736
12.0,-13.236232012393042,-4.515177699673258,-6.853264445671509,-0.1294247697049154,-0.034931254998472196,0.4168548931220313,-0.03382419023749738,0.04763603596678579,0.9982918075590396,-1.59321250004776,-1.8358507009788207,4.125736470251887,-0.11138136804614263,1.3812290377504672,-1.2224597474499368,3.0,0.5105404467366139,0.503860741996554,0.40038204902074725,0.8232150160581329,-0.11417155819695503,0.33839238934932797,-0.44133035638367346
12.100000000000001,-12.903722158169831,-4.462611951445686,-5.853247859056075,-0.1504849712341771,-0.046167704603856434,0.4138686503825714,-0.033711205418077365,0.04741135508079029,0.9983063656255093,-1.593611099064223,-1.835230240717037,4.125759721646177,-0.111415982967013,1.3811403998433909,-1.222452070146889,3.0,0.5105325906305686,0.5038442115542922,0.4004022371157268,0.8232112617413764,-0.11417685603456838,0.3383981108448984,-0.44133160170651337
12.200000000000001,-13.230060880502938,-5.0128624928862635,-4.891446180562228,-0.13426081042207413,-0.023711108965111704,0.38973446158362823,-0.03395859205616541,0.047807818216925806,0.9982790326673169,-1.5946591518647957,-1.8341097190951192,4.125861644744873,-0.11159362226305197,1.3810031764682673,-1.2223981946909732,3.0,0.5104664321635838,0.5037379264925879,0.40056813782704054,0.8231587602928127,-0.11418931417680359,0.3384358761560495,-0.44139734209838477
12.3,-13.032259985001557,-4.7414328839575655,-5.252683688623882,-0.14950884234685025,-0.01940374025464917,0.37417560005239664,-0.03411255665507856,0.04804697199324218,0.9982623949929526,-1.5958277223208261,-1.8328645369184016,4.126045984094443,-0.11175517875483086,1.3808065834594079,-1.2223136225711941,3.0,0.5102171832493192,0.5034324631099699,0.4006782244017975,0.823173555796402,-0.11421604550620473,0.3384340871246064,-0.4413642040974405
12.4,-12.757450218534785,-4.557207094456668,-5.208662115494666,-0.1489544720089296,-0.0037323496894346372,0.34478174977265147,-0.03405879443999698,0.047936343508162935,0.9982695386153146,-1.5968355917594803,-1.831678372288369,4.12636109002879,-0.11195355920395374,1.3806122991400704,-1.2222084476301847,3.0,0.5096937414436367,0.5029311010249425,0.40094937541463366,0.8231835734914157,-0.11420348690605583,0.3384492674700372,-0.44133712880449605
12.5,-12.550478402147672,-4.845622392728994,-5.166348409427425,-0.14486799784035645,-0.005729019267122582,0.32079342765735736,-0.034005032224915396,0.04782571502308369,0.9982766822376767,-1.5979310035812733,-1.8305192068861986,4.126484394073486,-0.11209801791190918,1.3804612159729004,-1.2221578757022658,3.0,0.5094852062743798,0.5027944839106484,0.40107758835556484,0.8231731160878051,-0.11420081720415316,0.3384359789299747,-0.44136751405818986
12.600000000000001,-12.838903901830912,-4.701007835419018,-5.051633273605246,-0.13397015384862315,-0.0018910296007187983,0.29396389786137633,-0.03394181174772806,0.047705584233270294,0.9982845889932261,-1.5990430013540267,-1.8293637926781956,4.126689434051514,-0.11230165798757259,1.3802527836857796,-1.2221263206194801,3.0,0.5090512761280669,0.5023342309292393,0.4012425679707728,0.8232200482078006,-0.11419057492126246,0.3384164334061592,-0.4412976120811815
12.700000000000001,-12.947049073804868,-4.470546053167314,-5.104011418468656,-0.1444976516626033,-0.012380093399150029,0.27380037259806833,-0.033856765957653266,0.04756352650046713,0.998294256708707,-1.6000022708585568,-1.8281490828841365,4.126914894236942,-0.11251090250362247,1.3801405055787583,-1.222039614992106,3.0,0.5088506787037622,0.5021581356957517,0.40131410252338556,0.8232320648464584,-0.11418381834944885,0.3384031052438414,-0.44128716432398357
12.8,-12.890973601361384,-4.760904030064915,-4.885878822327797,-0.12907959175513842,-0.0234455872566117,0.24800581316578496,-0.033896228109048174,0.047689748200298115,0.9982868870449645,-1.6008516568766222,-1.8269359404416585,4.127063210262581,-0.11265366478796048,1.379997983646626,-1.2219109121250926,3.0,0.5085318361612129,0.5018700563098721,0.4015054941577459,0.8232317150887357,-0.11417466937065779,0.33839457051222993,-0.44129672873702935
12.9,-13.0039424958396,-5.168349640733847,-4.906674451072158,-0.10900086532979857,-0.018501961529168165,0.24359923982945872,-0.03394588760453474,0.047826315214056864,0.9982786786072977,-1.6019005589033286,-1.8258129558958949,4.127228260040283,-0.11285140136264021,1.3798010998905295,-1.2218415816459862,3.0,0.5080956321884839,0.5014515200193186,0.40186894465192247,0.8231873600578542,-0.11416524505574781,0.3384219585517196,-0.4413609011142241
13.0,-13.055430981309147,-5.2091383745370345,-4.94500627564725,-0.10678961592703051,-0.008762420127335992,0.25278642003268514,-0.033939908512135,0.04781364883012191,0.998279488559724,-1.6030860762957753,-1.8244879070085647,4.127456188201904,-0.113008418005248,1.3796325545672596,-1.221793197529013,3.0,0.5079187859501741,0.5012660340810958,0.40197744308457056,0.8231817447400278,-0.11418075256543506,0.33842272941842105,-0.4413667716121598
13.100000000000001,-12.909753974143875,-5.210623873398024,-4.704385557661288,-0.10950192110976897,-0.008645048213348128,0.25341391090544707,-0.03393392941973526,0.047800982446186954,0.9982802985121505,-1.6042283765642085,-1.8232017064051114,4.127692728229326,-0.11319782118455352,1.3794759792137008,-1.2216929533073326,3.0,0.5077507647209545,0.5010914811223682,0.4020510642164708,0.8231883645188485,-0.11419582696600875,0.3384136181491743,-0.4413575111805823
13.200000000000001,-12.671754168996348,-5.1254569627636215,-4.6886604180589275,-0.10171296137011568,-0.012429179594983084,0.25764134189086463,-0.034187919723168675,0.048274767093073545,0.9982485845917998,-1.6052106800495054,-1.8221211786256606,4.1277987652643455,-0.11333875089793087,1.3793164611363,-1.2216303984271448,3.0,0.5072344806058382,0.5006080347192708,0.40230252357600604,0.8232077878725025,-0.11417476363491319,0.3383893034942692,-0.4413453756590593
13.3,-12.537387338266527,-4.893223135516655,-4.687037934412454,-0.10627943256887591,-0.010071837496994362,0.2627760063376967,-0.0345300337882475,0.0489134476676323,0.998205845812145,-1.6060789700919549,-1.8210999688326532,4.128013276819562,-0.11356905404999111,1.3791147105929038,-1.2215552551973432,3.0,0.5069179449827678,0.5002942735164451,0.40244013945344254,0.8232278835778568,-0.11417546979175092,0.33837197010531644,-0.4413209984181611
13.4,-12.513152954622434,-4.6249912580327655,-4.695891395569123,-0.11774639530526913,-0.004773606390952065,0.26675426085050513,-0.03404123050745501,0.047970170660230536,0.998268243181135,-1.6070426716711275,-1.8197814479458656,4.1282212961839955,-0.11376188779620744,1.378970690016867,-1.2214958178245126,3.0,0.5066124699516052,0.49998403635881816,0.4026015743608508,0.8232369664904012,-0.11418557927584383,0.33837487501106833,-0.4412992119303706
13.5,-12.881477332313974,-4.730805127927993,-4.878096415686358,-0.11497674828212293,-0.0010331588522382988,0.26476236832969513,-0.03401495328865311,0.047942551324765,0.9982706587280276,-1.6081924395482585,-1.8184247391954242,4.12837382643683,-0.11394121744432034,1.3787653955053867,-1.221413046444676,3.0,0.5061339890841814,0.4995172604369608,0.40296004319237694,0.8231971756624625,-0.11418829663579093,0.33840661610867195,-0.44134839420421557
13.600000000000001,-12.781373881064278,-5.4419962054785795,-4.74222761924907,-0.10781171810112368,0.004054758046642141,0.2678396553904954,-0.03418410647264382,0.04828521991516597,0.9982484471590337,-1.6093207282661646,-1.8172897182279948,4.128602457195831,-0.11412529182222764,1.3786013007537308,-1.2213234029994617,3.0,0.5058137864120547,0.4991827082290309,0.40319155715118954,0.8231771839840407,-0.11418669258257105,0.33841462477292716,-0.4413799550783396
13.700000000000001,-12.535501989955637,-5.264731940821159,-4.759814495816216,-0.09129884888196346,0.0025664899295756074,0.26934376160994933,-0.034068010928885666,0.04803409717282752,0.9982645286914952,-1.6103361118441166,-1.8162464165616345,4.128770679609712,-0.11433480833030563,1.3783974229376819,-1.2212693854391534,3.0,0.5054353623223804,0.49882262061744886,0.40331872872892965,0.8232184964321746,-0.1141840252740719,0.33839214929627287,-0.4413208229834717
13.8,-12.818526799918896,-4.694946256224312,-4.70148291494877,-0.09237499644714464,0.012189766657706373,0.2719022849995245,-0.033934900844802975,0.04781438838152914,0.9982795945258516,-1.6111870999614317,-1.8151652280840957,4.1289871112597565,-0.1145254580113224,1.3782343864440918,-1.221203500845418,3.0,0.5051033709761616,0.49852935415581784,0.40339600202485115,0.8232690350070018,-0.1141881857007865,0.33835430230219066,-0.44125448480281815
13.9,-12.705925313838124,-4.70195665827203,-4.5231571317655455,-0.12329348940067467,0.008810967611868364,0.27358128822139816,-0.03379497301681149,0.047607267192908774,0.9982942533689266,-1.6121084054311117,-1.8137604755161545,4.12913982073466,-0.11473697444313563,1.3780550956726074,-1.2211174805906377,3.0,0.5047485442195102,0.4981910434048732,0.4036676723772042,0.8232473068170305,-0.11416621821484618,0.33837230444622324,-0.441286902163183
14.0,-12.69984356542033,-4.702571939730242,-4.514295287082393,-0.12186792567522556,0.009647925509706128,0.2713527786863448,-0.033604724022380746,0.04727571676959259,0.9983163926877101,-1.6131454435961983,-1.812419260504917,4.129337787628174,-0.11496889383360953,1.3778976782284704,-1.221032444630758,3.0,0.5043855485025892,0.497831994299399,0.40403084095046515,0.8231795752343378,-0.1141689692093266,0.33842021669878564,-0.441375792626014
14.100000000000001,-12.37149863007966,-5.428186703030526,-4.571874853740356,-0.10261426332624467,0.013337478043485746,0.275766877535345,-0.03347645585705593,0.047034825928472274,0.9983321137625988,-1.6142768433284025,-1.8113250591177867,4.1295460674371345,-0.1151672249816416,1.3777070045471191,-1.2209636266795543,3.0,0.5041668767602554,0.4975834745304343,0.40421814138666196,0.8231576513652177,-0.11419062737563809,0.3384253230877354,-0.4414071615996036
14.200000000000001,-12.762321729176877,-5.2974888266746385,-4.6070373925063,-0.08990321913272514,0.02709728585055495,0.27496794540250163,-0.033690253170315085,0.047381593890707306,0.998308513946251,-1.615433692932129,-1.8102914250288782,4.1297376904390095,-0.1153554788964638,1.3774956090499042,-1.2208805014060435,3.0,0.5038783204869784,0.49732178486908973,0.40429000471903953,0.8231933408892188,-0.11417382383931558,0.33841399391633525,-0.4413536339344565
14.3,-12.615032588979266,-4.960186442010153,-4.363927596969556,-0.10389476251046582,0.020278134298838752,0.2701300408539995,-0.03366881120246872,0.047315904048547755,0.9983123611130715,-1.6162885502328206,-1.8091398167079928,4.129961957972639,-0.11553455908429688,1.3773417132078212,-1.2208432084311802,3.0,0.5034089106466202,0.4968768310403786,0.4043241155843511,0.8232927859582556,-0.11419252788209147,0.338342746242714,-0.4412179067421568
14.4,-12.564906232510472,-4.333534340504616,-4.3903454850638095,-0.1103271389458204,0.015380103588058122,0.2738731897476789,-0.033636823892056404,0.047243085212335834,0.9983168192206382,-1.6172259207102393,-1.8077304237920024,4.130129784267347,-0.11579115808520513,1.3771775689308225,-1.2207610186744546,3.0,0.503224205826079,0.4967110943189565,0.4045073591544149,0.8232592074957493,-0.11417093680887061,0.33836984190886127,-0.44126536749242895
14.5,-12.474008837659465,-4.806570252927381,-4.437591449571597,-0.12026337065718903,0.021700674864697386,0.2715785318113845,-0.034057161322984045,0.04801640216307657,0.9982656088661588,-1.618221686509793,-1.8064035054296095,4.130316807600314,-0.115989651783843,1.3770012855529785,-1.2206955268182813,3.0,0.502885255409531,0.4963568369166947,0.4048565464439434,0.82320220136147,-0.11416643255186437,0.3384150900106381,-0.44133817895702415
14.600000000000001,-12.567521394167239,-5.201852507957406,-4.321611984223785,-0.10876096574268278,0.025991894267761276,0.2704265586263218,-0.033985202219723065,0.04798190169805709,0.9982698397647516,-1.6192061278786978,-1.8054255688749312,4.130489826202393,-0.11622919303427691,1.3768343925476074,-1.2206086485877177,3.0,0.5023741523238507,0.49585208204161685,0.4052386488824939,0.823166919356721,-0.11416559464017506,0.3384174681601655,-0.44140237552745937
14.700000000000001,-12.53832962443953,-5.170597693307233,-4.222592996190903,-0.09522838822960629,0.027839904080942744,0.2770265556766284,-0.033834990280698536,0.04777290457036382,0.9982849997083562,-1.6203248252472473,-1.8042493561979545,4.130687927206476,-0.11636834023566714,1.376661230929501,-1.2205248266407007,3.0,0.5021823357903302,0.4957041874206513,0.405272424629012,0.8231975817596485,-0.114150007438661,0.3383919842476234,-0.4413687598638766
14.8,-12.580435727864977,-4.922944582025377,-4.1212865465694755,-0.10369938988601884,0.029992605362747306,0.2761571064721102,-0.03384967490500035,0.04776113399458455,0.9982850652392331,-1.6213635120678078,-1.8030611515891914,4.130883701067721,-0.11653729187998534,1.376496547891531,-1.220439739729438,3.0,0.5019031159014989,0.49541279924901566,0.4053583295661643,0.8232215118589179,-0.11416619091670142,0.3383802991248598,-0.4413288982476212
14.9,-12.418108544568055,-4.8390730600883005,-4.248097715422742,-0.11853618460481272,0.027949590764747165,0.2800160507406595,-0.03390188812036329,0.04779641605174099,0.9982816050561829,-1.6223157062690128,-1.8017336385675735,4.131012594949252,-0.1167376716143083,1.376382825015479,-1.2203815564231908,3.0,0.5014405146644648,0.4949501923682009,0.4055930018701713,0.8232308508803456,-0.1141682717204077,0.3383765815050171,-0.4413137897009065
15.0,-12.654561810314673,-4.676164949068154,-4.147901913068409,-0.10714388362016802,0.030036163739516758,0.2766575356328561,-0.03393613843390822,0.04788254410287653,0.9982763128354584,-1.623244285583496,-1.800557615746134,4.131208896636963,-0.1170054679209045,1.3762310749966935,-1.2203143278705042,3.0,0.501194801856907,0.49467215716250834,0.40583784011715174,0.8231836037902784,-0.11417196506876177,0.33840794786677153,-0.4413769111131531
15.100000000000001,-12.931094924397746,-4.983920211956741,-4.720319792973938,-0.09577710694810823,0.037076596159236384,0.27390765808513456,-0.033969199606383116,0.047953534279519726,0.9982717790266387,-1.6234571658807186,-1.800245771422549,4.1312658576463255,-0.11714225514193126,1.3761893373348906,-1.2203125081845974,3.0,0.500923729602063,0.4943930100695852,0.4060116557635798,0.8231865356128227,-0.11417454968858172,0.33840224929826457,-0.4413751436805697
15.200000000000001,-12.725179488411712,-5.256396755998633,-4.634129376727232,-0.0949227606288675,0.02198345177035608,0.27779950211176907,-0.034001533921755596,0.04801527149882469,0.9982677087936668,-1.6235036849975586,-1.80023830323334,4.131263178297617,-0.11710770547900395,1.37616052442384,-1.220310800201431,3.0,0.5007400693781305,0.4942393396757505,0.4061189129666522,0.8231950502555697,-0.11415926518059301,0.3383970972064111,-0.4413671668921824
15.3,-12.653149966384019,-4.925941831729456,-4.805914990397365,-0.08336767821099453,0.02361086028431883,0.27480176398613376,-0.03403386823712808,0.04807700871812965,0.9982636385606948,-1.6234938900661358,-1.8002562468008363,4.131259804788636,-0.11715073424749696,1.376151487852165,-1.2202928175860628,3.0,0.5007384168261027,0.49422148121115383,0.4061110338025034,0.8232018764378384,-0.11415765624040948,0.3383949578734204,-0.4413564915538963
15.4,-12.733016521899197,-5.075955389277676,-4.807082065664704,-0.07337655215849401,0.022108228677581183,0.2831852877596648,-0.03405155193658724,0.048113323908819595,0.9982612882466586,-1.6235769138501117,-1.8001870461070906,4.131253563589481,-0.11713117253466095,1.3761298129523165,-1.2203028837787073,3.0,0.5007337263145133,0.49421550902895395,0.4060958804772544,0.8232117629738345,-0.11416528379142223,0.3383959096926374,-0.4413353482122499
15.5,-12.794683635491907,-4.970430568958493,-4.842259857734588,-0.067994799573977,0.018362256420330264,0.2773216468967836,-0.034027667533949195,0.04807112132614952,0.9982641030689912,-1.6235693620146778,-1.8002220592894496,4.131224138441729,-0.11712123160636638,1.3761509102129696,-1.2203115301029115,3.0,0.5007150780229905,0.49421872420136786,0.4060795147342608,0.8232204713577687,-0.11416798614711914,0.3383717150694545,-0.44133695621096625
15.600000000000001,-12.755342381537027,-5.025726350021983,-4.661623349599617,-0.0681362581309103,0.017479025546918017,0.275094481708243,-0.03371310481962418,0.047466907855981476,0.9983036149830229,-1.623579301951507,-1.8002200744291825,4.131270469951657,-0.1171401998222218,1.3761401176452637,-1.2203321096782778,3.0,0.5007249250808845,0.49419535922455476,0.40608624296720974,0.8232221635662673,-0.11417333500811536,0.33837921860832454,-0.4413266629158254
15.700000000000001,-12.779309488446483,-4.922913669814496,-4.906345544265726,-0.062416453696542695,0.012236384038513069,0.2824280979368349,-0.033754903950142655,0.047517278096137795,0.9982998178678697,-1.6235891997617058,-1.8001810065082273,4.131290912628174,-0.11714519230886467,1.3761422522160713,-1.2202683018883334,3.0,0.5007371723504469,0.4941964754599082,0.40607275161619394,0.8232278722757645,-0.114166285593651,0.33839244793699697,-0.4413076939293865
15.8,-12.8128719618396,-5.431111230486809,-4.811399697396659,-0.06993945785834275,0.006024917841388195,0.28084643830459044,-0.03401542271241472,0.04797299208023813,0.9982692696683463,-1.623621497818018,-1.800210911433984,4.131243971062903,-0.11711002469947218,1.3761421715523403,-1.2203028837787073,3.0,0.5007285094479698,0.49420162960996983,0.40606414406214975,0.8232300887090611,-0.1141590816494813,0.3383879522341289,-0.44130887018483084
15.9,-12.645982714075043,-5.221430494280914,-4.959135887898713,-0.06733431664174458,0.007082405367185517,0.28087380982331,-0.03389515350534185,0.047771789792955745,0.9982829855929064,-1.6236077786580612,-1.8002101383604945,4.131258491402892,-0.11711512198425143,1.376156260379373,-1.2202621397309763,3.0,0.5007291930809532,0.49419479740879896,0.4061123161841453,0.8232038642244537,-0.11416118697064251,0.3383982652377437,-0.4413493348805081
16.0,-12.773950946711206,-5.322456224170312,-4.921216457966338,-0.07094603116683565,0.008772031601746014,0.28247938901262903,-0.033786003885047586,0.04759068283848639,0.9982953628506559,-1.6235406184203747,-1.800209415653419,4.131267070770264,-0.11712107182211015,1.376143066290132,-1.2203350041219116,3.0925428537652206,0.5007263586783769,0.49419271615652494,0.406092098099585,0.8232152652827835,-0.11416626513622055,0.3383924970485395,-0.44133117820010914
16.1,-12.702477413969381,-5.574244126510261,-4.904081279552835,-0.07706323686689392,0.006649720483291625,0.2846962541571389,-0.0338276866444441,0.04768216037202137,0.998289581672785,-1.62359199653454,-1.8001713547201552,4.131243297069737,-0.11715113115530328,1.376160085460092,-1.2203220836006574,4.0,0.5007178004110581,0.4942113249786501,0.4061020661564299,0.8232153310936294,-0.1141556729487014,0.3383729838687213,-0.44134875639771937
16.2,-12.79261968645054,-5.434591065276626,-4.6561591628362615,-0.07217637138125328,0.007905536564705745,0.2772961306387095,-0.03386838401898742,0.047768660493949566,0.9982840715925833,-1.6236114501953125,-1.8001785976959543,4.131244579991497,-0.11713154733691411,1.3761314883016835,-1.2202814361268202,4.0,0.5007285944387794,0.49419490527186044,0.406101316150062,0.8232151788961839,-0.11417366477487387,0.3383805693130718,-0.4413385705081311
16.3,-12.87281446667893,-5.290969186904315,-4.804630126599851,-0.068762474484323,0.006889952568925829,0.2780498450059309,-0.03388925587580027,0.047755017243730304,0.9982840158804154,-1.6235753059236904,-1.800208605642789,4.131245558643266,-0.1171203927668118,1.376152515411377,-1.2202801284556986,4.0,0.5007439134663648,0.494185443474943,0.4060684605221356,0.823220708759488,-0.11418749983078665,0.33838692780835783,-0.4413198008704585
16.400000000000002,-12.802038412549356,-5.204489913443122,-4.861326939893012,-0.06788365080429226,0.003920090808471437,0.2823232158736569,-0.033820004272465315,0.04763331512847565,0.9982921520084633,-1.623584742891581,-1.8002012022709366,4.131276364303404,-0.11713451374767743,1.3761434414996092,-1.220290486012594,4.0,0.5007149739316518,0.4941999604758341,0.406091821275927,0.8232240612659898,-0.11416060092665384,0.3383744450275678,-0.44133007726766277
16.5,-12.895078941492065,-5.133841289424463,-4.930808081821706,-0.0635156718398584,0.0070752735545689255,0.2833343212899061,-0.03367286008290291,0.047418219079514906,0.9983073682421721,-1.6236023982848957,-1.800172068223915,4.1312339146818315,-0.1171293287314198,1.3761257157907087,-1.2202950119678024,4.0,0.5007049204617027,0.4942069726469888,0.4060848947022769,0.8232239117624952,-0.11415894087478634,0.33837134439101835,-0.4413331628325899
16.6,-13.012619906812576,-5.335064118421656,-4.927479287850642,-0.06618926819451648,0.009497996803989682,0.2833728181886061,-0.03377770832810093,0.047607309185984756,0.998294634130484,-1.6235945302368657,-1.8001743755736292,4.131228808288471,-0.11712683671990017,1.3761649131774902,-1.2203076947438811,4.0,0.5007166324304938,0.49419838695064866,0.4060798771207964,0.8232228201211507,-0.1141620799814291,0.33838930704779746,-0.441320614521693
16.7,-12.765560802472288,-5.349654130628864,-4.8375680998204285,-0.0666845684260884,0.0036997739804766317,0.282185103617748,-0.03410856687245606,0.04815891110353688,0.9982568315442972,-1.6235850955459126,-1.8001743755736292,4.131252401599156,-0.11713743360349946,1.376158757821873,-1.2202815824148239,4.0,0.5007318960641095,0.4941928544413271,0.40607337655671094,0.823227505294706,-0.11416093849576725,0.33839004031415226,-0.4413116078965145
16.8,-12.928311928720262,-5.4525043326548515,-4.82520383314226,-0.07011478389107044,0.008233313089541032,0.27996558054503384,-0.03443663396411538,0.04870601172402606,0.9982193350094856,-1.6235679718929839,-1.8001835882304293,4.131262280188728,-0.11713615366531416,1.376152515411377,-1.2202547232257288,4.0,0.5007418238833619,0.4941851508709117,0.4060923246021264,0.8232162916379817,-0.11417631436647285,0.3383937897606035,-0.44132567279839274
16.900000000000002,-12.917508013133357,-5.5615053005606585,-4.933327325233567,-0.07015762468494671,0.0077806878989384945,0.27801427607146223,-0.034598401205041034,0.04898436012889163,0.9982001168336557,-1.6235761642456055,-1.8001913043840374,4.131251816346369,-0.11714176341507848,1.3761677393709943,-1.2203286308026664,4.0,0.5007453515926328,0.49418240054677304,0.4061045699238114,0.8232067209863905,-0.11418314041586744,0.3383994493858071,-0.4413374192417729
17.0,-13.122601395378204,-5.3937716091033625,-4.836934751095684,-0.06468415524069426,0.012023468593170668,0.27894997450481784,-0.034001859035487414,0.047954894209352394,0.9982705998463317,-1.623614090951311,-1.8001816933312154,4.13127205320869,-0.11711756005921992,1.3761623763548603,-1.220274059482371,4.0,0.5007411606857456,0.4941897285337859,0.40608702806081254,0.8232140710831968,-0.11416658417813841,0.33839661525044806,-0.44133016553909615
17.1,-12.976409515473716,-5.31766222537927,-4.936607060249533,-0.05436296851786042,-0.0017233414726886254,0.2819406258780605,-0.03421212359914971,0.048325355955474415,0.9982454585123263,-1.623603985718409,-1.8001694422844194,4.131240892431405,-0.11713404679180285,1.3761453380297388,-1.2202954193018039,4.0,0.5007331490962211,0.49419144894425526,0.4060807347059703,0.8232156306865923,-0.11416094464114963,0.3383970807333828,-0.4413283583263612
17.2,-14.422243474916893,-7.18585129292384,-6.469340327451111,0.042579147522500596,-0.11759985052231363,0.27874535472728645,-0.03442874722454774,0.048706851603626485,0.9982195634896133,-1.623583957367818,-1.8001820752280526,4.131258952934625,-0.11714758583963175,1.3761687510826528,-1.2203069426965263,4.0,0.5007327595370169,0.49417935548949654,0.40609841367920835,0.8232092588155776,-0.11416904463036757,0.3384004044693505,-0.44133559985964976
17.3,-12.488419109816157,-5.610551713846334,-7.490801548119536,-0.04108801236155241,0.023819514531074545,0.2867637350100542,-0.034760038019437826,0.049253584396280255,0.9981810485444447,-1.6235990524291992,-1.8001398987162227,4.131238352994432,-0.11711102179355608,1.3760909448367378,-1.2203112852298634,4.0,0.5007248231906871,0.4941740085123722,0.40613871058477413,0.82319662714354,-0.11416484204577577,0.3384025020782614,-0.4413586393029314
17.400000000000002,-11.677697539342935,-4.814241189912422,-8.918919683436098,-0.11662427107677878,0.08857421636758288,0.29628229672426065,-0.035093465382483154,0.049803396016313894,0.9981422984550359,-1.623591267048657,-1.8001018963255824,4.131223857612839,-0.1171043817777317,1.376101172984302,-1.2202585343832857,4.0,0.5007439743221992,0.49416529928434944,0.4061235731671296,0.8231970039418401,-0.1141841397145375,0.33841970009132627,-0.4413397574759448
17.5,-11.537053314432859,-4.869212976822458,-9.429467777410244,-0.13773724628274125,0.09333482557831119,0.2940439724971153,-0.035032967444087265,0.04971694472438594,0.998148740541655,-1.6235876083374023,-1.8001190689310005,4.131212240964794,-0.11710952703014545,1.3761218023134185,-1.2202888664490088,4.0,0.500728269707169,0.49417063660986044,0.40612219814171413,0.8232056286597742,-0.11417022490075955,0.3384034678605597,-0.44133971680432615
17.6,-11.475782115102193,-4.780489156555743,-9.37313575491622,-0.13252369311415918,0.09492643199347882,0.29195744973703236,-0.03487024868450545,0.04946727203629206,0.9981667871294483,-1.6235631501785557,-1.8001405465987936,4.131210242805093,-0.11713467571841647,1.3761286735534668,-1.2202999962923613,4.0,0.5007326448977889,0.49416627696901333,0.40612237150135905,0.8231965900357232,-0.11418499004865337,0.3384139022564323,-0.4413447552205869
17.7,-11.544784293707764,-4.290815984139733,-9.49356447942656,-0.12238079435829508,0.09542463278044258,0.2938043661545013,-0.034602786435764726,0.04905058424497105,0.9981967093589376,-1.6235784768584445,-1.8001654197000359,4.131227219081078,-0.1171227670686853,1.3761328880822166,-1.2202860958784796,4.0,0.5007251083971475,0.49417461473923824,0.4061420297905452,0.8231996355153779,-0.11416933637977017,0.33840070157559216,-0.4413532461544823
