xiamingqian9007/apple-picking-rnn/final_data/grasper_20191127_135252_noimg.csv
,/manipulator_wrench.fx,/manipulator_wrench.fy,/manipulator_wrench.fz,/manipulator_wrench.tx,/manipulator_wrench.ty,/manipulator_wrench.tz,/ground_truth.x,/ground_truth.y,/ground_truth.z,/joint_states.elbow_joint,/joint_states.shoulder_lift_joint,/joint_states.shoulder_pan_joint,/joint_states.wrist_1_joint,/joint_states.wrist_2_joint,/joint_states.wrist_3_joint,/mode./mode,/manipulator_pose.x,/manipulator_pose.y,/manipulator_pose.z,/manipulator_pose.rx,/manipulator_pose.ry,/manipulator_pose.rz,/manipulator_pose.rw
0.30000000000000004,0.13315424577322704,-0.1955730958137003,-0.8785111756736276,-0.0073316241066692205,0.00783799137500734,0.036927030471501185,0.06029920352882263,-0.6817364903989471,0.7291082093449359,-1.2875770207436261,-1.819742386556177,4.17366347138998,-3.6429832789836225,-1.3592378430642862,2.388281200576992,1.0,0.4497643876316469,0.4594804206266502,0.34375519576776226,0.7969523868656123,-0.2915128550914319,0.21769775572869832,-0.48217718272055726
0.4,-0.3774996893140461,-0.09577695436515223,-0.5575665930161481,-0.009951576615989619,-0.015586255203244394,0.026152197338714094,0.06020783946584825,-0.681189511725409,0.7296271939883326,-1.2851888309954709,-1.822797445912214,4.172948187964811,-3.6421756490147663,-1.359951172988567,2.3879688203623397,1.0,0.4503127682584135,0.4599824521740518,0.34337330932396465,0.7969506360527545,-0.291568934826485,0.21768952943956796,-0.48214988199898823
0.5,-0.30033165367077147,0.005112823084081203,-0.5176066130722744,0.000538878660195535,-0.012256494164643958,0.026932365594546287,0.060391741958211634,-0.6826625685269052,0.7282338017149149,-1.2827998896231023,-1.826025207576479,4.172283026805077,-3.641397718502998,-1.360537083370355,2.3876275796807835,1.0,0.4508848960991573,0.46057173277543656,0.3429827015856086,0.7969605339530887,-0.2915349294699326,0.2176674659799134,-0.48216404519007083
0.6000000000000001,-0.09647950874212585,-0.05853169360410021,-0.6239093730427298,-0.00655891249793479,-0.012183860500368602,0.027451817252751264,0.060470704472600174,-0.6835235453791658,0.7274184002560875,-1.2803068161010742,-1.829202593734817,4.171629748829065,-3.640547339545118,-1.3609932512175902,2.387336574085412,1.0,0.45175438807521806,0.46144995697816743,0.34234891569841686,0.796976671882044,-0.2915135776832066,0.2176783789209923,-0.4821453534490264
0.7000000000000001,-0.18844116892064555,0.05458975605771105,-0.5141443998279257,-0.0014076428283343152,-0.015408314856138094,0.026493492745052954,0.060544686189824067,-0.6843550896360847,0.7266307966325248,-1.2779068326663736,-1.832289766564118,4.171034182141249,-3.6396866232608476,-1.3615267912494105,2.387030808911312,1.0,0.45259600544194295,0.4623276743593716,0.34176136220698994,0.7969659357120777,-0.2915093928562784,0.2176929693694391,-0.4821590425142446
0.8,-0.010211152575643201,-0.20050474719254704,-0.5052362668027321,-0.0099418874560961,-0.01378768154282803,0.021601043680103287,0.06055539417052237,-0.6849045787963195,0.7261120654525817,-1.275425633607745,-1.8354988820723037,4.170482610321565,-3.6389920804683786,-1.3621195250135392,2.386738191864284,1.0,0.45385951285816867,0.4636416029764008,0.34091491895397574,0.7969293826758836,-0.2915064458436591,0.2177328351401296,-0.48220323885398586
0.9,-0.2723005288659313,0.03228927563826145,-0.45741412099380585,-0.0034349289560742183,-0.009227771280241766,0.02007798616716198,0.06060916204005472,-0.6846649584569716,0.726333438709822,-1.2733207945009397,-1.8382600931275133,4.169906716552354,-3.638344248532107,-1.3627093961708023,2.3865181115294543,1.0,0.45478809399726294,0.4646401992187569,0.34017637405336637,0.7969826556827199,-0.29148273281265563,0.21769199299401668,-0.48214796401030063
1.0,0.1279120147750613,0.07400591400065083,-0.33563723061723677,-0.011891373045276583,-0.01342170743618712,0.026035510156255937,0.06066590724818128,-0.6843759683891997,0.7266011001412547,-1.2709531965201162,-1.8414030992912243,4.169308312145638,-3.6376820144665847,-1.363260180188486,2.386247628094812,1.0,0.45519592930852815,0.46512650387222176,0.33991332713297673,0.7969637902263471,-0.29145136247748094,0.21766680452198178,-0.48220947998485497
1.1,-0.13678137519920563,-0.14376771169856573,-0.473054276065599,-0.006648648037697376,-0.011036605290966915,0.022897197755937515,0.06064975130412274,-0.6845748281327838,0.7264150366104762,-1.2688128560692133,-1.8437994524608905,4.168734981590845,-3.636993162795816,-1.363751306239587,2.3859952030143003,1.0,0.4559315745231361,0.46583721222261987,0.33931793177516323,0.7970101074141243,-0.2914854859644357,0.217646367519094,-0.48212151876632336
1.2000000000000002,0.051481818562077286,0.04576288398324935,-0.4947496656997187,-0.015022178632502997,-0.011790182593825752,0.026303857859145865,0.060627734655784624,-0.6848129073316371,0.7261924970056155,-1.2667967885010452,-1.8468612109064608,4.168245792388916,-3.6363889830246046,-1.3642010761380734,2.3857166548823776,1.0,0.45706445149817093,0.4669619214952259,0.3386314073345927,0.7969430307687804,-0.2914904866322536,0.21765639388414007,-0.48222483979292785
1.3,0.08436228083912728,-0.055766029037526435,-0.452862514168766,-0.013653672621285784,-0.01224180328447343,0.024947924395592763,0.060607572758878056,-0.6845968257428634,0.726397851820182,-1.264491252594891,-1.849068593646913,4.167664833373126,-3.63583886768349,-1.3645998353769315,2.3855279484483796,1.0,0.45755667503927094,0.4674819792791212,0.33815339892241514,0.7970011681649126,-0.2914933313311578,0.21765204577052086,-0.48212898969584417
1.4000000000000001,-0.0008888012257147748,0.12157835756945848,-0.3453681399929435,-0.010972397304765449,-0.013799121530430622,0.01927504039644592,0.06057105671722367,-0.6845863331209823,0.7264107602954903,-1.2626863281478873,-1.8516781142691874,4.167127666861147,-3.6352879754423526,-1.3650275518159678,2.385261058807373,1.0,0.4582019039203997,0.4681025648389175,0.33786777633788406,0.7969274189322773,-0.29149761127230817,0.2176922020915476,-0.48223016986187167
1.5,-0.06384905035843004,0.27014378120154803,-0.4010417118628239,-0.011520760463378195,-0.01159178499683271,0.018026733844829827,0.06050993378328986,-0.6849431944111708,0.7260794260221148,-1.2606598542963636,-1.8541036037151812,4.1665860071744705,-3.6347594431139694,-1.3654559294330042,2.3850090442298497,1.0,0.4590093592376979,0.46883797847384723,0.3373310038847611,0.79691498469229,-0.2915303644575845,0.21772733753439183,-0.4822150560302947
1.6,-0.03677431058076122,0.1369045213145918,-0.46575323154669546,-0.009601287355622512,-0.009650296132479556,0.023491087520832444,0.06042140040858628,-0.6842772089368699,0.7267144083161666,-1.2585842464947439,-1.8564945205191683,4.16620544731361,-3.6342718572194554,-1.365931377204378,2.384814303514782,1.0,0.4597874670865447,0.4695728224739958,0.3367681632115674,0.7969245646391494,-0.29155233404169323,0.2177419772879684,-0.4821793298309962
1.7000000000000002,-0.0593354576399045,-0.10869030676080038,-0.4166094408907494,-0.016136353228590083,-0.00813776909694339,0.02096324696653907,0.06047056719443461,-0.6841293008040511,0.7268496432831505,-1.2569884147009365,-1.858862337323456,4.165747534740288,-3.6337116065045687,-1.3663362815167357,2.3846255076976517,1.0,0.46056207709561275,0.47041004763575117,0.3362782513407955,0.7969068174007725,-0.291529134758108,0.21772826668315576,-0.48222887704336986
1.8,-0.1584175958146673,-0.05907740697176274,-0.6046999185112208,-0.008626331767418406,-0.009551247957506994,0.022934691516549914,0.06054107059777039,-0.6841999203123742,0.7267772524578832,-1.2550907271461904,-1.8610236625798786,4.165355087820119,-3.633245123755905,-1.3667624632464808,2.3843897664261737,1.0,0.4613830947019166,0.47128336048174024,0.33556391086932497,0.7969683137918895,-0.29151495391948246,0.21769196230193186,-0.4821522041867785
1.9000000000000001,-0.153632252741047,-0.14368933798079003,-0.5653139627508786,-0.012700754000042036,-0.008826759567848402,0.02332435115006277,0.060615950653611056,-0.684493616484376,0.7264944346877522,-1.2532831372512792,-1.8631385152118605,4.165000295172844,-3.6328183277559623,-1.3671300711294971,2.384197568427239,1.0,0.46173524394907567,0.47168297725505437,0.3353645106911337,0.7969460463321008,-0.29147759260158407,0.21768749461459758,-0.4822136113127023
2.0,-0.17319698130844727,-0.1519577285467553,-0.34585044309335367,-0.008570531087641045,-0.008354423213734875,0.021084740328439676,0.06062880793512211,-0.6842666637912593,0.7267070792418552,-1.2517290682900262,-1.8652975247969614,4.164599939966486,-3.632413526574606,-1.3674801711856333,2.384003162384033,1.0,0.46251490908081966,0.47256367847352043,0.3348605278966431,0.7969289746412715,-0.29145550906733975,0.21765318260735703,-0.48227065814996317
2.1,-0.09826463926454033,-0.1337522967097067,-0.4532150983578991,-0.01084554884863657,-0.01039607052501074,0.024575604674184317,0.060637258466288625,-0.684323207503405,0.7266530314956962,-1.2500335391544013,-1.867334159684569,4.1641716957092285,-3.6320253337014097,-1.3677770924424735,2.3838859407197788,1.0,0.4628439806435619,0.47288456978543053,0.3345761288503881,0.7969500165749439,-0.2914633463307732,0.21766674737449404,-0.4822250262214443
2.2,-0.1753785371269841,0.039821406363933776,-0.3995499154691663,-0.007556290477273573,-0.009006019728979592,0.022639777052732762,0.06061526881596849,-0.6845915408721901,0.7264020001360882,-1.248394644520453,-1.86916191705429,4.163785984092964,-3.631633104949145,-1.3680642814820756,2.3836929077669553,1.0,0.4634003523202893,0.4734124042923071,0.3341542422565258,0.7969674834427407,-0.29148923504943275,0.21767462537592863,-0.48217695263532667
2.3000000000000003,-0.1358829457000159,0.042026414171239444,-0.3632286084992559,-0.00840758276989323,-0.009831928956546717,0.023911949913068876,0.06051411117026953,-0.683918914571538,0.7270438525386659,-1.2468941790362489,-1.8713876991464709,4.163516575366401,-3.6312643490233363,-1.3683737202725008,2.3835244178771973,1.0,0.4641831583791692,0.4741609427885907,0.33370089953552595,0.7969218173816921,-0.2915001999924286,0.21771726799969604,-0.4822265459306275
2.4000000000000004,-0.1662374981997293,0.12694768830630995,-0.5763263140083127,-0.007901924033189648,-0.008495036356141501,0.022853429225561547,0.060563002291984025,-0.6842452450993932,0.7267325946426666,-1.245294957878832,-1.8730575945746801,4.163158326866869,-3.63090223614227,-1.3686929511231953,2.3833711919702836,1.0,0.4645622657820938,0.47459928176597577,0.3332606817451326,0.7970048139076207,-0.29150062629607976,0.21769229609287324,-0.48210037927685223
2.5,0.16512090355592293,-0.43473279431058465,-0.4211309816000148,-0.008471315024663792,-0.009467174143732889,0.018904910564756888,0.06060994363464924,-0.6847849618429901,0.7262202506380585,-1.2438347304724797,-1.874591412979011,4.1627508746826445,-3.630595073864575,-1.3689836490387397,2.383206200979076,1.0,0.46520306404847916,0.47527752911146176,0.3329095731481781,0.7969569437760439,-0.2914751101254636,0.2176965812484671,-0.48219299917898634
2.6,-0.10525692307285112,0.1546605485091629,-0.29633169393415426,-0.007908332887535412,-0.010424511314697559,0.019884803593896692,0.06057962623129283,-0.6850248864150981,0.7259964797898528,-1.2424878127137629,-1.8766363332836506,4.162420749664307,-3.630203195835313,-1.3693275484348828,2.383068561553955,1.0,0.4655749500291377,0.475575003410877,0.33274720821373727,0.7969058128593471,-0.29151105298276003,0.21772187086524353,-0.4822443554535438
2.7,-0.17673065596446172,0.005138364997905381,-0.3168748378376033,-0.010965962531288462,-0.011406373815220633,0.020303506838754485,0.06053607563032742,-0.6845702374022344,0.7264289043824323,-1.2410749561940606,-1.878325522544955,4.1620511814087475,-3.6298738127976407,-1.3695910418109905,2.3829147207545573,1.0,0.46603040142477703,0.47604489818686774,0.33232816044365177,0.7969562125046702,-0.29150964547194375,0.21770242787403865,-0.48217069057003203
2.8000000000000003,-0.15728182825060288,-0.06446415900317998,-0.37698352235070465,-0.009048702061957264,-0.012946106050097071,0.01751539898804295,0.060522838224090596,-0.6843934884877971,0.7265965328408094,-1.2394671877692727,-1.879648347894186,4.161704027512494,-3.629598728780488,-1.3699069799108736,2.382775972029742,1.0,0.4665213066826134,0.4765445443715358,0.33196858055569983,0.7969611056850302,-0.2915182552230545,0.21768691399764706,-0.4821644018083262
2.9000000000000004,-0.04727326488959434,-0.04948247947418383,-0.3592879822047744,-0.008569840282846365,-0.011390934400869988,0.021585774929637258,0.06049877146691368,-0.6843533064766681,0.7266363947237621,-1.2383271853205504,-1.8814061646592357,4.161451816558838,-3.6293188751100027,-1.3701704906468413,2.382690068465295,1.0,0.4670083433745169,0.4770084855886887,0.33174703949509166,0.7969066514854435,-0.2915254813470629,0.21770688415173062,-0.4822410135363498
3.0,-0.05765614971050061,0.20200967940339126,-0.4993769432245707,-0.001643816803792889,-0.00952875362097816,0.022977384253927563,0.060513617467537,-0.6845434977179727,0.726455846479598,-1.2371480999733533,-1.8830163472227304,4.161171251371059,-3.629036187463209,-1.3704163834732568,2.3825326086096905,1.0,0.46751544311284693,0.4775366085410332,0.33139592459413236,0.7969083973136182,-0.2915133725529653,0.21770638830280942,-0.48224567225220644
3.1,0.06723196951385985,-0.17894477330520658,-0.3677038821778943,-0.013309979849014868,-0.011529982010443324,0.022489443747344174,0.06059623595802048,-0.6848748007545361,0.7261365713543658,-1.2358546680607958,-1.8844200573363246,4.1609407192415135,-3.628789887770908,-1.3706460594236418,2.382419650182262,1.0,0.4680837582449043,0.47814996160896833,0.33077885785691646,0.7970011682615173,-0.2915198428457178,0.21765257037631192,-0.4821127229451313
3.2,-0.17974175824809036,-0.12702925256822356,-0.5554533985652634,-0.010146308718028612,-0.00494484604382277,0.022203130626575047,0.06052894875781951,-0.6841963344169282,0.7267816877335544,-1.2344549980180766,-1.8857288556857816,4.160638448148764,-3.628557343186887,-1.3708648052323338,2.3822809423504245,1.0,0.468298121474942,0.47833727017549654,0.33067862838619927,0.7969885631979988,-0.2915193752742096,0.21767723131904354,-0.48212270941804825
3.3000000000000003,-0.03683215396752798,-0.09660097331757586,-0.3153069108811062,-0.01549793711008158,-0.008724616856494307,0.02258548888782153,0.06049763164002841,-0.6840352178076897,0.7269358115934126,-1.2333577478012463,-1.8872754515919357,4.16042671742574,-3.6283205431131718,-1.3710648211941372,2.3821587562561035,1.0,0.4686781893818682,0.478699561455755,0.3306202584625141,0.7968929145939072,-0.29151087772412543,0.2177193843820972,-0.482266897581431
3.4000000000000004,-0.1263433902675152,-0.003019856278698718,-0.25135887284531844,-0.00965059073261431,-0.014646475550490846,0.01969087527458933,0.060475257337361074,-0.683467126547329,0.7274718013584693,-1.2323434638645339,-1.8886845588250516,4.160190015809432,-3.628098030080147,-1.37130354853117,2.3820308436849844,1.0,0.4692321689361919,0.47928783146052123,0.330134860606711,0.7969420559243185,-0.291504415733643,0.21770823308112155,-0.48219462912355615
3.5,-0.11714671431812156,0.14026921564704864,-0.32952826589658823,-0.013903885150614286,-0.009524461097187355,0.022213034276301762,0.060462655604516545,-0.6833624727576882,0.7275712972126716,-1.2313399424288514,-1.8898895296352112,4.159944724512374,-3.6278562505403875,-1.3714889805153307,2.3819377904412393,1.0,0.46947792698204455,0.4795397588243161,0.329912823287875,0.7969595938218389,-0.2915214820902363,0.21770370107186798,-0.4821573704039506
3.6,0.08919291637415343,0.1306080123744858,-0.2999027020405432,-0.009400134610538124,-0.015336153796512556,0.02134632033724713,0.060454830539364575,-0.6833533853752233,0.7275804658497778,-1.2300922181106397,-1.8911266376627678,4.159730533559472,-3.627617667903019,-1.3717026818811395,2.3818345069885254,1.0,0.4699695053032032,0.48005110981005467,0.32951515235596823,0.7969809455054085,-0.29152257277529364,0.21768658522807047,-0.4821291452251366
3.7,0.11634105916375469,0.08382859076252723,-0.2394720208982876,-0.008018854743977441,-0.011687722779699037,0.014348523237279805,0.06042412153569043,-0.6827369045167287,0.7281604016784098,-1.2289852573681883,-1.8923664963451379,4.159496784210205,-3.6274393004482137,-1.3718888526589812,2.3817290005496456,1.0,0.4701991014800776,0.48029009576271314,0.3294536750604462,0.7969434967786053,-0.2915033812903313,0.21771233727193734,-0.48219102007211107
3.8000000000000003,0.05271708317707942,-0.08364439721465075,-0.16954988238230057,-0.01571963846144808,-0.009971222773740386,0.018350489866906187,0.06029127408509073,-0.6809232815594476,0.7298672435413199,-1.2279824767789205,-1.8935488584226698,4.159322336533086,-3.627270875184777,-1.3720778265494669,2.3816336990444262,1.0,0.47051539612652,0.48062082557765784,0.3292929601049762,0.7969144424200337,-0.29149941075861463,0.21772709817931907,-0.48223477239635115
3.9000000000000004,-0.052957038464519206,-0.06609824679244845,-0.16282805714369322,-0.01151924846528257,-0.011266265372596984,0.013707346235739822,0.06008161747144597,-0.6777036624117384,0.7328658644531645,-1.2271140249930312,-1.8946952049659407,4.15911340713501,-3.6270323749921314,-1.3722896176527295,2.3815844315837826,1.0,0.4709746160463389,0.4811155983365778,0.3289411829272301,0.7969183919316647,-0.29150668206131813,0.21770796917217236,-0.4822324865389924
4.0,-0.0062277649989104025,0.03001012869171389,-0.3863690370481019,-0.012043212092162503,-0.01286629735996582,0.020420277995172084,0.05988714373978721,-0.674601257696018,0.7357490547166501,-1.2262365103512822,-1.8959223782156513,4.158911658376205,-3.6268467498447094,-1.372438469548951,2.3814416894314525,1.0,0.4711483823444829,0.48131476727941774,0.32875578417563905,0.7969560702049493,-0.2914975948100843,0.21768868397480237,-0.482184416227587
4.1000000000000005,0.061845006852105096,-0.06312333416904115,-0.4559317044772665,-0.015381669354160646,-0.013654957539655909,0.023410111018684107,0.05989097259450138,-0.6745411549876048,0.7358037063387379,-1.2251093660247314,-1.8971051294577275,4.158707454040372,-3.626693388024801,-1.3726454300655075,2.3813859214144464,1.0,0.47144809016751843,0.48160474708001,0.328469784251864,0.7969874647594817,-0.291499339587601,0.21769081477517482,-0.4821305063971444
4.2,-0.04542706466976021,-0.26186957661802623,-0.46882503447021506,-0.01261671864788093,-0.011604207640061693,0.023661103199852818,0.05982930305129045,-0.6738509970192347,0.7364407242795458,-1.2240903465541721,-1.898134485652256,4.158508151041437,-3.6265016994872035,-1.3728096146071709,2.3812500021122105,1.0,0.4719442266561705,0.48210600770334944,0.3281597356711934,0.7969687394927989,-0.2915090016848668,0.21769788330017648,-0.4821524259138125
4.3,0.10284043643089791,-0.1333735942486614,-0.31056951392795884,-0.01609769789043069,-0.012057659598020583,0.023707246143591588,0.05984953519378845,-0.6741043036052612,0.7362070825580606,-1.2230740006753282,-1.8992419773179745,4.158303281465594,-3.626319112180354,-1.3730006750374875,2.3811972900393372,1.0,0.47210524561716644,0.4822882282982924,0.3280847017331493,0.7969490785203254,-0.29149317452707124,0.21769763845706236,-0.48219460144214893
4.4,-0.0014125136823329998,-0.13234679319322412,-0.419759805674067,-0.013029146758048596,-0.009888423798947513,0.02186810454144612,0.05990166273437963,-0.6747138685729107,0.7356446057513959,-1.222162404910884,-1.9003780721196368,4.158142566680908,-3.6261182082518117,-1.373212094361646,2.381106150544368,1.0,0.47236170619965784,0.4825532657190797,0.32794453815300606,0.7969368213952137,-0.291491655058318,0.21769877099966595,-0.48221526608050336
4.5,-0.01822380651064319,-0.17798414201954987,-0.22429713391944714,-0.012349647182448483,-0.011641812756837538,0.021155453177256128,0.059903424815855054,-0.67468215900562,0.7356735439457459,-1.2213068008422852,-1.9017400115824243,4.157872380260703,-3.625959153538518,-1.3733876371473497,2.3810315132141113,1.0,0.4728122215277388,0.48302492076487025,0.32760422924070287,0.7969460748853703,-0.2914876384005166,0.21769320488916075,-0.482204913838067
4.6000000000000005,-0.0843940482653478,-0.048142233645072946,-0.19851833643448877,-0.01487240293722124,-0.012678399192635307,0.013588688363528022,0.05991726376134376,-0.6749698378773492,0.7354083350603826,-1.2202780096803085,-1.9028567271457184,4.157676443365611,-3.625775167721122,-1.3735687804923649,2.3808978017483895,1.0,0.47309871960634176,0.48330240756974335,0.3272705077921608,0.7969978739374155,-0.29151805254527485,0.21767737488127864,-0.4821080526648
4.7,-0.18009689845629578,0.024148066729434953,-0.28307144327039135,-0.009859718151201438,-0.007074491871351858,0.014732816623965769,0.05995542800905061,-0.675652863724701,0.7347765051792984,-1.219212532043457,-1.9038376788333347,4.157498161909912,-3.625623045432943,-1.3737407461485798,2.380781964199828,1.0,0.4733960141788019,0.48359164940448446,0.32707357578149987,0.7969995621265158,-0.2915146327072316,0.2176678232870083,-0.48211164225022174
4.800000000000001,-0.18098672064163132,0.15356481566901928,-0.4590831587095819,-0.005350834885118377,-0.006453687054791147,0.014624428739583419,0.06010330011658769,-0.6777024476339574,0.7328705288911621,-1.21820992046054,-1.904897455684234,4.157300955074937,-3.6254442695658637,-1.3739544136098327,2.380688178503691,1.0,0.47377896605441,0.4840243055511797,0.3269150649438541,0.7969588897893876,-0.2914715731860165,0.2176740861349144,-0.48220207614180327
4.9,-0.24321883546816214,0.1880018284608519,-0.47411566293124524,-0.010651413149992657,-0.007084287385189532,0.016866091474551134,0.06022650507391007,-0.6793695024957506,0.7313204446641964,-1.2172269821166992,-1.9060566428778973,4.157067974702531,-3.6252884267805228,-1.3740928808795374,2.380634604936911,1.0,0.47399380070121877,0.48421139576237904,0.3268452365845008,0.7969099880282292,-0.2914982512648471,0.21767862852812864,-0.48226471483252453
5.0,-0.07548221024491347,0.08728811284971852,-0.3378527004694979,-0.01617080165229415,-0.011132997173854273,0.013544251902729546,0.06018642456164118,-0.6785043866526325,0.7321262062413165,-1.2162891757111454,-1.9074491700591079,4.156844271383752,-3.625143292804462,-1.3743047688540428,2.380522790355656,1.0,0.4744114980612337,0.484637088159729,0.32655423294979663,0.7969250604513409,-0.2914753650757399,0.21769384116129875,-0.482246774068039
5.1000000000000005,-0.03469933926681438,-0.17342271346582724,-0.43233785933418467,-0.017405326863562477,-0.013885313115084008,0.019262152837226917,0.06013167454014396,-0.6778745557244354,0.7327141506332785,-1.2152703807030585,-1.9085967008646194,4.156668186187744,-3.6249735685090583,-1.3744698802704072,2.3804410164506247,1.0,0.47461736377471103,0.4848495240071906,0.32626366553558883,0.796990922321256,-0.2914896968613807,0.21767979497434925,-0.4821355963016002
5.2,-0.08492725832069123,0.002278587976951907,-0.45499686181716154,-0.01593012830009088,-0.009583177213486747,0.01539903812301566,0.06009358726200421,-0.677715367340294,0.732863885670907,-1.2142021106461347,-1.909518381158346,4.156421239362598,-3.6247784099974574,-1.3746441046344202,2.380373945276616,1.0,0.47493201869271845,0.4851334070848631,0.3260385877205098,0.796992324706166,-0.2915142477396634,0.21768955993825562,-0.48211402512074714
5.300000000000001,-0.23498032989577158,0.14933048949068606,-0.4971484420610438,-0.011875750587703456,-0.007926723210884501,0.01400392164850001,0.06025088791616907,-0.6799939897694125,0.7307379830795839,-1.2132524112146323,-1.9105457959025562,4.1562724113464355,-3.624615103864491,-1.3747745936693294,2.380273172800851,1.0,0.47524537882710355,0.4854465129351238,0.32591616481764807,0.7969473761124131,-0.29149432941620745,0.21771070306451573,-0.48219081844938744
5.4,-0.05822726602107553,-0.13951004910626177,-0.31789035981630354,-0.014016329464181337,-0.0069436155288137335,0.015988694040157448,0.06021935265812044,-0.6798641464121153,0.7308613801933159,-1.2123131015232345,-1.9117985807519826,4.1560444831848145,-3.624491040789258,-1.37494403520693,2.380153729684041,1.0,0.4756973324661515,0.485885032917001,0.3257230080203322,0.7968953605643555,-0.2915012069054332,0.2177342427584253,-0.4822619933335995
5.5,-0.07776762831462186,0.023692514855244262,-0.3778136673833464,-0.01797815473451872,-0.010312886313944683,0.019894365020077423,0.06018957903912907,-0.679513235678133,0.7311898357103782,-1.211330400150508,-1.9129984243907798,4.155876636505127,-3.6243216676557624,-1.3751209327946212,2.380070038199439,1.0,0.47592100316985025,0.4861292636777545,0.3254763453898377,0.7969343520215778,-0.2914996499809168,0.21772202473488042,-0.4822040155103389
5.6000000000000005,-0.2736256656912057,0.234042743275373,-0.41254889805887823,-0.010374455794836607,-0.005466251884284113,0.012784027173232645,0.0601610394631175,-0.6790074653870025,0.7316619363640745,-1.2102614012023976,-1.9141464585214885,4.155685901641846,-3.6241546029001506,-1.3752746676454952,2.3799711849310135,1.0,0.47617563551292413,0.4863937254286867,0.32522726306610134,0.796966747656089,-0.29150915050390236,0.2177115079156154,-0.48214947643244177
5.7,-0.11802745928822334,0.015895784953796732,-0.4757543634907966,-0.011200300991643895,-0.01000695536618576,0.0209356532686032,0.06019077094540514,-0.6794148076180132,0.7312811006057136,-1.2091441839967914,-1.9153087723685667,4.155467273450599,-3.623970267397927,-1.375489046161341,2.379870074994315,1.0,0.4766019585494328,0.4868322447762621,0.3249169354896011,0.7969719303208452,-0.29150886645793955,0.21771112483130475,-0.482141254386887
5.800000000000001,-0.24938200676826583,0.23516722869976764,-0.3719355876195478,-0.005412852339956342,-0.006415917300994595,0.01211909584906598,0.060182090412456465,-0.6795842074971197,0.7311245749029199,-1.2081745127399734,-1.9162785434017615,4.155300617218018,-3.6238132497376845,-1.3756544807210829,2.3798184813352123,1.0,0.47687519006059803,0.487110154367959,0.32479998794879245,0.7969361366345942,-0.2915160926039688,0.21771746604729506,-0.48219318416666435
5.9,-0.0037817458175727625,-0.08635100061112407,-0.25819241477654015,-0.019194947093501252,-0.01162407968277875,0.015993786354687636,0.06011546191690919,-0.6790878595384784,0.7315912858847533,-1.2072877752620492,-1.9175370407184475,4.155065707778794,-3.623665068340134,-1.3758441509829238,2.3797125881990535,1.0,0.4772790828814058,0.4874791844992508,0.3246174621926452,0.7968957570950099,-0.29151895570829744,0.21773936296161867,-0.48224829766810295
6.0,-0.3147534957574618,0.26956358376166323,-0.3600134968655674,-0.006798291774303061,-0.00614023188660246,0.014629635505940788,0.060115950328016594,-0.679018054921878,0.731656032031258,-1.2063567055646807,-1.9187307523615524,4.154902226740316,-3.6235011947012334,-1.3760083870511033,2.3796438657766763,1.0,0.4774855010664936,0.4876929294458435,0.32438833929347144,0.7969263606852546,-0.29153348535950635,0.2177310188483843,-0.4821927062807347
6.1000000000000005,0.08401353286825236,-0.0635472699997649,-0.2552390453489538,-0.01130493072695966,-0.014366709605102874,0.017009323486490067,0.06014196272888158,-0.6791407947388384,0.7315399117573215,-1.2053767204633021,-1.9199114642901833,4.154726505279541,-3.6233421764769496,-1.3761834243336368,2.379524660093056,1.0,0.47773848544314895,0.488005846890376,0.3241233456691746,0.7969665108564548,-0.291506366357663,0.21771482534868689,-0.48215005316771575
6.2,-0.21672462516169683,-0.033691427032735644,-0.3222787402419845,-0.007076620977234313,-0.0011544950975002181,0.017474700003464714,0.060187059236822625,-0.6794031508911607,0.7312925900043781,-1.2041768542571545,-1.9209634994002998,4.154495619067288,-3.6231934517974316,-1.3763525662889489,2.379460264637598,1.0,0.478189709507248,0.48846267038768704,0.3237853085616798,0.7969698466078883,-0.29151348240946706,0.21771492008706766,-0.48214019407511144
6.300000000000001,-0.06258698327769349,-0.06478886593694795,-0.19459809943333894,-0.014223938630394072,-0.010928652704242633,0.016346735961947648,0.0601449931599077,-0.6788718132905257,0.7317891633172305,-1.2030899173108929,-1.922098775903219,4.15431253244211,-3.6230569770411942,-1.3765088114995527,2.3793817035391074,1.0,0.47841798348308123,0.4887063632275154,0.3236829909727774,0.7969415812900362,-0.2915160463154608,0.21770310093934903,-0.4821906994052564
6.4,-0.059668716384755155,-0.07752215807944535,-0.23957012681530754,-0.012765455092701591,-0.007081723430874093,0.018107887600656687,0.06012153637659618,-0.6785412211465468,0.7320978017240398,-1.2021894277685625,-1.9232792416853604,4.15414450219073,-3.622936925899667,-1.3766831213300867,2.37933154207067,1.0,0.47882808662521137,0.4891308674989489,0.3235120380397208,0.7968920559081036,-0.2914988851251883,0.21772046775826887,-0.48227507619661325
6.5,-0.06730787452726117,0.0995746075873819,-0.3549138216989564,-0.008583427153462943,-0.011154460671844568,0.014388180689824875,0.060115290142367904,-0.6783954510023223,0.7322334080201907,-1.2012910842895508,-1.9243647853233257,4.153944497824915,-3.6227254497170542,-1.3768609998272319,2.3792486478749324,1.0,0.47901478852192053,0.4893308145821906,0.323300942098332,0.7969263171509572,-0.29151098139767556,0.21769747092928984,-0.48222152990899037
6.6000000000000005,0.09042123799050283,0.01777435352625062,-0.3674279255078367,-0.014964388750050045,-0.015128461136988333,0.013327543130733062,0.06012276195982893,-0.6783366225792041,0.7322872911176863,-1.2003432871790936,-1.9255525074400843,4.153786008367541,-3.622598200778128,-1.37706072862822,2.3791185068393994,1.0,0.4792987981741823,0.48961853009658335,0.3230647247774296,0.7969420499658979,-0.29150980620284456,0.21769392604826937,-0.4821978395279508
6.7,-0.24281751742544677,-0.19115576654472907,-0.3512377991461583,-0.018656671605945207,-0.006084534006012256,0.012140201150752969,0.06017032111013543,-0.6787651344323643,0.7318859388843578,-1.1991472244262695,-1.926745743377291,4.1535690321292,-3.6224407362439037,-1.3772064789842955,2.379038353106504,1.0,0.4797505781001211,0.49010962125084456,0.32266584076991356,0.7969751849797619,-0.29150889414912917,0.21767535755476358,-0.48215200701835964
6.800000000000001,-0.26133072975198623,-0.128323495832549,-0.3152147204768816,-0.018940327434875955,-0.006340690902147231,0.01191258526235985,0.06021781189769479,-0.6791198261576725,0.7315531506734927,-1.1979915267285264,-1.9280040053189944,4.153415056851524,-3.6223727665343226,-1.377417384881138,2.3789270749995026,1.0,0.4799591469620331,0.49032183245450106,0.32257218483063005,0.7969567060197069,-0.2914941174167039,0.21768276152440796,-0.48218814126519455
6.9,-0.2373318921083548,0.23644034277802067,-0.398147930220106,-0.006774244154940269,-0.005850182202039706,0.01230275717811575,0.06022462853515094,-0.6789050327612943,0.7317519272323626,-1.1969587408110816,-1.929089208642477,4.15321071269728,-3.6222244005402358,-1.3775890478177013,2.378846575717339,1.0,0.48025969814083713,0.4906619610843293,0.32235781451566375,0.796962572650947,-0.29148500523899856,0.21767444214033788,-0.4821877090442033
7.0,-0.13159504669440977,-0.1363590136965467,-0.363912144973441,-0.017093678107419505,-0.010358929876460263,0.007625681415007323,0.060215496937638904,-0.6787124177028433,0.731931355412334,-1.195980408021987,-1.9301582301873932,4.1530209996013046,-3.622136114467198,-1.3777740163770904,2.378722050020278,1.0,0.4806748069467329,0.49108844592187484,0.3221126763438337,0.796955645240657,-0.2914715553893358,0.21769097323450867,-0.4821998258919036
7.1000000000000005,-0.18279870332479786,0.33794252166034944,-0.3385220950080313,-0.02447791313696307,-0.008869692587284152,0.012730167438166034,0.06018850271398942,-0.6785446432213923,0.7320891126764129,-1.1956205152637664,-1.9306160466081514,4.152866464062526,-3.622090971929149,-1.3778903437809806,2.378666956743285,1.0,0.4809103072681095,0.49131677354119757,0.3219547130920438,0.7969491988459255,-0.2914830804975937,0.21768493706369793,-0.4822062384686085
7.2,-0.1697335111278351,0.1793735675393012,-0.2719727887621744,-0.009855801312090424,-0.01054733951580054,0.01386037486641504,0.060189415547675915,-0.6786492063252567,0.7319920263618137,-1.1955758091256736,-1.9306008299411535,4.152889269397462,-3.6221038650592683,-1.3778640385787706,2.37870132689349,1.0,0.48111503073084294,0.4914255101902432,0.3218342157219917,0.7969561004195601,-0.29149079627049235,0.21770503379352318,-0.48218109456365404
7.300000000000001,-0.3465866108691364,0.055490299383646385,-0.438678500667101,-0.010036341094698796,-0.011286125518711797,0.010737736468975067,0.060222543880980736,-0.67906815196219,0.731600752340041,-1.1955391860419853,-1.9306731174593679,4.152887246396595,-3.622056123531824,-1.3778691206425973,2.378686761729429,1.0,0.4811123891714821,0.4914378177473779,0.3218464461424152,0.7969536617343831,-0.2914836839995004,0.21770031280980634,-0.48219155614003717
7.4,-0.3195810759614285,0.221094570726956,-0.29802373140502225,-0.009543592240829535,-0.010663912655048131,0.013162697013213568,0.060181890706047236,-0.6786765909954648,0.7319672297763969,-1.195452877793417,-1.9307505093016566,4.152865903147586,-3.6220592639337705,-1.3778720880671964,2.3787049725979514,1.0,0.48112877503753654,0.49146053897898057,0.3218319703184737,0.7969513525575429,-0.2914865435535246,0.21770629304964134,-0.48219094407766094
7.5,-0.18681143423763255,0.3995246384247599,-0.2831836358602352,-0.011737245042288857,-0.007692130058835102,0.019852888063468223,0.060162925612161876,-0.6785403432569487,0.732095185208831,-1.195442089855657,-1.9307340266527693,4.152840421717955,-3.62207641174067,-1.3778660933123987,2.3786959648132324,1.0,0.48115324807594345,0.491481438587452,0.3218191195143935,0.7969501497046705,-0.2914985446004817,0.21770799773673516,-0.482184907585219
7.6000000000000005,-0.3100001257851231,0.2784840354559054,-0.36153228049571007,-0.012036741192050318,-0.004865320582861177,0.016240037870996753,0.06017916120342851,-0.6788134775957814,0.7318406351036612,-1.1954755714679586,-1.9307624302306117,4.152883215476726,-3.6221040794834045,-1.3778541723834437,2.378709478904461,1.0,0.4811482441183206,0.4915000280387093,0.32183230201408003,0.7969402689778335,-0.29149632751274523,0.2176952518712248,-0.482208332612414
7.7,-0.24101412534505182,0.09575329822028081,-0.3794203581699187,-0.013631716939258902,-0.006358839400918911,0.009532656957602513,0.06020854339631338,-0.6792660170420974,0.731418064805865,-1.1954927444458008,-1.9307381115355433,4.1528646772040245,-3.622072231219709,-1.3778562076370222,2.3786618418529306,1.0,0.48114822665987206,0.4915052641843012,0.3218183972757472,0.7969424805871375,-0.29149724578855635,0.21769671238973914,-0.48220346301950684
7.800000000000001,-0.08121070507839048,-0.1522079751891575,-0.30037999228386497,-0.021750859281881287,-0.011409085599702782,0.010551177847145807,0.06021139162490361,-0.6793141529403716,0.731373095090567,-1.1954724435104482,-1.9307602693667298,4.152851474879472,-3.622078588201051,-1.377875853377472,2.3786959648132324,1.0,0.48115154370982155,0.4914901718934782,0.32181135194921556,0.7969474179344053,-0.29149599004272775,0.21770263772368081,-0.4821933868945595
7.9,0.13973940113467667,-0.0967423718498218,-0.24947767695717224,-0.01763405705282108,-0.012440938389065157,0.01852678058837718,0.06017411530473101,-0.6787533998886885,0.7318967224090113,-1.195442711667772,-1.9307671127528423,4.152852144259996,-3.622095552446704,-1.377829267206665,2.3786690902336702,1.0,0.4811518113665592,0.4914833927198361,0.3218166891165192,0.7969507861356993,-0.29149560435521116,0.21770350482420678,-0.48218766171122396
8.0,-0.102446020700201,-0.0822371150146835,-0.3007281890989643,-0.015096692063451725,-0.010798808230845567,0.015393031358233854,0.0602040511081639,-0.6790976279132502,0.7315747865825553,-1.1954590657585678,-1.9307569882399318,4.152866186774391,-3.6220808521172625,-1.3778449190969786,2.378667834822379,1.0,0.48114192729730093,0.4915050698032158,0.32182885731206784,0.7969457844132047,-0.2914848068566856,0.21770469857206834,-0.48220191652189337
8.1,-0.08995873469483429,0.11282161704408145,-0.14953024225294492,-0.011962378755041983,-0.009528981241741067,0.00952640219080805,0.06022636149618905,-0.6792831665448116,0.7314007841145604,-1.195459586661254,-1.9307575506514403,4.152881145477295,-3.62207908184747,-1.3778525672587163,2.378685236376836,1.9728714230533575,0.4811454682632784,0.4914994239604284,0.3218138605770844,0.7969516669379992,-0.2915032874730577,0.21769283746664472,-0.4821863773198754
8.200000000000001,-0.43194388438207443,0.08958824001918199,-0.21382356065201524,-0.0003458897797695912,-0.01739043779282321,0.015017429576263955,0.06022185991395417,-0.6790098911512468,0.7316548830734455,-1.1954547879401218,-1.930767681734674,4.152877843781804,-3.6220861874022425,-1.377857474078935,2.3786630268847007,2.0,0.48113582394244314,0.49150928875379596,0.3218267267077636,0.7969461685990809,-0.2914823139224575,0.2176990258164786,-0.4822053496014034
8.3,-0.24612393575715819,-0.3616460820685597,-0.37351551612970824,-0.018931191068082116,-0.025144741110851063,0.01591691453483381,0.06015423283462995,-0.6785348367261685,0.7321010029486521,-1.1954679489135742,-1.9307446323242148,4.1528308774595,-3.6220997223877993,-1.3778406373978866,2.3786942861943663,2.0,0.48115427320535054,0.4914968632190437,0.3218109807055064,0.7969460911838484,-0.29149636517045385,0.21770525667358884,-0.4821941704913962
8.4,-0.9600789279483859,-0.4357469874048149,-0.3281231686298928,-0.009523064782249669,-0.060305308498985466,0.0021334923824677735,0.06022331433030748,-0.6791464852280048,0.731527874860882,-1.19547079282786,-1.9307624302306117,4.152896154720464,-3.6220652510097078,-1.3778780142413538,2.3786865887311093,2.0,0.48114615555700774,0.49150464236856173,0.32177736654506256,0.7969643004187945,-0.2914899127196553,0.21769743765968788,-0.48217150504470435
8.5,-1.6804234507788443,-0.46029895862374975,-0.07948797670678884,-0.0005763918377647481,-0.14956294038633622,-0.020294052667160188,0.06023326634609584,-0.6794286710413563,0.731265068968923,-1.1954545035637794,-1.9307368681014094,4.152870467982474,-3.6220777788071103,-1.3778899351703089,2.378683567047119,2.0,0.48114644662538075,0.49150518969218976,0.3218084442759187,0.7969453656704292,-0.29149694474884036,0.21769709813558072,-0.4821987026132121
8.6,-2.415274265324649,-0.6250507492718291,0.14801204226647524,0.00329224424026578,-0.24510016268083967,-0.040399194527339734,0.06022297913264719,-0.679300241028839,0.7313849639224588,-1.1954362122189481,-1.9307534717552075,4.1528718286628745,-3.6221070668066018,-1.3778884539435334,2.378683567047119,2.0,0.48114578800986746,0.49151248337528075,0.321815933356939,0.7969403052837439,-0.2914930019535981,0.21768368621366588,-0.48221550408791586
8.700000000000001,-3.1126154519333626,-0.708436440386812,0.27725341922050756,-0.006999136109303607,-0.3073896837775243,-0.0475666707010237,0.06020530476284964,-0.678549123890019,0.7320834370421909,-1.195444107055664,-1.930745755527764,4.152899958392955,-3.622059730494362,-1.3778513556646732,2.378681153154839,2.0,0.4811358322450918,0.49151468381216823,0.3218203388264985,0.7969544868194058,-0.2914785282634839,0.21767896565981387,-0.4822029462882247
8.8,-3.5094638029039014,-0.18637818134088424,0.5032141823398839,-0.032732360543856746,-0.34999027539343563,-0.05264178274245401,0.060191877927605414,-0.6784077438187539,0.7322157269291653,-1.195450668545561,-1.930754348957062,4.1529011476798,-3.622070350024774,-1.3778298536883753,2.378683567047119,2.0,0.48113204543759264,0.4915164803477241,0.32183183453541025,0.7969448547010161,-0.29147916160564014,0.2176945265708629,-0.48221145778209995
8.9,-3.415830950288114,0.5834533782303784,0.48588688068259567,-0.09467250612111555,-0.3736574930115413,-0.05225958403130898,0.06017554928276721,-0.6784149162597553,0.7322104222768813,-1.1954548925421704,-1.9307624302306117,4.152887218146488,-3.622090838208801,-1.3778422514544886,2.3786767117511265,2.0,0.48114127699877784,0.4915137153843053,0.3218160116974376,0.7969524772461457,-0.2914755001626895,0.21770499212430638,-0.482196348202988
9.0,-3.2620977346420754,1.6420980385254582,0.19148910091906085,-0.19448420893051577,-0.3838201684593064,-0.048400258633943524,0.06015069168388847,-0.678459408127349,0.7321712381837508,-1.1954565048217773,-1.9307701476957635,4.152876773874939,-3.622114232723956,-1.3778345339893368,2.3787074089050293,2.0,0.4811531028125193,0.4914944108411948,0.32181158356918427,0.7969521172001737,-0.2915015403855878,0.21770354063632985,-0.4821818570180715
9.1,-3.536690089625979,2.6898587136023138,0.05156021174960357,-0.29252641314842726,-0.39936855643391933,-0.053930786158168736,0.06012721252184311,-0.6782786789785369,0.7323402728397193,-1.1954714074373949,-1.9307846620949782,4.152896872967745,-3.6221425720599307,-1.3778422514544886,2.3787273100568833,2.0,0.48115058497792934,0.49148939356995114,0.3217948962314057,0.7969597518606331,-0.29149857225167397,0.21770184555953342,-0.4821717979407826
9.200000000000001,-3.5704590172761836,3.360702151186177,0.10859935362124318,-0.3605421418401114,-0.43242636122774514,-0.04395485653438922,0.060106955369136336,-0.6775715098793831,0.7329960057163297,-1.1954762326320405,-1.930794900961924,4.152890119505633,-3.6221214733519496,-1.377867739340175,2.378705828718364,2.0,0.48113969584915195,0.4915004316354983,0.32179157825603494,0.7969667103424385,-0.2914956175757039,0.21769057669512837,-0.4821671705521364
9.3,-3.6439264821673607,3.686820683099557,0.13210823529810833,-0.3884487090980543,-0.4402708305754538,-0.04613235820998099,0.06007346393903569,-0.6768701500086408,0.7336467396008197,-1.1954393047999516,-1.9307843732109216,4.152868747711182,-3.6221219501891078,-1.3778742164861535,2.378685541879823,2.0,0.4811327851633974,0.4915112010977013,0.32176612970142926,0.7969839638414609,-0.2914834704141244,0.2176799979262308,-0.48215077139596874
9.4,-3.5130343252590457,3.5655776998043693,-0.13789964754091402,-0.4199934401518207,-0.45566009093916154,-0.047051755276085204,0.06000758086872378,-0.6761830085520224,0.7342852381701984,-1.195472288753,-1.9307743511595667,4.152852089423181,-3.622081173752046,-1.3778813348089953,2.378664939385413,2.0,0.4811418041329316,0.4914974911520104,0.3217833505367019,0.7969669442340255,-0.2915053441294408,0.2176800294234377,-0.48216566544338996
9.5,-3.6221002431289806,3.8131227768877514,-0.08625067074847245,-0.4507702148638454,-0.4571146324984137,-0.04943367997397608,0.059971686543518685,-0.6757933224624331,0.7346473513716468,-1.1954739677330917,-1.9307595365673822,4.152865969794481,-3.6220829474629763,-1.3778512787202142,2.378683567047119,2.0,0.4811529924777231,0.491499032827624,0.3218061325655302,0.7969536993359274,-0.29149350861551765,0.217687831019787,-0.4821911900643728
9.600000000000001,-3.3046552190420186,3.667862240828218,0.35107392020711076,-0.48643521936423095,-0.47619079036492495,-0.040181240612410164,0.059987164240464595,-0.6758648395704003,0.7345800290833345,-1.1954973162317568,-1.9307691282071278,4.152874135725337,-3.6220640636207926,-1.3778899351703089,2.378692528660312,2.0,0.4811625006919641,0.49149736372320124,0.3218018381644693,0.7969544412810684,-0.29148874935388147,0.21771333541436147,-0.4821813259607259
9.700000000000001,-3.5713970292864325,3.8574258797443504,0.47765319182454363,-0.4646605804856339,-0.48477296177417273,-0.04901523633522461,0.059937336438148435,-0.6751608591432082,0.7352308916410383,-1.1954727378166783,-1.9307743511595667,4.152869541596697,-3.6220669502588554,-1.3778711071695693,2.3786913600987094,2.0,0.4811406750087539,0.49149046668754887,0.32179216494397445,0.7969693495637773,-0.2914815436125702,0.21770408751257275,-0.4821652163620277
9.8,-3.4475138614830407,3.7884821979952505,0.5229409660087626,-0.47808481480738013,-0.4872621026623603,-0.05031510324170527,0.05991047223248293,-0.6748119101823551,0.7355537828610085,-1.1954654469635289,-1.930783665890558,4.152847616299154,-3.6220623455443324,-1.37787540804339,2.378688779443047,2.0,0.481147968097616,0.4914983945226376,0.3218076716907645,0.796951118516261,-0.2914977178706064,0.21769095118476808,-0.48219150235583746
9.9,-3.65439353046697,3.8614635426575283,0.5133455518668314,-0.49139156192125893,-0.47953040391834495,-0.04723166115040184,0.059948001245734704,-0.6754585203789928,0.734956995405614,-1.1954614722549226,-1.9307611244526577,4.152858557166221,-3.622052611565245,-1.3778754026854458,2.378697218360068,2.0,0.4811448504118831,0.4914962500102617,0.321800432628432,0.7969575265969904,-0.2915006858802388,0.21769092363093656,-0.4821791292667774
10.0,-3.4688307272053907,3.7541349552221153,0.5896438545241477,-0.49049152571346344,-0.4790493313399501,-0.04606354373403558,0.05991299372506386,-0.6749790037018222,0.7353995677932976,-1.1954601140899581,-1.9307850848292518,4.152848515121452,-3.6220861874022425,-1.3778577341612537,2.378664474226289,2.0,0.4811517842550169,0.49149126063051424,0.3217733068570982,0.7969674710515943,-0.29150417169310355,0.21768733653267347,-0.48216220453749226
10.100000000000001,-3.7445488505817965,4.062293215794265,0.44964277906258915,-0.48632169294215083,-0.4859468380547994,-0.049601610644952825,0.05985453819906317,-0.6741354576519865,0.7361781214282535,-1.1954679489135742,-1.9307303020936817,4.152868747711182,-3.622065050470052,-1.3778633883866793,2.378691853326139,2.0,0.48115976645635944,0.4914934938457255,0.3217891822454338,0.7969604750027137,-0.2914965879922191,0.21770434481556872,-0.4821706738497972
10.200000000000001,-3.7141360667633836,4.293281365193462,0.67013327681905,-0.5080821807835783,-0.4876262282505569,-0.04853448209968747,0.0597323707418343,-0.6726826771686625,0.7375141499623438,-1.1954369039446664,-1.9307624302306117,4.15288689408486,-3.622084888738464,-1.3778342265168702,2.3786959648132324,2.0,0.48115160205634033,0.4914974445274932,0.3218175602158467,0.7969443402090021,-0.2915055151573801,0.2176930211631512,-0.4821970569990328
10.3,-3.600856653063191,4.343350101842029,0.74176444157561,-0.5317938429276101,-0.4951626932876675,-0.04312881686753809,0.05961413521287278,-0.6712986754217181,0.7387855821031413,-1.1954890684564319,-1.9307541369227443,4.152857303619385,-3.622077894094375,-1.3778755958272952,2.3787161306817737,2.0,0.481151485675193,0.4914789015033042,0.3218319359634136,0.7969321658134373,-0.2915208943795,0.21769666950077013,-0.4822062331828088
10.4,-3.7606439827841602,4.595511488063057,0.8123669699934568,-0.5274806946719257,-0.5030799790705799,-0.044848284337769155,0.05958300418403741,-0.6708529012546346,0.7391928872486564,-1.1954776385604222,-1.930796365470655,4.152865092617538,-3.6220797491137526,-1.3778559999302655,2.378716151577499,2.0,0.4811446289445234,0.49148874477948795,0.3217927680224297,0.7969515743153539,-0.29152635538826227,0.21768428275119706,-0.482176446286432
10.5,-3.7398726927986465,4.373499990438074,1.0890104099574307,-0.5264469889513103,-0.5154570495829788,-0.0460254357931704,0.059602754322076575,-0.6708684588352043,0.739177232757624,-1.195479393005371,-1.9307573849422663,4.152848481186388,-3.6220827495819377,-1.3778729689530085,2.3787250537710216,2.0,0.4811318453569736,0.49150786105213784,0.3218122830284099,0.7969554760270711,-0.29149129030696896,0.21768514804141426,-0.48219080583087687
10.600000000000001,-3.911491500192554,4.198615036698286,1.0964372279978116,-0.528077409750329,-0.5099597569875697,-0.050458240586092114,0.059619292756587776,-0.6709382705954995,0.739112503319785,-1.1954541098054035,-1.93074046049391,4.152856106111198,-3.6220861874022425,-1.3778553238336235,2.3786767287560413,2.0,0.48114142756364153,0.49149491341845525,0.3218102958042961,0.7969515835028146,-0.29151118536508286,0.21767795546885899,-0.48218845907207064
10.700000000000001,-3.7519322071781915,4.142802020368899,1.0531488228185273,-0.5226262795943951,-0.5194901973311679,-0.054559884152727826,0.05954820175277751,-0.6705306746546212,0.7394880075288379,-1.195477067874028,-1.9307813796246545,4.152852459595754,-3.6220849763963345,-1.3778434624603964,2.378670863509178,2.0,0.4811550167152776,0.49148004909549686,0.32180595337457146,0.7969417086483379,-0.29152776038861145,0.21768864427137335,-0.48218993363068013
10.8,-3.94693768779624,4.014312830195178,0.9409919710509165,-0.5205886078631712,-0.5213342503573813,-0.05168162004236966,0.05962106205554785,-0.6712894386739846,0.7387916751189147,-1.195461187901392,-1.930757454458521,4.152849784061203,-3.6220623455443324,-1.3778612151044667,2.3787025306970975,2.0,0.4811486272159485,0.49150932813849446,0.3218109985207652,0.7969446620703574,-0.29149885906573336,0.21768674202194865,-0.4822033835518051
10.9,-3.543229068004709,4.159904976695944,1.1757728982136149,-0.533311998711299,-0.5260386984897565,-0.04925438233711339,0.05975528995197407,-0.6725454312756848,0.737638410183256,-1.1954863772145194,-1.93076107904838,4.152856275909131,-3.622092423303268,-1.3778774633682584,2.378690052384185,2.0,0.48113728276074985,0.49150040853378507,0.3218003743360504,0.7969614111479398,-0.2914875477254634,0.2176941823938973,-0.4821791799880335
11.0,-3.894134918787614,4.249128202413598,1.1073066313791637,-0.5247768709429229,-0.5169680587036648,-0.05728338143551299,0.05979853943155242,-0.6730439149109059,0.7371811143110729,-1.1954530470127853,-1.9307571589343338,4.152863953252062,-3.6220861874022425,-1.377845576270827,2.378678772587999,2.0,0.48114137505993093,0.49150235960600075,0.3218038625344886,0.7969551030142801,-0.29149729747890835,0.2176844548194544,-0.482188103826658
11.100000000000001,-3.7634364954259993,3.8540370214013193,1.0664927520726946,-0.5259423133649106,-0.5209552194694289,-0.04924113454443708,0.05979521761216105,-0.6731962815543765,0.7370422617146342,-1.1954574865579746,-1.9307412203668348,4.152868747711182,-3.6220623455443324,-1.3778344210930222,2.378665942851792,2.0,0.4811325567538779,0.4915008196079396,0.32180363145178525,0.7969620314258014,-0.291490900046645,0.21769950431123375,-0.4821737254126358
11.200000000000001,-3.851463053902261,3.9747199355506186,1.1535094108202835,-0.5215102316236079,-0.5208635580023135,-0.051296008636417756,0.0597755051237968,-0.6733185046076636,0.7369321936333969,-1.195479393005371,-1.9307473762990317,4.1528449058532715,-3.6220742664732875,-1.3778521553568437,2.3786959648132324,2.0,0.4811521112844864,0.4914900520495074,0.3217953149860447,0.7969564524078457,-0.29151368367505487,0.21770562827438703,-0.4821664075952985
11.3,-3.6613206588705234,4.006114103024608,1.0682883384319846,-0.5290469794144862,-0.5252567611954774,-0.05343235921768403,0.05981174712607347,-0.6735427455185936,0.7367242951290874,-1.1954462953116531,-1.9307392494286575,4.1528449058532715,-3.622085093274248,-1.377855266511438,2.3786721229553223,2.0,0.48115740960209696,0.4914949724671723,0.32181886916958785,0.7969469785514809,-0.29149905953549266,0.2177030128760591,-0.4821920881269982
11.4,-3.8499911822005575,4.194182504719555,0.9810411239849631,-0.5289299974951531,-0.5197421659842008,-0.05702740326232173,0.05979123848913933,-0.6734074308468391,0.7368496425533079,-1.195475230353718,-1.9307272312695016,4.152845988142701,-3.622096027005371,-1.377843292117402,2.3786938834874056,2.0,0.4811526027651598,0.49148105308159923,0.32182253017843554,0.7969494252619028,-0.2915070718006697,0.21770123070974065,-0.4821840051395174
11.5,-4.111374340099962,4.133311623490233,0.866998167084305,-0.5334838978294797,-0.5138624111771231,-0.05613032380380956,0.05979779238518326,-0.6735807767333635,0.7366905490789416,-1.195479393005371,-1.9307381115355433,4.152846978144608,-3.622108036672329,-1.3778581575590914,2.3787034237293816,2.0,0.4811521724860385,0.4914761899749319,0.3218004412627324,0.7969617733826739,-0.2915045831409501,0.21770617499814496,-0.48216286785923446
11.600000000000001,-4.043377447139741,4.14302044587892,0.8049876188750102,-0.5351507558874199,-0.5162953197154373,-0.05588687893921063,0.0598152002294035,-0.6738211229071555,0.7364693104247924,-1.1954668557903374,-1.9307273292766267,4.152822157118599,-3.6220634842143706,-1.3778660933123987,2.3787186224543024,2.0,0.4811482377563787,0.4914919724453095,0.32181147356209994,0.7969499858403688,-0.2915027236417674,0.2176997028189218,-0.48218639712358186
11.700000000000001,-3.539138708979541,4.091657307463785,0.8676376338592329,-0.5431393917661081,-0.5271649040384777,-0.051690087127729684,0.05974391528351223,-0.6732087205494733,0.7370348387623088,-1.1954328016063287,-1.9307733008549726,4.152866647101994,-3.6221068783463704,-1.3778520717742553,2.378696973105643,2.0,0.4811698768411897,0.4914789651949237,0.32180122441334363,0.7969454801397652,-0.2915222357543945,0.21770377590240067,-0.4821802087429509
11.8,-3.936960580622131,4.0903674105679455,0.8385229125538093,-0.5418863470118777,-0.5187483198285301,-0.0525222949390429,0.05981159578690381,-0.674268428170816,0.7360602279701257,-1.195465433546473,-1.9307636879141623,4.152836331445152,-3.6221075138930514,-1.3778541723834437,2.3786721229553223,2.0,0.4811672726893921,0.4914853831205731,0.321812653526723,0.7969389047130284,-0.29152017943132374,0.21770974539404864,-0.4821896244213326
11.9,-3.8403460205641395,3.695435859133001,0.8679771983827802,-0.5460818758537384,-0.5265019207210354,-0.053776949679388245,0.05985063279193689,-0.6742360527621124,0.7360867105824546,-1.1954772062396501,-1.930773212219087,4.152832508087158,-3.622064623425292,-1.3778541723834437,2.3786959648132324,2.0,0.4811445281429557,0.49149437734861795,0.3218063220447823,0.7969565323745954,-0.29149134677083427,0.21768801344346372,-0.48218773218138167
12.0,-3.7384907338231237,3.9749419101737544,0.7776637259924398,-0.5354521262199384,-0.5318061976429623,-0.05408095400980755,0.059857997194493744,-0.6744762189420687,0.7358659385697645,-1.195478550394185,-1.9307372338155577,4.1528563907906,-3.6221082738201815,-1.3778431291744742,2.3786738783952934,2.0,0.48115210393500224,0.4914817637864792,0.3218318956540509,0.7969377571101871,-0.291505387560821,0.21770642030730913,-0.4822019648157578
12.100000000000001,-3.6683385854611954,3.853092323443652,1.118429285938853,-0.5530229835847162,-0.5362433792243455,-0.05404170704509549,0.05984525220296147,-0.6748226691392829,0.7355493882291793,-1.195454356204941,-1.93072571376943,4.1528638281195285,-3.6220861874022425,-1.3778660933123987,2.378677042546975,2.9095948505393894,0.4811588621262349,0.49147537513134515,0.3218188160161339,0.7969366713942723,-0.2915234676565456,0.2177044958698139,-0.4821936976678474
12.200000000000001,-3.662964869366074,3.880539904995731,1.5368508389685185,-0.5597151920644906,-0.5383486358167513,-0.05618643483230809,0.0598276394090237,-0.6746062215617303,0.7357493381238872,-1.1958065057365845,-1.9300872346659033,4.152845381470087,-3.622122179705522,-1.3778162917562038,2.3787443548826253,3.0,0.4811473877371842,0.49147143036150953,0.32185965749607476,0.7969209262341606,-0.29151890216126025,0.21770942054142772,-0.4822202559207742
12.3,-3.523686152077839,3.5184258767714702,1.6956327918365683,-0.5332695664351168,-0.5112679710032391,-0.0763578007677179,0.059736799527919195,-0.6741110248656387,0.7362099813067466,-1.1967586043711682,-1.9290420017638148,4.152918338775635,-3.622263477347008,-1.3776043252922263,2.3787945896940426,3.0,0.4810648922787322,0.4913300272708493,0.3220437149992958,0.7968641541611671,-0.2915200949792971,0.21775688290002132,-0.4822919178111281
12.4,-3.0866032019770535,3.0387914821610997,2.0066072681336515,-0.5040604217003273,-0.47595512832855846,-0.10176442060951381,0.05964595964681469,-0.6736158281695469,0.7366706244896061,-1.198067699570601,-1.9279044294712377,4.153169806377025,-3.622398188121213,-1.377398784279734,2.3788653700035183,3.0,0.4807771029502315,0.4909437133098169,0.3222750453913724,0.7968496504364746,-0.2915641081227591,0.2177681345262618,-0.48228419530272865
12.5,-2.8488358484442458,2.712093169295649,2.0438614070962813,-0.4793005615907783,-0.43898653059385323,-0.13654661359262127,0.05948671210689087,-0.6711239028860969,0.7389421771540773,-1.199068449170709,-1.926650708317185,4.153546450692043,-3.622515413321921,-1.3771774781059565,2.3789963722229004,3.0,0.4805378041964091,0.49068619769905414,0.3223139188695823,0.7969116533310768,-0.2915632201388314,0.21775999036715066,-0.48218595172682466
12.600000000000001,-2.7158022543350864,2.593345619859108,2.380299743810334,-0.44007329676809137,-0.40403602932227445,-0.16607234292643852,0.059259430874787015,-0.6666461646041614,0.7430147395353591,-1.2002563327403655,-1.9254833809680294,4.1536259953179036,-3.622709890405172,-1.3770387808429163,2.3790793116889324,3.0,0.48004606835876423,0.4903049648925179,0.3226106511219932,0.7969284656356652,-0.2915230096994036,0.21772432498525943,-0.4821985833503656
12.700000000000001,-2.43582556329496,2.0763264892251687,2.4045525118461626,-0.3755044789736175,-0.3740484598124498,-0.18058651971415696,0.05893097456262566,-0.6620707795716906,0.7471078718103461,-1.201167106628418,-1.9244284040876607,4.1538777351379395,-3.6228155598675382,-1.376873313457128,2.3791756629943848,3.0,0.4798104829539322,0.4900320733000277,0.3227496829712897,0.7969469381084437,-0.29153459659212794,0.21773206828280772,-0.48215755025793405
12.8,-2.4323038662056415,1.6846894273174515,3.046081514887599,-0.3432780769495511,-0.3451523488949071,-0.20766492184299595,0.058658933858116484,-0.657899559895524,0.7508134267324311,-1.2020408452359552,-1.9232736875201504,4.154156991391306,-3.622981080624755,-1.3766991426628412,2.3792841492889796,3.0,0.47938156071916166,0.48966570954009986,0.32305879667105414,0.796937648302482,-0.2915142001220719,0.21772251347076935,-0.4821895508752436
12.9,-2.3313428170837516,1.1770160233900469,3.658530137059049,-0.32187664091626594,-0.3400271119034027,-0.22052559979801498,0.05852388866523577,-0.6555036382514041,0.7529203185236678,-1.2031316757202148,-1.9221558010240218,4.154332637786865,-3.6230829724010687,-1.376520740350926,2.379351986563747,3.0,0.47920541415248397,0.48951639881029846,0.3232250194979927,0.7969170815046446,-0.29149859512567955,0.21771930581212945,-0.48223442237418035
13.0,-2.2537867406981626,0.9058561227337094,4.05226373663951,-0.3039939982018504,-0.3452822801800725,-0.23144550424766533,0.05847710148408564,-0.6546520306528123,0.7536644525075371,-1.204220808981436,-1.920959579203413,4.154572005577257,-3.623248711558997,-1.3763678614773938,2.3794989210238424,3.0,0.47892024766874136,0.4892334774808277,0.3233939247139753,0.7969263301012575,-0.29149732815489793,0.21771506170304133,-0.4822218203042441
13.100000000000001,-2.8842037415268544,1.083200146949043,4.357397042711322,-0.2983588490418131,-0.3549703019356461,-0.25270298943977904,0.058415321786101315,-0.6536120170473545,0.7545707316168809,-1.2054129313408182,-1.9198800526061,4.154794273944088,-3.6233588368834457,-1.3761780705096658,2.3795036884338407,3.0,0.47841615189367664,0.48872782647660273,0.3236777603417494,0.7969519609735537,-0.29149377799353454,0.21770754603132772,-0.48218499944780613
13.200000000000001,-3.408783973441621,1.6582079869075916,4.5927575920597175,-0.3143593070639803,-0.36476252094972206,-0.2451685991051996,0.058334938751368005,-0.652338221453854,0.7556782071233851,-1.2062906526505768,-1.918634630480316,4.154969835383741,-3.6235439355942103,-1.376024953467818,2.3796362949779177,3.0,0.47819920474767974,0.488520335770642,0.32377319700364343,0.7969730908680548,-0.2915149399186664,0.21767834145047585,-0.48215046603711353
13.3,-3.37752989812674,1.7130409371768662,4.960375337782587,-0.3404952651504949,-0.3971929599340314,-0.23924010730350917,0.0582862293672386,-0.6515744918724083,0.7563421075237675,-1.207200460023399,-1.9174465610904559,4.155135631561279,-3.6237239048686085,-1.3758658552762277,2.37970383755542,3.0,0.4778968825151153,0.48822054310987373,0.3240275144713979,0.7969674014961079,-0.2914908777990569,0.21767220272662702,-0.4821771886688704
13.4,-3.2621789185775976,1.6003502800413074,5.29872686899485,-0.3496728805438027,-0.4182214025846346,-0.23618833198851968,0.05827840402107357,-0.6514691505033591,0.756433445521871,-1.2081172149772217,-1.9164080015195886,4.155322222583556,-3.623827661407052,-1.375667332472872,2.379829554431701,3.0,0.4774834914329703,0.4878110442943979,0.3244006456017415,0.7969213217150247,-0.2914855403170673,0.21768360451850446,-0.482251423124781
13.5,-3.5906435050615877,1.4780993944481062,5.055073973619862,-0.3471556735191211,-0.42672474540959077,-0.23087908708881016,0.0582737499109085,-0.6513527519839875,0.7565340366527284,-1.209240965707225,-1.915280930443903,4.155544806932585,-3.6239821148747695,-1.3754942791294407,2.3799214346965423,3.0,0.4772813570121285,0.4875821472205458,0.32455489399224907,0.7969135443061564,-0.29149533490058666,0.21770130989453665,-0.4822503626777255
13.600000000000001,-3.6659857850162396,1.4813183361755924,4.9692730182896945,-0.3529724839578556,-0.4434468232397443,-0.22744824888460602,0.058273358477187,-0.6512214907882924,0.756647065555805,-1.2104361639853354,-1.9141869213454141,4.155711634787711,-3.6241447455369458,-1.3753369490252894,2.3799717404362677,3.0,0.47682588864966396,0.48712858797261643,0.32476295363928026,0.7969642207089098,-0.29150284419161937,0.2176631009466429,-0.4821793206104218
13.700000000000001,-3.4458685295960234,0.8062072669251511,4.691082222412062,-0.29859077331893624,-0.41422782105265205,-0.23058071040249944,0.05786894141176661,-0.6451589546415915,0.7618263572761872,-1.2113947172298882,-1.9128673444439006,4.155892599586508,-3.6243118026422416,-1.3751469184543266,2.3801316518917535,3.0,0.4766495470709518,0.48694983685657794,0.3248184338916717,0.7969951167618519,-0.2914942086939558,0.21766309401231995,-0.4821334749430191
13.8,-3.123168216809523,0.4470827139261838,4.726890866208911,-0.27500874393832336,-0.3970837482763793,-0.22396254101513133,0.05737498112558174,-0.6379854007123552,0.7678768495474494,-1.2122808217270225,-1.911689897576803,4.156093343912396,-3.62449050223697,-1.3749566454510953,2.3801720293175843,3.0,0.47634218485603674,0.4866220419062928,0.3250825364885745,0.7969776041912234,-0.291477933129557,0.2176831642673196,-0.4821632015310857
13.9,-3.0824824969950724,0.07167850506663259,4.662589657800241,-0.20990738441793852,-0.355203137552045,-0.22697730704055746,0.05680647872776142,-0.6300207440497304,0.7744871794592904,-1.2132251385371808,-1.9105997276949576,4.1563090147336785,-3.6246171014226434,-1.3747996666219333,2.3802542686462402,3.0,0.4759263067535243,0.48618185175166456,0.325504945137269,0.7969233262799413,-0.2914720572175762,0.2177017675620373,-0.4822480609526934
14.0,-2.9269860797716247,0.004856663766464478,4.560291004800969,-0.20726494202160126,-0.35220152530789095,-0.2243379338479817,0.05666009256008044,-0.6281053468168527,0.7760618846392404,-1.2142432449465523,-1.9096089400052205,4.156472912292401,-3.6248280010619105,-1.3746183554278772,2.380376407445524,3.0,0.47570654497011877,0.48595019174378673,0.3256802228396671,0.7969169113330881,-0.2914820085547992,0.2177012899035187,-0.4822528626089583
14.100000000000001,-2.9933896945838425,-0.10352157901722853,4.671374498835934,-0.21973882942425074,-0.36585191408528733,-0.2234770381379089,0.05655228521426496,-0.6265969051770576,0.7772879038989959,-1.2152609989261522,-1.908515884242596,4.1567063331604,-3.6249848096858215,-1.374415425816493,2.3804221153259277,3.0,0.4753205621144386,0.48555973537571695,0.32584090799367266,0.7969744838707407,-0.2914802802775474,0.21770362193246012,-0.48215770372957645
14.200000000000001,-3.22972002834738,0.6498388022672892,4.541895144692793,-0.2523005893513034,-0.3842481364053857,-0.22605002201554428,0.05642649455835988,-0.624658324637157,0.7788554826459799,-1.2162914944855983,-1.907206589673191,4.156897068023682,-3.6251494742487256,-1.3742459880784137,2.380527110465883,3.0,0.47511988909767433,0.4853783630116168,0.3259273098346958,0.7969882273956632,-0.29148278801159144,0.21770281627169263,-0.48213383357018413
14.3,-3.400710616746849,1.014808316442472,4.590422267797597,-0.2822804116838452,-0.3967938188520938,-0.22461832437941992,0.05630638727033759,-0.622903834735378,0.7802688462570245,-1.217234346860277,-1.9058787008431153,4.1570792686051465,-3.625356517745707,-1.3740996294426724,2.3806056665581385,3.0,0.4747970295311901,0.48505342360115666,0.3261743248043886,0.7969783712300538,-0.2914799547838381,0.21769905587063795,-0.48215353656665755
14.4,-3.2720888787518945,0.7748388427276758,4.945484462238415,-0.27109950707077896,-0.40097652659356114,-0.2138873406291617,0.05620946632447991,-0.6220882693164801,0.7809265377182966,-1.218216896057129,-1.904900180137759,4.157297948230008,-3.6255540179233514,-1.3738929148337642,2.3807215690612793,3.0,0.4743032168164513,0.4845138800227946,0.32667118004255885,0.7969086265329997,-0.29148304218770016,0.21771490703253188,-0.48225978095846567
14.5,-3.42688761284536,0.8219073850499446,5.046649208128521,-0.26966128701692504,-0.408135323547366,-0.21382676825583238,0.056157264038736644,-0.6218650824159161,0.7811082139267335,-1.2192072509522278,-1.9039099829326485,4.157462296201432,-3.625700710400419,-1.3737195173846644,2.380793286496482,3.0,0.4741226129622985,0.4843021460168831,0.32678051605657843,0.7969130129092998,-0.2915096334300489,0.2177202680840684,-0.4822340389672862
14.600000000000001,-3.5558566200604775,1.054319402342377,5.228863326667362,-0.2803626547964574,-0.4173241292096618,-0.21408137989793447,0.05617235828718816,-0.6220106996498586,0.7809911329690964,-1.220250387140302,-1.902783787091194,4.15764797368046,-3.6258501925029605,-1.3735256266461586,2.3809110236921582,3.0,0.47388233412555447,0.4840732191859968,0.32686854592165304,0.7969491852161992,-0.29150793807513886,0.21770592066308575,-0.48218176067812407
14.700000000000001,-3.7195033594311613,1.225297811763182,5.448817165714549,-0.2982342407422648,-0.42465661724397286,-0.2126876943032005,0.056089784723961464,-0.620490231999256,0.7822001851253572,-1.22121755069277,-1.9015212105646915,4.157811930904344,-3.6260121538415007,-1.373395434232858,2.3810277415371597,3.0,0.47347986980612367,0.48364932817849626,0.32709783165671974,0.796976275414233,-0.2915126237183354,0.21770348757511995,-0.48213524880197084
14.8,-3.241809874821174,0.665021013449388,4.878171300847167,-0.2733217348410747,-0.41933560834107336,-0.21601562947026118,0.05584413583430891,-0.6174000588325813,0.7846556751173808,-1.2220349804188617,-1.9001924131201635,4.158082500553703,-3.626228237215656,-1.3731709047181055,2.3810672836783406,3.0,0.4730857032113923,0.48321733470123757,0.3274946320690238,0.7969169724889941,-0.29152319138296984,0.21772058949400777,-0.4822191542807544
14.9,-3.374977045535571,0.2806442715470153,4.698229886335689,-0.230334756237934,-0.394003582659184,-0.21688313675235865,0.05567460530632948,-0.6151547944498373,0.7864380285970923,-1.2230612006174881,-1.8991616358825103,4.158265181389156,-3.6263822194724145,-1.3730014908661565,2.3812331507187126,3.0,0.4728957747583658,0.4830416074917495,0.32771553484841653,0.7968826186870425,-0.2915032056635383,0.2177206952720291,-0.48228795545050324
15.0,-3.2103400658516468,0.3371722091158733,4.8617381671925015,-0.22996961391632875,-0.39381299984960116,-0.21737073532694845,0.055663853073037506,-0.6146719586445124,0.786816260059888,-1.224145854754692,-1.898158933612424,4.158482731554442,-3.626517516471408,-1.3728117007934293,2.381280090825735,3.0,0.4726412280313864,0.4828010185403197,0.3278660395441855,0.796895972232587,-0.29149429249528025,0.21771834828292563,-0.4822723376922118
15.100000000000001,-3.390051125023424,0.6488661052497389,4.941767492974571,-0.24833010571249928,-0.39269070581094884,-0.21599740742677087,0.05566362093927818,-0.6147518755968944,0.7867538890572324,-1.225325584411621,-1.8969945859570432,4.158711275252106,-3.6265991218880442,-1.3726130068114675,2.381400561737076,3.0,0.47232679500123964,0.4824884861311887,0.32798603137798354,0.7969335558652166,-0.29150144504643866,0.2177127020334672,-0.48220845538537255
15.200000000000001,-3.40535181672096,0.9920016917387049,4.460794330361826,-0.29498775624459717,-0.39866896772750404,-0.22013348071703479,0.055566019644118635,-0.6135147641144931,0.7877244202042785,-1.226181001208215,-1.8959462733493548,4.158886005905046,-3.626756330529684,-1.3724740510409932,2.3814414639159445,3.0,0.4719677568941543,0.4821109256520226,0.3281304376077025,0.7969631695729743,-0.2915218080501548,0.21770375243355586,-0.48215123970774587
15.3,-3.333548706981062,0.614785068083631,4.538014052030351,-0.2387622196371949,-0.396889410121501,-0.21470790070322673,0.0554643944381838,-0.6120913219040905,0.7888391779288213,-1.2261343002319336,-1.8959612070763756,4.158899236191108,-3.62671936967526,-1.372439122948202,2.3814635276794434,3.0,0.471646882752965,0.48177753339961144,0.3283366109923812,0.7969561264113034,-0.2915194587160474,0.2176972390549938,-0.48216724263809757
15.4,-3.6783055295738407,0.5759636600065017,4.35872254674767,-0.2333771263871576,-0.39651996990865934,-0.21697359149842096,0.055408701112350696,-0.6110344740144393,0.7896620805162425,-1.2261581420898438,-1.895948429974735,4.158887486523437,-3.6267643675266146,-1.3724605479515415,2.381475398507691,3.0,0.47158240973170246,0.4817152794660971,0.3283993693368314,0.7969592612365377,-0.2915086376369512,0.2177037387882091,-0.4821656688628878
15.5,-3.4850458749532547,0.4664915555511261,4.309719908559644,-0.23948361648907152,-0.40646819574265514,-0.2172186303225603,0.055392216411899724,-0.6107640118625386,0.7898727889354127,-1.226170539855957,-1.8959096890254377,4.158893440944561,-3.6267109655641208,-1.3724314225703915,2.3815027591974838,3.0,0.47158586807939457,0.4817320165371577,0.32840045639767096,0.796946098983794,-0.29151399600150907,0.21771420401662495,-0.4821794591427063
15.600000000000001,-3.4821696213924875,0.6600776318744561,4.2977932438565745,-0.22971197041262115,-0.4037882014097803,-0.21258544414026212,0.055387684548824645,-0.6107332811663174,0.7898968685895023,-1.2261934280395508,-1.8959279680790064,4.15891075904353,-3.6267181835570277,-1.3724153420125147,2.3814419593287113,3.0,0.4715670804958368,0.48173553989747797,0.32842333995636336,0.7969378886311625,-0.2915033150829247,0.21771026464679027,-0.4822012646470291
15.700000000000001,-3.2330356383279706,0.4227373450893741,4.352981489649902,-0.23115159281898456,-0.407243724313228,-0.21624306081656097,0.055364102877186926,-0.6104333114972589,0.7901301014059556,-1.226170539855957,-1.895916025409583,4.158935531637548,-3.6266947855449887,-1.3724387327777308,2.381439685821533,3.0,0.4715603095494489,0.4817271926124071,0.3284190953937996,0.7969497534380314,-0.2915031088787792,0.2176909392512763,-0.4821905048598163
15.8,-3.3104171243757614,0.10495787944429824,4.283182637762439,-0.23601854519481982,-0.4071710625598077,-0.21398950030496253,0.055334337794136434,-0.6100459490687438,0.7904312236212409,-1.2261853470017472,-1.8959233810951615,4.158911228179932,-3.6266905050345692,-1.3724458031480418,2.3814239929021452,3.0,0.471553518096574,0.4817278728378573,0.3284282327448526,0.7969438620881555,-0.2915021414384981,0.2176867029987986,-0.48220273905723293
15.9,-3.4304896345157636,0.23358752760949336,4.384374901242134,-0.2243974261561279,-0.40579332923920947,-0.2115792634077042,0.05530457271108594,-0.6096585866402287,0.790732345836526,-1.226174487342583,-1.895910996873485,4.1589153401451675,-3.6267400516716246,-1.3724288678313934,2.38146155393613,3.0,0.47156568206035926,0.48171869722950617,0.328407223161293,0.796951942485221,-0.2915093516827095,0.2176919200461097,-0.48218266994697945
16.0,-3.5701376106256766,0.09662264611332441,4.148714283733632,-0.20081439952903724,-0.3902103573165367,-0.209415179559604,0.05530171026042224,-0.6097069894077195,0.7906953094290241,-1.2261930728175348,-1.895913939025185,4.158911583401948,-3.626717813534094,-1.3724268118487757,2.381440810691251,3.0,0.4715795792143583,0.48171968779702806,0.3284080022678876,0.7969425195034494,-0.29151881420453746,0.21770658624389586,-0.48218590178301934
16.1,-3.461936920482641,0.04115184808370775,4.119527157405615,-0.1840711642224096,-0.3829739013131541,-0.2114290944699606,0.055300564505263064,-0.6096823130891478,0.7907143340347405,-1.2261350939949371,-1.8959035562617677,4.158957867470747,-3.6267062626280726,-1.3724027647042085,2.3814871188753526,3.0,0.4715765133807171,0.48172773688863063,0.328430404722231,0.7969333402586691,-0.29150786820746105,0.2177048293500683,-0.48220848316362025
16.2,-3.4388322477365176,0.054562336452477864,3.913258376003312,-0.17663541483210052,-0.3825180337924869,-0.21509096000380984,0.055284251787201776,-0.6091582668797364,0.7911193426735602,-1.226204414536842,-1.895902772943014,4.1589226722717285,-3.626698564811865,-1.3724345096649835,2.3814635276794434,3.961902057787438,0.471562350604387,0.481742986540306,0.32844858934172266,0.7969308160071322,-0.291492782611953,0.21771486224382156,-0.4822172445501103
16.3,-3.3604166013427226,0.06873613006831246,3.924534279623246,-0.18357154892137403,-0.38419217640950776,-0.2102790696168443,0.05530156110429915,-0.6094642001783536,0.7908824643794687,-1.2262073115912786,-1.895914693871969,4.158900515432929,-3.6267057083454706,-1.3724381784951285,2.3814641041333497,4.0,0.47156463994042297,0.48173695417550183,0.3284250239085628,0.7969384389968236,-0.2915043575519543,0.21770466481999656,-0.4822022530983669
16.400000000000002,-3.2587710771703264,0.24721069111354083,3.8416621289718242,-0.19310452578653053,-0.38241144435042324,-0.2071687136710751,0.0552475261872137,-0.6087579871739444,0.7914288065623942,-1.226197519068422,-1.8958844334439884,4.1589226722717285,-3.6267380917333307,-1.3724387327777308,2.3814520835876465,4.0,0.4715511429224872,0.48174314188165257,0.3284182053256105,0.796946780414267,-0.29149392612418207,0.21768912370720017,-0.48220178933682434
16.5,-3.2442419028860656,0.23842474301617295,3.839204980195292,-0.20003119193362418,-0.38135161819432917,-0.20439555836839038,0.05516402841033635,-0.6076337905026485,0.79229859345483,-1.226228257631142,-1.8959020091754466,4.158943707717469,-3.6267181835570277,-1.372429015024451,2.381438980805317,4.0,0.47156463619849337,0.4817196288077351,0.32839470540701027,0.796949194578746,-0.2915137756650517,0.2177057162620287,-0.48217830826845653
16.6,-3.4730407821170357,-1.3595350388958478,3.2154598433058084,-0.08344261616847276,-0.4006665913281551,-0.23766173389197304,0.055247758975942134,-0.6085297273517924,0.7916036896470842,-1.2262179021482114,-1.895914693871969,4.1589471195950924,-3.6267175139245986,-1.372427816297419,2.3814517353787834,4.0,0.47153748322251,0.4817309370957127,0.32841096426977506,0.7969561122366695,-0.29148948285686144,0.21769234170828217,-0.48218759929514676
16.7,-3.8195388846490856,-1.828733728589389,2.3312963998760075,-0.02285292779741224,-0.416033753279193,-0.2511283490429542,0.05539615205046868,-0.6103753709744226,0.7901721335723012,-1.22617395905858,-1.8958581740594345,4.158935070037842,-3.6266943416991175,-1.3724405136124302,2.3814740733774693,4.0,0.47154205101862817,0.4817319580213155,0.32844133726729974,0.796941201906561,-0.29148735576493956,0.21769516969581104,-0.482212251217243
16.8,-4.067861476592384,-1.9048638959806865,2.2085162498900828,0.012063375169061702,-0.4257837792196891,-0.2612402749917794,0.05551377886627277,-0.6124346224040007,0.7885690400380039,-1.2261832789004066,-1.8958651844099772,4.158915328863332,-3.626685118588189,-1.3724373838687174,2.38147322762753,4.0,0.4715585322447479,0.4817152428123241,0.3284438166002048,0.7969316412792912,-0.29150755473180184,0.21770716227275433,-0.48221042725901836
16.900000000000002,-3.861591259281027,-2.3502737024759606,1.9928379901396653,0.0033688416739358212,-0.43608759899337507,-0.2667225178453367,0.05564201140953157,-0.6139766900499923,0.787359562251009,-1.2261934280395508,-1.8958665333189906,4.158935484219754,-3.626672092848561,-1.3724383345258924,2.3814623488540017,4.0,0.4715475622174156,0.48172666304057005,0.32845768775628326,0.7969308589479183,-0.2914912995413232,0.21770826170342825,-0.4822210500738383
17.0,-3.817854547909509,-1.8303316463113364,2.0130856392541734,0.021966952173953648,-0.4355087753293065,-0.2598217419841527,0.05572175165381687,-0.6150849531264195,0.7864889444063954,-1.2262049452862813,-1.8958681709919363,4.158919351037742,-3.6267062626280726,-1.372430087194667,2.381460252333552,4.0,0.47153886655670607,0.48173352605863046,0.32844706172523674,0.7969377765106137,-0.291493785514244,0.21768759932234585,-0.48221744315004683
17.1,-3.88683764871731,-1.8622194453977823,2.113802014727861,0.022923547480414398,-0.4355639253998235,-0.26471797903902283,0.055765058508410535,-0.6158171242342524,0.7859131774427408,-1.2261934280395508,-1.8958783597239368,4.158923054584878,-3.6267181835570277,-1.3724446459802038,2.3814694883619976,4.0,0.471557621839244,0.4817264050692033,0.32846007971559027,0.7969308932153438,-0.29149178829776395,0.21770839471673528,-0.48222063794888315
17.2,-3.7410198500004643,-2.094099646123183,2.0915629189962024,0.021079032708284262,-0.4416422253994027,-0.26247392796189417,0.05574275756721449,-0.6156956262618405,0.7860099431485303,-1.2262067794799805,-1.8958659182585784,4.158934135146016,-3.626672049793446,-1.3724158135104387,2.38149883241164,4.0,0.47155475583261763,0.4817376452828083,0.3284433682739656,0.7969310161562934,-0.29151035727555674,0.2176905551411612,-0.482217263576811
17.3,-3.9684489157961886,-1.9494077513973576,2.126168519117189,0.029138396587084954,-0.440798324895884,-0.26166094766200887,0.055716477202786205,-0.6152786450257832,0.7863381819431551,-1.2261729600930826,-1.8959128544917536,4.1589226722717285,-3.626693131580555,-1.3724262067894943,2.381441525201749,4.0,0.47155250752897315,0.4817265902647789,0.3284392729459336,0.7969378821129054,-0.2915016744021443,0.2176938062616263,-0.482209697734781
17.400000000000002,-3.90324007329494,-1.8228789817611675,2.0980270417669487,0.031732700918559904,-0.44137208935357475,-0.2669443612683089,0.055773134470901126,-0.6160921650391693,0.7856963856614357,-1.226188905748487,-1.8958857837037684,4.1589398451699,-3.6267062626280726,-1.3724295498314658,2.381481401410937,4.0,0.4715529588974836,0.4817338712116084,0.3284590611076327,0.7969250080417443,-0.29150375701504083,0.21769566936347737,-0.4822288738184073
17.5,-3.8555080035816043,-1.9706400824533046,2.134989157204967,0.030198669887551044,-0.44420862878834794,-0.2580331974526531,0.05582173449285335,-0.6166219002887631,0.7852778845468902,-1.2262182235717773,-1.895896415748789,4.158940329328018,-3.626736157235653,-1.3724503492621314,2.381475753052953,4.0,0.4715502675420004,0.4817323281449844,0.3284571897356087,0.7969368956120179,-0.29148454230738163,0.21770626527273118,-0.4822160595305134
17.6,-4.138453755491391,-1.8359796930432706,2.112096013509707,0.03587295473232236,-0.4378131697104156,-0.2606449523085374,0.055825435021786954,-0.6164219846165221,0.7854344751349999,-1.2261939107335733,-1.8958784542479457,4.158912090133543,-3.626718631772906,-1.3724506537066858,2.38147633918329,4.0,0.47154469473541677,0.48173261843322956,0.32842105887372386,0.7969557659211111,-0.29148716966289345,0.2177003786140008,-0.4821859415602361
17.7,-3.7378764898974297,-2.0470370120446773,2.237155901907015,0.03242998727992542,-0.4403387951164281,-0.2604538969168831,0.05574483290097559,-0.6155715183805085,0.7861069872472985,-1.2261934280395508,-1.895902772943014,4.158935070037842,-3.6267062626280726,-1.3724386698561808,2.3814521439923344,4.0,0.471541438767448,0.4817356902551039,0.3284080818896839,0.7969577777422747,-0.29150319035223815,0.2176895026531478,-0.48217784161571264
17.8,-3.721515281104313,-2.005594346802125,2.010671183574303,0.029948766679074874,-0.44416078745817017,-0.26226327149219575,0.055694658729238865,-0.6152982596256039,0.7863243810292604,-1.2261822103936286,-1.895902772943014,4.158935070037842,-3.6267302503637855,-1.3724386239095216,2.381452188101127,4.0,0.471562430284486,0.4817211021336488,0.3284363269583745,0.79693415309355,-0.2915143221370226,0.21770326824517564,-0.48220394297167246
