xiamingqian9007/apple-picking-rnn/final_data/grasper_20191127_120457_noimg.csv
,/manipulator_wrench.fx,/manipulator_wrench.fy,/manipulator_wrench.fz,/manipulator_wrench.tx,/manipulator_wrench.ty,/manipulator_wrench.tz,/ground_truth.x,/ground_truth.y,/ground_truth.z,/joint_states.elbow_joint,/joint_states.shoulder_lift_joint,/joint_states.shoulder_pan_joint,/joint_states.wrist_1_joint,/joint_states.wrist_2_joint,/joint_states.wrist_3_joint,/mode./mode,/manipulator_pose.x,/manipulator_pose.y,/manipulator_pose.z,/manipulator_pose.rx,/manipulator_pose.ry,/manipulator_pose.rz,/manipulator_pose.rw
0.2,1.2076935302850664,-1.6320826437260176,0.4048414492168772,0.026555692525550442,0.006802311952614932,-0.005145165553124618,-0.3098001887866232,0.3775145382317362,0.8726429516241587,-1.7664920473165209,-1.834909122984356,4.166235353942759,0.3908571773831214,1.3425277733763528,-1.4748557249652308,1.0,0.4740919967885949,0.4840289624609824,0.4068573960913371,-0.729884402185848,0.025552534921138816,-0.4606119402701216,0.5044328180099957
0.30000000000000004,0.5810171001173288,-0.6713625657299926,-0.2928166424843174,0.014135253973946592,-0.01582673949206821,0.011819313617879044,-0.3098767098488973,0.37770462622523765,0.8725340203560266,-1.7632028511704174,-1.837586826325109,4.165739212644623,0.3903508281532284,1.343166093157402,-1.4748561623176324,1.0,0.4741311167174569,0.48409880303836417,0.40681611943901735,-0.7299001323564869,0.025545549929089112,-0.4605959243351751,0.5044250352139844
0.4,0.30492790563380867,-0.2918245853603092,-0.11403444050413267,0.00729611194439136,-0.024552444481602015,0.01889236916471039,-0.30960875436508917,0.3774367640911736,0.8727448226063879,-1.759013240453507,-1.8411625697742051,4.164959223367423,0.3894743496319821,1.343802429057124,-1.474952506786058,1.0,0.4746626468282028,0.4848349344405361,0.406493536224949,-0.7300307498146773,0.025438859321610302,-0.46046532613931956,0.5043606370295427
0.5,0.36473024832749584,-0.412899599701444,-0.17369371714343823,0.012986135059621914,-0.009920157080134443,0.03234038987274521,-0.30909540961948834,0.37668546738981257,0.8732512710888131,-1.754733228352996,-1.844182006595669,4.1641585848998846,0.3887670955083338,1.3444016346930898,-1.4750116507159632,1.0,0.47613039769889853,0.48620681777175956,0.4064196006657899,-0.7300181137959352,0.02550981696147131,-0.46053776130494023,0.5043092039420375
0.6000000000000001,0.3661941299449467,-0.8191835211045355,0.11478631088747535,0.0006994158304735642,-0.018334495810681244,0.04907322037382565,-0.3090577401147965,0.37662029419164555,0.8732928841847172,-1.750673478903017,-1.847601438328829,4.163509530888076,0.3879402546693261,1.345146742709665,-1.475057694611125,1.0,0.47667386421999786,0.4867401413102907,0.4065386865175877,-0.7299206811466088,0.02554803452880565,-0.4605900769332383,0.504400513676205
0.7000000000000001,0.21506475982375697,-0.37960574659573654,0.01578519952512386,0.011488870395675334,-0.010761923023015834,0.03145048886745993,-0.3086011787632509,0.37618681774751783,0.8736407942853052,-1.7467473357675554,-1.8504310879422872,4.162959178531122,0.38717246456823157,1.3459502375512828,-1.4751311382816952,1.0,0.4777102529748104,0.4877410159924575,0.4063806923571799,-0.7299460262190303,0.02556994435365451,-0.4605845237149026,0.5043677956284628
0.8,0.5015470528079342,-0.701765199137401,-0.21927004820558393,0.009341357976853558,-0.006638236081272665,0.03210645433765763,-0.30820267852892064,0.37582476919763047,0.8739375336044907,-1.7428947414178637,-1.8536984011956799,4.162222817260665,0.3863862172743859,1.346595287322998,-1.4751437346087855,1.0,0.4787681153970051,0.4889220369742935,0.40641869666439745,-0.7298678486449671,0.025505382030463597,-0.46056049155913203,0.5045061274322223
0.9,0.7169353569197396,-1.128974935932827,-0.17979773705893848,-0.007711383737019052,-0.01816114929423992,0.04315133683745451,-0.3085643553109953,0.37622445648516023,0.8736376682567926,-1.739186096360029,-1.8565656506790271,4.161417850374775,0.3856321803556032,1.3471536185005526,-1.475202952685805,1.0,0.48024168083972635,0.49029752831743845,0.4063039343249943,-0.7298618532764036,0.025552569682286207,-0.46060746123261037,0.5044695312617151
1.0,0.5220690471339419,-0.37071271397822164,-0.17523464107859335,0.006968061328783967,-0.01499972101267753,0.03535580571371113,-0.309348729021201,0.3769057183788485,0.8730664161118789,-1.7355576702643702,-1.8594977070369565,4.160862445831299,0.38500150893970797,1.3476642479530432,-1.4752285033442993,1.0,0.4810432984981325,0.4909863237773875,0.40620001984311904,-0.729885508233878,0.02560864834752343,-0.46063838329799855,0.5044042246379312
1.1,0.4210776705024063,-0.16106055615473483,-0.08751915471807714,0.0064001428751405175,-0.024480965824362686,0.034507284507376904,-0.3085284661036221,0.37586930500525745,0.8738013531588992,-1.732072587640021,-1.8622191173676326,4.160394191741943,0.3842949316190896,1.348177562521825,-1.4752843132570244,1.0,0.4815918391825717,0.4915720985606878,0.4061016621515241,-0.7299031023649027,0.025600266719776082,-0.46062361627679593,0.5043926760273723
1.2000000000000002,0.5361622565662825,-0.17037724821086314,-0.07688002747346058,0.0029170805273936217,-0.029666643713048967,0.028302274093455558,-0.30758835533040785,0.3747691437548065,0.8746066664834315,-1.7287760040688753,-1.8648981046538258,4.15981912612915,0.38359705110521786,1.3487603990285952,-1.4753089478211776,1.0,0.48237834951904096,0.4923985789744167,0.40601685224478445,-0.7298915787452325,0.025602430770275745,-0.4606479906897679,0.5043869818789192
1.3,0.6150321732768079,-0.6041962095820579,-0.2786950102824831,0.0012360441691190295,-0.024861217805523576,0.03132199369787714,-0.30844326746616707,0.3758284794876096,0.8738505749648275,-1.725413946820787,-1.8676066572580368,4.159337849901625,0.38284604131665034,1.3494161105409375,-1.4753661117893513,1.0,0.48358712651388497,0.49362697243430115,0.4059283510265231,-0.729884619724906,0.02559234085314223,-0.4606306593623069,0.5044133916086413
1.4000000000000001,0.5023591296378782,-0.5109700044367818,-0.2708284223454782,0.006648429265889103,-0.021001146414934065,0.03343469415458794,-0.30838552450733125,0.37585553315554704,0.8738595691130403,-1.7223875312400303,-1.8700102582937668,4.158921184707669,0.38217598391571656,1.349892218557936,-1.475383526646777,1.0,0.4840348225980797,0.49414384062749617,0.40580157131726746,-0.7299390104934412,0.02554897688168228,-0.46058245196422476,0.5043809033684542
1.5,0.4267277649341182,-0.23625239012849247,-0.18402794443893292,0.008103871957413782,-0.019260418735904825,0.030968514728301127,-0.3079399273339113,0.37544389431864994,0.8741937043820884,-1.7192064181232283,-1.8726963447292648,4.1584762622591125,0.38155209367040743,1.3503020251553914,-1.4754307905780237,1.0,0.48476732225022573,0.4949507292994525,0.4058122096509613,-0.7298900229684137,0.025515673906892352,-0.4605806298487829,0.5044551398928789
1.6,0.5867050140993226,-0.6276819716774664,-0.15515807879427587,-0.0004308114114507124,-0.021498065509235595,0.02988070580098131,-0.3084180572590902,0.3760171811211728,0.873778030635809,-1.7162233053566809,-1.8746809346401643,4.157976055509079,0.3809599142112224,1.35079680054964,-1.475452845433513,1.0,0.48586497714343874,0.49615471640351333,0.4055425951650601,-0.7299619031941256,0.02549703506903976,-0.4605501270589071,0.5043799178733455
1.7000000000000002,0.3847208890678906,-0.1759116861958334,-0.17589385416169032,0.008114473428286143,-0.024366071301329003,0.02447782377214138,-0.3091504903111022,0.37683603394885007,0.8731669811826397,-1.7134026911570754,-1.8771574461023437,4.157482624053955,0.3802614280802906,1.351175453194182,-1.4754871143135264,1.0,0.4863828428357502,0.4966426287086023,0.40561013341304897,-0.729902226627261,0.025522344294617198,-0.46058950475962535,0.5044290412055561
1.8,0.34674289852496126,-0.44244438235921013,-0.060748910548217024,0.007499516546696668,-0.025324234354905144,0.026753958974118693,-0.30920499882358654,0.37682008405559136,0.8731545634467471,-1.7104911045556672,-1.8792289967676021,4.1570615761032395,0.37972662619577474,1.351575293511115,-1.4755259467451411,1.0,0.4872390218359492,0.4974771734764608,0.4054542814877999,-0.7299518195704662,0.025534139117537144,-0.46057639535887906,0.5043686477999136
1.9000000000000001,0.49171167690635154,-0.334778100821854,-0.23648216092094038,0.005063368228842989,-0.02695170390698433,0.026967583575461612,-0.30875440318430475,0.3762880408305707,0.8735431937679008,-1.707869192963512,-1.881244232466992,4.156582355499268,0.3789979654499511,1.35201728983953,-1.4755385557757776,1.0,0.487648970312945,0.49792343491481567,0.40538949262910856,-0.7299644863857306,0.02553571235748802,-0.4605606390961332,0.5043646237845926
2.0,0.47396824492188544,-0.18829825298794486,-0.06064741467724911,0.016301124870401237,-0.023756679163278796,0.022855152747162037,-0.30871883368966935,0.37624767680822,0.873573300779266,-1.7050172757557904,-1.8835028536171492,4.156148822400376,0.37844931701577245,1.3524992508200382,-1.4755743185626429,1.0,0.4883528662633979,0.4985472475383374,0.4055503896021892,-0.7298490595267754,0.025576899474185216,-0.46063046063094587,0.5044658078206005
2.1,0.5109214131893771,-0.3801185796749071,-0.05502502653209815,0.005408049992255359,-0.027538530812405704,0.027653854444396754,-0.3078256628728971,0.3752229546117797,0.8743280468330947,-1.7026184781234404,-1.8853714063120495,4.1557044488188914,0.377924552410383,1.3529276847839355,-1.4755891609218212,1.0,0.4892230560826167,0.4994390810646895,0.4053943416597328,-0.7298928848130303,0.025549678040051198,-0.4606130891405984,0.504419639549966
2.2,0.3442023995804093,-0.1648964021835503,-0.07678620728120983,0.015596843062585217,-0.02260057345539845,0.02924404548798981,-0.3081687446318138,0.3756601961292772,0.8740195262884226,-1.6998703774859856,-1.887368613216266,4.155363011743296,0.3774249508074856,1.3533203185505702,-1.4756463209735315,1.0,0.4897097899817672,0.499935362668859,0.40534429704668834,-0.7298913356488272,0.025547192575270432,-0.46059256875878674,0.50444074448886
2.3000000000000003,0.48852472132580327,-0.08131280740117153,-0.034260393148766624,0.010609271801765824,-0.02552021409138486,0.02823048886975825,-0.30839257851054097,0.3759092820165117,0.8738340431418936,-1.6977480823041016,-1.8893455802817205,4.15499540925782,0.37685890613719925,1.3536293841819682,-1.4756464550524788,1.0,0.4904371592233728,0.5006725769470916,0.40533233835610727,-0.7298455898351297,0.025556175225558204,-0.46063144917038296,0.5044709753209247
2.4000000000000004,0.6874204080787734,-0.504761068329165,0.09015756440044426,0.009545710943086316,-0.026784677163922372,0.028765765726549992,-0.30801603814657913,0.37543517594871884,0.8741707550002924,-1.6952285383020103,-1.8910703612670876,4.154653894560947,0.3762878177597155,1.353969454948211,-1.4756924235282571,1.0,0.4908357701448452,0.5010880202618716,0.405226322841573,-0.7298837533790176,0.025553938514888908,-0.460614852044664,0.5044310268566032
2.5,0.38525261877337386,-0.4395018157092083,-0.1266015556613114,0.008666569783947236,-0.0232161026084639,0.023057848345233223,-0.30774787836100503,0.37512671553709726,0.8743975627049618,-1.6929872303644666,-1.8928475309847457,4.154321405347203,0.3757611948200683,1.3543071746826172,-1.4756908039861392,1.0,0.4914169487562722,0.5016845176816301,0.4051801042873975,-0.7298834221141117,0.025549641464679335,-0.46061800799159697,0.5044288420162677
2.6,0.2621736546036504,-0.20180627715511149,-0.10589038837600974,0.012230143230240048,-0.02268256707137664,0.02371982909276897,-0.3079290578791614,0.3752889236934997,0.8742640497438169,-1.6907895681984655,-1.8946055337477896,4.154015270952039,0.37529408053052205,1.354613822359954,-1.4757488823471574,1.0,0.4921349506139471,0.5024125743817587,0.40511652149461075,-0.7298867512643228,0.025571281229018996,-0.46061416847349235,0.5044264343852258
2.7,0.6350321135437412,-0.4185873610474383,-0.019809357188394043,0.011054405650168525,-0.021754267622477168,0.024886623657949237,-0.30829821880041625,0.3756490896660286,0.8739793678037309,-1.688534656619034,-1.8963032361416379,4.153743027016525,0.3748304887015226,1.3549006390289493,-1.4757460599538628,1.0,0.4924964101849475,0.5027466156756079,0.40504508566297753,-0.7299024671106652,0.025573804064074605,-0.4606256988266703,0.5043930358677632
2.8000000000000003,0.33436762309741846,-0.40363297803395753,-0.1775915794460015,0.007067973027532324,-0.025321309979246275,0.025679778369768133,-0.30802668172745745,0.3753463443446519,0.8742051188415351,-1.6865595635217947,-1.897921141612385,4.153436463574278,0.37436854953569687,1.35518217086792,-1.4757881376642579,1.0,0.49300216779405126,0.5032662623788038,0.4050543300398545,-0.7298637180136853,0.025590791057808933,-0.4606535312470755,0.5044228272886503
2.9000000000000004,0.3996633770537136,-0.36825460930626647,-0.4677153772823451,0.00897458991594822,-0.019118325326862078,0.02091341935018868,-0.3085377880417837,0.37596163241845454,0.8737593924164803,-1.6844776912146049,-1.8993784643725502,4.153153006767387,0.3738950331694813,1.3555130571291902,-1.4757679271405701,1.0,0.49369083721788665,0.5040199931739868,0.40489481452053633,-0.7299092123319016,0.02556350395285871,-0.46060919214806434,0.5043988710607735
3.0,0.4275551371831243,-0.004844934843666531,-0.21619573512805854,0.019341308614221436,-0.019547570942204055,0.02233825970500836,-0.3095422548822447,0.377161075373019,0.872887684299592,-1.6825203532350828,-1.9009311579478216,4.152866118466732,0.37345733174325196,1.3558529215011106,-1.47577944701831,1.0,0.49397364301493946,0.5042868825568448,0.4049154976584971,-0.7298843152671924,0.02558171935831085,-0.46061929059964735,0.5044247526530514
3.1,0.24534224889042167,-0.3971921288644449,-0.24168841381082004,0.006625306720001138,-0.02370576111599168,0.02772858559462154,-0.3102219186008193,0.37802931780016175,0.8722704806781828,-1.680576482861426,-1.9027070026833899,4.152589952549375,0.3729942710123435,1.3561619035423547,-1.4758120237974035,1.0,0.4943984407499429,0.5047696666189748,0.4049403448231037,-0.7298480125056828,0.025549004457920365,-0.46063134833081665,0.5044679255885831
3.2,0.5135443945705083,-0.4588522600780024,-0.2809181134021545,0.016152018134620034,-0.02057757733374703,0.02447598538029775,-0.3091029081923418,0.3767688840217456,0.8732118086617014,-1.6787536649945283,-1.9038250701017956,4.152328968048096,0.37254921972241206,1.3563955984231006,-1.4758473154420275,1.0,0.49511705604845496,0.5055459189870675,0.40466557342505094,-0.7299584025431455,0.025529756665641567,-0.4605475339075308,0.5043856967569009
3.3000000000000003,0.4004359384337586,-0.5373008739143885,-0.1526148959944787,0.007564916835173118,-0.025167412352658635,0.0245609799622565,-0.308765227087405,0.37638585445258727,0.8734973485389156,-1.677051093390754,-1.9050326775095985,4.15207290847595,0.37208630536151793,1.3566348542794808,-1.4758597890841287,1.0,0.49535406390710357,0.5057664630890284,0.40473673553567474,-0.7299086194421389,0.025542559797936723,-0.46057118000987446,0.5044354993924913
3.4000000000000004,0.6121788743096248,-0.4712498953975966,0.013053903981109172,0.011552103490671498,-0.014910209354562646,0.026499183290209578,-0.30899782009227794,0.3766425549248641,0.873304483622217,-1.6750580967248452,-1.906428387766049,4.151768030335767,0.3716843257245724,1.3569009216573646,-1.47586891648022,1.0,0.4958925947630078,0.5062826195100009,0.40476234652297677,-0.7298848572831083,0.025532982772137353,-0.4606001992958681,0.5044438703247186
3.5,0.5379057052353439,-0.5054730356153153,-0.1844399395383857,0.013182190177003436,-0.03211772398696946,0.02712148677326158,-0.3087872184175999,0.3763907119162664,0.8734875030853125,-1.6735489417204754,-1.9079706595546508,4.151556302878282,0.37133433313007286,1.3571427091280976,-1.4759044316062628,1.0,0.49618436535579324,0.5065750810601081,0.4047992747942629,-0.7298444564045548,0.02554314443894929,-0.4606222921683566,0.5044816361229417
3.6,0.5918545855090204,-0.3921187370122826,0.004857108650077602,0.002740989033740161,-0.029106318487179865,0.027006129390078758,-0.30874304564441174,0.37632168838982333,0.873532888889683,-1.6720460523996838,-1.9090982466967024,4.1513084261469215,0.3709650563002418,1.3573071370848453,-1.4759328306482589,1.0,0.49660925105134585,0.5070298316383426,0.4045879037401419,-0.7299370273975418,0.025540894290160293,-0.46057483028976304,0.5043911423255322
3.7,0.6099781925315373,-0.5471019937438597,0.08565816533117913,0.005802734289208867,-0.022708782904743964,0.024845604811960208,-0.3088533189023021,0.37642627667782014,0.8734488148299471,-1.670291796949963,-1.9100792832043092,4.151074603226189,0.3706121652868664,1.3575771301722486,-1.4759293685041786,1.0,0.49713757061074276,0.5075536366672952,0.40450930232634974,-0.7299405127691531,0.02554952934855291,-0.460569760587826,0.5043902903510795
3.8000000000000003,0.3948965446327685,-0.3115120515379386,-0.14338364621075889,0.020297696683045163,-0.022708637100453417,0.021269894002694186,-0.30938444377230706,0.37709281194511834,0.8729729728920026,-1.668711004535744,-1.9112104136518278,4.150880108268713,0.37022846039172974,1.3577704766750556,-1.4759672660934113,1.0,0.49742070580667275,0.5078227934392959,0.40466624781939436,-0.7298419949079059,0.025569955304094453,-0.46062920030909327,0.5044775313898531
3.9000000000000004,0.4790512422879123,-0.15943147804831617,-0.035377215862832476,0.010164994490257165,-0.03308796561439165,0.02594153893357824,-0.30996965523892167,0.3777592263392992,0.8724772189201103,-1.667433398766033,-1.9125168966430037,4.150639057159424,0.36986367284741206,1.3579650059876645,-1.4759699499719012,1.0,0.49783464131534766,0.5082546459319391,0.40467170631875743,-0.7298208521347147,0.02557141939198,-0.4606378423791247,0.5045001530901089
4.0,0.2729843920726791,-0.4012827642807445,-0.11814256778001869,0.007927751480308682,-0.01919729159648049,0.02195989647860912,-0.3097441005219382,0.3774714020520147,0.8726810986298585,-1.6659318002505192,-1.9136734908597466,4.15045244395523,0.3694924523780212,1.3581711396564482,-1.4759850288367669,1.0,0.4980754470088523,0.5084924245780224,0.4045232551365123,-0.7298864816896876,0.025558408905095156,-0.460611100976809,0.5044302778757646
4.1000000000000005,0.7406565818581665,-0.8819749118202935,-0.0755023868783742,-0.0005548270917860023,-0.030104861505886336,0.0224320090076326,-0.3087380619809632,0.376316676336711,0.8735367999991676,-1.6642624997963893,-1.9147974857671102,4.150239552086694,0.3691229397136205,1.3583970069885254,-1.4760029639438321,1.0,0.4984006741246222,0.508873051334019,0.40438124394012837,-0.7299501429464952,0.025544235357320283,-0.46055740191203554,0.504387906671479
4.2,0.8478732718084347,-0.5181569247178697,-0.12118470652186573,0.0076449130345673764,-0.031606529715649756,0.025168700132045668,-0.3096197033030176,0.3772745633231392,0.8728106463629179,-1.6628318496739327,-1.9157801535137227,4.15002903598875,0.3687736231037597,1.3585863645464789,-1.4760418850084165,1.0,0.4989196764408991,0.50935626286802,0.40446256749640824,-0.7298788385835846,0.0255789907803948,-0.4606222914478059,0.5044300752729824
4.3,0.5367380911585199,-0.4583705163465975,-0.050415738554571626,0.011595171191974295,-0.03191530667692919,0.0210253516222283,-0.3095512622163657,0.37717037897091843,0.8728796769796523,-1.661527050866945,-1.9168961116329537,4.149803988956642,0.36840834546469686,1.3588210313729965,-1.4760058561908167,1.0,0.4991638336485007,0.5095803328924428,0.40447201467760346,-0.7298648051102086,0.025587985600106673,-0.4606352992086023,0.5044380461239691
4.4,0.6471065567705007,-0.8945147466389044,-0.14743346546025043,0.009704929096675786,-0.014267312275365304,0.014956071715918527,-0.3085350463914695,0.37600670296222605,0.8737419604135332,-1.6599011648770037,-1.9181506776876556,4.149565931298267,0.368074352789576,1.3590136710199816,-1.4760497253409126,1.0,0.4994740773883299,0.5098909271947387,0.4044387039238159,-0.7298822974348873,0.025572570956721503,-0.4606191019594745,0.5044283084997127
4.5,0.41390432296274826,-0.6402520708970866,-0.07923008564063533,0.011841446169539296,-0.02190977475532075,0.020342891528458543,-0.3091431236268069,0.3766920022954101,0.8732317162603735,-1.6583375930786133,-1.9193520931812156,4.149410458473802,0.36773671295573496,1.3592127746754574,-1.4760329814235449,1.0,0.4999651378495454,0.5104008917964715,0.4043013723329391,-0.729911859585234,0.02556687442779712,-0.46060403263058836,0.5043995809804557
4.6000000000000005,0.44992492688637076,-0.4845350047763745,-0.1889690980317124,0.013645873652245026,-0.019526930800498114,0.01689161534440453,-0.3082639031407578,0.37566222671619526,0.8739857771942439,-1.656918591092193,-1.9204065186074935,4.149198073679104,0.3674031829500018,1.359474162761939,-1.4760554288434997,1.0,0.5002143846974076,0.5106288169150416,0.4042756457920985,-0.7299078418630873,0.025589273279816152,-0.4606060125158078,0.5044024511380462
4.7,0.4692506165832195,-0.5038254480077372,-0.16351536182380738,0.011377065955119794,-0.02155221266659969,0.02076329857741261,-0.30857730304627773,0.3760536556980857,0.8737066045725864,-1.6554817405063817,-1.9214623992997206,4.149018381433958,0.36696259557690425,1.3596923725446606,-1.476066192289171,1.0,0.50065823839208,0.5111307179620462,0.4042446610075707,-0.7299023755367527,0.025555422273342534,-0.4606003681356676,0.5044172315172468
4.800000000000001,0.5796909116729292,-0.20839150469344905,0.0394148124426463,0.016208629734538196,-0.025158134858885184,0.025219373673084942,-0.30895048536270947,0.37651624031651815,0.8733756750134147,-1.6539282669216242,-1.9226197630502575,4.148765123201844,0.3665941146884503,1.3598778999378234,-1.4760773817645472,1.0,0.5008947086119744,0.5113652038623151,0.4042361263978161,-0.7298977698472745,0.0255546741004798,-0.46060476180652205,0.5044199218951909
4.9,0.6605216719519998,-0.43426209039340435,-0.06180511798807458,0.011186473213847033,-0.02840719031452291,0.0263392334905055,-0.30884660756912435,0.376410902043102,0.8734578299249983,-1.6524210577557075,-1.923688757213473,4.148557431617774,0.36624180987353355,1.3600768441607964,-1.4761049990534625,1.0,0.5012537981033962,0.511737214215337,0.40424659064850416,-0.7298775927684221,0.0255457317633854,-0.46061528126870727,0.5044399645398808
5.0,0.27303372663807113,-0.39879847561644,0.09999250187546924,0.01715717815489276,-0.024174952839089707,0.021342938513957778,-0.3089177031236464,0.3765140993365584,0.8733881231729791,-1.650922107872569,-1.9248287617128974,4.148396015167236,0.3658505182450092,1.3603034019470215,-1.4761243568259752,1.0,0.5016869346058513,0.5121885835191148,0.40422760270838964,-0.7298574451831948,0.025552707043884626,-0.46062546276290994,0.5044594650988763
5.1000000000000005,0.3857419858756155,-0.43408508628327913,0.15584869316773017,0.00839699056309321,-0.024159981418501238,0.024762030274804423,-0.309248626859844,0.3769269162446214,0.8730929785030591,-1.6493638495903395,-1.9260190003947897,4.148181770275154,0.3654793264532125,1.3604879259994653,-1.4761218869679573,1.0,0.5019101273025353,0.512412227984892,0.4042077986289701,-0.7298605295220557,0.025573265723811946,-0.4606112863299374,0.504466905189512
5.2,0.5731600498962399,-0.41494908908129374,0.27088621618884334,0.009281436088825314,-0.02622241493452631,0.022295614160528367,-0.3096497767432681,0.3773998964928557,0.8727464101766993,-1.647948022200818,-1.9272124934512354,4.147964954376221,0.36511945062156675,1.360696496252237,-1.4761433123037988,1.0,0.5022611980167855,0.5127843877506636,0.4041626251944921,-0.729865271670712,0.02555589444842216,-0.4606098070072153,0.504462275256292
5.300000000000001,0.32399878106442337,0.04123746052687843,0.08948456462533638,0.022230175418940165,-0.023490298725387927,0.022536401901787247,-0.30912410925315237,0.37674800527564783,0.8732139300427921,-1.6465164079215415,-1.9283241300375775,4.147797107696533,0.3647493983230754,1.3608720726741497,-1.4761688006355718,1.0,0.5027396086388219,0.5132911957129311,0.4040116896328943,-0.7299283706705098,0.02554511693863291,-0.460572935563171,0.5044051860534441
5.4,0.8280929449768585,-0.5315306561045149,0.252331995331724,0.009087908377958687,-0.03128205522860727,0.025335803640454665,-0.30895735005038477,0.3765358633993255,0.8733645588633264,-1.6449152193571392,-1.9294000500020672,4.147596969102558,0.36436963040067327,1.3610823242287886,-1.4761571277599181,1.0,0.502991906007861,0.5135321114173577,0.40394570811283115,-0.7299543265685766,0.02556087493014461,-0.4605696756771132,0.5043698014783397
5.5,0.5356434751595885,-0.24026628824682245,0.047952670649090784,0.015863001724558515,-0.026823178042352604,0.01975508428353042,-0.3094171716261975,0.3770898981887675,0.8729625704346159,-1.6432561874389648,-1.930435455514183,4.147353649139404,0.364025278682373,1.3612513892749607,-1.476173226033346,1.0,0.5033238838874269,0.5138555443399904,0.4039847616692889,-0.729912954717231,0.025557970932289124,-0.46060463897132997,0.504397893746471
5.6000000000000005,0.5397072367258544,-0.36886552870950295,-0.06849912004173413,0.010373168748072339,-0.027743572968114173,0.020269919634965418,-0.3094772292795257,0.3771468623068357,0.8729167499641547,-1.6419545521763854,-1.9315745817092496,4.14715335697833,0.36360817667572376,1.3614583993424074,-1.4762065068362022,1.0,0.5038201144669496,0.5143660094305315,0.4040955190491659,-0.7298129378709279,0.025589464665716214,-0.4606425948908401,0.5045063476177089
5.7,0.33190236919067234,-0.2333345209689075,0.00689048886604747,0.016787834095231133,-0.02895080729413599,0.022468177151336838,-0.3089443581615118,0.3764665725461244,0.8733991968484957,-1.6405474581874626,-1.9329265433829426,4.146969067681139,0.36325997962380513,1.3616482871194817,-1.4762237027076122,1.0,0.5039937248216355,0.5145220999816945,0.4040487755064186,-0.7298389491069747,0.025586137558609837,-0.4606513853604538,0.5044608598263632
5.800000000000001,0.3703736121662786,-0.4121725978003436,0.037834604063588066,0.013469053762040339,-0.02756997634516186,0.019921074587224714,-0.3088918289547317,0.37634071987622864,0.8734720935772604,-1.638779640197754,-1.934085227921318,4.146753787994385,0.36290705682224306,1.3618273735046387,-1.4762255884131714,1.0,0.5045070996465433,0.5150599972408095,0.403745985759916,-0.7299750426247761,0.025555390650568027,-0.46057930827975524,0.5043312997804078
5.9,0.6166514777996706,-0.3350320077767003,0.09997493001248149,0.014167294210258329,-0.030529538776890502,0.025275286081131252,-0.30837612904972467,0.37574387164715534,0.8739097845156765,-1.637264485611227,-1.934985627072877,4.1465900066940025,0.36244962386326746,1.3620424270629883,-1.4762009666228249,1.0,0.5047095289658798,0.5152577588632893,0.4036881023836074,-0.7299889348968892,0.02555202552279301,-0.46058048885837233,0.5043102836575623
6.0,0.6203362585917201,-0.3460917204840559,0.12095164368587225,0.010325198435924875,-0.038090606063517274,0.020072104203086964,-0.3070166266863743,0.3742762201653922,0.8750180891370845,-1.6359769487994082,-1.9360404330832364,4.146381865836896,0.3620210171640004,1.3622348937405007,-1.4762497923386755,1.0,0.5050511087040345,0.515654004109452,0.4038930156706652,-0.7298687197717088,0.025560604817748987,-0.46062536546865995,0.5044428412288366
6.1000000000000005,0.5995837692670893,-0.5483641581509351,0.0606840097861817,0.006268419695743112,-0.036144648770186714,0.020501367977719034,-0.3081329458474301,0.37556157521070505,0.8740744206567835,-1.634383310471401,-1.9371880345614672,4.146193272047853,0.36164229111718854,1.362447684211321,-1.4762610185065954,1.0,0.505529788320913,0.5161101409501739,0.4038425855020599,-0.7298926697691517,0.025567269489993043,-0.46060631745703795,0.5044252428920991
6.2,0.3108289150454852,-0.12403637862680522,-0.0401268879084261,0.01691627122161059,-0.023900538765421038,0.022297042141538433,-0.30841366050126057,0.375892736593402,0.8738338742498775,-1.6326928309998534,-1.9385111863254298,4.14597129532923,0.36129888743525984,1.3626551628112793,-1.476304843096563,1.0,0.5057696147642553,0.5163360406277758,0.40379765123467193,-0.7299130965000453,0.025560399903399773,-0.4606075314531868,0.5043949241250307
6.300000000000001,0.3016960143520241,-0.49620303434612595,-0.07689192338764667,0.011574518832633208,-0.03331363962441684,0.01798714454166052,-0.3083137570320502,0.3757941165531261,0.8739115511478925,-1.6313333576166433,-1.9396770749351864,4.145810485565939,0.36091833277043145,1.3628723015125426,-1.4762988712649945,1.0,0.5062479159339008,0.5168605607942346,0.4037367426242595,-0.7298931371401374,0.025566966256409283,-0.4606057939291427,0.5044250600347651
6.4,0.6004872816893465,-0.23086375669133913,-0.4800505154828959,0.00687914965660468,-0.02061374887108045,0.01855645857295143,-0.30717918673145567,0.37447360270486146,0.874875388699653,-1.629969077867112,-1.9406254192718213,4.145606611996575,0.36055398514662235,1.3630792007938421,-1.4763322301463455,1.0,0.5064460939143339,0.5171064384837502,0.403680115790841,-0.7299074946677278,0.025544839840404097,-0.46058266890016775,0.504426521402481
6.5,0.8681070625644571,0.12093330313022965,-0.7413327725496307,0.007534540400439944,-0.011972106589279953,0.022598511588448444,-0.30667349056727566,0.37389161994546377,0.8752997270588945,-1.628263208019798,-1.941559454003805,4.145385964990584,0.3601262239276053,1.3632879199917796,-1.4763078932301672,1.0,0.5067848351846796,0.5174155987664135,0.40361440961048645,-0.729939052508701,0.025543492836721193,-0.4605826396133843,0.5043809489692962
6.6000000000000005,1.1415320939965239,-0.23957711176034474,-1.1688973225742023,-0.016046630766929266,-0.0022113316379233135,0.019761978068674444,-0.3085449734819639,0.3761062037506794,0.873685774403736,-1.6266314702213935,-1.9428323257792521,4.145223147216833,0.35971072280796235,1.3634631849909729,-1.4763410727130335,1.0,0.5072031785379663,0.5178781428539393,0.4038136005952674,-0.729822260096032,0.025540210491380437,-0.4606239598383408,0.5045123724342372
6.7,1.113342708835963,-0.03871111809855728,-1.7212238368012913,-0.018500518096050775,0.014850630783228038,0.0060898746303878325,-0.31041645639665216,0.37832078755589493,0.8720718217485774,-1.6252535054440547,-1.9440690087783574,4.144977225477959,0.3593952290652914,1.363681394753874,-1.4763725243709396,1.0,0.5074219778508241,0.5180734865641868,0.4038071328386551,-0.7298185848197378,0.02554073870913671,-0.4606355415191787,0.504507087965313
6.800000000000001,1.3434658449726102,-0.1496075753328619,-1.623928496069788,-0.03763697106928121,0.013549808407734648,0.0036886570640430345,-0.31091780802654134,0.3788975404174177,0.8716460097809763,-1.6238170900065851,-1.9451888762283205,4.1447906331825095,0.3590623575397949,1.3638706743808968,-1.4763818504058361,1.0,0.5078093325349117,0.5184979387364328,0.4035877643842454,-0.7298953134006033,0.025528242230690928,-0.46058662228186315,0.5044413778621163
6.9,0.7327578540765112,0.11579532539329732,-1.6337035179928048,-0.03883158240108296,-0.006663605310670496,0.007130687394230124,-0.31078312372139383,0.37874707999747254,0.8717593871174938,-1.6222451214994658,-1.946250291366644,4.144581957540121,0.3586268149767605,1.3640766475995743,-1.47639193148761,1.0,0.5081885841684168,0.5188698190011664,0.4035073629728284,-0.7299057007536376,0.025537090324899148,-0.46059081984505135,0.5044220670227885
7.0,0.4419657311835252,0.5288545030298947,-0.7488634389614738,-0.033633144887350835,-0.015109214861240864,0.015557155530854894,-0.31058008818799404,0.37850810578427846,0.8719355235801232,-1.62168239071404,-1.9466526635209813,4.144483302797234,0.3584936424665956,1.3641637637494253,-1.4763701038644794,1.0,0.5086902563315189,0.5193896573019005,0.4035176066845548,-0.7298822121902667,0.025535395110302832,-0.4605884563354065,0.5044582973996665
7.1000000000000005,0.6544240957679042,-0.35634810442859743,-1.0876944468070957,-0.021473773380722358,-4.3432020520554914e-05,0.014305175101824516,-0.3103892472767644,0.3782326301550906,0.8721229576256587,-1.6216986054108504,-1.946663042108053,4.144484275163676,0.35851464933920907,1.3641504447425952,-1.476386488264232,1.0,0.5087854165200438,0.5194218146828778,0.40352065047980373,-0.7298743534004224,0.025553153518336234,-0.4606202441269479,0.5044397439675178
7.2,0.6694790763819105,-0.3130679916334372,-0.7547402254566743,-0.027569196146209212,-0.0183874010923866,0.017089648303389552,-0.3106041810748213,0.37843810909896325,0.8719561937178891,-1.6217059509226612,-1.9466787934820544,4.1445136070251465,0.3584983882993491,1.3641749719521812,-1.4764199247038619,1.0,0.5087792151891158,0.5194330505700399,0.4035067919610734,-0.7298773478985817,0.025557803934004055,-0.46061807517361225,0.50443715615125
7.300000000000001,0.9455647046311118,-0.11057143911545661,-0.8647318449226348,-0.028351685512132088,-0.017305251764546163,0.01270995860600541,-0.3120693160706233,0.38012542012734046,0.8706981377819898,-1.6217060649513095,-1.946716888539486,4.144493291516263,0.35849866368391076,1.3641436960977142,-1.4763944423073083,1.0,0.5087777006160458,0.5194343964903352,0.4034774317769594,-0.7298947267337862,0.02554038593520109,-0.460613526634894,0.5044170453637133
7.4,1.0437903721081316,0.1274317596023102,-1.0397827128563168,-0.029203246126663706,-0.007958726142921,0.013805882690580812,-0.3127001892227694,0.380895719428643,0.8701360886467453,-1.621678202506939,-1.9467151588103602,4.144491664118914,0.3585006433674316,1.3641588159071711,-1.4764309827578395,1.0,0.5087896239919226,0.5194364842445769,0.403473160331785,-0.7298902947734259,0.025554159828525387,-0.4606063287854886,0.5044293333994109
7.5,1.0988379175554677,-0.1120055712825288,-1.1700747365489546,-0.026940576630403994,-0.006288017923066342,0.013293447069231962,-0.3125248123457881,0.38073475375165095,0.870267769406457,-1.6216750172818644,-1.9467610295723579,4.144471117298255,0.3585006433674316,1.3641452761446493,-1.4764121321650476,1.0,0.5087821078028091,0.5194558020049356,0.4034555531524079,-0.7299021848393414,0.025551289331623962,-0.4605817832449919,0.5044346866771859
7.6000000000000005,0.9492185417685228,-0.42255700863439505,-1.120872977041378,-0.03225126232841236,-0.007572517661720533,0.01292761488930851,-0.31060790149315765,0.3785048917894574,0.8719247796567037,-1.6216802597045898,-1.946728178940134,4.144458378679355,0.3584778099215306,1.364163546218989,-1.4763941513045833,1.0,0.5087839007673961,0.5194722500762965,0.4034474164471107,-0.7298997663395594,0.025537041120664083,-0.4605884011835706,0.504432865031037
7.7,0.6404530645207638,0.17584190678288994,-1.276462909440499,-0.020697821234476773,-0.0019746617970097455,0.008672121984084265,-0.3103615224586466,0.3781749643898701,0.8721577618264317,-1.621650125350559,-1.9467730831769323,4.1444760717654425,0.3585059821892357,1.3641533851623535,-1.4764031625074647,1.0,0.5087869775470777,0.5194519567890052,0.40345383789819167,-0.7298990119982625,0.025540228809448708,-0.4606007858193582,0.5044224867102093
7.800000000000001,0.9020269716661665,0.07027668935935003,-1.0702534894349964,-0.021454596785835812,-0.007881421628250593,0.0055220133664637475,-0.310856765242604,0.3787081778959105,0.8717498738557186,-1.6216745047863825,-1.9467693210917019,4.144442081451416,0.3585006433674316,1.364182539252455,-1.4763991911437038,1.0,0.5088048696564663,0.5194388067266096,0.40346086063044134,-0.7298990067108573,0.02554037833166346,-0.4606163887443417,0.5044082389268647
7.9,0.9308031898608897,-0.14890723534505565,-0.9392652364693586,-0.025821241047731685,-0.010435710683610974,0.010926486825230923,-0.31136169144853604,0.3793129316763307,0.8713064940393533,-1.6216692315321017,-1.9467456485309496,4.14446770882226,0.35851472129312295,1.3641661988477756,-1.4763998372780198,1.2827737915454562,0.5088131257957842,0.5194369572679425,0.4034508087988222,-0.7299055205952728,0.02555394664567869,-0.4606029270721488,0.5044104185957525
8.0,0.8774735260153271,0.040803888276039126,-1.0155632247746649,-0.022187292821350953,-0.005557250790583766,0.012838925940718044,-0.310632631068313,0.3784544309740337,0.8719392115571155,-1.6216337142020303,-1.9467445941702703,4.14446496963501,0.35850971618160193,1.3641568946532407,-1.4763673332741227,2.0,0.5088289704687291,0.5194190014095322,0.4034566196068771,-0.7298978787587438,0.025574233904736225,-0.46061845093967746,0.5044062725597337
8.1,0.96161839480508,0.097308952011321,-1.069472647773072,-0.02083378090850677,-0.009573177131123442,0.0076900850982997634,-0.31011639963009685,0.37784947020326126,0.8723861018761775,-1.621684850667762,-1.9467374356455938,4.14449394023401,0.3585238780388119,1.3641581674156578,-1.4763940155193163,2.0,0.5088040015764999,0.5194358936858068,0.4034773037563393,-0.7298785937634551,0.02555271989430119,-0.4606219706686506,0.5044320539073757
8.200000000000001,1.024152338167062,-0.20505002092292818,-1.1029622972545143,-0.017797314320061337,-0.011993481302642347,0.012027684732143419,-0.3105816893936298,0.37840664816550157,0.8719788267170591,-1.6216678619384766,-1.9467712841429652,4.144454012728157,0.3585006433674316,1.3641409873962402,-1.4763771624266375,2.0,0.5088032782851635,0.5194397451796025,0.4034774164005765,-0.7298896301830806,0.025565273969002857,-0.46060784604447924,0.504428346428272
8.3,0.9257968473799524,-0.2577524367855867,-1.2194881060593148,-0.03812447483726601,0.0043755313372124,0.010822996332961347,-0.31127397425636016,0.3792016373454013,0.8713862894217378,-1.6216742060327878,-1.9467295029330833,4.1444233395909915,0.35852372913577074,1.3641717318532873,-1.4764066957808255,2.0,0.508799814256915,0.5194528671609622,0.4034335034617102,-0.7299075693356174,0.025555570349508484,-0.4605962636727593,0.5044134563444714
8.4,0.49741813832667786,0.4109494508248537,-0.5992164258732287,-0.024323144601033346,-0.017620622919303164,0.013963177115172955,-0.31142710953582103,0.37934822556725006,0.8712680695493075,-1.6216977292660133,-1.9467712841429652,4.14448373969761,0.358494115775336,1.364171356846246,-1.4763833630919942,2.0,0.5088087287153816,0.5194353335056768,0.40347001328679194,-0.7298904128177047,0.025558588428909255,-0.46062158244654167,0.5044150093115453
8.5,0.5577272879795281,0.25925431940365146,-0.5538388723505273,-0.03402541232895555,-0.029784563422371357,0.02103549399955706,-0.31126851743431944,0.3791326669005305,0.8714185132275871,-1.6216837431326743,-1.9467555298105792,4.1444723119749325,0.35848504650694596,1.3641596785965728,-1.4764089002479472,2.0,0.5088265093658878,0.5194498763353469,0.4034281637364266,-0.7299111928759686,0.02555824968406304,-0.460612414011916,0.5043933291049587
8.6,0.5875346028422707,0.2105251898811539,-0.501809163522789,-0.04168845811940948,-0.030834138455347028,0.01976849464686655,-0.31086490138023803,0.37868677817063434,0.8717563572596878,-1.6216678619384766,-1.946741490001026,4.144459713206014,0.3585058997964276,1.3641705237188961,-1.476389233266012,2.0,0.5088150330777456,0.5194482448999891,0.40346381619022564,-0.7298885643519251,0.025555211774160518,-0.4606198133351687,0.5044194706219598
8.700000000000001,0.6517793587599457,0.5849124794009782,-0.5396571734182684,-0.05658894120829592,-0.02799840520276279,0.015964050345656906,-0.310741383164788,0.378553071009642,0.8718585692548873,-1.6216675729776444,-1.9467771723672347,4.144465634348494,0.3584999786539474,1.3641648292541504,-1.4763831095127717,2.0,0.5088135615314594,0.5194300704266802,0.40346855365067624,-0.7298881089399455,0.025570818438683397,-0.46062066167180876,0.5044185640055994
8.8,0.8393779668407799,0.746825986522808,-0.7786413543215908,-0.08271674750243276,-0.02498993704998094,0.014737681520657605,-0.31013478652024107,0.37786745614632966,0.8723714615626257,-1.6216687650528465,-1.946760010542217,4.14444247299346,0.35854257975738024,1.3641343369559986,-1.4763898805942188,2.0,0.50882524938368,0.519425293061233,0.40347531343396226,-0.7298831219444432,0.025580885346024502,-0.460615186316824,0.5044302694524427
8.9,0.9327949341561248,0.805884868165112,-1.1609580062662412,-0.11911021610942579,-0.016975009041810214,0.011947975105066061,-0.3101576467725678,0.3778970344321447,0.8723503828659726,-1.6216719741997072,-1.9467469654478968,4.144457377768123,0.35850417926455413,1.3641451606398922,-1.4763849018584665,2.0,0.5088116524183832,0.5194362437334767,0.40344728559798676,-0.729905300997262,0.025561637959148606,-0.46059755438395156,0.5044152526802343
9.0,0.9237466716896882,1.6171422746608768,-1.2685688722925614,-0.13769655358694938,-0.006770818268359317,0.01095446905606632,-0.3107322139081913,0.37855341987996793,0.8718613358190802,-1.6216823312547177,-1.9467567577877276,4.144431869313423,0.35852353155102534,1.364151482350285,-1.476401154194967,2.0,0.508818342211306,0.5194409168845283,0.40343793057750027,-0.7299015796633718,0.025566672420917317,-0.4606111809855279,0.5044079392885814
9.1,0.9323056340250037,2.0735905222568634,-1.0979839901564965,-0.16724454189087173,-0.0062799240351947136,0.009645953593938914,-0.3123091244419417,0.3803723866522545,0.8705008846955663,-1.6216815163714717,-1.9467624503337675,4.14443678399046,0.35849843302623324,1.3641511748211552,-1.4764130751239222,2.0,0.5088035478951837,0.5194470235184074,0.4034583014595664,-0.7298988557938697,0.025553530232024724,-0.46060739309902793,0.5044160057194839
9.200000000000001,1.1663240230213165,2.668332076255746,-0.9406076724402544,-0.2254851709168281,0.005689351808063161,0.006165916402310289,-0.3143446431673191,0.38271913719041717,0.868742216475938,-1.6216732299749634,-1.9467764457165102,4.1444584806538165,0.35850825329333214,1.3641480171258666,-1.4763857673280654,2.0,0.5088273468703356,0.5194316869457852,0.4034306802751282,-0.729909769341888,0.025577885415841245,-0.4606051230081427,0.504401051798645
9.3,1.506005829053001,3.2451879487423763,-0.49741995344597556,-0.25948033847493684,0.0363179973849017,-0.0006194525368896364,-0.31533186228400106,0.3838184382547934,0.8678985782372649,-1.6216676692214047,-1.9467410976358577,4.144447892443655,0.3584882456013183,1.3641470899207608,-1.476413260428799,2.0,0.508837531523194,0.5194279886423847,0.4034278459386482,-0.729911625799486,0.025577369198590345,-0.46061707592098144,0.5043874761308365
9.4,1.932636067318853,3.690839773424763,-0.10021084349872006,-0.28174860175743976,0.06310696597787337,-0.007660936929499172,-0.31577303192119627,0.3843396551380593,0.8675081508718395,-1.6216611858835972,-1.9467746937407997,4.144436359740182,0.3584896400765971,1.3641598044458914,-1.476407573478505,2.0,0.5088434998476284,0.5194310074991154,0.40342039791321205,-0.7299224760019849,0.02555766380977652,-0.460618543788757,0.5043714325431639
9.5,2.105089500828711,3.7621093718034215,0.34733742701774684,-0.3310656884583351,0.09319282953742822,-0.018348118751084306,-0.31585538351618614,0.3844810034528381,0.8674155357823231,-1.6216813022404066,-1.9467621939288404,4.144443123987233,0.35849365441042796,1.364150077610365,-1.4763874450869985,2.0,0.5088093663216444,0.5194360894984397,0.4034539438559647,-0.729903903519799,0.02557273998526523,-0.46060247626317874,0.5044122177906025
9.600000000000001,2.4806538562491474,4.99771141327841,0.7742782670125399,-0.3830733742834064,0.10494579196926516,-0.017908207055508857,-0.3154602262915716,0.38402076657274076,0.8677626231241845,-1.6216746199520484,-1.9467742965563664,4.144454557784164,0.3585006433674316,1.3641533851623535,-1.4763900916034436,2.0,0.5088123567318505,0.519438943595571,0.4034568057332015,-0.7298989386501857,0.02557090601343868,-0.4606080735555035,0.5044143839131396
9.700000000000001,2.1905122771650127,4.843331397058668,0.9538803850831366,-0.42686798311966323,0.12328913878608717,-0.02580832688650777,-0.31480426611511864,0.383232346629131,0.8683497221619783,-1.6216679013041784,-1.9467950502976026,4.144441642465894,0.3584882456013183,1.3641533851623535,-1.4763830919174428,2.0,0.5088298078105924,0.5194356398282918,0.4034110430723124,-0.7299200016325899,0.02557818991339559,-0.4606042307085745,0.5043870439164722
9.8,2.508799717610962,5.145540094205008,1.3564023018173808,-0.4561501093354893,0.12605035984529356,-0.027947133240426133,-0.31484091875382636,0.38331940084974125,0.8682979612949474,-1.6216678619384766,-1.9467399939039551,4.144458276952825,0.35849549600701774,1.3641533851623535,-1.47639105744954,2.0,0.50880972876414,0.5194440306536818,0.40346249249072086,-0.7299067064467606,0.0255482736903268,-0.46060627960557643,0.5044059285767728
9.9,2.495974145312773,4.643022629639166,1.260045502379623,-0.4457023962146621,0.1467055285492387,-0.04155313075459641,-0.3143466467779166,0.38271830892322517,0.8687419086650676,-1.6216977820659886,-1.9467406339170616,4.14446496963501,0.3584950956889441,1.3641648292541504,-1.4764018963276824,2.0,0.508822538075812,0.519448437200878,0.4034348305664874,-0.7299062166526582,0.025557069134073754,-0.4606067127316397,0.5044057962549914
10.0,2.788353130517636,4.860097189149435,1.4155550868977316,-0.4389550597818073,0.13779892970116706,-0.034516424146031045,-0.314691519838536,0.3831262377790848,0.8684364105249798,-1.6216962835266455,-1.9467642342581424,4.144458349148618,0.3585050959262671,1.3641749079792036,-1.4764057922770875,2.0,0.5088256198966676,0.5194334927024388,0.403437651919462,-0.7299070502177349,0.025566627638965493,-0.4606112472424429,0.5043999648169861
10.100000000000001,3.019769806981153,4.777062765640894,1.6216125168712336,-0.43125135495941597,0.15599818959226272,-0.035228271978561175,-0.3156046425564446,0.38422103203500857,0.8676218695500892,-1.621671652135911,-1.9467712841429652,4.144476045610069,0.35852527934112044,1.3641703672416798,-1.4763768354998987,2.0,0.5088081441206841,0.5194476989704268,0.40342664379114895,-0.7299166132760747,0.025542431856129352,-0.46059643572681214,0.5044008775113471
10.200000000000001,3.0568592638578,4.966248070646751,1.6596880784252268,-0.43897045178213023,0.17825679887220133,-0.04650662435273182,-0.31459029684246725,0.3830761347689475,0.8684953147768277,-1.6216802597045898,-1.946759719834795,4.14446496963501,0.35852789489391157,1.3641658039074913,-1.4763848699231257,2.0,0.5088043658890428,0.5194450538126937,0.40345064397155483,-0.7299038102721275,0.025548481010129496,-0.46059613172611025,0.5044193754280751
10.3,3.2652183280526925,4.935219185834218,1.7828887676568987,-0.46525651871645474,0.18641893461908648,-0.031975952651182776,-0.3144763670194311,0.38295133798013853,0.8685920634846772,-1.6217031381834743,-1.9467756792564976,4.144442081451416,0.3585012551373747,1.364145558314314,-1.4763802672344055,2.0,0.5088105542157654,0.5194473837413148,0.403459000311036,-0.7298870055437253,0.02556536112231754,-0.4606021897906514,0.5044373045375966
10.4,3.3179771949572174,5.233612317530349,1.9022277836552406,-0.48228879041993206,0.20253976837965965,-0.032239170223084,-0.31511596486936067,0.3836794077062319,0.868039168616391,-1.6216277877821994,-1.9467475600145825,4.144441869825795,0.3584883633308459,1.3641409873962402,-1.4763737430163404,2.0,0.5088146210027207,0.5194427128959603,0.4034397873469526,-0.729903050891092,0.02556552978401403,-0.4605956817479908,0.5044200213530807
10.5,3.42715034393498,5.563331019632786,1.8274047134251883,-0.475539746882124,0.20874611478326668,-0.0336906087853883,-0.31450892283952797,0.3829624194516914,0.8685754670904902,-1.6216733050302787,-1.9467817516272004,4.1444783210754395,0.3584783840375672,1.3641598048617176,-1.4763837901742098,2.0,0.5088128300032428,0.519448960400297,0.4034397193195192,-0.7299096422779939,0.02556076209990516,-0.4605950555300153,0.5044112968320447
10.600000000000001,3.375608890092454,5.655059134935976,1.787888959573197,-0.47746151502061657,0.2207410403686077,-0.03542588903507851,-0.3143511177887012,0.3827734475528222,0.868716183541815,-1.6216604634724145,-1.946736147426944,4.144463717493322,0.3585131462509107,1.3641342150010225,-1.4763957451844907,2.0,0.508808531052579,0.5194411373790044,0.40346457107011985,-0.7299005978552638,0.02555776980740624,-0.4606041830378623,0.5044162013863388
10.700000000000001,3.695235476391549,5.501608557413663,1.875852386023921,-0.5066197414470965,0.23168312058435012,-0.03456310233794039,-0.314499467379643,0.3829486080737819,0.8685853124031598,-1.6216802089516957,-1.9467657329079897,4.144459452109558,0.3584809729859164,1.3641533851623535,-1.4764077537858407,2.0,0.5087985114182063,0.5194532233062596,0.4034442887038928,-0.7299101988226497,0.025540516282053692,-0.4606002550031641,0.5044067691593231
10.8,3.872999102379697,5.851192899159842,1.9453279349358645,-0.5200966806657829,0.2562875827323305,-0.0365353430880492,-0.3145360365955993,0.38299652385147204,0.868550943115146,-1.6216602366385708,-1.9467619227669428,4.144444347723583,0.35848347313511086,1.3641556514345206,-1.4763768354998987,2.0,0.5088123209590979,0.519446493691376,0.40342808479881886,-0.7299155209890427,0.025566234859257984,-0.46059111719103757,0.5044061088241572
10.9,3.893970101854555,5.936890835055133,2.08030851250353,-0.5100423508960735,0.27255983489201085,-0.037764796787330863,-0.3145752833554105,0.3830207478848284,0.868526048419701,-1.6216746744798056,-1.9467469654478968,4.144447237043525,0.35852282827612114,1.3641397600796954,-1.476389233266012,2.0,0.5088136790083733,0.5194446580672211,0.40344974326823296,-0.7298994128898132,0.0255669872599672,-0.46060165372267037,0.5044197585478745
11.0,4.088042528321441,5.747241441047848,2.262178492377444,-0.5018433546764143,0.2867902398373065,-0.04123306027530365,-0.3146171807432154,0.38302151833379977,0.8685105330740077,-1.6216492036953845,-1.9467579806293853,4.1444597860201915,0.35849386118403787,1.3641608122400064,-1.4764022759263846,2.0,0.5088234517934287,0.5194281535856872,0.4034747685579867,-0.7298860783142295,0.025571715477618627,-0.4606264182507068,0.5044162000373615
11.100000000000001,4.514318603006236,5.748952906240546,2.101666190224813,-0.49436725919456426,0.3052288606435182,-0.03998854854731547,-0.31513346168081696,0.3836480023771122,0.8680464625524775,-1.6216600168308468,-1.9467734863759933,4.1444847135618845,0.35851713906458016,1.3641648292541504,-1.476401154194967,2.0,0.5088159027762402,0.5194295931832931,0.40346800628554474,-0.7298912335729453,0.02556365515153446,-0.4606182162240691,0.5044166388722863
11.200000000000001,4.728668693545933,5.99337644792845,2.1293749842064154,-0.5013731735291541,0.3258920327399589,-0.04817340587167124,-0.3152288920486176,0.383766619886469,0.8679595211904526,-1.6216456419584766,-1.9467712841429652,4.144472591450672,0.358522318932027,1.3641648292541504,-1.4764130751239222,2.0,0.5088078205022828,0.51944179735914,0.4034625784985419,-0.7298945494596979,0.025553664931391554,-0.4606109381046768,0.5044189930761216
11.3,4.6508688317838285,5.9110758647470565,1.9639326163401816,-0.512157484831209,0.34465753412291156,-0.0428845918991549,-0.31487880385276534,0.38334734029048506,0.8682719297534555,-1.6216678619384766,-1.9467522044339194,4.144448991750965,0.3585483270832519,1.3641723154119945,-1.4763939559662709,2.0,0.5088111133735951,0.5194433061968694,0.4034702017879732,-0.7298946502721926,0.025549385595991375,-0.4606190901428216,0.5044116198063842
11.4,4.877371061549419,6.187059281956899,1.8823367920358272,-0.5088543723234034,0.34207192186959207,-0.04144799967112523,-0.3138425778372727,0.382162067244942,0.8691690872929304,-1.621661156697625,-1.9467610921768705,4.144453525543213,0.35850386188304045,1.3641533851623535,-1.476389233266012,2.0,0.5088173562172951,0.519432265295441,0.40347334892668985,-0.7298882521293226,0.025563619103041894,-0.4606169995919038,0.5044220658029434
11.5,5.094040567339407,5.954612760019235,1.836630924831483,-0.5269289816215001,0.35259003807369793,-0.03673384555810923,-0.31417084109662274,0.382549465166508,0.8688799497440446,-1.6216325759887695,-1.946736630771585,4.1444626123674455,0.3585056040120613,1.3641680017594369,-1.4763989526685715,2.0,0.5088029061958325,0.5194362955692602,0.40350323470154403,-0.7298642365631305,0.025566853615816718,-0.46062139259855067,0.504452638869971
11.600000000000001,5.575988100133328,6.2105634768555795,1.9631184911703536,-0.5439950224694285,0.3834427487503463,-0.03364070026875007,-0.3140979093157309,0.3824760780284966,0.8689384616825225,-1.6216565024175746,-1.9467194147248528,4.144482262866074,0.35851279722188706,1.3641054575348754,-1.4764171811558329,2.0,0.5087988938660182,0.5194464001664478,0.4034738624832747,-0.729892887787543,0.0255505181483954,-0.4606115121565532,0.5044210327180687
11.700000000000001,5.369171474921989,6.1059066158546065,1.7567350552863332,-0.5488727430844247,0.38779558937173414,-0.04600985784559421,-0.31351147549077546,0.3818127547328797,0.8694420606577175,-1.6216616624326954,-1.946737666189225,4.14446496963501,0.3585098186359877,1.364134787890459,-1.4764099753710316,2.0,0.5088063692451852,0.5194364750111856,0.40347150518340047,-0.729898375288401,0.025563767969546132,-0.46059974459941333,0.5044231663925709
11.8,5.096405807733895,6.085238700435468,1.675563474293265,-0.5252139595482134,0.3916212439959145,-0.04501175061713035,-0.31264155357224227,0.3807880300084306,0.8702036642833003,-1.6216637017688245,-1.9467350445189417,4.144445921608018,0.35851576849497807,1.3641928312817126,-1.476381075229977,2.0,0.5088194205056313,0.519423697967396,0.40347158187933074,-0.7298980400000536,0.025569523828128552,-0.4606188103998668,0.5044059497677388
11.9,5.237793457310652,5.2047067755661995,1.3805744479187148,-0.50203397736538,0.39058566013813323,-0.045699319723378186,-0.3121866327273818,0.38024589979256274,0.8706047005741581,-1.6216418433878739,-1.946758635395539,4.1444619639920575,0.35851834921538,1.3641585674979988,-1.4764042850730428,2.2559798329647593,0.5088106209790991,0.5194414531578947,0.4034823256412194,-0.7298824266127786,0.025568857520249098,-0.4606149589196526,0.5044320930178786
12.0,4.907487799293735,5.095453394972861,1.2171987714826202,-0.46334953166153725,0.39803101203497415,-0.04780290750695806,-0.31228211935910455,0.38034603329257366,0.8705267096505009,-1.6216440200805664,-1.9467197065390383,4.144475124563087,0.35854239070316835,1.3641380192061985,-1.4763707367898717,3.0,0.5088091713864822,0.5194347498391497,0.40346290318467826,-0.7298964835300222,0.02556534186696455,-0.4606127289737927,0.5044139674246229
12.100000000000001,4.765277334529873,4.92775102484571,1.6055816312979212,-0.4329643690576065,0.38021816771975164,-0.045760542177871164,-0.31267921483021927,0.38084388586221635,0.8701658526441661,-1.6222397631592294,-1.9462387865124136,4.144550800323486,0.35863886915514026,1.3641458282548133,-1.4763957070240745,3.0,0.5088127407176501,0.5194314195163487,0.40347814555540795,-0.7298834113635079,0.025560369123801028,-0.460624701392493,0.5044222019436697
12.200000000000001,4.078175047615504,3.9909629829662343,1.920160566511133,-0.36687631270481624,0.3730620508265084,-0.055411535458557266,-0.3134753391396281,0.3818679212143085,0.8694307634880333,-1.6236952102973286,-1.9451840765645287,4.144715909051264,0.35904672490121936,1.3639567850987404,-1.476389233266012,3.0,0.5086166720661188,0.5192797205055348,0.40357097244265716,-0.7298486172629726,0.02554673396982103,-0.46061237372035546,0.5044844907809374
12.3,3.9202603079099534,3.163866171908574,1.8007385983241087,-0.3394657677892913,0.36171757824328477,-0.0621743422217306,-0.31311402811841127,0.38133882822025195,0.8697929867272527,-1.625370979309082,-1.9440369082948024,4.144895335203895,0.3594537056042849,1.363677201654992,-1.4763887564288538,3.0,0.5084654812226385,0.519057953889567,0.4035765136191639,-0.7298587605845996,0.025577791005219716,-0.4606237097786512,0.5044578913992314
12.4,4.009947832686581,4.847161305935899,2.4312023248465318,-0.4073967776172048,0.3441981008230819,-0.054494443870680385,-0.312438540732792,0.38047249721727866,0.8704148947076672,-1.6268273646774125,-1.942865931807175,4.145120972877519,0.35981249106672003,1.363442364949366,-1.476354174779107,3.0,0.507994906532512,0.5185640874904264,0.4034970026250641,-0.7299349242639176,0.02555916792068009,-0.4606018990296514,0.5043685417284771
12.5,3.2084041664732195,6.095603958201827,3.694133614317301,-0.4981155764044358,0.28829660598245255,-0.06917699491792602,-0.3116421157371566,0.37953753572027127,0.8711086290616212,-1.62844677521453,-1.941770846450269,4.145341396331787,0.36019602692968555,1.3632491748936597,-1.4763906325476825,3.0,0.5077393018889678,0.5183322672664009,0.40353748292992403,-0.7299292205470859,0.025550948774733725,-0.4606079458756159,0.504371690526422
12.600000000000001,2.9589661775671767,6.565956488220961,4.122655511055486,-0.5432014219967084,0.26589795537216354,-0.09538830536802383,-0.3112536251396364,0.3790751778128275,0.871448886418995,-1.6299944016969776,-1.9407996204208453,4.145521640777588,0.3605643945881347,1.3630406570658176,-1.4762664634283698,3.0,0.507397335903758,0.5179854172694887,0.40356556434291435,-0.7299352147413559,0.025552349562054287,-0.46060332824730504,0.5043671616192458
12.700000000000001,3.2921573346499953,5.188427610047221,1.7412647039477558,-0.4935347853468336,0.3182651759823391,-0.08234798733524883,-0.31130158723174056,0.37909376054690175,0.8714236219757269,-1.631370521652879,-1.939664970570728,4.145764307813211,0.361076083936789,1.3628472851081328,-1.4763004326180669,3.0,0.5069385361817592,0.5175065727854071,0.40346828244049804,-0.7299972019846127,0.02559227625836217,-0.4605629425439068,0.5043123005101602
12.8,3.513044411876489,5.282465534241086,2.2175711745029973,-0.49448503503282537,0.32869564739327195,-0.1037941592949099,-0.31162639721903357,0.3794759327991793,0.8711411870676363,-1.6327270005265913,-1.9383461404797069,4.1459302516741925,0.3613692036261488,1.3626832501610968,-1.4762558109467478,3.0,0.5067644362974729,0.5173163878921953,0.4034303824757803,-0.7300194467908059,0.02557215712289573,-0.4605625853975833,0.5042814462373384
12.9,4.116227322164624,4.686480080341573,2.263051278453591,-0.46390575264000977,0.35462341115648105,-0.09481637713067186,-0.3115406064267902,0.37946186280185734,0.871177914895002,-1.6344129319222558,-1.9370466288494943,4.146135246990532,0.3617825801076753,1.3624968528747559,-1.476281468068258,3.0,0.5062299920594017,0.516807074419476,0.40381937580048355,-0.7298366804696348,0.025571385818677114,-0.4606503931465636,0.5044657960281279
13.0,4.098979501983838,4.3822127681717005,2.1953559057040053,-0.4279630612663696,0.3633060674290913,-0.09457577685038299,-0.3113296207830369,0.3792655823799592,0.871338793570132,-1.6360640485924998,-1.936036584241801,4.146367786320176,0.3621272303687891,1.3622968216815332,-1.4763075758999915,3.0,0.5059913062797055,0.5165538171485853,0.4038605637085541,-0.7298361647837104,0.02557589709090528,-0.46064826371713047,0.5044682578678199
13.100000000000001,3.9800634984300682,4.647037471010951,2.6287654768079585,-0.439449624374654,0.35167811099430424,-0.10010304678388679,-0.31171009540166994,0.3797234895480879,0.871003323697349,-1.6373796463012695,-1.9350744686522425,4.146536735040263,0.3625165498581591,1.3621105185791067,-1.4762571493731897,3.0,0.5054952687541066,0.5160639109015619,0.4037900286706784,-0.7299119333604649,0.02554441614480859,-0.4605950457330638,0.5044088185073351
13.200000000000001,3.9222785379131007,5.005042770789256,2.4416525986046027,-0.47041688839826457,0.33162588957802547,-0.09414534782817567,-0.3115256676163671,0.37950936890925313,0.8711625236740828,-1.6388631539679468,-1.9340187511839808,4.146765808267176,0.36287361455289974,1.3618890757689963,-1.4762398984055343,3.0,0.5052740940299331,0.5158605561319182,0.40381059651052914,-0.7298967210354689,0.02553987021261719,-0.46060333984654406,0.5044234877297079
13.3,3.8518967923225245,5.3812554516572915,2.986655192624087,-0.4863837173443358,0.34284749119918057,-0.09619486130733874,-0.31123779803727414,0.3791721902672221,0.8714123048489338,-1.6405593187719634,-1.932771922846589,4.146975898264587,0.3632338248452768,1.361658599604909,-1.4762716941017382,3.0,0.5049946596740715,0.5155794594760705,0.40381533903967476,-0.7299083667589764,0.025533980970630327,-0.4606002323807019,0.5044097717945981
13.4,3.807254963228658,5.662884717428204,3.6095751681439268,-0.5070527998678317,0.31822683289741727,-0.10118462958193686,-0.311632104944229,0.3796255514598161,0.8710737010543931,-1.6420202566150497,-1.931477582713981,4.147169971921932,0.3635810729587983,1.3614649772644043,-1.476215902138444,3.0,0.5046378103070467,0.5152097941465928,0.4038156216273897,-0.729939233397801,0.025533616546941893,-0.46057985902891957,0.5043837263726548
13.5,3.51129497019172,6.013075435338397,4.086827857732485,-0.49598797251274435,0.3134842214904751,-0.11231918325021581,-0.31180716747007475,0.379829654051699,0.8709221416644047,-1.6433685142211465,-1.9304153618253201,4.147384568725776,0.36395926836738673,1.3612797536876846,-1.4762089888202112,3.0,0.5042089484380705,0.5147527747223406,0.4039425224047676,-0.7299001040066875,0.02554815908369873,-0.4606053562350728,0.5044163315615608
13.600000000000001,3.356680830118832,5.818261719319058,4.449863349159019,-0.49357080948325993,0.31464350490103327,-0.12154236244827113,-0.3112633349031657,0.37921047618435494,0.87138644548512,-1.6449280204019632,-1.9294175151441935,4.147598579342298,0.36438343351110924,1.3610859536909077,-1.4761511392719948,3.0,0.5037677000110856,0.5143074509806441,0.4040336799517857,-0.7298669967101185,0.0255618103658818,-0.4606231302855506,0.5044473142064603
13.700000000000001,3.5193630673524767,5.685858632857224,4.910756941699205,-0.4882652118420324,0.3062485376476917,-0.12231677991167844,-0.31053168814804993,0.37834446569442526,0.8720227442355416,-1.6466493033005645,-1.9283500985882018,4.147800840119505,0.3647605615803222,1.3608417510986328,-1.4762094656573694,3.0,0.5033627617578837,0.5139407841417687,0.40396480169952587,-0.7299174332804941,0.025540068293099124,-0.46058611519677,0.5044092346426134
13.8,3.079503995494177,5.752706112724781,4.692459026220017,-0.507330520485794,0.2791713844652157,-0.12074612819006696,-0.30975889102702764,0.3774243738124876,0.8726967273289783,-1.6480061611723635,-1.927112736906975,4.147989134052978,0.3651647621869181,1.3605971707912776,-1.4761493841754358,3.0,0.5030676930615626,0.5136271413130623,0.40385894831263125,-0.7299944597485741,0.02553139969688219,-0.46054890358775946,0.5043321760209414
13.9,3.0447651821613553,5.78977236227245,4.56959659206499,-0.5016892185938724,0.2605319765858035,-0.11693288703611854,-0.3093946201648498,0.37703074472500114,0.8729963832757873,-1.6493892669677734,-1.9258903009900057,4.148205660720157,0.3654557901569824,1.360438041832164,-1.47615983690013,3.0,0.502869460475809,0.513411044418636,0.40395405481494717,-0.7299515927174846,0.0255590830877301,-0.46057206303331505,0.5043716688258356
14.0,3.538981418417017,5.143935556528979,4.572216627571533,-0.4849992339360864,0.27940564605779117,-0.10948006267546175,-0.30893435828638466,0.376522706514436,0.8733780577062987,-1.650970321776623,-1.9247922011347225,4.148420014113084,0.36582292155854723,1.3602077734299431,-1.4761277174166294,3.0,0.5023414964093642,0.5128833375351535,0.40418768371523334,-0.7298566819630187,0.025562160277668593,-0.46062444249640044,0.5044610220133485
14.100000000000001,3.178155015195595,5.321255467204986,4.425102504393007,-0.46814410941998463,0.2853987872374092,-0.1157303018594519,-0.30799256933873537,0.37541666252678524,0.8741865547929436,-1.652482308307606,-1.9237091167449174,4.14862326874851,0.3661624628254394,1.36000163201825,-1.4761305960170021,3.0,0.5021515249649944,0.512684155660411,0.4042171070984481,-0.7298497683720172,0.025576696997232258,-0.46062517078455434,0.5044696226907273
14.200000000000001,3.2919338433640752,5.428246727652779,4.444723542187667,-0.4652002451909779,0.2764699750046448,-0.12456917931131337,-0.30821578047008624,0.3756726052902839,0.8739976451288397,-1.6539501597297304,-1.9226052396346214,4.148830890655518,0.36654392720991213,1.359823706436914,-1.4761193327502895,3.0,0.501769253240958,0.5122534678178577,0.4041320726427774,-0.7299226009861072,0.025557624620840033,-0.4606120157698038,0.5043772153080414
14.3,3.221623103217484,5.50099743163017,4.37764876044119,-0.4637824283167406,0.27126956477493364,-0.12543833609933383,-0.3087614475630643,0.3763055272106786,0.8735326670259919,-1.6554563422314428,-1.9214297781791274,4.149038801274228,0.36692309922595784,1.359625329890322,-1.476098834627799,3.0,0.5012973024385365,0.511813735810329,0.404186810766601,-0.7299119990825123,0.025550866940270717,-0.4605991979724535,0.5044046050752353
14.4,3.0168727200218157,5.150093905021773,4.384795342587358,-0.44931542362727334,0.26200278614701233,-0.12669256338504223,-0.3092647341933344,0.376881307681883,0.8731069022961863,-1.6569343794221645,-1.9203712036115812,4.14927339553833,0.3672419127840003,1.359415045588757,-1.4760893026935022,3.0,0.5010937087051419,0.5116188312291235,0.4042373661803105,-0.7298984255265706,0.025557158350740263,-0.4605995219860929,0.5044236318978835
14.5,2.6726372506082794,4.855926651208929,3.91796919825476,-0.44075820714412045,0.2540308865548679,-0.12571773996172558,-0.3096505994384707,0.37729876925603506,0.8727897840578105,-1.6583992901523648,-1.9192647814572212,4.149461696597664,0.3676088272755195,1.3591861724853516,-1.4760633737430051,3.0,0.5006089157493704,0.5111163638141365,0.40423244942250064,-0.7299337504034031,0.02554249008455823,-0.46059072057042616,0.504381293612995
14.600000000000001,2.125255584341783,4.802075828732407,4.196026065194685,-0.4423337992772858,0.1994625997549655,-0.10863326608436061,-0.309605449118025,0.37729969204474084,0.8728054565773317,-1.6598980727112587,-1.9180345700820838,4.149702860900457,0.367915934966102,1.3590085436189598,-1.4760219318825032,3.0,0.5004068302918918,0.5109269036018778,0.4042451747618085,-0.7299409719236036,0.025534211617986986,-0.46058480117457684,0.5043766672549874
14.700000000000001,2.4136081970020458,4.50706845910307,3.995580614305482,-0.4332563007966097,0.17654074069168108,-0.11004957538308735,-0.3093858570446458,0.3771078590542059,0.8729662094320126,-1.6614360825146228,-1.9168396111212394,4.149885587798874,0.36831007073539757,1.3588380813598633,-1.4760275153967077,3.0,0.49995938697077835,0.5105157932204433,0.40433265676567065,-0.7299184216309467,0.025517380175573125,-0.4605672901053195,0.5044261416280931
14.8,2.1493470050253154,4.757830092307982,4.36749476971521,-0.4303068183760957,0.1720101537623331,-0.10887822774278481,-0.30911630382953575,0.3767950289242407,0.8731967663747991,-1.6627678568694249,-1.9157847308306435,4.150066145448451,0.368687559838933,1.3586233243641803,-1.4760233968543321,3.0,0.4995154786035748,0.5100046579453964,0.4044373067670805,-0.7298909414518605,0.025548163962829024,-0.4605911905272923,0.5044425240929798
14.9,2.1302197416017163,4.707458601776342,4.586432723571065,-0.42392004465915495,0.17149161393818246,-0.10878117359617548,-0.30897198485234967,0.3766351242990656,0.8733168022159575,-1.6641607284545898,-1.9148206492614113,4.150268232308786,0.3690403293472324,1.3584509992595435,-1.4759578569203986,3.0,0.49929782657964916,0.5097481236936678,0.40448690583063457,-0.7298714267091886,0.02555356309781882,-0.46060707357144265,0.5044559838701999
15.0,2.274947765292058,4.280132637632723,4.309389901048,-0.40363276284589594,0.18004914170038225,-0.1111751627523761,-0.3086041804088131,0.3762089359004945,0.8736298110184537,-1.6654491375081635,-1.9139005766177422,4.150410535631463,0.36936049311632596,1.358264503286163,-1.4759830250348411,3.0,0.4988861035631873,0.5093707045763165,0.40447580802454297,-0.7298854208645991,0.025533943049571163,-0.4605966723363474,0.5044462266627951
15.100000000000001,2.4681787768101597,3.900946218560711,3.752518709578058,-0.3898005753125664,0.1895653702540637,-0.11454466296530898,-0.30739380058018556,0.37477881576275224,0.8746703582594291,-1.665454302460855,-1.913854261437887,4.1504346629771955,0.3693756024334036,1.3582499303078073,-1.4759922453931327,3.0,0.49870577531200566,0.5091820661501915,0.4044484983937259,-0.7299046940533608,0.025537173075523188,-0.460592019675804,0.5044224239673973
15.200000000000001,2.505791019155459,4.159408266265542,3.8860203974899945,-0.40702903926949574,0.16396687931313617,-0.1088958089964839,-0.30728595403104025,0.3746460537606544,0.8747659409369541,-1.6655029101735346,-1.9138431774193565,4.150457138892774,0.3693510086883551,1.3582382844288323,-1.4760098420843724,3.0,0.49860152690382303,0.5090840564214787,0.40449682663628816,-0.7298745138026985,0.025548227364977652,-0.46059979183743127,0.5044584362849898
15.3,2.3132535241956322,4.36231029738753,3.9825842372650637,-0.40834906703825596,0.16035673551787355,-0.10776591141558571,-0.30779354535512016,0.3752339937235684,0.8743349369915419,-1.6654734381618728,-1.9138180218138636,4.150423072916008,0.3693272080551834,1.35822630744373,-1.4759586411543133,3.0,0.4985972670610367,0.5090737163182772,0.4045016324237664,-0.7298837048796747,0.025550121371421073,-0.4606008670081173,0.504444060288548
15.4,2.2743920556749324,4.154604293473313,4.033501974511751,-0.39899676632187087,0.16634986087495468,-0.10467112531629967,-0.3089238787703895,0.37654000990071235,0.8733739681357259,-1.6655308077734892,-1.9138397057257845,4.150434620181937,0.3693293629034609,1.3582504687310306,-1.4759815374957483,3.0,0.4985888919609098,0.5090609559737942,0.4045320932066366,-0.7298651846266387,0.025566208800102373,-0.46061138591627426,0.5044604369044229
15.5,2.449342052588427,3.9432193493000467,4.085749195843106,-0.4009511631960983,0.1613413703797608,-0.10690205995518408,-0.3094649284107648,0.3771652180311146,0.872913372617243,-1.6655082702636719,-1.9138066601839947,4.150423263564346,0.3693499275237365,1.3582399139258883,-1.4760172178206856,3.0,0.49859470973924763,0.5090614594714675,0.40448498338212796,-0.729898619789595,0.02556015691906672,-0.46059273240537507,0.504429398491868
15.600000000000001,2.0868278260126916,4.394332398078977,3.9473666345134646,-0.40022924329721876,0.16539586613315196,-0.1049273343176577,-0.30935045529466837,0.37703151687897585,0.8730101560065539,-1.6655423616238654,-1.9137734738955166,4.150402223408722,0.36932924293542874,1.358227900029525,-1.4759727523642665,3.0,0.4985927795916369,0.5090666298335804,0.4044954388061941,-0.7298926025143029,0.025546799702418143,-0.4605975040794116,0.5044344249312086
15.700000000000001,2.2076827914960298,4.345120732714968,3.911588945820079,-0.4070324662862367,0.16414033286069132,-0.10629533798679773,-0.3072493121869008,0.37459379470456383,0.8747981109895889,-1.6655325308668458,-1.913794791968262,4.150412275939164,0.3693277527536735,1.358227462332837,-1.4759578969576765,3.0,0.4985907178286236,0.509063007843721,0.4044864542014329,-0.7298961793544639,0.025561861905862914,-0.4605921063669557,0.5044334149638708
15.8,2.417933643667298,4.6733771626302865,4.068005831188439,-0.39541137791407405,0.16127227627243135,-0.10239007676168586,-0.3070523743911384,0.37436562851287636,0.8749673783283006,-1.6655287782504127,-1.9138110762489273,4.1504154165432885,0.36932463587726777,1.3582341985251414,-1.4759696165667933,3.0,0.4985911113327886,0.5090522088634909,0.40450989046008096,-0.7298875150326287,0.025543160046127986,-0.46060143672204856,0.5044383796500189
15.9,2.2108225483967545,4.4849167579376426,3.8614373178242682,-0.3981367594775865,0.16541031360246855,-0.10694729951689287,-0.30769699947588863,0.37511104352264213,0.8744218909864689,-1.6655206680297852,-1.9138421840317366,4.1504708300253785,0.3693742783777199,1.3582158088684082,-1.4759694631577782,3.0,0.49859403487871284,0.5090621510858226,0.40451163012155966,-0.7298797863320154,0.02554946088458515,-0.46060610996911794,0.5044449761981534
16.0,1.9472098838470682,4.551410298003978,3.841947890560756,-0.3979529150732067,0.16940076776323837,-0.11312845832848643,-0.3067950610724021,0.37404198125626564,0.8751953118939056,-1.6655083729107212,-1.9138179871358063,4.150448144744489,0.36932685685432476,1.3582633538719995,-1.4759458440649975,3.25653812576857,0.49860184265581,0.5090602277632321,0.40448901166711004,-0.7299018202214785,0.025547231186679925,-0.46060009457230006,0.5044186997882363
16.1,2.0155523376657274,4.650574504707542,3.8680652133349933,-0.39448860583032247,0.16602359485182352,-0.1090183479189304,-0.30595848948264354,0.3730520049682477,0.8759118190429356,-1.665532112121582,-1.9137943357336311,4.150459691614654,0.36932698475823816,1.3582270971825274,-1.4759578514155158,4.0,0.49859475752679344,0.50905081396485,0.40449102153870253,-0.7298986717403391,0.02554139851496616,-0.4606034346644581,0.5044205010989272
16.2,2.4551075295642284,4.285129624709511,3.947106001626107,-0.40192093327523226,0.15513006927050838,-0.10511612598762128,-0.3056282543101881,0.37267463481256624,0.8761874677978735,-1.6655322893309117,-1.9137820744339467,4.150435924530029,0.36937369955088906,1.358227444936979,-1.4759813529026966,4.0,0.4985923309009354,0.5090516403829285,0.4045028449687805,-0.7298877018616253,0.02555110462941555,-0.46059734070087893,0.504441447011098
16.3,2.186384688314861,4.405883114912668,3.8179606169711815,-0.39660157604436447,0.15825710754270725,-0.101769164171424,-0.3052980191377326,0.37229726465688473,0.8764631165528114,-1.665540927684431,-1.9137904731799604,4.150399684906006,0.3693436744010469,1.3582062586753216,-1.47594206793289,4.0,0.49859939996249103,0.5090487881902642,0.4045024642321894,-0.7298954582754078,0.02555151235315276,-0.46060146302292837,0.5044264391034008
16.400000000000002,2.089213174322537,4.341649154774591,3.8774511772832336,-0.39902190929191955,0.16015516259038384,-0.1073490316051628,-0.3080254443680568,0.3754662599655857,0.8741445702741583,-1.6655430142177157,-1.9138063831743164,4.150435630949045,0.3693146500221463,1.35823992172415,-1.476017494830364,4.0,0.4986070370838295,0.5090464600439695,0.4044935222896436,-0.7298980855984839,0.025549201220217796,-0.46060132339739907,0.5044228819564414
16.5,1.9879362974506067,4.558593116361818,3.9637185479587185,-0.42679121933381736,0.14908071747969479,-0.1000432920400193,-0.3100426139460398,0.377810133065041,0.8724293570776482,-1.6655198417959733,-1.9138049092015261,4.150436337646935,0.3693620401569824,1.3582622850117345,-1.4759815374957483,4.0,0.49859954861472217,0.509043537321796,0.40450237718041726,-0.7298939319767153,0.02555801070863288,-0.4605984278574584,0.5044310898501648
16.6,1.7267950263810474,5.04973624420874,3.778150254418853,-0.45146079287997865,0.12073334063439452,-0.10352159629592532,-0.3102352595008563,0.37803695345032867,0.8722626147724332,-1.6655316867326435,-1.9138171355869085,4.150378076340023,0.36933908452602743,1.3582506694291767,-1.475959024978271,4.0,0.4986029163899353,0.5090458820037636,0.4044937813203902,-0.7298917900862886,0.025559889360012446,-0.4606040121734432,0.5044289947953663
16.7,1.8178219158935474,4.793721376433076,3.7664886761306526,-0.4531521187189522,0.12127050673106211,-0.1002558007596031,-0.3103481773581606,0.3781669843623578,0.8721661170176552,-1.6655673423956396,-1.9137832295558117,4.150436429205012,0.36936153548199946,1.358238680197505,-1.4759929731602968,4.0,0.498583836291836,0.5090594779384309,0.4044985997910066,-0.7298890035581403,0.02554153636671516,-0.46060092860616864,0.5044367720260567
16.8,1.8390690213318515,5.191860803511593,3.845195485031391,-0.4445019503111092,0.1242330292672557,-0.10513026216996851,-0.3103642674643033,0.37817859172290463,0.8721553142474782,-1.6655562713188763,-1.913807259923535,4.150412082672119,0.36937271072827965,1.3582267075302632,-1.4759696165667933,4.0,0.4985975154618124,0.5090499305158848,0.40447767876776325,-0.7299092520226764,0.025547844883755957,-0.46059332102391737,0.5044140997847415
16.900000000000002,1.6015030629667748,5.128531253393767,4.037523364838483,-0.44940620601587633,0.11833581189662937,-0.10115923733059372,-0.309902854863918,0.37760032226904067,0.8725696950949184,-1.6655564005367833,-1.9137827118100565,4.150424468552677,0.3693391038651887,1.3582167144345247,-1.476004932513378,4.0,0.4986101284798277,0.5090436063525792,0.40447955240066563,-0.7299130067365283,0.025557897931212777,-0.460603365387906,0.504398985172962
17.0,1.6626526885239872,4.9877351782193475,3.7623771577024065,-0.4567217357008721,0.11032743869108438,-0.10225747888472644,-0.3094569872272493,0.3770818170789981,0.8729521137219215,-1.6656135673444714,-1.9138061008849085,4.1504135953889625,0.369327231907331,1.3582039286106886,-1.4759835478168162,4.0,0.49861144698320636,0.5090289753380911,0.40448002760413077,-0.7299099240941871,0.02555840179543881,-0.46060431797704815,0.5044025506154581
17.1,1.842084063598761,5.1074012533760875,3.8697305907163626,-0.459580618726136,0.11061301663540699,-0.10637846152298826,-0.30901970372707044,0.37660329785579666,0.8733136412489241,-1.6655789711070639,-1.913795039050056,4.150413800860324,0.3693505358487357,1.3582493766299102,-1.4759576956378382,4.0,0.4986060780231279,0.5090516338847508,0.40445201739082376,-0.7299221293331726,0.02554517031122782,-0.4605877585847836,0.5044006800405239
17.2,1.8894187393376025,5.046137812807918,3.843884331951607,-0.45763962069281655,0.11560362348127774,-0.10598733284077144,-0.3085110215893817,0.37598071570654856,0.8737614337474449,-1.6655683517456055,-1.9138180218138636,4.150389187347267,0.3693583859120307,1.3582166858871967,-1.4759815374957483,4.0,0.49861684674022766,0.5090519121543279,0.4044327265757049,-0.7299377048212307,0.025553679407154164,-0.4605842884060415,0.5043808777328602
17.3,2.0285533012111188,4.896780221815114,3.5624399922910004,-0.4301905791036583,0.12949173767940286,-0.10328258156917167,-0.309402418859704,0.37703941994067375,0.8729858092193885,-1.665543556213379,-1.913814950239442,4.150435924530029,0.36931742801558376,1.3582265157823439,-1.4760042896878616,4.0,0.49861810587251837,0.5090503982936551,0.4044259597690325,-0.7299342590499245,0.025553912625751688,-0.46059137299669894,0.50437938313909
17.400000000000002,1.920468390508764,4.026996110885172,3.216054081186266,-0.4140661372604907,0.1262975307921332,-0.10349872706397471,-0.3113869437989066,0.3794107113873356,0.871255194613798,-1.6655569076538086,-1.9137831970005128,4.150449222750717,0.36934686598926625,1.3582386752338633,-1.475971492513822,4.0,0.49858866709368704,0.5090686757896425,0.40446245752422216,-0.7299082566516756,0.025549025811615812,-0.46058118228173345,0.5044265642090527
17.5,1.6500357620058625,4.332903040171258,3.130222793901261,-0.39915318525174126,0.11614072321896794,-0.10519302793629175,-0.3107346399253329,0.37861279998803055,0.871834642724876,-1.66555124745923,-1.9137736546183042,4.15042467649094,0.36937107718256457,1.3582294639737125,-1.4759588011445919,4.0,0.4985923497128042,0.5090644492520389,0.4044961415996472,-0.7298871917311007,0.02553590371018842,-0.46060417588887614,0.5044367136939196
17.6,1.7031608005717913,4.629476990641671,3.2762737452733552,-0.4016514302537368,0.11263674504021581,-0.09715560575636026,-0.30959308933380514,0.3772798740906663,0.8728161751019551,-1.6655822168832801,-1.9138061008849085,4.150388434904167,0.3693381982990722,1.3582180161073985,-1.4759923548052083,4.0,0.49859387212747064,0.5090546168617345,0.4044945361334879,-0.7298994690645824,0.025542374624785764,-0.4606014665728301,0.5044210950671333
17.7,1.9224244313119283,4.627414250929812,3.4902119206568867,-0.4273984093052174,0.11233655401219597,-0.0987579654803433,-0.30804489850546474,0.37550393826767203,0.8741310458970571,-1.6655618445294476,-1.9137954710702705,4.150413322141864,0.36934470551523013,1.3582105411219947,-1.4759908761960694,4.0,0.4985946645030167,0.5090666900405398,0.4044626266868539,-0.7299170555286559,0.025534117710328874,-0.4605858677574115,0.5044103084823748
17.8,1.905113437064113,4.523800407078213,3.4614959995184362,-0.43786341130377404,0.11069295077126153,-0.0971476172103835,-0.3088608170535682,0.376420379924746,0.8734480855746546,-1.6655771787173625,-1.9137827866721677,4.150457655807262,0.3693496423908691,1.3582173706981093,-1.4759696165667933,4.0,0.49859980870012244,0.5090568486779755,0.404470592744047,-0.7299109395776051,0.02554119703718058,-0.4605982309031191,0.5044075110738964
