xiamingqian9007/apple-picking-rnn/final_data/grasper_20191127_131714_noimg.csv
,/manipulator_wrench.fx,/manipulator_wrench.fy,/manipulator_wrench.fz,/manipulator_wrench.tx,/manipulator_wrench.ty,/manipulator_wrench.tz,/ground_truth.x,/ground_truth.y,/ground_truth.z,/joint_states.elbow_joint,/joint_states.shoulder_lift_joint,/joint_states.shoulder_pan_joint,/joint_states.wrist_1_joint,/joint_states.wrist_2_joint,/joint_states.wrist_3_joint,/mode./mode,/manipulator_pose.x,/manipulator_pose.y,/manipulator_pose.z,/manipulator_pose.rx,/manipulator_pose.ry,/manipulator_pose.rz,/manipulator_pose.rw
0.2,0.5380722806281925,-0.12696244692467665,-0.08630472447390267,-0.012366099361657772,-0.005374577927786886,-0.005249874183025514,0.06165826740612347,-0.06350292830590923,0.9960751156895729,-0.900916677332758,-1.955084628954831,4.155585137155283,-3.883444448510641,-1.3748783014269519,1.7980030842691586,1.0,0.47773264589288916,0.48841319065952804,0.4237781296308352,0.8446562689352499,-0.05114469653254359,0.3488962881126781,-0.4027547485830207
0.30000000000000004,0.4179838519128678,0.5863251645096087,0.2951129120165248,0.0006225057387233071,0.0001407118954158404,-0.011252915418161898,0.06196971299185585,-0.06402101721839405,0.9960224323684826,-0.8985616945463557,-1.9575135088936642,4.155118286841585,-3.8832749329008998,-1.3751794402012336,1.7978626121770998,1.0,0.47776280812038086,0.48841561215095586,0.4237503290212822,0.8446667452097372,-0.0511488883444772,0.3489085897947969,-0.4027215871111448
0.4,0.8001982109716725,-0.017387502812669996,0.2079544580923082,0.009782353143272703,-0.0019873775243364963,-0.010921188787453986,0.06228358155905216,-0.06454371662135809,0.9959693016003337,-0.8956651366899865,-1.9607793451770874,4.15450919701541,-3.8829935626977905,-1.3756827207049918,1.797622365379135,1.0,0.4782893309229043,0.4888976979364923,0.42343056079735003,0.8446639223145138,-0.05119489511713028,0.34892354637073975,-0.40270870345980025
0.5,0.45507326755898336,0.14856238761287371,0.2722512839306181,0.0015800880113627895,-0.0032133984316120917,-0.014773721335063366,0.062123319599948885,-0.06430238497217773,0.9959948796659626,-0.8924957251322657,-1.9641949678674222,4.1539987859297955,-3.8826643033142636,-1.3762812316559738,1.797331174738172,1.0,0.4794139112345659,0.49000843039868586,0.42265086027550136,0.8446758485481116,-0.05119953113966627,0.3489252107570655,-0.4026816561363872
0.6000000000000001,0.3775276006899334,-0.03867063848277344,0.16039650884840884,-0.004596440409734897,-0.0020081843589297536,-0.015007396357835974,0.06195373225160562,-0.0640460260540124,0.9960220058084835,-0.8894834518432617,-1.9675126817645308,4.153477257011003,-3.8823826330787354,-1.3767963775244059,1.7970649830277905,1.0,0.4801150624378187,0.4907833285026226,0.4221318935479738,0.8446772576237602,-0.051171314931162906,0.3489054185322954,-0.40269943618066223
0.7000000000000001,0.6706561860840502,0.11568857765544015,0.1367254931969556,-0.0014122907326658018,-0.0061906270038891145,-0.007361431004110307,0.061937510131575266,-0.06390141177876267,0.9960322956841096,-0.8863998425174767,-1.970805510900785,4.153004129436654,-3.882136759256928,-1.3773473378473524,1.796825325545011,1.0,0.4813690369277424,0.4921220789313599,0.4212242846133671,0.844686645967591,-0.05111609066381346,0.3488834647768569,-0.4027057777144077
0.8,0.6505024089682236,-0.06071371746198251,0.22658382393035031,-0.010794283958945062,-0.008350172530233244,-0.010658708979077605,0.061925939872279664,-0.06376018693227993,0.996042074883556,-0.8836096802643325,-1.9736360978642835,4.152566385391506,-3.8819335899748744,-1.3777722021243242,1.796578953637535,1.0,0.4817701845847794,0.4925853901855388,0.42091754395223513,0.8446927334800931,-0.051099955563287155,0.34886152775709656,-0.4027140610884388
0.9,0.6894072826654494,0.0775636541285423,0.3378495288234119,-0.001936754225961282,-0.004596789305073973,-0.007700898282757149,0.06237177111115817,-0.06434615798968463,0.9959764134819842,-0.8805626532460116,-1.97675983012592,4.151961113722805,-3.8817351361438113,-1.3781800823935249,1.7963557917943451,1.0,0.4825389804020334,0.49337193087465975,0.4204279193449353,0.8446689127839231,-0.05110704469020226,0.34887725755859345,-0.40274949648367503
1.0,0.47641527764891095,-0.22912924918148492,0.08363323622074352,-0.00028098766233736406,-0.003880362671085389,-0.0059555975069624425,0.06228269429619931,-0.06427008663743956,0.9959867102854875,-0.8778377946408209,-1.9796330986989727,4.151482131295575,-3.881550084067987,-1.3785818540973473,1.796134497933759,1.0,0.4837984401191939,0.4946009025920077,0.41964185561907,0.8446376556266083,-0.051132237499790914,0.34892849489568456,-0.4027674644701135
1.1,0.5373572969182818,-0.0719494707706359,0.13502485842503273,-0.003912311677245851,-0.005000396214140567,-0.007771002842269494,0.061513074992596055,-0.06334345445659595,0.9960941842318255,-0.8750648154880245,-1.9826303104801462,4.1510191543742625,-3.8813672576096154,-1.378965645433724,1.7959370613098145,1.0,0.48431023741534923,0.49513480293698,0.419286816595371,0.8446395279034535,-0.05113089477457794,0.3489316685306859,-0.40276095912957355
1.2000000000000002,0.4929381297902177,-0.08263526842559629,0.15596651757408322,-0.003331190201190544,-0.0026718116823658935,-0.011612941718828028,0.061860613520763066,-0.06387207530415703,0.9960388150773337,-0.8723669052124023,-1.9853934711241084,4.150523060625463,-3.8812091638825725,-1.3794250948805469,1.7957514465507556,1.0,0.4849790386712788,0.49580462279098675,0.4187856129521357,0.8446637860553501,-0.05114318997565809,0.34891941161132606,-0.4027191413957889
1.3,0.383838909925386,0.12470686046470825,0.2135358286139499,0.004532409417953298,-0.003201963623926005,-0.01379988091626473,0.06169785069805048,-0.06367016624576007,0.9960616703377454,-0.8697548900951039,-1.9880127658463995,4.150120627115788,-3.8810701051861347,-1.3798330465899866,1.7955407015786786,1.0,0.48597112156365535,0.49679741901539703,0.4180863606310093,0.844673459207859,-0.0511603263437359,0.34890396471973895,-0.4027100591257672
1.4000000000000001,0.56679014052618,0.06968217016259394,0.05042704498166323,0.00011674005565776458,-0.005595811143325035,-0.005066682840771211,0.061381938554428424,-0.06316823988540474,0.9961133861233675,-0.8671717089818151,-1.9908046487011994,4.149630033802743,-3.880993128801837,-1.3802466841112264,1.7953968422365731,1.0,0.4865411421576824,0.49740558409430496,0.41772508499828387,0.8446554833437604,-0.05113738823838481,0.3489078439519345,-0.40274731334955893
1.5,0.40975607693128,0.22618965842755887,0.13814642097317856,0.005232308460323755,-0.00445527320893031,-0.011749459947362673,0.06172497891070222,-0.06354582871535155,0.9960682461505418,-0.8646465449100753,-1.9932292789339519,4.149228294145085,-3.880885410223389,-1.3806839074357302,1.7951566622373452,1.0,0.4876092063718286,0.498478428896339,0.41702909023940526,0.8446390202990058,-0.05113993171788099,0.34889979694864687,-0.40278848600899575
1.6,0.25041889507199433,0.18329434872003317,0.23728599889051982,-0.005310038950244235,-0.011285294466241168,-0.005849979208322314,0.06177071276752931,-0.06362531602051082,0.996060337762979,-0.8623574023995606,-1.9959443649703992,4.148828572312036,-3.880818835984761,-1.381000332490321,1.7950064921373732,1.0,0.4880456287357737,0.4988875710671069,0.4167752407928318,0.8446217205728865,-0.05115037788901748,0.34891532143449067,-0.4028099880173948
1.7000000000000002,0.6139161708623269,-0.02129412878028014,0.11938305772923452,0.00042135778200937265,-0.00346048499774583,-0.009662945948057394,0.061765625794910586,-0.06368759993169718,0.9960566733241327,-0.8598175534639196,-1.9982119988349805,4.148483943137656,-3.8807071178695383,-1.3812779106626696,1.794858550624614,1.0,0.4889849677651393,0.4998892933742339,0.415888757833086,0.8447285178728726,-0.05114278411718888,0.3488422127473324,-0.4026502916062365
1.8,0.3449330746384225,-0.013120103500225994,0.13052131662359392,-0.004763716550396617,-0.002582265918262611,-0.012578872631660585,0.0619967346339946,-0.06396780974563604,0.9960243138366797,-0.8577857363075261,-2.000411345043831,4.148122319435206,-3.8806630338069987,-1.3815689870274899,1.7946600788362765,1.0,0.48933638378146493,0.5002598679692191,0.41580028113782563,0.8446555262164587,-0.051148391746709904,0.34889277462460777,-0.4027588805581633
1.9000000000000001,0.34790053820415706,0.0743915069503752,0.04117555914116922,-0.0005957766430177321,-0.004774742539758002,-0.011560788671939923,0.06204485057687709,-0.06403397698235382,0.9960170683555838,-0.8553653780124937,-2.0029536961234817,4.1477881494663515,-3.8806200911846918,-1.3818452286475236,1.7945444356571374,1.0,0.48986494175795525,0.5007922642049936,0.4153718594174819,0.8446909485304153,-0.05112304080010463,0.34888326508168127,-0.4026960435813638
2.0,0.6326914005279691,-0.13100838028274525,-0.08233618603180118,-0.0015108832831670811,-0.0053663923998329074,-0.014958955341422083,0.061744178539910925,-0.06370418547734862,0.9960569247913312,-0.853216399292242,-2.004771309420272,4.1474313845038555,-3.880567280007953,-1.3821611103238176,1.7943524907877035,1.0,0.4906755646794781,0.5016113737434594,0.41488009162071027,0.8446591436633666,-0.051160029202239624,0.34890961922587893,-0.40273522325412053
2.1,0.4861141862298933,-0.008965185680563315,0.05143426781270943,-0.0056008044238279875,-0.004043839370452797,-0.012896132119042681,0.06200270187881456,-0.06403076533810453,0.9960198592213249,-0.851150654313902,-2.0071868963658313,4.147102114678868,-3.880502586048778,-1.3824804464923304,1.79420804977417,1.0,0.4911539099309905,0.5020687496480591,0.4146496646201656,0.8446195240537986,-0.05116272045691383,0.3489447244335885,-0.4027875555581996
2.2,0.5135681224077894,-0.10840996992648602,0.12312762722324076,-0.005819642313172111,-0.009808761294054905,-0.00977688227167035,0.06229657269664591,-0.06438143706390252,0.995978980084332,-0.8489584951040009,-2.0091008590133947,4.146789073944092,-3.880480119673405,-1.3827881477459045,1.7940683336618684,1.0,0.49165687443964123,0.5025998722587754,0.4142161779677342,0.8446577669831492,-0.0511470561792137,0.3489129788776251,-0.4027368476933573
2.3000000000000003,0.42031861502612866,0.20331571233818824,0.18629323498698974,-0.0031637154890347295,-0.007595610976047688,-0.012758354271889313,0.06250636991589627,-0.06460267939526933,0.9959515193373785,-0.8470315933227539,-2.0111177270937466,4.146531180196666,-3.8804553196292826,-1.3830895854320762,1.7939496116111893,1.0,0.492423470232617,0.5033998380000091,0.41373517127523834,0.8446346551456054,-0.051133361224204345,0.3489271759324541,-0.40277475664790824
2.4000000000000004,0.4523507406876554,0.18124072926856,0.06698159990595955,-0.001985716288317896,-0.0062465694458702275,-0.010882466488863887,0.06278435288433741,-0.06495321510869399,0.9959111319453001,-0.8450283902712986,-2.013205119238216,4.146202341148443,-3.8804128549330565,-1.3833610429254037,1.7937950075022349,1.0,0.49277692129477724,0.503784224001363,0.41345842609684325,0.8446477058527289,-0.05112834617999221,0.3489028185258981,-0.40276912547923194
2.5,0.3813644745471204,0.13358232857382168,-0.006095651729856382,-0.005689657267743389,-0.0016772605939859469,-0.011133420639586781,0.06307402009622999,-0.06532590640991454,0.9958685294559257,-0.843157823181517,-2.0150373651665916,4.145927476837348,-3.8804127178587855,-1.3836179241532844,1.793680183746163,1.0,0.49324980380721944,0.5042556738180336,0.4130901576056248,0.8446702895361049,-0.0511317096126338,0.34888458312538073,-0.40273713251264953
2.6,0.44777795094717765,-0.05063043846413562,0.13755392900142177,-0.003448427362017045,-0.004824563336355298,-0.013405152987358483,0.06242633246383948,-0.06449921732347944,0.9959627476217372,-0.8412445095569746,-2.0168496548307564,4.145650015219362,-3.8804194383641013,-1.3838673755041861,1.793546383375699,1.0,0.4939673579681152,0.5049504037184461,0.4126154235527949,0.8446613368594003,-0.051146156252172344,0.34890235040627626,-0.40273868276649927
2.7,0.8559591316535473,-0.3694971035446334,0.21687662344633962,-0.013703135258775891,-0.014301712194248858,-0.011214887177537736,0.06190049840747662,-0.06381138531565918,0.9960403771668563,-0.8394691733177134,-2.0185735501344033,4.145374799122084,-3.880413245955938,-1.3841055497638906,1.79347751105858,1.0,0.4943153090465689,0.5053294712908291,0.41239747855834513,0.8446477008539317,-0.05113882023521146,0.348903599779252,-0.4027671294534815
2.8000000000000003,0.46761357735394987,-0.046886111190274644,0.2420289069468303,-0.005146679861138861,-0.0037828524189493884,-0.01568283213719158,0.061968970347419904,-0.06385000923448407,0.9960336447850016,-0.837785809026048,-2.0203952061590402,4.145111560821533,-3.880398027441751,-1.38434255157752,1.7932981325115054,1.0,0.49482778064519595,0.5058764413073443,0.4120540285219093,0.8446441936178234,-0.051132333165916116,0.3488984302821696,-0.4027797860361721
2.9000000000000004,0.525877816219819,-0.018646288229964808,0.33735858760678095,-0.0019687020347222877,-0.005400744255751361,-0.009282276433447527,0.06218484186372775,-0.06411869073183886,0.9960028845543223,-0.8359441757202148,-2.022142549554342,4.144906831794564,-3.8803886375822962,-1.384535710977304,1.7932011623622812,1.0,0.4952018807401521,0.5062533535159599,0.4117622398434595,0.8446649699266275,-0.05111934234140449,0.34888734831863877,-0.4027474638040818
3.0,0.4034889321638377,0.0691342422435669,0.2206358843963168,-0.0032300879485054326,-0.006288416813262609,-0.014664868712871563,0.06217978555565292,-0.06410762128664517,0.9960038646230462,-0.8342740517302388,-2.023652685347455,4.144625419695198,-3.8804246387877406,-1.3847742847723294,1.793128490447998,1.0,0.49582585382907496,0.5069249677765946,0.4113566132417969,0.8446466922966968,-0.0511260554337618,0.34889364427218733,-0.4027794888453308
3.1,0.45028111750663063,0.15096842115977555,0.2385915118891124,0.0001865674645508985,-0.0048515642520101255,-0.013485449153209237,0.061911924403438554,-0.06377310742429775,0.9960420242279421,-0.8328763274217589,-2.0251870328320463,4.144375280773114,-3.8804308986595086,-1.3849356810199183,1.7930278103788808,1.0,0.4960112806078373,0.5070949028838313,0.411268416566607,0.8446298486030667,-0.05113565647659128,0.34890725715617465,-0.4028017991385141
3.2,0.36478444251179565,0.20983245388687694,0.2512117930039035,-0.009260789707665175,-0.006166199028013531,-0.012555415539904132,0.062320589777025974,-0.06436466984350515,0.9959785113049613,-0.8312233343257754,-2.0270275048829984,4.144146595941558,-3.88044827680596,-1.3851461947698016,1.7928881645202637,1.0,0.4964901013240178,0.5075740085961133,0.4108490236370735,0.8446741053640969,-0.051131633042326985,0.348882351357479,-0.40273107248021467
3.3000000000000003,0.4838930462472194,0.03423144652509147,0.35014239803210556,-0.003278473709210104,-0.0014324749979419057,-0.018031700785054016,0.06250584576949565,-0.06461780901505106,0.9959505674643331,-0.8294812917224974,-2.028327908816728,4.1439583907099165,-3.8804510801642116,-1.3853275899211306,1.7927719941167441,1.0,0.4971113996605503,0.5082359277827189,0.41028342887835195,0.8447334858060316,-0.05110135719122287,0.34884804789404333,-0.40264007343000735
3.4000000000000004,0.6635318017915373,-0.21079006138922696,0.2468813746621617,-0.0075259883977301,-0.0037872042001058726,-0.01180799893859149,0.06251436125495982,-0.06464408202694205,0.9959483079620173,-0.8281884792471357,-2.0295466085757936,4.143730848877409,-3.880506959883549,-1.3855228624658502,1.7927276480979075,1.0,0.4973357939340429,0.5084198051786118,0.4103244722385326,0.8446467011665468,-0.05115465657639885,0.34890602404067317,-0.4027651148090536
3.5,0.7325927042881463,-0.0884195254507617,0.17558879126721263,-0.002748009821540262,-0.009772105693935582,-0.012571658443484544,0.062229435750906656,-0.06432613253501071,0.9959867432327694,-0.8269119262695312,-2.0310967007696106,4.143505440675106,-3.880562116952198,-1.385691088612142,1.792594222884612,1.0,0.4976641456852723,0.5087004360316091,0.4101682976346533,0.8446256640165573,-0.051159753215689434,0.3489410902539346,-0.40277820555225496
3.6,0.8205245452041932,-0.11911981254834252,0.37357652754668835,-0.005294971099186449,-0.011491564795156414,-0.009535578478314578,0.062145701861973254,-0.06425295685770747,0.99599672132843,-0.8252726492366664,-2.032688488203862,4.143338442384009,-3.8805373577796805,-1.3858768386285492,1.792548151229186,1.0,0.4982183696098216,0.5092657964278751,0.40960853677444,0.8447176915760284,-0.051159503578865013,0.34886902200605835,-0.4026476526897514
3.7,0.3622750913851121,0.06938056907100676,0.20284846518542096,-0.006191367160885405,-0.009477684727123925,-0.01728364455572238,0.06201992231752298,-0.06409074521824831,0.9960149176706772,-0.8238643294327694,-2.0337665194309267,4.1431461738364534,-3.8805867107971697,-1.3860441542735042,1.7924504906772023,1.0,0.4984377339611518,0.5095292298594478,0.40943984123630206,0.8447175288722744,-0.05114873658920985,0.34887170671014106,-0.40264703577500643
3.8000000000000003,0.5947734026773832,-0.36688529967641875,0.2390205178797451,-0.012813436399378195,-0.006714010055303344,-0.012632039662750352,0.06159077833327714,-0.06344503909977152,0.9960828824108091,-0.8226757643325555,-2.034887279926392,4.142960924473935,-3.880660131117717,-1.3862146010182699,1.7923750283615363,1.0,0.49883878323310765,0.509947697278539,0.40938936407129134,0.844604605300085,-0.0511457661801658,0.3489488140263307,-0.40281744810441
3.9000000000000004,0.5944910849470226,0.001238125892849994,0.08664594099350185,-0.0037975177047505386,-0.00678862052651546,-0.010715745711173796,0.06144180165678117,-0.06326375458919589,0.9961037091547933,-0.8215312055305198,-2.0361476499282105,4.14279214753045,-3.8807059693997115,-1.3863797888879716,1.7922883033752441,1.0,0.49903340154698983,0.5101305881991002,0.40925457828150497,0.844613535080238,-0.0511505213781253,0.34894266762705467,-0.402803444909952
4.0,0.6437595402040942,0.032780211568602065,0.2683356165870394,-0.0066087029881956045,-0.012275424088197658,-0.012918982736181708,0.061389743363503516,-0.06324312762189657,0.9961082294338601,-0.8201208909352621,-2.0375443024999864,4.142637072045819,-3.8807187401818206,-1.3865355234467418,1.7922343194874284,1.0,0.4993445375557338,0.5104356444231242,0.40894186749574374,0.8446624141863935,-0.05115713222736636,0.34890650006677115,-0.4027314342018032
4.1000000000000005,0.49578689469315085,-0.07663560100199654,0.29396222835311925,-0.005584094050464393,-0.008067458369790946,-0.0149795345838743,0.06168729380315632,-0.06361146564472685,0.9960662658100835,-0.8188130066438257,-2.038735930941558,4.142426648608101,-3.880730651470064,-1.3866793158420752,1.79213285446167,1.0,0.4996748336658849,0.5107859166544648,0.40865861443194584,0.8446882804628548,-0.051144167672571364,0.3488885242224258,-0.40269440103840937
4.2,0.7169683671518009,0.048373580050876594,0.31957856052432043,-0.0065713893173662075,-0.012814599023525903,-0.016974606507779665,0.06192171558940971,-0.06388411644470615,0.9960343252677187,-0.817547735606691,-2.0398505475236535,4.142288622294924,-3.880796810189718,-1.386811515450608,1.792006424852195,1.0,0.5000865940134182,0.5112308750400656,0.40845067008547437,0.8446485054191017,-0.0511375885889651,0.3489124722679747,-0.4027579124268489
4.3,0.6549126442380069,0.05210197957650211,0.23359654435219557,-0.003306839237036125,-0.01050597776892784,-0.014172914086205558,0.061489547821978116,-0.06332627565442017,0.9960967035536815,-0.8163047506279775,-2.041044538098832,4.14209726819729,-3.8808558975546,-1.3870031228761162,1.791958521243837,1.0,0.5003432050362774,0.5114684974444831,0.40832220128424457,0.8446346529507476,-0.0511401772578999,0.34892960110640286,-0.40277179491186765
4.4,0.6313406881349314,-0.1545571151328301,0.3603980868129125,-0.0077660587959726465,-0.008910142805186146,-0.016273125150606065,0.061787958209735164,-0.06372622873067968,0.9960525412313126,-0.8150024614686672,-2.0424173213928323,4.141929465976421,-3.8808622209831802,-1.3871522647224572,1.7918742605787645,1.0,0.5007364347680724,0.5118624788365627,0.40803599115666495,0.8446416665357824,-0.05115770674849219,0.34891492877899133,-0.402767571518665
4.5,0.7297216494795938,0.04158000472898071,0.2431981517512955,-0.005722104658881701,-0.008411389645616458,-0.012247714883579626,0.06223162556755495,-0.06431455792188635,0.9959873722684623,-0.813689750053979,-2.0436569450285136,4.141725550699866,-3.8809281990935984,-1.3873322240434567,1.791832447052002,1.0,0.5009815513901805,0.5121054812649324,0.4078535525711386,0.8446457189531902,-0.05117324235765963,0.3489114046922728,-0.4027601524435079
4.6000000000000005,0.5894954388215664,0.1053112931461739,0.2930707319213819,-0.004221803337451531,-0.010099251935672435,-0.010951974598385454,0.06210389852570415,-0.06414581050244245,0.996006213356373,-0.8124174942966957,-2.044872977530617,4.141551159850076,-3.880970301433414,-1.3874762043273097,1.791773164280604,1.0,0.5012823341889507,0.5124099090724844,0.40761705537680454,0.8446592065964381,-0.051166172644616065,0.3488981899316314,-0.40274421231249025
4.7,0.5484758476415601,-0.06443584293047996,0.18812715736660143,-0.008195644819384538,-0.009185082238467493,-0.015078506031731328,0.0620646774627676,-0.0640895140279194,0.9960122691677541,-0.8111864593214617,-2.046042425388421,4.141377282309199,-3.881041982593724,-1.3876439598691337,1.7916582347628123,1.0,0.5017376842035486,0.5128785535128645,0.4072686381022972,0.8446805535687419,-0.05115188005512285,0.3488865476099479,-0.40271134139286596
4.800000000000001,0.5076838350569706,-0.21539008722762612,0.277611894841571,-0.01119665852456341,-0.007114612794063464,-0.016710837883148734,0.06238846517384315,-0.06449443701170855,0.9959658859505484,-0.8097309255020545,-2.04730873589318,4.141216708695232,-3.8810896113139037,-1.3877862946719164,1.791603611434162,1.0,0.5019095161979533,0.5130593923851202,0.40718025625247045,0.8446659195175146,-0.0511554850132136,0.3488933766715127,-0.40273566079184525
4.9,0.7873328254952119,0.013427083240013016,0.31402607693139684,-0.003805570521778245,-0.013467270429009076,-0.015702345880899367,0.06263208102904567,-0.06482092230372874,0.9959294140303718,-0.8084934663660386,-2.0485888181072345,4.14106811873492,-3.881155868569845,-1.3879246820135347,1.791519494045482,1.0,0.5021860032652727,0.5133428175181741,0.4070365141859055,0.8446443028138166,-0.05116159199398962,0.34890853544298805,-0.4027670879352381
5.0,0.7736375892083347,0.20983106546203845,0.2585947790082347,-0.002707042094437409,-0.011565399267612483,-0.015478688253486939,0.06300931488526675,-0.06532386347815942,0.9958723654206557,-0.8072400636383288,-2.0497412796514696,4.1409000072577715,-3.8812214704051198,-1.3880932775599628,1.7914839525413995,1.0,0.5026480976591847,0.5137925190368932,0.4066992116602066,0.8446589485184102,-0.05116642506754188,0.3489071430644337,-0.4027369652169962
5.1000000000000005,0.6457267357210129,0.06594261922165637,0.37709610695364215,-0.006241317987197424,-0.013632217407805012,-0.022862729750175954,0.06416798405871614,-0.06680161560206171,0.9957000504911522,-0.805912401183131,-2.0509886399953894,4.140742035020175,-3.8812704885381404,-1.3882246938207887,1.7913636591211595,1.0,0.5028710322604967,0.5140335907130733,0.4065408007260492,0.8446600043933563,-0.051164787500465936,0.34889437566123993,-0.4027460193846752
5.2,0.658325529675408,-0.139423483096431,0.30841676446808614,-0.012562325004534212,-0.01248563415811259,-0.017292275967327055,0.06458046491051685,-0.06734556747493935,0.9956374517499424,-0.8043716819965077,-2.052383661999138,4.1405391173783155,-3.8813416852542133,-1.3883567991472234,1.7913103622969775,1.0,0.5031153341511413,0.5142984230975249,0.4063629127000486,0.844663142777774,-0.05116860448393924,0.3488930644899908,-0.402740088268753
5.300000000000001,0.7252727245774818,0.015159559831376158,0.29135083313667887,-0.00589452279963883,-0.01156391250440186,-0.016239657416520337,0.06442560234738308,-0.0671646175356846,0.9956591548082049,-0.8031805090751368,-2.0535200505805236,4.140400468014083,-3.881401358264047,-1.3885126285859437,1.7912026087606878,1.0,0.5035274884756704,0.5147428815241571,0.4060993293884992,0.8446472677705771,-0.05117079717683274,0.34890958382555315,-0.40275879242875084
5.4,0.6440329144112744,-0.04377583143196656,0.20521011886121412,-0.008078711326826157,-0.01227885644309921,-0.011374318432552868,0.06321910337146765,-0.06558219240004828,0.9958405392748921,-0.8019976701445252,-2.054709671791715,4.14025832933324,-3.8815164150186034,-1.3886443107964215,1.7911548700041444,1.0,0.5038083627279465,0.5150335717820756,0.4058956150089592,0.8446560686696236,-0.05115443377926977,0.34890898133729725,-0.4027429357623398
5.5,0.7934559971538585,0.19037743213991964,0.23137964415836249,0.0005642006107184827,-0.00997203203270559,-0.013863694449879935,0.06149516085497484,-0.063332999934445,0.9960897750687491,-0.8006699936528505,-2.055956604090992,4.140071331422383,-3.881544917122443,-1.388813329275073,1.7910930865458605,1.0,0.5040992907471237,0.5153520040079592,0.40565713255506314,0.8446788776657442,-0.05113337961320916,0.3488895011297803,-0.40271464725793515
5.6000000000000005,0.8561222109698198,-0.02568150381242268,0.41972268658668105,-0.003992015674752023,-0.012932572331411369,-0.018294970098827492,0.05660760298725689,-0.05700723641255748,0.9967538493587934,-0.7990676136027813,-2.0574197407910346,4.139919609773974,-3.8816478397991045,-1.3889670527392524,1.7909673904125,1.0,0.5044258754078054,0.5156925628464727,0.4054431252168258,0.8446730204522819,-0.05113670487740594,0.34889444827657357,-0.4027222242390968
5.7,0.6719779852219164,0.1956906587692631,0.41678418629110264,-0.009229265633493479,-0.012929935132947577,-0.015536756311699772,0.04374439157118462,-0.0403337292716516,0.9979966148130165,-0.7978079505174352,-2.058703047750429,4.139740291584568,-3.881674684024305,-1.38910575402609,1.7909463143195534,1.0,0.504721891863841,0.5160032663947193,0.4052473975102713,0.8446657314785629,-0.051144093885774955,0.3488981565282374,-0.4027333610437368
5.800000000000001,0.8880909741401313,-0.25844508201020344,0.3923008807654883,-0.015481874099260232,-0.017820858743462203,-0.012744532490837575,0.024139766094801205,-0.01492891624165867,0.9993390933360315,-0.7966137349926541,-2.059712777228908,4.139566890128852,-3.8817848272203523,-1.3892620036786205,1.7908420853691842,1.0,0.5051337885412188,0.5164482792661247,0.40493188156761334,0.8446781287955805,-0.0511328126435875,0.34888003385686106,-0.40272449165848884
5.9,0.683062779901818,0.05866488060009793,0.28612308035846606,-0.004387470698987828,-0.013846035081734695,-0.019546799864562255,-0.010271800389746448,0.029572291647584986,0.998809234806859,-0.7952755945266249,-2.0608401320637144,4.139404956464961,-3.8818754158415736,-1.389422672990409,1.7907698688423621,1.0,0.5053583830500357,0.5166647440750768,0.4047801421600819,0.8446785014256644,-0.051136424584469604,0.34887680913733343,-0.402726045043232
6.0,0.5110520032730512,-0.13731817649527653,0.016220196977850265,-0.009948315997667772,-0.006446850454115417,-0.014950701521460795,-0.01971188875144603,0.041785166452075834,0.9989164202027357,-0.7937046773571663,-2.0623221374229717,4.139244092724858,-3.8819655447524855,-1.3895785671858196,1.7906924972698066,1.0,0.5057964143670399,0.5170743601933707,0.40459480748291937,0.8446313221330014,-0.05115159390887771,0.3489176979568718,-0.4027876415245591
6.1000000000000005,0.745936471846529,-0.2761677491627367,0.16547641915025968,-0.018388660646684728,-0.0102016530169402,-0.01667574552815378,-0.016931280638487676,0.03817385647047815,0.9991276632894882,-0.7923598728729262,-2.063722486149661,4.139081223085312,-3.8820213553490714,-1.3897590163919353,1.7906122646881117,1.0,0.5059806590224901,0.5172777613569568,0.40445601755718213,0.8446360979836245,-0.051143263057284394,0.3489183249085687,-0.40277814137543366
6.2,0.4202246127605164,0.18950129581701458,0.29714220641317823,-0.0049553835041238345,-0.00829506785602664,-0.01902068201147107,-0.01689161767913291,0.03809675764442106,0.999131168300776,-0.7912562693016264,-2.0648078385550472,4.138890743255615,-3.882100517083657,-1.389902918641259,1.7905286576133332,1.0,0.5062895932038699,0.5175850575846865,0.4041914275087373,0.8446615836032351,-0.05114585808993831,0.34890462371038283,-0.4027362337046857
6.300000000000001,0.5932067837651158,-0.15076575139462298,0.43086691392545995,-0.012756092055601395,-0.013480256899429884,-0.019820557875786682,-0.016073424602033294,0.037069422629795346,0.9991830229026718,-0.7898852778144952,-2.065874440144853,4.138728777776035,-3.882193056434732,-1.3900409678188224,1.7905000299403917,1.0,0.5067058449241723,0.518030370294582,0.403851391141568,0.8446867975714522,-0.05113897126189213,0.34887500732597543,-0.40270988178844147
6.4,0.7013498466601575,-0.03529547006314343,0.3222465931695946,-0.011601492888715644,-0.012571593716513773,-0.01739470190455298,-0.011325652097374392,0.030962240539341542,0.9994150344008144,-0.788309788604499,-2.0671823345123466,4.138571598859512,-3.882299519189909,-1.3902073394384926,1.790398475694694,1.0,0.5069228192120451,0.518233491886944,0.4037757753715055,0.8446549346155275,-0.05114580915502089,0.3488932564694512,-0.40276003181256587
6.5,0.6547868923061365,0.061289000499467144,0.43074460767151507,-0.007117956706447476,-0.01270511907749578,-0.019558846775003778,-0.004229906530451592,0.021816125217324515,0.9997529637026332,-0.786931037902832,-2.0686748966744695,4.138399839887989,-3.882427570823293,-1.390339199696676,1.7903084754943848,1.0,0.5071928079037352,0.518512597906387,0.403634058324207,0.8446340535679314,-0.051145012465640544,0.34890655002801485,-0.40279240633463087
6.6000000000000005,0.8247497494065144,-0.203518039076884,0.428216784167493,-0.011867318896856088,-0.014676829642994823,-0.01803840042805623,-0.0035499464665835617,0.020916243604519366,0.9997742897445422,-0.785653763870621,-2.0699188016407697,4.138218462577396,-3.882504349124532,-1.3905194441424769,1.7902185857009465,1.0,0.5076326832185535,0.518987369092749,0.4032604970202004,0.844667905818559,-0.05113127504190079,0.3488864457824744,-0.4027405734985635
6.7,0.7965443599322498,0.07846792740277193,0.35295107013616445,-0.003933606978621057,-0.014536659178176295,-0.016359429514811924,-0.0029087532096078008,0.020070011439009848,0.9997943455894374,-0.7842704838441737,-2.0709769720794564,4.138090432964578,-3.8826097467509126,-1.3906662902426608,1.7901396751403809,1.0,0.5079029522160298,0.5192563361454533,0.40303667283792965,0.8446859370682969,-0.05113375894113879,0.34887143404996335,-0.402715444103556
6.800000000000001,0.618589557692037,0.08185201320567283,0.3131510490756688,-0.00144426390445602,-0.0055236705289197965,-0.01702388823752711,-0.0028370802587755098,0.02001136589759186,0.9997957190813218,-0.7828064868500669,-2.072238259430994,4.13787882614693,-3.882734617710326,-1.3908267070006093,1.7900730083039245,1.0,0.5083156967396341,0.519640323610981,0.4029172071165412,0.8446171183222352,-0.05114791734027868,0.34892347498318055,-0.4028128878207071
6.9,0.5759376548757426,0.3047033370787077,0.09903875924339098,-0.0025748681579930077,-0.007850381221983104,-0.015322023697062667,-0.002543129852723175,0.01963391066105582,0.9998039461984204,-0.7814282507748509,-2.07366603152651,4.1377034187316895,-3.8828155902180512,-1.3909981886493128,1.790008427761038,1.0,0.5085063892177688,0.519836926029368,0.40279379823446576,0.8446139830269889,-0.05113358324029837,0.34892987868190345,-0.40281573467694237
7.0,0.4923045340198712,0.13148356516881732,0.2323475536861632,-0.009101254496840183,-0.004731354173360574,-0.01688527086434034,-0.0024140215788261018,0.019456791494285162,0.9998077843591808,-0.7802606403024818,-2.0748904149153975,4.137523067534606,-3.8828509491994163,-1.3911356807016133,1.7899081365928171,1.0,0.5087976516690293,0.5201187755345239,0.40250751424367714,0.8446622449373411,-0.05113599964238303,0.3488935276588472,-0.40274571118231733
7.1000000000000005,0.400983597718241,0.2593617570544763,0.5149446876280392,-0.04033028619680981,-0.04338738143274139,-0.03244985851244127,-0.0024421699230242357,0.019472486505216532,0.9998073933332524,-0.7791485321920841,-2.075912112694475,4.137415594741593,-3.882780256572866,-1.3912565500185554,1.789883305566975,1.0,0.5092702111689921,0.5206684181357519,0.4020582106409805,0.8446912949714364,-0.05113286468956143,0.34886381997543175,-0.4027109154967951
7.2,0.37229204552595335,0.30215131007528756,0.42904698395768637,-0.03080429263612078,-0.027938022552725365,-0.02525391152181093,-0.002997613223709693,0.020188556477662836,0.9997914823819228,-0.7791756116829154,-2.0758774524519685,4.137382524645925,-3.882827059269631,-1.3912616498400732,1.7898710864631178,1.0,0.5094292010110432,0.5208074426533867,0.4020163368873576,0.8446554350786114,-0.05112680229163691,0.3489053302893742,-0.40275093615689656
7.300000000000001,0.5504473352199594,0.30551803383194986,0.3423220216310063,-0.008449392753455161,-0.010912355914734776,-0.01971306111644797,-0.0033540221547944077,0.02063908202604679,0.9997813518857093,-0.7791534091898844,-2.075865033162529,4.137405464279411,-3.8828033210304937,-1.3912373568699508,1.7898586761959225,1.0,0.5094768225982659,0.5208443117688107,0.4019838394549302,0.8446541437955803,-0.05113222215072791,0.34889992831123534,-0.4027576358696365
7.4,0.6247298211266855,0.21500736695474493,0.3060185298355417,0.0026570549395872837,-0.009216618275937862,-0.01941383482693792,-0.003505547358383084,0.0208162591495993,0.9997771717245717,-0.7791807029288386,-2.0758711300291957,4.137375874293987,-3.8828072451052993,-1.3912370840655726,1.7898543503243352,1.0,0.5094845063435837,0.5208233536905855,0.40196762327601454,0.8446622080045609,-0.05114158744424606,0.3488975399840101,-0.40274160325902364
7.5,0.6153747277762907,0.1814532182645998,0.3073744785524924,-0.00044563361391707903,-0.01267336330041145,-0.019434634849259624,-0.0031935542064472702,0.02043045127031388,0.999786172453154,-0.7791719369340092,-2.075899566567293,4.13739824631571,-3.8828399257328297,-1.3912370840655726,1.7898592915260867,1.0,0.5094813361357653,0.5208289367154371,0.40196125110658554,0.8446655159558982,-0.05111819434551611,0.3489022769437464,-0.40273353163758263
7.6000000000000005,0.7768881790457457,0.17849319276402625,0.45097865130277626,-0.0053677764511648905,-0.014491489010882493,-0.023578836176617855,-0.0028730133714211484,0.020002608998391853,0.9997957942371711,-0.7791885914038781,-2.075906029638108,4.1373919177450995,-3.882814960300671,-1.3912370840655726,1.78984473549339,1.0,0.5094799154125825,0.520827397497371,0.4019713801095021,0.8446626809203737,-0.05114157864826077,0.34889569022074424,-0.40274221499510265
7.7,0.7164697956131687,-0.10344680534446608,0.3987660846108517,-0.011662999485238577,-0.012875563446627557,-0.019437904700410423,-0.002663004404961259,0.019700321514328437,0.9998023788706099,-0.7791833877563477,-2.075913519986818,4.13739166432914,-3.8828133676367176,-1.3912450446488882,1.7898548624956043,1.0,0.5094959082867546,0.5208262923561537,0.40196286061984543,0.8446614192315705,-0.05114936501547976,0.3489019294037507,-0.4027384672198107
7.800000000000001,0.6881348586708965,-0.08746956346218496,0.29825878814624157,-0.010695026021202318,-0.013945136730383032,-0.017147920421150414,-0.00269103493820667,0.019742867374847786,0.9998014656196568,-0.7791647764994492,-2.075931868224308,4.137411573895392,-3.8828326145457366,-1.3912260407167725,1.7899060454283389,1.0,0.5094906657004803,0.5208453424720958,0.40195625835084264,0.8446579073511442,-0.051146793596261717,0.34889799734584104,-0.4027495654896095
7.9,0.5678712911730561,0.14135820850321096,0.4226012349918798,-0.006818509615611415,-0.012852278326361618,-0.01875983349272707,-0.002737032330444261,0.019811549765801816,0.9997999850351282,-0.7791525237716658,-2.0759318455152416,4.137397075440173,-3.882823188502504,-1.3912140975240264,1.789900302886963,1.0,0.5094865998424177,0.5208371436395506,0.40197598241027466,0.8446524884671364,-0.05114804465999617,0.34890578453771354,-0.4027540251442009
8.0,0.5559569585821201,0.10646203662793871,0.29465274237691863,-0.006831775759709004,-0.010285599590405411,-0.021473070119592017,-0.0032852399580417272,0.02052273671646716,0.999783517260524,-0.779164798350556,-2.075918813745016,4.137386396349688,-3.8828326539557687,-1.3912370840655726,1.7898760993058895,1.0596427583971322,0.5094805740349589,0.520848369997352,0.40196284294750134,0.8446559792394344,-0.05114899425183069,0.34890270219546415,-0.4027492539071942
8.1,0.8237452054841754,-0.0057451866904599524,0.3633710839577239,-0.009566024679649099,-0.013525404825335161,-0.022116942325087447,-0.003877979462006962,0.021290895691205826,0.9997657205450725,-0.7791639343676866,-2.075906892816061,4.137398999408508,-3.8828095398344935,-1.3912127044751426,1.789870997094764,2.0,0.5094870841571891,0.5208494295759137,0.40194133722675895,0.8446648329883265,-0.05115432272114144,0.34889035551736475,-0.40274070443240584
8.200000000000001,0.7115984255537006,-0.15076078158938366,0.2529194983982802,-0.01131590458454335,-0.014228015592115801,-0.017069318109818744,-0.003976257011115638,0.021412408506715795,0.9997628193748804,-0.7791636899828471,-2.075917374737444,4.137371973672162,-3.8827992053002833,-1.3912370840655726,1.7898673578884705,2.0,0.509491323817804,0.5208313143740312,0.40193944555392763,0.8446715807263807,-0.05113874180729392,0.3488950695186597,-0.4027244470666431
8.3,0.6579307297572854,-0.166113773226585,0.32136978054408666,-0.011319549842804078,-0.011327574745716131,-0.022764297348658185,-0.004022144460795452,0.021475154672635097,0.9997612900722668,-0.7791740229823813,-2.075925932567514,4.137376203941715,-3.88281805245229,-1.3912165490006747,1.789862870149675,2.0,0.5094859172134435,0.5208414446218862,0.4019494381460493,0.8446645250938907,-0.05113589820531209,0.3488992354325766,-0.40273599724535647
8.4,0.7380311480558076,-0.12533097506208246,0.4156179227416583,-0.012621693683594165,-0.013513150093494259,-0.02450103635706759,-0.004062953057729266,0.02154609082211566,0.9997595997641601,-0.7791522921951303,-2.075935103277235,4.137374776783753,-3.8827973804869593,-1.3912078838089061,1.7898689087033617,2.0,0.509483652993466,0.5208523678560786,0.40194426458877885,0.8446661763056205,-0.05114451906454711,0.3488889726670711,-0.40274033014613075
8.5,0.7884931961381811,0.20604671904739708,0.4053061824225521,-0.007544380381158001,-0.012968184897147059,-0.026234555010960614,-0.004092552773167795,0.02155837640502144,0.999759214495486,-0.7791446199156835,-2.0759406528429944,4.137423898573486,-3.882823916050763,-1.391247789505758,1.789881322984131,2.0,0.509488342555841,0.5208414321661328,0.4019371544005247,0.8446720784609325,-0.05114683625831927,0.3488880271167584,-0.40272847620180635
8.6,1.105677922076829,-0.3643574706559477,0.3938915113697542,-0.021509415532147524,-0.020278392090728733,-0.021933327753412515,-0.004134792912903821,0.021600378683568712,0.9997581311194695,-0.7791644078509475,-2.075912085340013,4.137392520904541,-3.8828147323584457,-1.391240155827674,1.789856006677844,2.0,0.5095035208297707,0.5208255100073954,0.401970466512959,0.8446519594194755,-0.05114329696811826,0.34892119064314636,-0.4027423907962022
8.700000000000001,0.8914901018132166,-0.24926400094782614,0.24538156778573242,-0.020947418628482716,-0.018187522086224435,-0.021131255023674637,-0.004200188539460788,0.021703621367239793,0.9997556244097956,-0.7791838510602758,-2.0759195444240186,4.137417316436768,-3.882833988336034,-1.391230882296966,1.7898878993497493,2.0,0.5094929142227518,0.5208480886997193,0.4019430455198658,0.8446629004049425,-0.0511420757092029,0.3489004497665787,-0.40273756830514795
8.8,0.6539170401119953,-0.05202178793757023,0.2897541554578647,-0.01734700741838986,-0.015400362014461925,-0.02358306452280329,-0.004070280862140721,0.02153441535546664,0.999759802602477,-0.7791578645357013,-2.0759482845570925,4.137401654001063,-3.882804284675145,-1.391216777629732,1.7898650169372559,2.0,0.5094982600454124,0.5208356547749079,0.40193301894491884,0.844671999839725,-0.05114369199627747,0.348892119284078,-0.4027254952907926
8.9,0.7696308414857005,0.04717094994490251,0.40511925811052574,-0.01209676278070514,-0.01906903341918068,-0.02389205635237039,-0.004059648059901926,0.02152317979108765,0.9997600688839532,-0.7791719436645508,-2.0759492989571138,4.137405347259962,-3.882833917127848,-1.3912128301025588,1.7898406499943371,2.0,0.5094849926134175,0.5208308792809737,0.4019629253919475,0.844662451626733,-0.05113441496128626,0.34890234671593934,-0.40273783889100184
9.0,0.6547451533883604,-0.01050831385849603,0.21522928714155465,-0.015485587792864278,-0.02045230097947847,-0.028289960293445736,-0.0043161238874404395,0.021869440578120278,0.9997514990375215,-0.7791462065217264,-2.0759312115111292,4.137404918670654,-3.882845541039938,-1.3912206739386992,1.7898764610290527,2.0,0.5094865226715106,0.5208461472023912,0.40194081769760803,0.8446701851362631,-0.051129193520213195,0.34889450455718835,-0.40272907593273927
9.1,0.7223991973268122,0.1658134969705888,0.2598601903729313,-0.005622254170283192,-0.01661822039709676,-0.026244835017812447,-0.0041549317234518945,0.021668722352207063,0.9997565290773761,-0.7791784111288035,-2.0759379484530593,4.137403303597553,-3.8828230137183533,-1.3912319000785474,1.789861372072092,2.0,0.5094824383304489,0.5208486895259142,0.4019419042210776,0.8446721791166214,-0.051133407765511396,0.3488827981428712,-0.40273450013211554
9.200000000000001,0.5626778268640421,0.0634199651891258,0.21990097509067258,-0.018510826414938585,-0.014396489014679808,-0.028203624857391595,-0.0038798031206655564,0.02131013167200987,0.9997652882002108,-0.7791585922241211,-2.0759379617175595,4.137392520904541,-3.8828058451814242,-1.391230333859142,1.789843956293193,2.0,0.5095007411298097,0.52083487474599,0.401941478327542,0.8446652171335499,-0.051159008705416995,0.34889179267250486,-0.40273805854274286
9.3,0.6171996625375176,-0.04263008599207996,0.2873291427412558,-0.017325378776976246,-0.01519715029965802,-0.02679411719718368,-0.0035199168380535624,0.020821200280322895,0.9997768499115309,-0.7791897615230051,-2.075920437070208,4.137430595117304,-3.882796128367152,-1.3912304447253043,1.789880650439769,2.0,0.5094986413702598,0.5208396958292011,0.4019412011678836,0.8446671349981486,-0.05113805960510172,0.34890292133515044,-0.4027270557060229
9.4,0.744828268804318,0.028501833612285865,0.34223179467174514,-0.016692328933548686,-0.02126394431920694,-0.02173604646734933,-0.003512468941382563,0.02080284162765542,0.9997770938387065,-0.7791669582623986,-2.075937728001285,4.137385629859792,-3.8827908639968034,-1.3912316796267736,1.789878049917568,2.0,0.5094947098658694,0.5208459120019977,0.40194871052237585,0.8446609154196376,-0.05114116426340824,0.34890840845138615,-0.4027349522852017
9.5,0.5521198522221543,0.4027455671139254,0.2366911204832096,-0.04910387563686275,-0.020060350374928784,-0.024764772859866852,-0.004329533462287354,0.02188536495087802,0.9997508603617775,-0.7791871865014052,-2.0759241693363433,4.137374576343711,-3.88283186296968,-1.3912406119577536,1.7898797044587813,2.0,0.5094909830381698,0.5208524486494769,0.40193663927307466,0.8446638060325886,-0.05114039280341355,0.3488982098354194,-0.40273782312578205
9.600000000000001,0.5659768933987704,1.625822376741879,0.25564565931510674,-0.1239670941501258,-0.021250532055386576,-0.018468146273570824,-0.0045191501286128005,0.0221014511007316,0.9997455189849546,-0.7791574797479276,-2.075918813745016,4.137381076812744,-3.882847198324445,-1.3912285616943818,1.789873198413599,2.0,0.509491217637482,0.5208510406952893,0.4019268542578491,0.8446701343636489,-0.05113754426009768,0.34889648561953035,-0.4027264058929865
9.700000000000001,0.6287131401396662,2.3012144584342678,0.08563446022128213,-0.22394661436636604,-0.03450714521997056,-0.01020113879297982,-0.004731138573800521,0.02234715462802142,0.9997388449626312,-0.7791775364932494,-2.0759608792322672,4.1374117959440095,-3.882857461968893,-1.3912013212787073,1.789852339200543,2.0,0.5095030759205146,0.5208330064664444,0.4019442738506953,0.8446638292093757,-0.051157245998742204,0.3489089399277522,-0.4027263381574029
9.8,0.4589510600436003,2.008550638090734,-0.06864162523798294,-0.19331770581122953,-0.04469968680568315,-0.01395045678486479,-0.005433513361286271,0.023266728725481613,0.9997143223042586,-0.7791783691268783,-2.0759416669891904,4.137362671803426,-3.8828056729915765,-1.391218469946693,1.7898545896627522,2.0,0.5094928118613722,0.5208317066107331,0.4019430879606885,0.8446747959675878,-0.05115261569861702,0.3488920521876215,-0.4027185554262598
9.9,0.00538926938773987,1.8681793068889894,0.08121284295623146,-0.20241676075610676,-0.08869656526717369,-0.009875543267739012,-0.005614318085211355,0.023506139551303328,0.9997079275020511,-0.7791693608276303,-2.0759375792662578,4.1373649771623615,-3.88285898006802,-1.3912490049945276,1.7898583944719222,2.0,0.5094920200725812,0.5208279832145432,0.4019423871382309,0.8446773114433017,-0.05114222979281134,0.34888689729307665,-0.40271906431400106
10.0,1.2967434818833958,2.213443603526451,-0.1387266085697401,-0.19761178060648998,0.013268708381027474,-0.021531277603334946,-0.005617795696374253,0.023507865002279894,0.9997078670807565,-0.7791545724981961,-2.075926095334621,4.137381955460801,-3.882805899039691,-1.3912502177034753,1.789888858795166,2.0,0.5095075315948737,0.5208314082250215,0.4019443488378998,0.844663290419603,-0.05116211132179574,0.3489016759333314,-0.4027331433015391
10.100000000000001,1.522049636889732,2.4255826943220438,0.15057797505362075,-0.2131040835916231,0.05296065224240996,-0.030866623757203546,-0.005581018423142488,0.023435124916664943,0.9997097801206611,-0.7791899484709764,-2.075953257496817,4.137357234954834,-3.882819713536927,-1.391206408129924,1.7898650169372559,2.0,0.5095014662709816,0.5208406117845212,0.40194740441016186,0.8446584728561835,-0.05115222226550685,0.3489092866119982,-0.40273790994326164
10.200000000000001,1.8826568026545596,2.338626220942346,0.11847298899470726,-0.2119743924988834,0.06723473708136395,-0.031364741610314134,-0.00554172748239622,0.023350584499035675,0.9997119767424326,-0.7791488324706914,-2.075934266687946,4.137351494560278,-3.8828232152825812,-1.3912320008606613,1.7898507944712447,2.0,0.509510945943363,0.5208322265357043,0.40192918136784656,0.8446685661143708,-0.05115555300875583,0.3489083011666389,-0.40271717146363595
10.3,0.6256241944745075,1.1629686594647424,-0.7402098844565582,-0.16042873805878968,-0.034375343503566386,0.0029074933521489738,-0.005471350384685914,0.02331013601233339,0.9997133077401733,-0.7791679284714399,-2.0759443118920684,4.137350422756746,-3.882814910572979,-1.3912531962810288,1.7898701728462019,2.0,0.5095099334823644,0.520831712006474,0.4019308939048938,0.8446700087466235,-0.05115192004970215,0.3489013928466124,-0.4027205923079947
10.4,1.309924770083258,1.4560563536711628,-0.4930995024798178,-0.16681211750209346,-0.0014970257668101734,-0.012444027384273255,-0.005397117365669892,0.02327075045121952,0.9997146286791354,-0.7791716608537208,-2.075923284591984,4.137376949877081,-3.8828051549653515,-1.3912523281408513,1.7898786364747319,2.0,0.509484105484918,0.5208407306685142,0.4019556512791616,0.8446628674270709,-0.05113234682830668,0.3488912282150912,-0.4027468614058629
10.5,0.9225082456761218,2.007351633811934,-0.1296821163315755,-0.16647248013074967,-0.014041701394919712,-0.016418432351128668,-0.005354947175572769,0.02316867674521495,0.9997172225475689,-0.7791785745992011,-2.075936559290387,4.13737112978751,-3.8828172313990454,-1.3912477796240879,1.7898740102881734,2.0,0.5094968202118522,0.5208258009970559,0.4019477929709019,0.8446691985741539,-0.05114468411857577,0.3488950035074906,-0.40272874592461844
10.600000000000001,0.3534734944701964,1.729557097149574,0.767830603068141,-0.16588909092491516,-0.03637556255955611,-0.01651546283102496,-0.00525610716457688,0.023008819190896045,0.9997214097951792,-0.7791421481301789,-2.075939776143391,4.137366142172386,-3.882838761320617,-1.3912437966589597,1.7898300732376287,2.0,0.5095050860816214,0.5208226824051225,0.4019399513388841,0.8446702945389615,-0.05114367294800099,0.3489037558532867,-0.4027189930861492
10.700000000000001,0.07902919850565665,1.5959570472784228,1.0156190929958138,-0.17944994011856066,-0.07317263761588541,-0.012261883696559598,-0.004915658380279225,0.022602603266522938,0.9997323903303316,-0.7791948318481445,-2.0759296164699235,4.137399411399133,-3.8828067472806165,-1.3912357540433897,1.7898540023942127,2.0,0.5094993373504829,0.5208265117906038,0.4019404813564683,0.8446708826086328,-0.05113922857394866,0.3488974647943126,-0.4027237743591959
10.8,-0.34465001927726413,1.3457274407221145,1.2339894132016211,-0.1712070626022084,-0.11726011874370396,-0.014510169807353087,-0.005136946142279353,0.02288907855191893,0.999724642598039,-0.7791768597160361,-2.0759258857886866,4.137377718502689,-3.882817916613773,-1.3912422049525364,1.789873291298796,2.0,0.509506784720685,0.5208239093183339,0.40192658141481297,0.8446802282051332,-0.05114312743743155,0.3488908290531595,-0.40270942625898604
10.9,-0.8253301744789083,0.6403570444376174,1.6218602067712264,-0.11961355970348486,-0.1668898003758413,-0.025623603247032202,-0.005451062111194931,0.023290362698468865,0.9997137885755883,-0.7791585922241211,-2.075980736891528,4.137377603593264,-3.882792340854771,-1.39126460925264,1.7898696619232584,2.0,0.5095092468381505,0.5208263911548423,0.4019113792380033,0.8446853430089398,-0.05114665488631942,0.34888495191003654,-0.4027033415934623
11.0,-1.3101547402731268,0.4601756253055426,2.0693747958040354,-0.09541314595492424,-0.22159799973941788,-0.028846017970283667,-0.004963685559527004,0.022704918562919917,0.9997296022298426,-0.779178313174377,-2.075961540523729,4.137394051122123,-3.882820407383025,-1.3912433538692914,1.7898537146867834,2.0,0.5095099679923094,0.5208408854694285,0.401913752250304,0.844675479273951,-0.05113724036259673,0.34889170602963826,-0.4027193747824256
11.100000000000001,-1.9155018218829087,0.400167453412329,2.180502252273274,-0.09808057267002351,-0.2659174595536809,-0.03628021648874602,-0.004580770607013008,0.022235857821175167,0.9997422538447479,-0.7791831925213878,-2.0759790985966995,4.137386974708571,-3.8828212573936987,-1.391254824657906,1.7898650169372559,2.0,0.5094961451839847,0.5208614473943596,0.40191736449121634,0.8446701833196757,-0.05112666408687491,0.34888032542873415,-0.4027416841584615
11.200000000000001,-1.9200844723599475,0.6124312165847912,2.6894142248926194,-0.0989943398840772,-0.29515944014590956,-0.03552067428969201,-0.0047363482432693236,0.02236674572589092,0.9997386053573316,-0.7792153478181938,-2.075972146552591,4.1374152631798475,-3.882804264134805,-1.3911583329803257,1.7898267240563126,2.0,0.5095084103769004,0.5208392466172703,0.40190813855223534,0.8446813997911166,-0.051147212164547214,0.34888315175700213,-0.40271310129522164
11.3,-2.151744718271321,0.7490630336751586,3.083271847882194,-0.10349521123700212,-0.3270623860730617,-0.03213251419224909,-0.004740744325436683,0.02232633260069915,0.9997394935045368,-0.7791708305919292,-2.07596331466142,4.137404759272349,-3.8828015937460734,-1.3912353376051734,1.7898332325835755,2.0,0.5095047223243534,0.520837053146704,0.40192744879736625,0.8446703512892875,-0.0511543169013285,0.3489068639886922,-0.4027148293479724
11.4,-2.478619380793344,0.40213508207919985,3.2027727161705286,-0.10697033229394759,-0.35355688721928785,-0.031881115805828544,-0.0044685947053186344,0.02209190904974083,0.9997459303092999,-0.7791661763810073,-2.075942655602926,4.137403219701444,-3.882816311403142,-1.3912744690607795,1.7898596616025368,2.0,0.5094804978726004,0.5208568732085098,0.4019282795859477,0.8446765642597996,-0.05112854010540149,0.3488785567550092,-0.40272959515473006
11.5,-2.476036330319874,0.15779951493322114,3.2944022357625764,-0.09717892016435402,-0.3657130673417247,-0.030515741606608263,-0.00423582256151125,0.02181182941835358,0.99975309361472,-0.7792018987338304,-2.075923939591581,4.137417316436768,-3.882830060983312,-1.3912555282736223,1.7898682017446996,2.0,0.5094648149461497,0.5208636007945323,0.4019064771869701,0.8446937100513997,-0.05110035395875851,0.34885465157344536,-0.4027179187725092
11.600000000000001,-1.985884235843842,0.11486440133094988,3.3067621100609483,-0.095439414249683,-0.3683439163847415,-0.027834507688997666,-0.004092115739318428,0.02154665236003229,0.9997594643803192,-0.7791692680714635,-2.0759206973771716,4.137386024640489,-3.882789103670496,-1.391177002583639,1.7898991667696342,2.0,0.5095083222840043,0.5208385373096899,0.40190134261462074,0.8446833772160868,-0.05115571756327479,0.34888464971081773,-0.4027065755752847
11.700000000000001,-2.663102173753093,0.18965674664992915,3.6280126402156907,-0.0930263656292748,-0.3912254384846925,-0.0314363902859711,-0.003976580234258984,0.021339651379616315,0.999764363148621,-0.7791821158367654,-2.075951080278909,4.137392520904541,-3.8827948647715123,-1.3912039694526062,1.7898595070106396,2.0,0.5095016653901915,0.5208415196682618,0.40191221191256893,0.8446793737273199,-0.05115277654121915,0.34890239764996994,-0.402699970158738
11.8,-3.000542200431257,0.2127012771927635,3.6665824847050246,-0.08516968265672246,-0.4142604767782383,-0.03556295377611047,-0.004029254367073178,0.02144607597777776,0.9997618551866605,-0.7792000498789897,-2.075960719944531,4.137405529959745,-3.8828043477054637,-1.391297526662458,1.7898835298235074,2.0,0.5094893806855747,0.5208531557755188,0.40190959511982216,0.8446830576547824,-0.05113924633254345,0.34889484579194346,-0.40270050431471094
11.9,-2.9857428198047518,0.3503744764756787,3.6065617951789486,-0.07999477034200005,-0.4282240390490647,-0.039119031937824636,-0.004146493053903146,0.02168713748692613,0.999756198285485,-0.7791719436645508,-2.0759414018158338,4.137406718519875,-3.882816365611096,-1.3912759383494755,1.7898420212542498,2.0,0.509473727625887,0.5208719915801556,0.4019013799525703,0.8446887290028315,-0.0511155404297938,0.34886771858772936,-0.4027151195939186
12.0,-2.9676215603757137,0.06731387221467942,3.6531181628180383,-0.08457976620496584,-0.438596690841009,-0.038810895747770316,-0.00392062280837973,0.021411502959350674,0.9997630317816789,-0.7791720491949738,-2.0759421139739884,4.137417316436768,-3.882827930460974,-1.3911715513522094,1.7898402214050293,2.030042432950883,0.5094668235858545,0.5208803392420805,0.40190660726059835,0.844685521964515,-0.05110447617031959,0.34885771998298815,-0.40273191170698525
12.100000000000001,-2.7919088196826802,0.34335722446345257,3.7758503865581843,-0.08527028658342228,-0.4423394515923035,-0.038716587531743285,-0.0039050352592310674,0.02134763688346546,0.9997644840621418,-0.7791764553682303,-2.0759434819898477,4.137417316436768,-3.882839312918718,-1.3911827590350716,1.7898766467927743,3.0,0.5094827528185695,0.5208578717836321,0.4019362428026408,0.8446678405141844,-0.05113597761907667,0.3489036450771057,-0.4027252133228741
12.200000000000001,-3.1444054734584417,0.44343375952234243,4.263619652510474,-0.09568438133751996,-0.4628989051580153,-0.03666605582210437,-0.003867757894802294,0.02125034829020624,0.9997666953423233,-0.7793855339934,-2.075590270216512,4.137422934875585,-3.882797568540428,-1.3912013212787073,1.7898824881424742,3.0,0.509483356627797,0.5208420905950291,0.40194193855951726,0.8446676971272471,-0.051133474414531116,0.3489042946911968,-0.4027252690980415
12.3,-3.3974098646019875,0.04278694898606106,4.470170504556918,-0.09696929427083342,-0.5096670362300968,-0.07435107814989278,-0.004177963674207969,0.02163322782291576,0.999756949123015,-0.7806437815781362,-2.0744376274986482,4.137442111968994,-3.8827004025026577,-1.391163839553591,1.7899672609497987,3.0,0.5093913968265389,0.5207051327335095,0.4020917369161884,0.8446347695975969,-0.051149178313080024,0.3489348304478517,-0.40276587696208827
12.4,-3.61170223835117,0.44597433186895535,4.741927620096951,-0.0883482743064746,-0.5448952148008294,-0.08761821395522335,-0.004824705880773494,0.022453859736570145,0.9997362052757762,-0.7820481864246377,-2.073182342739574,4.137615012758606,-3.882653137246603,-1.390899045498601,1.789995709296798,3.0,0.5092407796438254,0.5204829798433593,0.4022250184946639,0.8446320142477443,-0.05116865226032216,0.34893265050047223,-0.4027710701482615
12.5,-3.345110026621788,0.3925214956509658,5.128797857602124,-0.09946455606795282,-0.540603066590873,-0.11440416823099847,-0.005413599157633393,0.023185621710108677,0.9997165185922617,-0.7834685867548132,-2.0719246903698796,4.137872875475123,-3.8825147298851888,-1.390773449705356,1.7900980897789895,3.0,0.5089734815512746,0.5202054316318346,0.40237886611040874,0.8446515299325983,-0.05116943902285556,0.34892284432101806,-0.402738538264639
12.600000000000001,-3.2924420950825097,0.2792397845272545,5.0847134591574585,-0.10015666237251228,-0.5293836953385299,-0.14219808214551372,-0.005467725159052496,0.02333527394133659,0.9997127372443733,-0.7848375595279787,-2.0707579142059744,4.138035474670098,-3.882390835997006,-1.390606791642918,1.7901786031863736,3.0,0.5084777526179243,0.5197999038462923,0.40268256335533653,0.8446492035023762,-0.05114595228426798,0.348905358676881,-0.40276154890244187
12.700000000000001,-3.059643439552671,0.3526716499573571,5.086438408465465,-0.0965962895930866,-0.5222970168529679,-0.1611410213642464,-0.005619196457416625,0.023512190363047414,0.9997077464645618,-0.7862174115953857,-2.069644794737956,4.138166626530689,-3.8823120113400527,-1.3904634552765833,1.7902547918138916,3.0,0.5082634999332423,0.5195763349009841,0.40278862857212494,0.8446742934857578,-0.0511450108505629,0.34889400953670185,-0.4027188794914328
12.8,-3.200667404479731,0.5813145017526613,5.536226490284638,-0.11811365916419994,-0.5400409368654709,-0.18853564636417042,-0.0057759999679426405,0.023701584176731152,0.9997023751081696,-0.7875390529045764,-2.068172858230613,4.138401068955726,-3.8822328224263316,-1.390294421436625,1.7903351441058741,3.0,0.508026577209876,0.5192986457709413,0.4028834822177636,0.844706981938359,-0.051162062255082935,0.3488764981980417,-0.40266331724589444
12.9,-3.211078314001105,0.9212316574886577,5.673326015762347,-0.12656068019803685,-0.5582269843377536,-0.20473780500001987,-0.005872872299157763,0.023883297120445453,0.9996974878020498,-0.788970641504504,-2.066806441640405,4.138537371367258,-3.882128360176936,-1.390181843434469,1.790372983195826,3.0,0.507536259575318,0.518837143222753,0.40329925934331834,0.8446638704278369,-0.05114952087700316,0.34889381116459156,-0.4027403394731715
13.0,-3.035673323838562,0.5725905770324282,5.502892485784084,-0.10281854204802707,-0.548785932169151,-0.2231716210522397,-0.005798585096834455,0.023800138831366367,0.9996998817088593,-0.7903347411499502,-2.0656892261900843,4.138737201690674,-3.882055800610535,-1.3900263945208948,1.7904640036316875,3.0,0.5072800919647256,0.5185595282184058,0.4035496754551122,0.8446327892699588,-0.05114820933354695,0.34892085906485926,-0.4027822564133899
13.100000000000001,-2.840114762596146,0.43232770713059376,5.672059930863593,-0.0947922959074927,-0.5365986533629609,-0.23690500033683468,-0.005574473387938369,0.023486268669262733,0.9997086124562591,-0.7916133477085586,-2.064608467440266,4.1389113461396105,-3.8819808967378386,-1.3898636461868095,1.790541256252278,3.0,0.5070581263844429,0.518338106333684,0.4036469672044975,0.8446586228967402,-0.051141665257697325,0.34890277101438405,-0.4027445806206913
13.200000000000001,-2.9475440806424404,0.8575139208117095,5.853119562071997,-0.10346972257386976,-0.5312906132540891,-0.25338453295684565,-0.005268697510355194,0.023085415658853293,0.9997195501752537,-0.7928492139397146,-2.063263880901962,4.139065303086137,-3.8818678487068774,-1.38971454301943,1.790596359183192,3.0,0.5067718245688204,0.5180739252641413,0.40376748922260164,0.844691011301573,-0.05112705046133952,0.34887933334700244,-0.4026988091623826
13.3,-3.309885646565377,1.1056647057457254,6.170642866990946,-0.13770103787636054,-0.5575187277557938,-0.260650467404208,-0.005166930468204212,0.02294593602511009,0.9997233505981102,-0.7943337340226675,-2.061798679638541,4.139222275423829,-3.8818304711996396,-1.3895763430196837,1.7906851614599997,3.0,0.5063386519040741,0.5176378903399192,0.404107219538045,0.844671910954699,-0.05112550519175291,0.34889522212547525,-0.4027253028318941
13.4,-3.4285898415959295,1.1375330039467761,6.144849034049569,-0.13115912495068502,-0.5607283692407968,-0.2694868988549229,-0.005264751254210632,0.02306307844045539,0.9997201306733637,-0.7957454108897096,-2.0605516175602414,4.139426646628126,-3.881772125567702,-1.3894389311419886,1.7907517139350306,3.0,0.5059050442404661,0.5171291394327006,0.4045190805617598,0.8446272287887471,-0.0511675896513857,0.34892809515175305,-0.402785186633866
13.5,-3.3659366771863954,1.0297689047779246,6.190322890183582,-0.11169877686310702,-0.5594508902531264,-0.26961474400994107,-0.006313444736620505,0.024473584134773605,0.9996805404737217,-0.7969728482667743,-2.059506935784638,4.139581069984522,-3.881677269058838,-1.3892699107828201,1.790836114223351,3.0,0.50571116592058,0.5169650241318167,0.4045696492922362,0.8446675228246217,-0.05114523565609472,0.3488831274678441,-0.4027424786675178
13.600000000000001,-3.469496859495435,1.0534665635105689,6.301734159335613,-0.11659051906195711,-0.5636453829512769,-0.26359254270367505,-0.005822223393609117,0.023812661172920253,0.9996993126258695,-0.7981595591242406,-2.0583655501243987,4.139757547272093,-3.8816188975404398,-1.3891255073897473,1.7909369267789172,3.0,0.505474191825022,0.5167358693235584,0.40468036301144383,0.8446870557973386,-0.05113047399650675,0.3488752370365346,-0.4027102201087255
13.700000000000001,-3.422904546687916,0.7557624389290025,6.300128900575307,-0.13953728386403905,-0.5721408963567801,-0.2488301588526906,-0.005747406839825714,0.02370435121128804,0.9997024082840205,-0.7995826402347627,-2.0568443420981866,4.139893817855899,-3.8815558555203347,-1.3889700413649897,1.7909846625148071,3.0,0.5050232184250081,0.5162864188334538,0.4050339473290651,0.844659996517838,-0.05113174967876127,0.3489068300824704,-0.4027394422937453
13.8,-3.406221797029208,0.9188432547373411,6.4272854866671345,-0.13308870234548453,-0.5683075638883757,-0.24857176446506224,-0.006097967816383764,0.02416056202211013,0.9996894896491724,-0.8011137651274954,-2.0555108060578875,4.140077954693139,-3.8814722139957416,-1.388785866625258,1.7910641903329938,3.0,0.5047997547587002,0.5160256394746554,0.4052480706204023,0.8446398418369823,-0.05114014459244971,0.3489233022000738,-0.4027663744336871
13.9,-3.256325265641841,0.9866453413514447,6.361096931518186,-0.12052963366539594,-0.5648300726980297,-0.24584409996748355,-0.005939688748078532,0.023953603358372884,0.9996953888177817,-0.8023044056084986,-2.0544739872941364,4.140263640764186,-3.8813807629728654,-1.3886481528476657,1.7911566854687242,3.0,0.504493454910302,0.5156934554976577,0.40544314458528846,0.8446525062170531,-0.05115138201286697,0.34891682443603034,-0.4027439999365614
14.0,-3.1933175220776437,0.9865490109667959,6.480685843309793,-0.12791865831918145,-0.5660721911135278,-0.24427079617889463,-0.005774833126065628,0.023738073494882876,0.9997015311989612,-0.8034486853920216,-2.0532876717548096,4.140450989141561,-3.881364868656178,-1.3884804537496946,1.7911916042866491,3.0,0.5040389908446977,0.5152927490017526,0.405681440331004,0.8446727070163735,-0.05113583242287584,0.3488940280826485,-0.4027233564524357
14.100000000000001,-3.4425832540231434,0.8329911974267947,6.310542224988251,-0.12247304921052032,-0.5727508531412168,-0.24376261785001674,-0.005880114973285636,0.023866508431750613,0.9996978531523241,-0.804758276175014,-2.0520352063868725,4.1406214207813985,-3.8813045697952164,-1.38831154416402,1.791307684819484,3.0,0.5038586205249559,0.5150947969452503,0.4058324257445048,0.8446640012840552,-0.05114624477267285,0.3489010446363163,-0.4027342146281479
14.200000000000001,-3.2477742170729114,0.7722101536632353,6.437754275678743,-0.11616599499900238,-0.5742170812767361,-0.24789621856883254,-0.005959829517859305,0.023954360741763662,0.9996952871113048,-0.8062948583953875,-2.050707796051154,4.140796633579674,-3.8812631569304408,-1.3881571928607386,1.7913704515106184,3.0,0.503571861291294,0.5148104704199981,0.40605412355868553,0.8446530641868173,-0.051145853394538754,0.3489060781057325,-0.402752841704737
14.3,-3.3572856831420816,0.5911979217768338,6.5721580210607415,-0.11637988526479465,-0.5732136668863892,-0.24066921348764506,-0.006002045703588678,0.02398521755644277,0.9996942945776676,-0.8075317341735201,-2.0495002105906077,4.140966892242432,-3.8811979858996684,-1.3880235802553353,1.7914439551280856,3.0,0.5031356254620842,0.5143469628842294,0.40632574428379103,0.844669490731553,-0.051147392989951024,0.34890072220396123,-0.4027228347923476
14.4,-3.47618750756333,0.6890894530484029,6.6877100065308905,-0.11441945750861661,-0.5618390909184359,-0.23724042787607671,-0.005784663256552709,0.02372131206617361,0.9997017169976765,-0.8086986541748047,-2.0483265685166674,4.141137280670267,-3.8811924318781377,-1.3878338972674769,1.791503002675585,3.0,0.5028688777586907,0.5140706869169408,0.4065245625708883,0.8446654185701152,-0.0511409843103236,0.3489133251915574,-0.40272127073115216
14.5,-3.4342375966575633,0.727900335526351,6.670069643977002,-0.11449319350429267,-0.5587941790731166,-0.24086202300304219,-0.005258965932660941,0.02310732921693005,0.9997191335203874,-0.8099756861092845,-2.047082772473736,4.141344990355052,-3.8811383948781795,-1.3877018133746546,1.791619162571503,3.0,0.5024572228989341,0.5137251889620028,0.4067807142385655,0.8446635290223731,-0.051125916033842804,0.3488982356636801,-0.40274021974461677
14.600000000000001,-3.4747834697136972,0.865921216786857,6.650962872888635,-0.10620933476707448,-0.5567202734916096,-0.24285178517837608,-0.005830578700959549,0.02384596739577744,0.9996983608169656,-0.811329189527586,-2.045816866137902,4.141505718231201,-3.881083389321798,-1.3875414659854326,1.7916914976263454,3.0,0.5022626199963073,0.5135247799652859,0.4069136682961257,0.844675657422677,-0.05111636836772199,0.34888683626261663,-0.40272586969938456
14.700000000000001,-3.3161404969307173,0.6976683492459468,6.609710441355148,-0.10585832412812601,-0.5546181773627679,-0.2412316594326584,-0.0060866383282787975,0.024155613681238707,0.9996896617958408,-0.8126410290510852,-2.0446574144904144,4.141675382585131,-3.8810287345727263,-1.3873937775292833,1.7917631460791243,3.0,0.5019782641216973,0.5132119790888436,0.4071298311078571,0.8446687237634939,-0.05111735531114811,0.3489041042933405,-0.4027253271014948
14.8,-3.1074839266551075,0.6095552524827341,6.822289679868264,-0.11423817696442677,-0.5603625179241125,-0.23676037638382635,-0.00583612340879493,0.023805488302208314,0.9996995208339573,-0.8138154007281325,-2.04341929214263,4.141836106040465,-3.8810022159150366,-1.387248639014852,1.7918548723302776,3.0,0.5015582775312164,0.512751245507561,0.4073901485043347,0.8446909091144786,-0.05112086025623027,0.3488862534360276,-0.4026938140441082
14.9,-3.292854947048903,0.7775671989831798,6.913987572209135,-0.11430518895101392,-0.5669583208155027,-0.23149558661901212,-0.005546439673855267,0.02342759159309222,0.9997101364455999,-0.8150861417981339,-2.04206311798325,4.142004096477875,-3.881013758887959,-1.3871356998340332,1.7918597138265162,3.0,0.501348524824146,0.5125227286890583,0.4075720499203209,0.8446743140717755,-0.051137355200809954,0.3488950755447682,-0.40271888496946917
15.0,-3.380943133122857,0.954183920234402,6.8711650969373945,-0.09922831065382946,-0.561760248273481,-0.23796397856194323,-0.005823715582058948,0.023822242009747575,0.9996990798193441,-0.8163564693762452,-2.0408493164580745,4.142134761222522,-3.880972320683023,-1.386977608335862,1.7920012474060059,3.0,0.5010577342774609,0.5122245817869948,0.407852101635778,0.8446384551423441,-0.05113882077198556,0.348916784817579,-0.40277509652083554
15.100000000000001,-3.340619141247276,0.6402286123091977,6.802034989766058,-0.09478483624356439,-0.5511841109806392,-0.23803993072018423,-0.006154574756434658,0.02428990573303114,0.9996859749533135,-0.8175315346611017,-2.0398207292004327,4.142351355529869,-3.8809576608653646,-1.3868507416206235,1.7920796379465735,3.0,0.5006199993736585,0.5117861211689169,0.4081503577396389,0.8446376730070614,-0.051133641776680255,0.3489119279026739,-0.40278160159459836
15.200000000000001,-3.3502037482640885,0.767787987075832,6.864026743336079,-0.08035409701699017,-0.5392434953657484,-0.23974995581056477,-0.006505962863320357,0.024736015971972468,0.9996727584048954,-0.8189079224226326,-2.0386063116383286,4.14250288113935,-3.8808387208931134,-1.3866763268607656,1.7921437253059622,3.0,0.500377730868358,0.5115552198457092,0.40826895818946846,0.8446629874883144,-0.051126017341670466,0.3488896733877158,-0.4027487600496216
15.3,-3.3492730763431373,0.6227490607338552,6.539746471191543,-0.09966843706273934,-0.5512592762387074,-0.2340864680126898,-0.006478695992938154,0.024686560600950026,0.9996738783929605,-0.819443653144649,-2.0381800912615464,4.142588874628012,-3.880822520613582,-1.3865883986102503,1.792188005969902,3.0,0.49997953282152463,0.5111531723852419,0.4084487681450277,0.8446983184055746,-0.051127075851250856,0.34886671038285044,-0.4026944143942691
15.4,-3.2066752682163924,0.6201589846050987,6.435622583518292,-0.08687666491272483,-0.5516863543970846,-0.23391110339255075,-0.005813682103975027,0.023813124440016535,0.999698997896671,-0.819422006141091,-2.0381030040291734,4.142574373363284,-3.8808295696790944,-1.3865836147065134,1.7921762146468272,3.0,0.49992430444233427,0.5110822041649697,0.40853096008644346,0.844679730136675,-0.05113788655349255,0.34888286094395893,-0.40271803956941704
15.5,-3.364644074150655,0.6833981425486426,6.603153215611521,-0.08032556885967224,-0.5577586668011161,-0.23585089155145386,-0.005774843242105289,0.023762408042382818,0.9997006061508771,-0.8194293742755168,-2.0380169353880824,4.14256942232393,-3.8808248950626774,-1.3865859911169682,1.7921805381774902,3.0,0.4998990626575754,0.5110642808179522,0.4085648343784687,0.8446713657615816,-0.05112772125483228,0.3488927770710418,-0.40272828320023546
15.600000000000001,-3.274927428741124,0.31640656760677754,6.612297618103321,-0.08497750106370791,-0.5602415971257789,-0.2338854496390226,-0.006639966633780075,0.024897655886868795,0.9996678589754867,-0.8194799423217773,-2.03802651261666,4.14255952835083,-3.88082017521047,-1.3865956248193143,1.7921546416675656,3.0,0.49987812387819075,0.5110532377123614,0.40859526192533346,0.8446569709755801,-0.05112952102764046,0.34889864405285437,-0.40275316217246737
15.700000000000001,-3.447766026401408,0.6148494369831256,6.496903893694327,-0.07496185739153123,-0.5560936740376901,-0.23718118966493518,-0.006780173830485097,0.02506233571405396,0.9996626742109331,-0.8194829876867125,-2.0380468305018242,4.142570972442627,-3.880802502889365,-1.386601087630813,1.7921690940856934,3.0,0.49988414495694417,0.5110527469712364,0.40859195551311694,0.8446578300275562,-0.05114129884607284,0.3488947468699222,-0.4027532412433815
15.8,-3.1896335391439083,0.26398377853290056,6.357315202550417,-0.08020095443002924,-0.559831972577738,-0.2365909371008774,-0.006169173462646543,0.024212290409409892,0.9996876872574628,-0.8194771254010335,-2.0380237307630336,4.14259083584633,-3.8808104407428172,-1.3865895457100472,1.7921674701487382,3.0,0.4999214686156918,0.5110185514986051,0.4085685815068995,0.8446601649083243,-0.05117166181877078,0.3489014033453596,-0.40273872124168403
15.9,-3.158285751454349,0.23651005664135555,6.393283339475963,-0.08034698054955082,-0.5615777768607477,-0.23569844349460253,-0.006546429653759877,0.024717654205215687,0.9996727821828154,-0.8194648151453005,-2.0380412540831507,4.14255952835083,-3.8808010709788747,-1.3866072644232668,1.7921599813206686,3.0,0.49989608605269337,0.5110380835927877,0.408565118504139,0.8446717667755227,-0.05114274324644769,0.34888832564519756,-0.4027293910978388
16.0,-3.1935449304012304,0.3109527465638956,6.329560506635855,-0.07707597869354402,-0.5634927699660353,-0.2350920581422329,-0.006643681413002552,0.024856372323849508,0.9996687187188668,-0.8194479450896711,-2.0380247372296187,4.142550690034336,-3.880815667669058,-1.3866168363927374,1.7921478580030858,3.0,0.4998947564100277,0.5110358482614574,0.4085804280227366,0.8446644667636808,-0.05114178404940839,0.3489024611227205,-0.4027325776909277
16.1,-3.247203360128413,0.2702107001430505,6.390328768982512,-0.07793420354710824,-0.5605406479619675,-0.23208244832551453,-0.006132361189686694,0.02419506751409071,0.9996883913277443,-0.8194665149358143,-2.0380402640640645,4.1425791529918525,-3.8808190560819034,-1.3866003195392054,1.7921276076249328,3.0,0.4998833902805802,0.511034993552438,0.40859381546427226,0.8446627635606108,-0.05114301621528034,0.34889971927864083,-0.40273836871328855
16.2,-3.290277777558946,0.3750573895037831,6.390659295326945,-0.07439912647153595,-0.5611914245776487,-0.23062827656268342,-0.006439666917343198,0.024652303719008423,0.9996753055497423,-0.8194770743537548,-2.0380243776591884,4.142549790594094,-3.880796094933981,-1.38659555464016,1.7921835793787912,3.0607333075299183,0.4998760960304938,0.5110496514772978,0.4085961904347093,0.8446593686821384,-0.051115862332045195,0.3489019820285456,-0.4027469757206067
16.3,-3.265131196985979,0.27157506476123805,6.387441582098589,-0.07811439763090919,-0.5622841506209153,-0.2309842170487709,-0.006433872222286146,0.02460332106901665,0.9996765783155301,-0.8194626728079955,-2.0380050144591273,4.142591270977006,-3.8808174782959077,-1.3865954025472387,1.7922004619620482,4.0,0.49988723754155323,0.5110319758612489,0.40859764427661577,0.8446594463226575,-0.05113345726450749,0.34890612036805735,-0.4027409942578373
16.400000000000002,-3.495625179639536,0.3353601212837104,6.227530921486678,-0.07424324923402265,-0.5579248071920847,-0.2312839876300078,-0.00647849216994683,0.024623823699635863,0.9996757329344935,-0.8194743444171828,-2.0380197343403794,4.142566455353772,-3.8808033105620456,-1.3865931039111405,1.7921879152892541,4.0,0.499897075107292,0.5110207906197061,0.4085943865746643,0.844657470517236,-0.05114123319875549,0.34891265628754053,-0.4027384884124033
16.5,-3.521937563973993,0.2784443713087271,6.260675970480045,-0.073532459094429,-0.5571103764516457,-0.2300234207181554,-0.006823809556727912,0.025101972001196377,0.9996615575212578,-0.8194877199817345,-2.038000069501757,4.142576510794882,-3.880808015862936,-1.3865953745818351,1.792183046028863,4.0,0.49988133224470516,0.5110276045627009,0.4086092977543345,0.8446539213405615,-0.05112714536952655,0.34891484430049957,-0.40274582505239476
16.6,-3.450969027014904,0.1466321136173233,6.1862787416357286,-0.07389805285533944,-0.557860176496488,-0.22987290743795302,-0.006538183763427838,0.024745442899339564,0.999672356015787,-0.8194810381214268,-2.0380157939301142,4.142572250875551,-3.8808440170683802,-1.3866014609971735,1.7921794423778408,4.0,0.49987412744433024,0.511033259172971,0.40859197113784035,0.8446678475102788,-0.05112807111901259,0.3488945233490118,-0.4027341049663755
16.7,-3.3675595934283997,0.22550147002744292,6.200616804236215,-0.07677577066626337,-0.5594786342330516,-0.227109484666485,-0.006806759062545401,0.025080152795356907,0.9996621054030558,-0.8195012819130002,-2.037988336078525,4.142566405289045,-3.88081532260979,-1.3865764776812952,1.7921518842682584,4.0,0.4998869913058841,0.5110253897141004,0.4085891900263709,0.844660495610919,-0.05113985961607544,0.3489061934948342,-0.4027379173280187
16.8,-2.689717414465791,0.9416411998599715,5.835108593416739,-0.10144761963817618,-0.4886467360417724,-0.2216866641558603,-0.007081095225260422,0.02541189627206128,0.9996519513076657,-0.8194913864135742,-2.0380023572683683,4.142577240498461,-3.880808015862936,-1.3865718458121972,1.7922026969194556,4.0,0.49989224305707675,0.5110240089234459,0.40859314206759756,0.8446605875844887,-0.05114313825460978,0.3489006497459864,-0.40274211078272515
16.900000000000002,-1.7389689696780355,1.489695986805107,5.369277354860882,-0.14926645879850803,-0.39318310545458524,-0.2073899206201552,-0.006819651654254582,0.025038304399530156,0.9996632001084793,-0.8195116158148869,-2.0379864391218456,4.142537129896126,-3.8808186542346057,-1.3865576361676806,1.7921621735010338,4.0,0.4998985283771546,0.511009456658492,0.4085999021543509,0.8446606085428081,-0.05115504047910794,0.3489073124092554,-0.40273478314769856
17.0,-1.4687660915644072,1.6376875225672172,5.350929403182812,-0.16211187094700374,-0.3768346917818268,-0.20793136697843387,-0.007032824069221854,0.025295423798602945,0.9996551867916719,-0.8194728670847358,-2.0379785113366813,4.142518844087886,-3.880810077027254,-1.386552635823385,1.792174416614765,4.0,0.4998968900917879,0.511007121604903,0.40859596877180876,0.8446603068445658,-0.051151068080688464,0.34891793305545116,-0.4027267190884667
17.1,-1.5137941007125706,1.8816809270473602,5.27261868835016,-0.16529755413625288,-0.37335912653393805,-0.2072551289082803,-0.007215103160659438,0.025525120582677665,0.9996480819028506,-0.8194819631623304,-2.0379858842268392,4.14253568649292,-3.880822578655669,-1.3866053195369605,1.7921948615193808,4.0,0.4999019394535232,0.5110077039952812,0.40862314752543766,0.8446431343157211,-0.05116594784424995,0.3489290659509578,-0.40275119909083607
17.2,-1.6955074189245665,1.7557257452389892,5.106626162286094,-0.16682498794122,-0.36579565565172384,-0.20857594605680474,-0.0068883974651064986,0.025117823545987995,0.9996606359763247,-0.8195065996300382,-2.037971958836061,4.142540477650801,-3.8808227902366172,-1.3865883986102503,1.7921430599471488,4.0,0.4998937525513695,0.5110110974454802,0.4086228935475646,0.844647518279052,-0.051164856084347246,0.3489207892501547,-0.4027493143333158
17.3,-0.6282900375592997,1.0735785752173799,3.547786094758518,-0.08298426352248743,-0.2785318769395466,-0.2152213664188883,-0.006630528518224212,0.02479381751630615,0.9996705954391456,-0.8194413845816351,-2.03796449855993,4.14254507888934,-3.880839263956048,-1.3865693098646725,1.7921879927067779,4.0,0.49989354131643265,0.5110056894803391,0.40860165937958465,0.8446616333957795,-0.05114847291648393,0.3489101916665937,-0.4027309734036685
17.400000000000002,0.3967012567515735,-0.20290785071529804,2.41572090071991,-0.006897709570291151,-0.15008086408467425,-0.23512308356880687,-0.00658115450606718,0.024722085938928592,0.9996726962626605,-0.8194753112069506,-2.037957330743307,4.142552828827833,-3.88081513410612,-1.3865726025504184,1.792177911475737,4.0,0.49990298519580456,0.5110038201276621,0.40862641431938235,0.8446403465116588,-0.05116479015961471,0.34893255609757295,-0.40275416892665605
17.5,0.4603425251572093,-0.10391650823050907,2.088462255342982,0.011745273426573005,-0.13534311277026348,-0.23187746744883697,-0.0065186246652967315,0.024638361219337223,0.9996751695838751,-0.819465190253094,-2.037942862368252,4.142518653282094,-3.880812941022943,-1.386595774644592,1.7921690940856934,4.0,0.4998949841490048,0.5110065755113784,0.40863115882975987,0.8446430876820974,-0.05115968307464127,0.3489261025257539,-0.4027546601030733
17.6,0.7899508298134768,-0.2566431096348995,1.923367032985689,0.04450679484742764,-0.10004939308862075,-0.23623469435124506,-0.0064139183915210545,0.02451618753739108,0.9996788371000535,-0.8194689082989828,-2.037957330743307,4.142539717497103,-3.8807826842337008,-1.386595381882217,1.7921824060328335,4.0,0.49989631311464416,0.5110072619455355,0.4086487597933393,0.8446312038357754,-0.051166402811561325,0.34892678619996687,-0.4027781357055232
17.7,0.8622136314242359,-0.03469999099598842,1.90427506126181,0.04632930788757371,-0.09687789724827447,-0.23877572475131192,-0.006309212117745382,0.024394013855444947,0.9996825046162318,-0.8194660142133835,-2.037957330743307,4.14250541627729,-3.8808291237438417,-1.3865988480562432,1.7921621300314965,4.0,0.49989485121668153,0.5110027034284572,0.40866729641206173,0.8446288784909854,-0.0511601203706447,0.34893038709291957,-0.40278069053258564
17.8,0.7628928665609472,-0.05426321122079719,1.667269346819265,0.04390552122734069,-0.09286169712007585,-0.23825179173862857,-0.006239861211721274,0.02429401842018077,0.9996853796312577,-0.8194604576433209,-2.0380033067104995,4.142516746961567,-3.880832096139425,-1.3866003195392054,1.7921452522277832,4.0,0.4999101897477628,0.5109899469139352,0.408633423475376,0.8446416047908096,-0.05117805146770456,0.3489243087500823,-0.40275699033989687
17.900000000000002,0.7382540481472653,-0.1802119534485178,1.0969113359157587,0.024599962161776547,-0.08888753874087858,-0.23790825456770529,-0.006185035105367619,0.024202383208604378,0.9996879447648024,-0.8194913864135742,-2.037998538371694,4.142538517810511,-3.880813607137955,-1.3866152557559157,1.7921669243853628,4.0,0.4999048153581886,0.5110117590836013,0.40859055632930297,0.8446596739839409,-0.05116039134452757,0.348904849044781,-0.40273819761211643
18.0,0.5880379516233315,0.6648326708241545,0.4836599531347181,-0.008640113411141603,-0.07740040187286035,-0.2361913623104162,-0.006134411889853536,0.02411067980849908,0.9996904722091978,-0.8194661953577143,-2.0379663747986116,4.14253703569087,-3.8808349730130756,-1.3866031964128558,1.792164391176935,4.0,0.4999186771193112,0.5109873614067892,0.40861062835197787,0.8446563505437364,-0.05117075882692516,0.3489252129644078,-0.40272620809298754
