xiamingqian9007/apple-picking-rnn/final_data/grasper_20191127_134506_noimg.csv
,/manipulator_wrench.fx,/manipulator_wrench.fy,/manipulator_wrench.fz,/manipulator_wrench.tx,/manipulator_wrench.ty,/manipulator_wrench.tz,/ground_truth.x,/ground_truth.y,/ground_truth.z,/joint_states.elbow_joint,/joint_states.shoulder_lift_joint,/joint_states.shoulder_pan_joint,/joint_states.wrist_1_joint,/joint_states.wrist_2_joint,/joint_states.wrist_3_joint,/mode./mode,/manipulator_pose.x,/manipulator_pose.y,/manipulator_pose.z,/manipulator_pose.rx,/manipulator_pose.ry,/manipulator_pose.rz,/manipulator_pose.rw
0.2,-0.7861657936183133,0.7863743992291266,-0.8159690171507261,-0.023624116572405613,-0.03907471824847364,-0.011778650152184924,0.07840720184829383,-0.11994468685550971,0.9896795352408002,-1.7506009058707384,-1.717889402679764,4.181013296723044,-2.7492745696188083,-1.3279961119123371,1.8347368568262568,1.0,0.4541156035805478,0.4639495532038652,0.3015441707998582,-0.6781569310383746,0.09175825953667852,-0.4355747934169478,0.5847719196671436
0.30000000000000004,-0.036672986775167324,0.78452315987077,-0.3980940469291909,-0.002887274561980487,-0.0026611306656831256,-0.025859690331003524,0.07843165979929131,-0.11995046847099337,0.9896768966863476,-1.7467037653838624,-1.7211371173499896,4.180220127105713,-2.7499906391615894,-1.3289341071250063,1.8347984587923538,1.0,0.45428790031582195,0.4641337074934135,0.30157628737441716,-0.678148570322903,0.09174408148787926,-0.43557986814902916,0.5847800599748785
0.4,-0.271426061825848,0.6670204559960741,-0.5485687442356523,-0.00047119834652144927,-0.014176122020000098,-0.04719791126063952,0.07839160512830307,-0.1197470423359315,0.9897046924688506,-1.7423011670491613,-1.724469470199416,4.1793941608859075,-2.7509009520949332,-1.3296335596935633,1.8348574188852926,1.0,0.455294697220673,0.4651788453770812,0.3016501702272877,-0.6781520285022422,0.09170987588329664,-0.4355677693302704,0.584790426755104
0.5,-0.34956001382679486,0.6716283610258817,-0.7211150633030101,0.002188395435393269,-0.01433007530377887,-0.07016255707791172,0.0780971583162923,-0.1192350149246902,0.9897895285238134,-1.7381801090258917,-1.7280107122002255,4.178598274662422,-2.7517920525539195,-1.3303364366568153,1.8348932673861647,1.0,0.456058505372307,0.4659591800574768,0.3016935183797269,-0.6781622516537927,0.09172979132262392,-0.4355539235141072,0.5847857603663353
0.6000000000000001,-0.031184068856928038,0.5098319732944219,-0.6765332988057309,0.0016027829845900394,-0.012569530732390696,-0.08374912386599112,0.07751584457264894,-0.11837818046180582,0.989938297488032,-1.7341363452052927,-1.7311554270513259,4.177836000439663,-2.752659320822547,-1.3311455294266914,1.834897518157959,1.0,0.4571364462403727,0.46703568764772707,0.3019420385868919,-0.678080316624733,0.09176565361625227,-0.43561279665146774,0.584831292268096
0.7000000000000001,-0.18168661441074718,0.6707591436766358,-0.5851298945774914,0.0009029467519640609,-0.013731037983533553,-0.10078709174805531,0.0777171444146611,-0.11870099592165333,0.9898837902103694,-1.730016164406593,-1.7343783183467865,4.177097048572925,-2.753358344591904,-1.3319582214959562,1.834984390717196,1.0,0.45836508200548565,0.46827765638622915,0.3019456404059159,-0.6781457871947543,0.09176127516716759,-0.435591877744025,0.5847716440912099
0.8,-0.269360714436744,0.6588085922325261,-0.5813293616634706,0.005606449992612579,-0.01103791890432272,-0.11553285698996303,0.07795270328860546,-0.11907545074109341,0.989820384483473,-1.7263088102862691,-1.737360756501861,4.1763975116711505,-2.7541576110467485,-1.3327365223286147,1.8350372982480856,1.0,0.458992154364441,0.468916294247204,0.3019563083668686,-0.6781768532698677,0.09174370451291472,-0.4355692154791685,0.5847552538439389
0.9,-0.11237848198342001,0.8063980436088886,-0.6153097550535384,0.00658191487623126,-0.017020065525930182,-0.1325498374958191,0.07784549088137613,-0.11887281815670164,0.9898531682268222,-1.7226347088813783,-1.740399085680479,4.175697863101959,-2.7549954704441966,-1.333288140092985,1.835094004869461,1.0,0.4601172658113894,0.4700994136534341,0.30208517585341405,-0.6781402793554062,0.09171477501289244,-0.4355608357336742,0.5848084472159146
1.0,-0.15394634679927838,0.7574454317031438,-0.6236010108535277,0.0043476769182088275,-0.018940374440024887,-0.14709027387472826,0.0777918702966462,-0.1188382123200037,0.9898615407521812,-1.7189083154541949,-1.7433352886530338,4.175014804949559,-2.7558189831175746,-1.333872311159471,1.835136890411377,1.0,0.4611921301870261,0.47117744259575334,0.30213875597995576,-0.6781694594114613,0.09174177016347843,-0.435577702707614,0.5847578104076894
1.1,-0.3687059083397842,0.6409128409976538,-0.543837759005353,0.006414047505825882,-0.017962500633350465,-0.15757857420857596,0.077829502760005,-0.11905636530842435,0.989832364444976,-1.7154651646211825,-1.746139837652259,4.1743950843811035,-2.7565018484932566,-1.3345301441354471,1.8351520109398984,1.0,0.46194617615114186,0.47191604022347183,0.3021233151877072,-0.6782209742006385,0.09176236520663467,-0.43557917788391737,0.5846937303238268
1.2000000000000002,0.07580115314381933,0.8487814439601394,-0.45161708040497256,0.0013791150897194684,-0.017468073970832387,-0.16584874490095397,0.07783215625590101,-0.11907549207637307,0.9898298545638446,-1.712136442444851,-1.7488076705460325,4.173792376119465,-2.7572065496969937,-1.335208891987616,1.8352300476681371,1.0,0.4629207430527335,0.47290373422054066,0.30219675433849436,-0.6782080873608362,0.09176643093022557,-0.43558433715662004,0.5847041966811186
1.3,-0.22057734952581692,0.859091192976394,-0.41777032016482474,0.006583028473116651,-0.01834897907880118,-0.18244667840620676,0.07778906741518196,-0.11883435031633435,0.9898622166279497,-1.708862376313236,-1.751153367403537,4.173187375420848,-2.7579734031888403,-1.3358819887805868,1.8352529279292962,1.0,0.4635176674772408,0.47354494070474207,0.3022670267526731,-0.6781932512773887,0.09173945541608727,-0.4355624299225287,0.5847419566627203
1.4000000000000001,-0.35438773979255633,1.1697497436748634,-0.4418071862274319,0.013734115547981155,-0.018445362744469763,-0.1901626420201524,0.0778245517808057,-0.11878320016455605,0.9898655772177637,-1.705486256967091,-1.7539067679401334,4.172574999812552,-2.758697886028071,-1.3363800114983253,1.835289604237724,1.0,0.4642017382968684,0.47423571421969174,0.302466541614674,-0.6781222110990753,0.0917321397288937,-0.43558084901842,0.5848117691387993
1.5,-0.05318614437069765,0.615615415874639,-0.730474541705247,-0.0012469201510070579,-0.014184324338612666,-0.19156170552971977,0.07796609282511388,-0.11898849721517533,0.9898297921473277,-1.702545325948585,-1.7559861156158747,4.171962261199951,-2.7594579648160518,-1.3368435129127594,1.8353336244447704,1.0,0.4650556357828256,0.47513845867532783,0.30237281529241705,-0.6782297354385884,0.09171761133520613,-0.43553194920940913,0.5847257707299375
1.6,0.19336877820296372,0.49339387426303755,-0.6136262997234094,0.004170406846398489,-0.02264847839499892,-0.2019043709696003,0.07776151177462398,-0.11887650317992546,0.9898593235605622,-1.699326821662253,-1.7586031746728672,4.17151987867579,-2.7600694174928733,-1.3373600142745303,1.835369648691776,1.0,0.465934737167234,0.475908962164739,0.3026091529309916,-0.6781395877661798,0.09177553250711594,-0.4356252734179469,0.5847517185070003
1.7000000000000002,0.19260283907012787,0.8394497724525528,-0.45660789077047453,0.007213857826787693,-0.02412728194329977,-0.20993848069702917,0.07769387457117653,-0.11892875170558054,0.9898583603187959,-1.696540492968064,-1.7607309888364515,4.17105962955426,-2.7606893978514613,-1.3378764576291735,1.8353814017213086,1.0,0.46698363019123856,0.47699624434416876,0.3026450005906229,-0.678155571429489,0.09180635699513129,-0.43561528233682456,0.5847357861026073
1.8,0.0005940338941204408,0.9457299415406579,-0.36840772090815366,0.010442063780056172,-0.02035962472209992,-0.21779814481643503,0.07777736563385768,-0.11899628194166492,0.9898436729024508,-1.6936416921639206,-1.7629396400257231,4.170621794757277,-2.7613465210606876,-1.3383582421897693,1.835427207049757,1.0,0.46751647094540844,0.4775697847113708,0.30271065609134346,-0.6781496415067277,0.09177945155160733,-0.4356118834115444,0.5847494190059789
1.9000000000000001,-0.02570225784308261,0.8642860872382314,-0.5871326323405087,0.006470902827471945,-0.019118348380856076,-0.22679657790113686,0.07768254835936475,-0.11861142834837439,0.9898973297868309,-1.691025754020217,-1.765112204580814,4.17015647386372,-2.762045357863379,-1.3389084974872034,1.8354778239613765,1.0,0.4679581911741555,0.47808054946909667,0.3027981515661741,-0.6781268413685899,0.09173837359117476,-0.4355993396063199,0.5847916493597042
2.0,0.08819465243407837,0.575892178206141,-0.3876283834317446,0.006947017816602181,-0.017898283457478452,-0.23736693721069302,0.07768714491686357,-0.11846102946916068,0.9899149914829529,-1.6882358663603112,-1.7671317465291014,4.169688548713492,-2.762672269838547,-1.33941606951934,1.835505409076595,1.0,0.4686305975759581,0.4787935128018623,0.3027340491583799,-0.6782156252997567,0.0917111218982653,-0.4355425780168813,0.5847352379101424
2.1,0.06683471074449877,0.8288277549627985,-0.39416135205622777,0.0006862713033918872,-0.02359832003220577,-0.23942669865604255,0.07772511127571803,-0.11853592996653499,0.9899030423684755,-1.6857144752497712,-1.769146129019235,4.169273959489173,-2.763234701508364,-1.3397768904534153,1.8355212211608887,1.0,0.4694546677334296,0.4796159285861544,0.3028891428353965,-0.6781732074342754,0.09171361363805003,-0.4355505884146096,0.5847780764729855
2.2,0.14524067059703794,0.9599992903086184,-0.45459613206494176,0.01286114202759005,-0.019700944204231935,-0.24348127534618433,0.07616023378641174,-0.11575292605656196,0.9903362902677861,-1.683167797283155,-1.771055890438869,4.168803246625282,-2.763771254946539,-1.3401673475848597,1.835524707702645,1.0,0.46994373896367375,0.4801107214313651,0.3029336401700742,-0.6781619079811563,0.09172855054493041,-0.4355601161396097,0.5847817411707835
2.3000000000000003,0.056958245131238566,0.8044745803367839,-0.48409584098769376,0.001829018207230677,-0.019641788271778315,-0.25263639631440726,0.0717209864261468,-0.10780222327808137,0.9915730867517614,-1.6807626418406114,-1.773073137180081,4.16839012995773,-2.7643452902044205,-1.3405354749404845,1.8355698585510254,1.0,0.47065153789772096,0.4808445396574646,0.302982877245712,-0.6781560332689486,0.09174483274510484,-0.43558124486027505,0.5847702620101936
2.4000000000000004,-0.10026127338979837,0.8111737569006117,-0.3542098732222162,0.0014117755223535056,-0.016941436926046913,-0.25715231599978483,0.07455889210154878,-0.11298882573548338,0.9907733462294488,-1.6783904889804213,-1.774688291902401,4.1680073738098145,-2.7649026695974563,-1.3409208116787086,1.8356012667470905,1.0,0.4710809898997325,0.48125224417055007,0.30298072237858054,-0.6781729905138312,0.0917613825162287,-0.4355869731049818,0.5847437323114096
2.5,-0.16315435414608123,0.6206585654780616,-0.3629129667130091,-0.0017686822562003339,-0.016331385968354137,-0.25489900279043654,0.0759010556146209,-0.1154581943031016,0.9903927367013668,-1.6761166122262385,-1.776503904910077,4.1676028303344985,-2.7654950712956134,-1.3413164237827246,1.8356175422668457,1.0,0.47168359493085876,0.48187208634783857,0.3030719396413139,-0.6781590583745903,0.09176383126295648,-0.4355813489952022,0.584763695199995
2.6,-0.06041257626316992,0.7872312694026028,-0.37236854165031635,0.002510941672367811,-0.018799149085379427,-0.25966008702574184,0.07167822257190713,-0.10784756348232716,0.9915705835108075,-1.6738113875418,-1.778451360534012,4.167219556750673,-2.7660328760831803,-1.341715161000387,1.8356697318568374,1.0,0.47235440827608627,0.4825265820379272,0.3031572316396396,-0.6781492849177224,0.091770248611144,-0.4356014617781142,0.5847590404022845
2.7,-0.16215763348850787,1.0458480262718117,-0.455053120386533,0.0064630366634919586,-0.013723401621994463,-0.26709302737564944,0.07411204433795114,-0.11228339599718482,0.9908893187754222,-1.6718485682210997,-1.7797884425599397,4.166843891143799,-2.7665351730150602,-1.3420631216206709,1.8356810168840967,1.0,0.47288442913304823,0.48304341131076634,0.3031789872485089,-0.6781623929075056,0.09176850498614905,-0.4356028556567135,0.5847430739070703
2.8000000000000003,-0.019560751267000367,0.8712982512573084,-0.39348712228715454,0.004847056941759227,-0.01663724592809068,-0.2653858470432733,0.07625745092102293,-0.11617564547893129,0.9902929168819854,-1.6695329641360974,-1.781210687464922,4.166514182555323,-2.7670072274726523,-1.3424461151300078,1.8357039009977023,1.0,0.4733200059712742,0.4834472098500579,0.3031811520353275,-0.6781975329276784,0.09176709599568206,-0.4355924449538102,0.5847102943531024
2.9000000000000004,-0.07924956492886366,0.8164767962898191,-0.31161351972582907,0.002497109163233881,-0.020158715107701827,-0.26966282854898005,0.07440712373107654,-0.11278841624257312,0.990822122627507,-1.6676655900052517,-1.783107757211142,4.166228856624022,-2.767461510848135,-1.342751359340533,1.8357048576857313,1.0,0.47349116299628424,0.4836210132284398,0.3032462492530974,-0.6781677491961912,0.09177548527429741,-0.4355942839438236,0.5847421517629006
3.0,0.057724468999667655,0.5818025679734625,-0.21203582667259724,0.008737590159724173,-0.013526067103416545,-0.2662147170828459,0.07541930129273673,-0.11458570783438983,0.9904996868357171,-1.6657205871683645,-1.7845694027342738,4.165909872467854,-2.7679835758604945,-1.343062579498639,1.8357819097817407,1.0,0.47415465293767245,0.48435744072282183,0.3032336309666837,-0.6781915066564809,0.0917587398128941,-0.43557237935568804,0.5847335430000462
3.1,-0.13483609000917335,0.5989091380776899,-0.3988943015029374,0.0009656381762739827,-0.016699046381043147,-0.2612046955329613,0.08306313041407108,-0.12839413604249758,0.9882042272695473,-1.6635649351991912,-1.7858032678545228,4.165594256197707,-2.7684480494522066,-1.3433464209186,1.8357919962675033,1.0,0.4749446441496994,0.48520725454426394,0.30336318517598826,-0.6781658059867383,0.09175145957207718,-0.43556068893106925,0.5847732000653275
3.2,-0.3258608514042658,0.9940898027622148,-0.5871857192785029,0.00824077186199487,-0.009962105114537542,-0.26448078506703515,0.08085809792508655,-0.12437599449638742,0.9888869355626607,-1.6619596492260136,-1.7871764704384887,4.165333272120301,-2.768914563141004,-1.3436195474895571,1.8357962317826173,1.0,0.4752797395083998,0.4855398554720998,0.30356706375085357,-0.678074627866189,0.09176916238599908,-0.4356006238794974,0.5848464040710987
3.3000000000000003,-0.10016016175968423,0.8798236430714537,-0.4663597105983199,0.004512179630838081,-0.016097023706489678,-0.25429342661897925,0.07611344535675107,-0.11576110702318158,0.9903375919897179,-1.6601800727526574,-1.788762206112836,4.165056202884178,-2.7693387470641078,-1.3438821603425999,1.8358216285705566,1.0,0.47563843006913986,0.48591071304622135,0.30352756627905303,-0.678118958557633,0.09175549170582113,-0.4355857296046288,0.5848082420343761
3.4000000000000004,0.11766492913484947,0.6359044942795077,-0.45728494426994987,0.009601860993722119,-0.015637553427495825,-0.25490538102616866,0.07507401461776989,-0.1138674980915472,0.9906553788134663,-1.6583387088889847,-1.79008173214421,4.164793915457354,-2.7697802727803755,-1.3441503683673304,1.8357938937798233,1.0,0.47607349079738087,0.48637709706555904,0.30340404301781826,-0.6782152663829911,0.09175137269836012,-0.4355452393865614,0.5847273574074654
3.5,-0.404224686785868,0.8463278061276022,-0.38149585079311354,0.0057308605286118825,-0.012200278661892619,-0.25775828962461883,0.07544271907269053,-0.11454250159189736,0.9905479414325258,-1.6567513842475625,-1.7911540470519007,4.164511548692509,-2.7701817123455217,-1.344414536152975,1.8358433146369668,1.0,0.4763676107611772,0.4866761980736613,0.30348247609610246,-0.6781799426764586,0.09175900974744955,-0.43556194275535876,0.5847546866034512
3.6,-0.10631959394014218,0.7954360422637938,-0.38799838950469684,0.01201826400891216,-0.01342310058463415,-0.25285283701517813,0.07688253504132245,-0.1171974807459662,0.9901267947131512,-1.6551265200583043,-1.7924033862048774,4.164245587461988,-2.7705778393257035,-1.3446860820153292,1.8358545561329571,1.0,0.4767966397895593,0.48708137283094227,0.30360912728746675,-0.6781290686164886,0.09176524227203461,-0.43560213026767325,0.5847827722448342
3.7,-0.011372167602662832,0.5501186579114042,-0.5312325221712434,0.0031613653405508273,-0.017233361981679136,-0.2504185686445196,0.07582528331735248,-0.1152249819215615,0.9904368954639884,-1.6535073368175963,-1.7937046291594185,4.164003849029541,-2.770982881585592,-1.3449691498437555,1.835873996358089,1.0,0.4772394747197713,0.48758605289474105,0.303623707506532,-0.6781387460643469,0.09173985923102543,-0.4355804941493731,0.5847916487357998
3.8000000000000003,-0.004164069570548261,0.5038417036127477,-0.4837073733512284,0.0003080849967238464,-0.017214585944082567,-0.2478247131559928,0.07432174628219822,-0.11245204241311241,0.9908735088705962,-1.6519510173041185,-1.7948529350194695,4.163756313393798,-2.7713623246814993,-1.345206085835592,1.8358895205694994,1.0,0.4776024877093237,0.4879713696978552,0.3035897339756672,-0.6781717124409847,0.09173672375642417,-0.4355594171425763,0.5847696094170072
3.9000000000000004,-0.008571421754607594,0.6954714792828274,-0.3740945241683711,0.005366852149187627,-0.01451389532953248,-0.24950127566815095,0.07369681530325152,-0.1113832591340267,0.9910408971081428,-1.6504376920449906,-1.7959618341235741,4.1635613441467285,-2.771722535695683,-1.3454425905588063,1.835925505900582,1.0,0.4779677899524438,0.48830825928398947,0.30362932683659455,-0.6781758459771632,0.09175303463832132,-0.4355623812348153,0.5847600487557917
4.0,0.11883894061898101,0.4507457944766194,-0.36987589809081606,-0.0026028067497203566,-0.015199699662911048,-0.25191534441009267,0.07489568939353498,-0.11353207284746211,0.9907034034545492,-1.6488740916552547,-1.7970638566201815,4.16334813262249,-2.7721148131049858,-1.3456940960097523,1.8359362898295029,1.0,0.478225587560685,0.4885614651715223,0.3036879479615012,-0.6781548308656691,0.09176099289224533,-0.43557440876292064,0.5847742128273249
4.1000000000000005,0.07028529471654046,0.34990046087750193,-0.45670778909405985,0.0023134320394981884,-0.016648530334962497,-0.2454293815944698,0.07686710123011811,-0.11706707609152009,0.9901420982667947,-1.6474199295043945,-1.798196931878561,4.163044452667236,-2.772494160712859,-1.3459383409071597,1.835905579066459,1.0,0.4786528821291053,0.4890443540879908,0.3037752033655689,-0.6781225092011691,0.09174198840564217,-0.4355762412760533,0.5848133104794337
4.2,0.15465087776389694,0.7670544193592221,-0.3797440045428476,0.002010607211849924,-0.02167792909859419,-0.24320737518163607,0.08061073943851338,-0.12386941052918765,0.9889729152821014,-1.6460140857715315,-1.7993154120693056,4.162817478179932,-2.7729021511473597,-1.3461783568011683,1.835926879209465,1.0,0.4790138919768255,0.48938125119375986,0.30377939452429664,-0.6781494655288762,0.0917457534560368,-0.43556464066341993,0.584790101600078
4.3,0.02573686370702804,0.7867596794387617,-0.2599319952513538,0.00630628963733201,-0.017071129067204115,-0.2467909037840189,0.08966906273793851,-0.14033870527423953,0.9859651689404005,-1.6443099800620604,-1.8004433236924826,4.1625657081604,-2.7732676528099356,-1.3464396699905838,1.8359868402383404,1.0,0.4792199823472915,0.48956605032637096,0.3037912710358823,-0.6781651812144427,0.09175357116916283,-0.4355582689250231,0.5847753958034866
4.4,-0.03998726022952812,0.5581481205588347,-0.3285079969722773,0.005152718567234041,-0.015418414700816235,-0.24431220802095743,0.09102233267417723,-0.1428132020108753,0.9855451994574613,-1.6428796959473009,-1.801567404294628,4.162340114219732,-2.7736411438109165,-1.3466481238522274,1.835995252262962,1.0,0.47963378264552453,0.48998886319541607,0.3038572272909034,-0.6781413621384191,0.09174504991305918,-0.4355700180833093,0.584795603711592
4.5,0.20812442232174505,0.8584538670625909,-0.42014025873138217,0.0016685794454198676,-0.0214801731987906,-0.2432212193841469,0.08878095130711576,-0.1387586824605205,0.9863325097971956,-1.6415166854858398,-1.802836193193902,4.162037022924495,-2.7739791991151987,-1.3468610340147467,1.8359898540535784,1.0,0.4801046797683384,0.49048472605047344,0.30393364910650195,-0.6781115307714753,0.09175474146912051,-0.43558003288720526,0.5848212155887323
4.6000000000000005,-0.12020619997322621,0.7223866001029622,-0.5031453897187236,0.0036433952913299504,-0.01913177496648965,-0.2439800441348549,0.08531260580620409,-0.13253877083667465,0.9874670946243972,-1.6400005205749455,-1.8039610819138185,4.16178595159101,-2.7743651587821763,-1.347055346219723,1.8360147868092616,1.0,0.4802902424660009,0.4906308117506809,0.30385986553792854,-0.6781617665969363,0.09176875888497597,-0.43556500920017305,0.5847719521140586
4.7,-0.0641203757965867,0.9688188901111201,-0.3557196829159129,0.015068807000661509,-0.019058520358270045,-0.24411528119298712,0.08124766989456725,-0.12526597420106303,0.9887705357558677,-1.638248604202571,-1.804942586556605,4.161615678134916,-2.774764591884129,-1.3472832736998972,1.8360195012239136,1.0,0.4807636930519215,0.49106396026853727,0.30377912738294616,-0.6782213548672354,0.09178242821070752,-0.43556835959366813,0.5846981988980973
4.800000000000001,0.18151011305005268,0.5830082844911988,-0.34388168048614143,4.566845366356831e-05,-0.017176156508218767,-0.242397649028269,0.0807315953838929,-0.12440365575807938,0.9889397906919233,-1.6368734293406013,-1.806027027007389,4.161329930347682,-2.7751482088505313,-1.34749983274488,1.8360528706692725,1.0,0.481222299517073,0.49153291042994157,0.30405905560603896,-0.6780779476552827,0.09179463525942673,-0.4356472512943318,0.5848038254670378
4.9,0.07954493895312696,0.3935772201112069,-0.3486147172365828,-0.00311050526794337,-0.015851850353247234,-0.2460982588967898,0.08213683807773768,-0.12698657847602476,0.9884959515885734,-1.6355315623139204,-1.8072762179696764,4.161162103205265,-2.7755548964595955,-1.3477548138465718,1.8360371589660645,1.0,0.48146921672858006,0.49177378626853235,0.3040482308856276,-0.6781118583294902,0.09179079449559172,-0.43564048695147156,0.5847701460980018
5.0,0.15297729629209408,0.6240818865506329,-0.4369863933018208,0.000909348048186553,-0.017420476122322344,-0.2424052026822779,0.08418341497347306,-0.13059064129946957,0.9878522596001502,-1.6338312379245101,-1.8085876150855795,4.160956275874171,-2.7759561081657185,-1.3479729581100566,1.8360662519520727,1.0,0.4818410662247557,0.4921840439116615,0.30390723453674384,-0.6782224415181384,0.09177275216056158,-0.4355793464113791,0.5846902725049281
5.1000000000000005,0.1823772820397201,0.49265267774221366,-0.36783844378945985,-0.002263532794658109,-0.016048984361631713,-0.24531615753560382,0.08565279007482074,-0.13324009313293186,0.9873729481812511,-1.6322062792556535,-1.809616298561381,4.160715601233184,-2.776377498416788,-1.3481934706317347,1.836101735191915,1.0,0.48216023874536007,0.49253780635356226,0.3039207450187913,-0.6782324621621143,0.09176547305426723,-0.4355644534165263,0.5846908859770311
5.2,0.14049698880077532,0.49922779548613905,-0.33276519074811045,0.008793049090172346,-0.019674430049622958,-0.24132908607705686,0.0868090509472466,-0.1353716978513038,0.9869828081678755,-1.6308925674524806,-1.8106272763697884,4.160471192836087,-2.776750796925514,-1.3484088034129746,1.8361165000829198,1.0,0.4825686432351201,0.492950178834089,0.30406859784080115,-0.6781612175422719,0.09177631579436529,-0.43560133741921736,0.5847443421867251
5.300000000000001,0.16626357867591143,0.47326952797574035,-0.3791050847061127,0.0036758711284690733,-0.023176641533095316,-0.24272048166753968,0.09021093126201471,-0.14151292531744367,0.9857904534485986,-1.6294121554923766,-1.811639063533015,4.1602565834273975,-2.777146386527818,-1.3486429331666039,1.8361259455610572,1.0,0.4827866713074713,0.49316652233621994,0.3040995515429745,-0.6781602953718937,0.09177653495999083,-0.43560356562582675,0.5847437173890023
5.4,0.21571188782717232,0.5573808374724951,-0.3268589804125938,0.0034621756984583333,-0.015683264622005474,-0.2387748107880441,0.0934824403358043,-0.14738099071297442,0.9846294013811979,-1.6277214106486444,-1.8128666046235582,4.1600510735236735,-2.7775091472342823,-1.3489020506488245,1.836106572655526,1.0,0.4830761261577111,0.49346250365014155,0.3040764588664698,-0.6782005819097948,0.09175363737267242,-0.4355796967100661,0.5847183668571277
5.5,-0.09955485020303516,0.849577121750567,-0.38649689913891505,0.004817421216086036,-0.015691837591296883,-0.24080617566989984,0.0869910269771435,-0.13553953632539906,0.9868510606341764,-1.626189735197478,-1.814216567343939,4.159845318790229,-2.777905126611227,-1.3491205882958113,1.8361444807092833,1.0,0.4836095072993063,0.49405129417195337,0.3042345888859343,-0.6781196730240685,0.09176823220173419,-0.4355881992687265,0.5848035749498517
5.6000000000000005,0.11784581591168873,0.4048774114467931,-0.3864913335799468,-0.0022828480481573653,-0.022284609333295374,-0.2381161483587578,0.08188056879259943,-0.1262139761066071,0.9885998267362087,-1.6247797012329102,-1.8152724705138148,4.159639672709272,-2.7783075365106518,-1.3493621040277008,1.8361608355930257,1.0,0.48393280227890334,0.4944044071086455,0.3041215088895273,-0.6782038058641758,0.09174444720456469,-0.43555402383296726,0.5847351934349319
5.7,0.1239340964609407,0.6159438853505699,-0.3690756302026943,0.004330803854319661,-0.018157462554022345,-0.2428868718074034,0.0872845350221669,-0.13604412750495504,0.9867480420131544,-1.623189683404358,-1.8162324928552236,4.159377574920654,-2.7787167034544886,-1.3495710529994585,1.8361889428712943,1.0,0.4842498239413095,0.49473556804309055,0.3041145243452103,-0.6782243472084339,0.09174659317098166,-0.4355458829569876,0.5847170951275757
5.800000000000001,-0.038516002628003296,0.4274003693046312,-0.4447261749652026,0.003228904964324447,-0.016701435461881842,-0.23966686395156384,0.09268850125173443,-0.14587427890330304,0.9848962572900999,-1.6215978517203495,-1.8172229359682672,4.15918285128714,-2.7791463063295954,-1.3498146211637227,1.8361887712588256,1.0,0.48448855641261723,0.4949714549536997,0.3042235164721347,-0.6781790315303328,0.09175286067712542,-0.4355675819053505,0.5847525077699709
5.9,-0.1408329052970411,0.4072376880788757,-0.461788194338169,0.007707113908430193,-0.016081281114153554,-0.23692167613097867,0.09673901096046483,-0.15321486304422494,0.9834273917629469,-1.620144933500326,-1.8184834919371546,4.1589535954326164,-2.779588203710878,-1.350013671410827,1.8362059593200684,1.0,0.48481224995551353,0.49528403820454225,0.3043649989779596,-0.6781230801398461,0.09175196249175901,-0.43559311162131054,0.584798518011651
6.0,0.015255213037154382,0.6674394604619431,-0.45548257042020146,0.007642232344245374,-0.017172244959406332,-0.24187725376969138,0.09989426969621064,-0.158908709757525,0.9822118101628559,-1.6185208694686866,-1.819665437467412,4.158734567708755,-2.7799867729847656,-1.350213149630047,1.8362081403020232,1.0,0.48519842898636617,0.4956973419986529,0.3043893641771112,-0.6781434420083292,0.09173292171150596,-0.43557596149001704,0.5847906675960327
6.1000000000000005,-0.11775085483225545,0.2756224895711424,-0.6857288122374502,-0.005249475422464648,-0.021953700254111672,-0.23987016200297911,0.10001910806067517,-0.1591039511637626,0.9821772492801584,-1.6170784927504522,-1.820968118664562,4.158514499664307,-2.780361592225599,-1.3504383645311517,1.8362298011779785,1.0,0.4856782402677161,0.49622138506034014,0.30437068054676764,-0.6781776860132543,0.09173521767238649,-0.4355662515081388,0.5847578272921677
6.2,-0.18907151979091244,0.7702447364300574,-0.3062844459650973,0.013065568388676396,-0.017279101253895084,-0.24097766775769963,0.0979953791614593,-0.15540690657162312,0.9829769052609592,-1.6155493083321415,-1.821901524865381,4.158274140884246,-2.7807485692373928,-1.3506730551802912,1.836239275269342,1.0,0.48586747777063527,0.49642951373059624,0.3043137311367777,-0.6782251639579885,0.09172819623056214,-0.43553988875064326,0.5847234990125885
6.300000000000001,-0.049365782207883346,0.45612445880064534,-0.4157188269823961,0.0027549350640258315,-0.015414494441453984,-0.23925976808685365,0.09593087059703649,-0.15171257137228128,0.983753922033067,-1.6139768983870666,-1.8229081888526104,4.158080719857808,-2.7811645755195,-1.3509023255007349,1.8362758553481064,1.0,0.48621034248306694,0.4967471581190129,0.30440460927860974,-0.6781816765325074,0.09174554887891029,-0.43556483737621493,0.5847526317323392
6.4,0.1017305811337203,0.5812543959869677,-0.504647034331655,0.004173691750501157,-0.016464723850443983,-0.23870983699330883,0.09617846440444415,-0.15220518539167274,0.9836501181974489,-1.6123012255050388,-1.8241791282075168,4.157850151012372,-2.781576767907243,-1.3511079587921926,1.8362730788688173,1.0,0.48659678252236493,0.4971817781325432,0.3045596211155766,-0.6781112095608902,0.09173039084657328,-0.43558205314667486,0.5848239032730526
6.5,0.022108555269935326,0.6812203585234999,-0.5274835325908745,-0.0035008331799275504,-0.01496064272928989,-0.23715903177711528,0.09825276143677109,-0.15600574707532713,0.9828504118514955,-1.6109838485717773,-1.8253983337800856,4.157595547440539,-2.781968608709052,-1.351346494258162,1.8363170125024904,1.0,0.48713082024972065,0.49768514357953364,0.3045656921867629,-0.6781395443633161,0.0917580833155375,-0.4355815044350514,0.584787111273043
6.6000000000000005,-0.014010329738726374,0.854090608854113,-0.4185763868386379,0.009041972581285583,-0.01522904499406609,-0.23278922465922502,0.09932587290252982,-0.1579464672721173,0.9824393605843721,-1.6095699018778593,-1.8264926451742607,4.157377746771511,-2.7823492354795,-1.3515772899880902,1.8363137245178223,1.0,0.48744347837228225,0.4979841189322455,0.30446519837172686,-0.6781954566146992,0.09176348163120154,-0.4355596908171149,0.5847376692170598
6.7,0.16488263983019175,0.28043019036453,-0.2876447247301373,0.0021204678937297057,-0.017609763911785526,-0.23618711055145428,0.09957188876878746,-0.15835074231735802,0.9823493835677755,-1.6076952186147524,-1.8275564191102542,4.157144679928007,-2.782841641253076,-1.3518183867083948,1.8363474640329527,1.0,0.4876384893123797,0.4981874917203965,0.3044101372876939,-0.6782498492208822,0.09174826389311157,-0.43553593508902405,0.5846946616402277
6.800000000000001,-0.15275225759594588,0.683168572696839,-0.4287521676475051,0.009486206057868806,-0.01692775592722478,-0.23345445763980235,0.1001315084001925,-0.15937705544039546,0.9821257091454414,-1.6061893950023505,-1.828692984299405,4.156907209675845,-2.7832982532288937,-1.3520390559620212,1.8363073209257543,1.0,0.48819997139170185,0.49876201118797486,0.3046793759957342,-0.6781266455826579,0.0917452340371267,-0.4355960302424485,0.5847932651966035
6.9,0.14651367699222434,0.6279014658603219,-0.49999732836092414,0.005083908839786089,-0.013565665276326688,-0.23468725148104339,0.10095016354384721,-0.16092047712241467,0.9817910366763074,-1.604942762489959,-1.829823645184262,4.156643390655518,-2.7835923272725727,-1.3522682111522406,1.8363649956288826,1.0,0.48840528622246754,0.4989489381381086,0.30469115051812895,-0.6781363419107276,0.09175477398568832,-0.43559298794264234,0.5847827905179606
7.0,-0.08220072945112034,0.6912163719951184,-0.6788555335591476,0.005615162919190907,-0.012427366271543191,-0.23176882615908162,0.10054653849640617,-0.16021700946537107,0.9819471554041008,-1.603338256144074,-1.8310047588744105,4.156435542147967,-2.7839473985498424,-1.3524618485649456,1.8363736499630472,1.0,0.48855690467966406,0.4991036237118186,0.30468801884369745,-0.6781452245261778,0.09175274020073092,-0.43558754213293427,0.5847768653568526
7.1000000000000005,-0.8310849516359327,0.8904495441073988,-0.41699218460341336,-0.02041640809113305,-0.0529759911245504,-0.24457453833268872,0.10012460606606421,-0.15947970762981745,0.9821104559361106,-1.6024484634399414,-1.8315632610642925,4.156321048736572,-2.784100852508804,-1.3525847898992533,1.8363578896724913,1.0,0.4891638657614837,0.49971072855046433,0.30464888967293496,-0.6781641809706193,0.09176911507526384,-0.43558505476686327,0.5847541647825186
7.2,-0.36816273308939174,0.5398364993166522,-0.31949530271521015,0.010049939104636217,-0.021637245179667315,-0.23420584692559662,0.09794531897693486,-0.1554946094515208,0.9829631492211242,-1.6024484634399414,-1.831562873494329,4.15629256224284,-2.784133686165354,-1.3526328245746058,1.8363816717237258,1.0,0.4893526492951711,0.4999212344345188,0.30471779602834304,-0.678102310256698,0.09176734975525688,-0.43559323784690895,0.5848200932641346
7.300000000000001,-0.18512410102693397,0.8225381898340143,-0.44420669415259395,0.00991218111376397,-0.01824553150719532,-0.2350931245990021,0.09668538276660332,-0.15321740941313955,0.9834512187283118,-1.6024889535420577,-1.83158574109789,4.15631104075117,-2.784128794010254,-1.3525946720070294,1.8363599721272479,1.0,0.48936955049163383,0.49991972874142865,0.304712354071202,-0.678119264582918,0.09177559714326512,-0.43558758608623893,0.5848033495270724
7.4,-0.19469145103312635,0.8254054946437165,-0.512436999668294,0.011814075178475492,-0.01640730088645595,-0.2350069104457255,0.09649194001284835,-0.15292145748440372,0.9835163062357734,-1.6024616250373265,-1.831606706646486,4.156310916875938,-2.7841140466069794,-1.3525846640216272,1.8363768086618062,1.0,0.4893757367874709,0.49990685014990716,0.3046768060281278,-0.6781445859645284,0.09178163080237368,-0.43559180190649643,0.5847698990937437
7.5,-0.15304552471692562,0.9363148381010098,-0.6081133474794247,0.00996542800380813,-0.012729639678713234,-0.23774432604475917,0.09807474797402169,-0.15576536716031583,0.9829099019268489,-1.6025037397130877,-1.831649391549516,4.156341718501799,-2.784127659153705,-1.3525711570463306,1.836392273718707,1.0,0.4893631920509458,0.49992372226484155,0.3046721402987674,-0.6781524030093442,0.09176528610972935,-0.43558684297073735,0.5847670927716758
7.6000000000000005,-0.2449993958093105,0.6543841102286831,-0.4680849667079511,0.00890486782155689,-0.006601286961578188,-0.23170197818142177,0.09999292005333414,-0.1592254495512944,0.9821600023097283,-1.6024973227702344,-1.83163764913966,4.156323178025361,-2.7841261046746784,-1.3525778773313342,1.8363894140852886,1.0,0.4893673856316829,0.49992069135830586,0.304671553982981,-0.678145324511211,0.09176788016176034,-0.4355905219087852,0.5847721541228116
7.7,0.07070981698530387,0.6141768983628773,-0.4563820225587325,0.004399957501808408,-0.01827235505171015,-0.23565158350087212,0.1022421859594192,-0.16330179718767754,0.9812627526417568,-1.6025028455582002,-1.8316449051134802,4.156340703105327,-2.7841160346420915,-1.3525916415241674,1.836374879010977,1.0,0.4893705473400613,0.49992910186301726,0.3046365124345907,-0.6781686611263236,0.0917658232959018,-0.4355762545103097,0.5847560407962665
7.800000000000001,-0.1307661868734062,0.5924328345598171,-0.5493815756834978,0.0019297312100822858,-0.012143136763398538,-0.23803335086570887,0.1022793416519689,-0.1634099528813102,0.9812421126101527,-1.6025056872376644,-1.8316462242685854,4.156318623632404,-2.7840968571104945,-1.3525653316575317,1.8363589831294747,1.0,0.48938964911172506,0.4999022025247472,0.30464663515874113,-0.6781592726812222,0.0917815629100834,-0.43559202363003746,0.5847527122948187
7.9,0.06978151816744083,0.871240617596867,-0.48631735299897105,0.007589660079022674,-0.017227500344411305,-0.23412844543785633,0.10255091805346714,-0.1639223536830759,0.9811271997786041,-1.6025164443727808,-1.8316356144347132,4.156321722387882,-2.784110073522737,-1.3525614699053607,1.8363852500915527,1.0,0.48936905151477844,0.4999264232975043,0.3046320519033391,-0.6781709305051766,0.09176948177425023,-0.43558833305862726,0.5847438373645633
8.0,0.17804449072990286,0.8467502711057779,-0.4261341608849323,0.010574349435678766,-0.019920632649276786,-0.23165625321760255,0.10342194482359089,-0.16548677103578485,0.9807727654915619,-1.6024837493896484,-1.8316409108931018,4.156327938185962,-2.7841193709562266,-1.3525740711048504,1.8363801654914997,1.287012974938054,0.4893747126531774,0.4999115251220049,0.3046372299507563,-0.6781631410226902,0.09177446218560904,-0.43559177533316584,0.5847495254473339
8.1,0.06512787270069509,0.7219209896296296,-0.39397461378059134,0.006231970468475108,-0.013581806000776797,-0.23346942134614043,0.10377622552959959,-0.16610883679599192,0.9806314227521342,-1.6024977029724554,-1.8316368691802183,4.156327900087292,-2.784138166312754,-1.352578076184397,1.8363801303234968,2.0,0.48936945446730085,0.4999231650006647,0.3046457437943171,-0.6781588039551047,0.09175887563742074,-0.43559398270534866,0.5847553570432944
8.200000000000001,-0.05628420411140266,0.7846208346035951,-0.36898069711022613,0.006344575072509896,-0.01573923336657209,-0.23630415188475756,0.10336114598825437,-0.16532787715426744,0.9808073425467958,-1.6025043998748387,-1.8316305530412842,4.156328182653519,-2.7840899975749682,-1.3525712779834373,1.8363614082336426,2.0,0.4893676797107922,0.4999227896326037,0.3046364567355779,-0.6781677981195049,0.09176065937153659,-0.43557864986012296,0.5847560677508837
8.3,0.04883402984803539,0.6562217659935728,-0.2940817704513492,0.007687046241668067,-0.015375486139678266,-0.2342040789961654,0.10310105121851476,-0.16487241802776403,0.9809113753556991,-1.6024868062152955,-1.8316304181766474,4.156343839018817,-2.784121175805563,-1.3525794677635614,1.836382608966551,2.0,0.4893776042435524,0.4999102141031737,0.30465291025570757,-0.6781565825245249,0.09177655073498167,-0.4355893117888692,0.5847586389008254
8.4,-0.1590033531141414,0.8997509133534964,-0.5539896278533769,0.011907244879051634,-0.02083334090020992,-0.22299428070872618,0.10308994397924302,-0.16485212403842428,0.9809159030729576,-1.6025028664270653,-1.831678853299678,4.1563334465026855,-2.784094779557567,-1.3525698989575856,1.8364126097892282,2.0,0.4893660453883436,0.4999214894330024,0.3046412310674204,-0.6781662898695472,0.09175417288298815,-0.4355882849524959,0.584751657590874
8.5,-0.16387966466541226,0.8011420068588779,-0.38736337333776927,-0.0013924724922795733,-0.01258326604563556,-0.23167134442568663,0.10345312206622181,-0.1654752048184441,0.9807728148036297,-1.6024867353975312,-1.83164082839722,4.1563532991233725,-2.784116978009839,-1.3525727430926722,1.8363887726567512,2.0,0.48936437669635646,0.49992357032318385,0.30464809645790475,-0.6781625971205967,0.09175798566765564,-0.43557922786461045,0.5847620885332183
8.6,-0.20352937711936384,1.0442351535571597,-0.46034185402301886,0.01149708854506384,-0.017693053748200453,-0.24191335804587538,0.10433124166201994,-0.16706527420428544,0.9804099725740486,-1.6025091117318542,-1.8316493892968113,4.1563588088448915,-2.7841106319725926,-1.3525779116382457,1.8363738059997559,2.0,0.4893611995293938,0.49992942056479545,0.3046310135163146,-0.6781684632387053,0.0917579361705052,-0.43557656979797504,0.5847572731152748
8.700000000000001,0.007322961372083712,0.7486431990484328,-0.41198227093833995,0.0005579372977023681,-0.01704536660195715,-0.22808634788427462,0.10364395970406419,-0.16581513753729202,0.9806950304131766,-1.602528613425167,-1.8316356144347132,4.156363687129766,-2.784112623743701,-1.3525899195660294,1.8363835576799925,2.0,0.4893589309109349,0.4999331478840793,0.3046543062152676,-0.678152947162507,0.0917540472926863,-0.43558726470635545,0.584767911128725
8.8,0.016501937121118082,0.7550037124051545,-0.37447186597757165,0.0012419367163501625,-0.019795359076083624,-0.2325168325457558,0.10309554997453711,-0.16476579770167535,0.9809298542465028,-1.6025024022846208,-1.8316356144347132,4.156356222194674,-2.7841143994159654,-1.3525835534321258,1.836380061128615,2.0,0.48935398911546946,0.49993604464355135,0.30463694942386166,-0.6781698623532646,0.09175043593675467,-0.43557291954043664,0.584759546364307
8.9,0.08373446739209695,0.6593705875119813,-0.38660267821657124,-0.006872171359936824,-0.020748499393041544,-0.23199286931164803,0.10314182400235843,-0.16485549785548562,0.9809099676988107,-1.6024906207347698,-1.8316636895173368,4.1563389729236775,-2.784102170976833,-1.3525965849505823,1.8364108619828994,2.0,0.4893466491691716,0.49993971811427573,0.3046396875278579,-0.6781706034053285,0.09173947681141703,-0.4355748777506836,0.5847589477243569
9.0,-0.03315157201696746,0.5003749877951807,-0.568276448973395,-0.01413052483246113,-0.017904773468335654,-0.22596388031200068,0.10296563361941824,-0.16456919348293853,0.9809759740649875,-1.6024768592561895,-1.8316718540587367,4.156350928237403,-2.7841344260622143,-1.3526034750840412,1.8363738059997559,2.0,0.48935720520199055,0.49993038213429186,0.3046461217773576,-0.6781641298712254,0.09174945762086464,-0.43558756202181526,0.5847554410128837
9.1,0.3525874979785904,0.9263108940629361,-0.5867879805942924,-0.02244352493606441,-0.02181034846084479,-0.22516488980799945,0.1021012499147865,-0.1630630812102848,0.9813179912483354,-1.602469555735973,-1.8316549461703822,4.156352685013458,-2.784094392579643,-1.3525750737150897,1.8363691447549209,2.0,0.489363562651297,0.49991815065363926,0.304641980872006,-0.6781652347326761,0.09176728908153381,-0.43558914095358997,0.5847501854107563
9.200000000000001,-0.11610054063630026,1.7597650625282157,-0.8019049421203939,-0.072406907176691,-0.03940970642327175,-0.22161797820950524,0.10242962907645016,-0.16365446227734737,0.9811852574512974,-1.6025005528724627,-1.831662491910747,4.156354655702201,-2.784147283178809,-1.3525754854451666,1.8363947958110718,2.0,0.48937087057829853,0.49991523334009597,0.30463758428223414,-0.6781690894281442,0.09176996420340065,-0.4355790741335761,0.5847527939148689
9.3,-0.11407848574342905,1.8979747724736564,-1.1734919872431462,-0.11287880972656987,-0.03789868909016412,-0.22300473741561078,0.1025634030060318,-0.16386779319159472,0.9811350828041012,-1.6024995248563676,-1.8316535478218239,4.156339706608526,-2.784123829021325,-1.3525727430926722,1.836406790368742,2.0,0.48935444782520976,0.4999271678138128,0.30461338257210413,-0.6781833868867281,0.09176272299298727,-0.43556943433543993,0.5847445290829698
9.4,0.2702584371342991,3.032260688600645,-1.5702561467620753,-0.15549552550867146,-0.021900285325291376,-0.2309703398287335,0.10164810750527295,-0.16215553311175765,0.9815139656414396,-1.6025178614822022,-1.8316599331297816,4.1563334465026855,-2.784168859521383,-1.3525706973893359,1.8364100456237793,2.0,0.48935020929691947,0.4999413976428753,0.30459657324282335,-0.6781912697241366,0.09174264061874968,-0.4355718239966484,0.5847367576119147
9.5,-0.6047712755943666,3.0022364415844276,-1.900876526141081,-0.19331712141187377,-0.09186853718825513,-0.21917646361711166,0.10079897764825373,-0.1605920493979475,0.9818599801826671,-1.6025449241815188,-1.8316718540587367,4.156338762154895,-2.784144540826315,-1.3525727430926722,1.836397647857666,2.0,0.4893479629930136,0.49994522510355627,0.30459500693783353,-0.67819442430172,0.09174267054043958,-0.43556484199976697,0.5847382950191345
9.600000000000001,0.09187495715769176,3.5378336860741837,-2.1604943007811483,-0.2237169301094146,-0.012292543940918218,-0.22657953056678792,0.10010418894039119,-0.15937560856020025,0.9821293245623747,-1.6025227056145357,-1.8316668822274942,4.156336163103549,-2.7841435235280128,-1.352560822163717,1.836399704214795,2.0,0.4893533671437861,0.49993371420973104,0.3046096549730323,-0.6781895727474769,0.09175727540835535,-0.4355623080678884,0.5847435178065712
9.700000000000001,0.5839137005865758,3.4628083515096804,-2.105481855497554,-0.2516338191320676,-0.01669763313623739,-0.22623623423378014,0.1005607589024557,-0.16025985875375026,0.9819388115534416,-1.6025323867797852,-1.8316664337703987,4.156352084883792,-2.7841326198973597,-1.3525673228043342,1.836397647857666,2.0,0.489369994644014,0.49991750706062893,0.304605138607007,-0.6781892560454328,0.09177255976916489,-0.43557243471523815,0.5847339432376036
9.8,0.6803044092710157,3.0976050739859518,-1.5481688580657575,-0.22309505120392492,-0.008618568427667771,-0.21976798341915443,0.10024929544337355,-0.15971210295500288,0.9820599890351324,-1.6025127489750872,-1.8316664814258943,4.156344191768371,-2.784102229743337,-1.3525792913887849,1.8363964251678648,2.0,0.4893784180734567,0.4999240026583085,0.304612144788494,-0.6781800820106098,0.09177493000928702,-0.4355725655812021,0.584744113864246
9.9,0.3873592598086806,1.9925116295669747,0.21475445769781837,-0.1461569998107228,0.0056997660380401025,-0.2208124666403256,0.10032414169773726,-0.1598226547926354,0.9820342965990724,-1.6025015688516464,-1.8316900483167669,4.15635016339833,-2.7840774113940743,-1.3526089827166956,1.836404172119904,2.0,0.48938606094728665,0.499923375174396,0.3046218635483364,-0.6781664231345896,0.09177833564015574,-0.4355798383033033,0.5847540030676384
10.0,0.11856060740364918,2.020432728428469,0.8586454113194038,-0.12700470301696068,-0.013003104876049927,-0.2210417770911566,0.10060592479079508,-0.1602994318457797,0.9819277587459336,-1.6025246673514693,-1.8316470733991796,4.156326680748686,-2.7841022644370303,-1.3525902811610715,1.836393179332777,2.0,0.4893779529859838,0.4999324162336025,0.30464709423213443,-0.678147444835886,0.0917667092244732,-0.43558637635572806,0.5847729669486746
10.100000000000001,0.2465530301521051,1.9860244515930456,1.2660167965494475,-0.13502837896381215,-0.008314095932348517,-0.21636680759702806,0.1008548282024099,-0.16072897319563736,0.9818321972224648,-1.6024779861198195,-1.831671016340991,4.156364727065916,-2.7840915706778238,-1.3526032194468667,1.8363852500915527,2.0,0.4893633731057494,0.49993987459343214,0.3046370774622828,-0.6781586780337707,0.09175513265371193,-0.43558061055278036,0.5847660512971451
10.200000000000001,0.0760671338154277,1.9179328052705813,1.4054429843322,-0.13578632916769162,-0.0014091656733590452,-0.21407696102061563,0.10100999597666477,-0.16102385178237208,0.9817679277679076,-1.6024793614320207,-1.8316592420068394,4.1563334465026855,-2.78411717090132,-1.3525846640216272,1.8363899461187376,2.0,0.48937040122130143,0.4999265694447169,0.30461828166453575,-0.678175987436832,0.09175846806679588,-0.43557726570363636,0.5847479450192677
10.3,0.09656577092562524,1.8179320431889106,1.9097358939000901,-0.11082649845471704,-0.017394306275127724,-0.2185350647414544,0.1010556216732251,-0.1611190019966758,0.9817476398339635,-1.6024988622563239,-1.8316905902184457,4.156386440144635,-2.7840900418797405,-1.3525829544890744,1.8363701372248773,2.0,0.48937099269055856,0.49992615269644686,0.30462922872785153,-0.678170633416963,0.09175301131606783,-0.43558346313206553,0.584750394212048
10.4,-0.3565164299641764,1.4480363880560947,2.311500802389464,-0.08508569501334393,-0.053631089832427585,-0.22560106983146563,0.10145550044619735,-0.16181343870857684,0.9815915867084158,-1.6024866040231303,-1.831685661443229,4.156359099357911,-2.784103760802741,-1.3525948991845134,1.8363637715263381,2.0,0.4893650733940893,0.49993125132086014,0.3046172298057932,-0.6781801085494106,0.09175934496864596,-0.43557191616794255,0.5847470126684032
10.5,-0.7246085756058407,1.232768740160851,2.5518530856126005,-0.06873699681063494,-0.0942533530833431,-0.2348428570812379,0.10200100734124792,-0.1627560008120057,0.981379477298479,-1.6024874189497877,-1.8316628663099743,4.156368110889428,-2.78411402283687,-1.3525814557272542,1.8363600502907311,2.0,0.48935790566419624,0.4999444133372822,0.3046044189264895,-0.6781872549533194,0.09175009160276584,-0.43556050134470803,0.5847486789879153
10.600000000000001,-0.8178537449920699,1.1838073585301452,3.1687224635740012,-0.07521177899393805,-0.10617148331037579,-0.23120733838130117,0.10145864426265322,-0.16173657729456498,0.9816032687711265,-1.6024832311776664,-1.8316599331297816,4.156374909820541,-2.7841147178165153,-1.3526058940326215,1.836355623298012,2.0,0.4893468595152566,0.4999528017860434,0.30461049284711594,-0.6781829410486708,0.09173237312916577,-0.4355620629512452,0.5847552988287685
10.700000000000001,-1.1333460518943976,1.3082073924302928,3.346961247444441,-0.07299519948075042,-0.12238130182718303,-0.23480292020421012,0.10070942352575944,-0.16036025515968438,0.981907422905667,-1.6024906489640083,-1.8316652198526215,4.156352213106669,-2.7841289460260397,-1.3525954489362206,1.8363696013919468,2.0,0.4893415059317376,0.4999569265834411,0.3046248985875171,-0.6781706005111262,0.0917291135332527,-0.4355705151415929,0.5847638264052161
10.8,-1.1917314307835416,1.0231217999174393,3.387019307686809,-0.07786262211866625,-0.14511515535053449,-0.23762462688608038,0.10079961023400467,-0.1605593182309667,0.9818656353253871,-1.602478457484078,-1.831685578518315,4.156389503429364,-2.784145017663473,-1.35260522103942,1.8363786804113176,2.0,0.4893535385616027,0.49995449259926933,0.3046243784824608,-0.6781721448985326,0.09174006029346785,-0.4355695252198864,0.5847610554070758
10.9,-1.4033023203948218,1.090412198008336,3.422185466310157,-0.07640841381694125,-0.16016283199462036,-0.2390613507615614,0.1005265901777786,-0.1600860158674548,0.9819706803693585,-1.6024755528548904,-1.8316528877110625,4.156340491921405,-2.7840968571104945,-1.3525573036290353,1.8363787466281196,2.0,0.4893506546924354,0.4999471435497711,0.30464527752424236,-0.678164193693352,0.09174210758263625,-0.43557254056377326,0.5847677094328672
11.0,-1.4516575668947547,0.8472538471541613,3.429572408192337,-0.0790294857440775,-0.1719202797646153,-0.24031517643471217,0.10036836788954064,-0.1598143457001347,0.9820309573559499,-1.6024892803237811,-1.8316850595048533,4.15638880473049,-2.7841343812516794,-1.3525714585755106,1.8363699010675845,2.0,0.4893507702439829,0.4999651629313664,0.30464834901481286,-0.6781598859657174,0.09174819734354195,-0.4355773668903631,0.5847681547451378
11.100000000000001,-1.3062666969735472,0.9774494413024959,3.3966203896884934,-0.0754288001597721,-0.1774970303211353,-0.24224469407203642,0.10128629864559657,-0.16148611824159403,0.9816635224520064,-1.6024741647653205,-1.8316599331297816,4.156386114223157,-2.7841326198973597,-1.3525870003262543,1.8363784066194333,2.0,0.48934458780884416,0.4999556822443808,0.3046437944598196,-0.6781633869070209,0.09174573393391378,-0.43557726764109456,0.5847645550801144
11.200000000000001,-1.2922496533782877,0.8680398972784524,3.4188718093648194,-0.08515549712409226,-0.17875726178326504,-0.23863481659477026,0.10151256860737132,-0.16187721506384303,0.9815757135218092,-1.6024757078149203,-1.8316408118962864,4.15639457715327,-2.7841222249742135,-1.3525913874890092,1.836376858011374,2.0,0.4893422869693564,0.49995495727335765,0.3046410126933577,-0.6781647115793943,0.09174108743516451,-0.4355727640816732,0.5847671023876956
11.3,-1.5705387365397094,0.9228733184811091,3.475267949788737,-0.08198442733670835,-0.17252593395582697,-0.2319771034848098,0.10140000808263233,-0.16169197651756873,0.9816177175112203,-1.6024836504018514,-1.8316356144347132,4.156369120789135,-2.7840971426522167,-1.3525846640216272,1.8363615072214396,2.0,0.48935139277692086,0.49995681579416773,0.3046367308638385,-0.6781658651762577,0.09175462987488602,-0.4355613750093753,0.5847721229728745
11.4,-1.392883727730087,1.1410036646933661,3.4803102525190197,-0.07709781425114924,-0.17178045898188393,-0.2383393581928847,0.1011126816996403,-0.16120946913235987,0.9817266778909524,-1.6025024609828844,-1.831665277155484,4.156373534198731,-2.784091513084792,-1.3525780871183746,1.8364151758884535,2.0,0.4893634206321781,0.49994937429781194,0.304631485857667,-0.678164950462194,0.09176227601612111,-0.43557378153365345,0.584762742918377
11.5,-1.580979853664236,1.4630796373205874,3.4750406597824544,-0.06529919162234939,-0.16922443138761262,-0.2400346829947999,0.10079623099579373,-0.1606621494871111,0.9818490549143805,-1.6024895818985028,-1.8316599331297816,4.156382539350053,-2.784139185154619,-1.3525790558400366,1.8363546152477679,2.0,0.48936095558200454,0.49994752813146814,0.3046347840555132,-0.6781622596034076,0.0917673148595538,-0.43557621284978215,0.5847632618184124
11.600000000000001,-1.5946271813255704,0.9771823887344737,3.4398921545301158,-0.07318908861937297,-0.17142410332361482,-0.24072490488363185,0.10031253086194561,-0.15974263872355537,0.9820484784042955,-1.6024709938447166,-1.8316726886747134,4.156363411022163,-2.7841256292351764,-1.3525544443912512,1.8363663718850536,2.0,0.4893560325313027,0.4999445043790505,0.3046503276264233,-0.6781444678873724,0.09176741846126549,-0.43557845292902203,0.5847822098240226
11.700000000000001,-1.4136363487550268,0.8302260775062343,3.4640165361201496,-0.07662070516126414,-0.1795051330210262,-0.23960555013278867,0.10045663345818405,-0.16000513341428307,0.9819909152222065,-1.6024998187795665,-1.8316664252107915,4.156361913658717,-2.7841144240413125,-1.3525900928695724,1.836396542095279,2.0,0.48934863327565825,0.49995122609924203,0.3046416910436366,-0.6781625577071997,0.09174855692469931,-0.4355790973602582,0.584763710885933
11.8,-1.4350602659938423,1.0426236121711567,3.589059679817102,-0.0723868061612004,-0.180080281299968,-0.2333487450965252,0.10093653652768005,-0.16089257120040776,0.9817970067754055,-1.6024733398514652,-1.8316723713355436,4.156361189592134,-2.784138053210742,-1.352561339440524,1.8363862442055179,2.0,0.4893576753687838,0.4999468295131246,0.3046362178994567,-0.678163456108819,0.09176134976042793,-0.4355737958668875,0.5847646106278983
11.9,-1.417912320530491,1.2773710114415926,3.532215705755532,-0.06420839673720297,-0.18501184177943245,-0.2391976813733074,0.10111869130839438,-0.16118214350150445,0.9817306583902597,-1.6024951949279236,-1.8316775768278744,4.156357744735648,-2.784121175805563,-1.3525550993945794,1.836366903538493,2.0,0.4893468928698147,0.49995470376036416,0.3046066551079419,-0.6781817514539976,0.0917536048660974,-0.4355576690866601,0.5847566202178984
12.0,-1.2818115173761075,1.4048450968497932,3.6771577255606624,-0.06516255759090206,-0.18626795366087254,-0.23716194726249162,0.10053144454637943,-0.16013160850480512,0.9819626426255856,-1.6024947385800243,-1.8316720815094472,4.156357070007914,-2.7841326198973597,-1.3525549754245947,1.8363794188693132,2.300893580158566,0.48934466242223307,0.4999519847046947,0.30462935533154295,-0.678171769186892,0.09174784688595258,-0.4355672278072345,0.5847619807494611
12.100000000000001,-1.3811082455186683,1.2832763436182366,3.6293596415481337,-0.07680064395061857,-0.170113062971581,-0.23312303499949816,0.10019332693327536,-0.159522792467368,0.9820965636956004,-1.6025099464737413,-1.8316306742464747,4.156364269101313,-2.784116340508559,-1.352577392416714,1.8363637261410097,3.0,0.489363791939795,0.49993901141903124,0.3046463621368924,-0.6781615669715101,0.09175819050783725,-0.43558082996002634,0.5847620577027958
12.200000000000001,-1.0647965010353353,1.5891669120106635,4.712260208103663,-0.08424340247719954,-0.15447317098317337,-0.23376444894347048,0.10001928380020304,-0.15920488903039512,0.9821659011433088,-1.6033716425256537,-1.8309819162823349,4.156393392106721,-2.7838977219122967,-1.3524339155406861,1.8364083188479063,3.0,0.48933923753373404,0.4999204280224408,0.30464038058280996,-0.6781655081596322,0.09174460006400009,-0.4355830697886339,0.5847579509636396
12.3,-0.757231602217621,1.8933961929405176,5.2105695719364675,-0.10566954914318331,-0.13810888289516848,-0.22236262832649076,0.09971117239523332,-0.15868643888679418,0.9822808159463359,-1.6049733492485316,-1.8299051851644057,4.156544425142708,-2.7835201646492234,-1.3522597085239825,1.8363499385882227,3.0,0.4891728096375031,0.49968879105722713,0.3046254939518584,-0.6781718425718479,0.09176944607001769,-0.43559352143008573,0.5847389202018661
12.4,-0.5328971547301625,1.6501493899782695,5.128705146575521,-0.12104737776788087,-0.13180398962472548,-0.22568117842570168,0.09931108263282591,-0.1580304024492541,0.9824269993725742,-1.6063343515834834,-1.828800418745307,4.1568744364826316,-2.783080474303892,-1.3520198321837706,1.8363553514919306,3.0,0.4888961717628721,0.49933571401035215,0.3045536288666433,-0.678197536979567,0.091799486473786,-0.43558943217190316,0.5847074496687696
12.5,-0.7120274354541821,1.7469493160329441,5.224928937184448,-0.12548680154013522,-0.13394060259957014,-0.2188218536767844,0.09900450180405168,-0.157529444348448,0.9825387690159278,-1.6078363805992095,-1.8276336395815673,4.157137385256636,-2.7826508575357507,-1.351827922626105,1.8363254074409252,3.0,0.48860786449565313,0.49908552374606757,0.3045556040601188,-0.678171852293558,0.0917895701217924,-0.4355829959170032,0.5847435910222093
12.600000000000001,-0.8466136704383979,2.061384536133772,5.045107745856526,-0.11368673935177821,-0.12770767074883366,-0.21983662423740746,0.09982382787036546,-0.15892489319959605,0.9822303201681395,-1.6095978066467422,-1.8265304721251292,4.157352924346924,-2.7822726547148577,-1.3515715796105416,1.8363458407186244,3.0,0.48817440961746156,0.4987008586260171,0.30454939359752164,-0.678152306270793,0.09178010212810261,-0.4355767233675697,0.584772417623584
12.700000000000001,-0.7105164201153582,1.6495008314933406,5.1121489834195195,-0.13836348771459073,-0.13788398667266988,-0.21084652277385832,0.1019366590104638,-0.16278507661935931,0.9813816367293313,-1.6111105331448803,-1.8253903843468238,4.157593250274658,-2.781893781958895,-1.3513596693622034,1.8363239796898247,3.0,0.4878136034152049,0.4983204952289396,0.30443227713603493,-0.6782128631147935,0.09177124118610616,-0.43556631384251976,0.5847113286421219
12.8,-0.6910851592651468,1.5276736748479018,5.120479128492586,-0.1606541565442948,-0.14465942367125526,-0.17719545726782027,0.10174053274981479,-0.162390457384134,0.9814672692403951,-1.6124662109809116,-1.824185180756367,4.1577611964900685,-2.7815052471556605,-1.3511492372568583,1.8362480566071386,3.0,0.4875348327442236,0.49804471193189254,0.3044172580843069,-0.6782046840017937,0.0917652776453371,-0.4355673701426012,0.5847209646350635
12.9,-0.5866352309594821,1.7164768642895423,5.172951751713096,-0.14823767717676278,-0.14427164300371328,-0.17771226463015452,0.10241436058569686,-0.1636089268310867,0.9811938586112062,-1.6140336843773582,-1.8229905341712154,4.157988511035247,-2.781107013043592,-1.3509085740814,1.8362426531959748,3.0,0.48710536448494646,0.49762194221778155,0.3045040513894947,-0.6781340933139897,0.09176681178215348,-0.43559029526461607,0.5847855148786063
13.0,-0.5761947730228686,1.6380930357961918,5.1479844943588144,-0.13456929037629528,-0.1386787275146995,-0.18376428615595208,0.10304648055289177,-0.16475222774782025,0.9809373507305695,-1.6157932939834683,-1.821991929734151,4.158240795135498,-2.780670138254591,-1.3506798937666764,1.8362378559806443,3.0,0.4867536959493257,0.4972459978707465,0.30448173983246896,-0.67813738377382,0.09175609649228847,-0.4356012563415954,0.5847752157526176
13.100000000000001,-0.7249128175863027,1.6143235100635607,5.218686758291225,-0.13620311020649759,-0.13922191583539514,-0.18760459320245643,0.10270947121977998,-0.16414890321018932,0.9810735972484006,-1.6171778672130395,-1.82098614707467,4.1584553718566895,-2.780249900627479,-1.3504476834643546,1.8362417904197748,3.0,0.4865105751912527,0.4969678203961285,0.3043631542398413,-0.6781919072645044,0.09177200630054666,-0.43558285206779446,0.5847231949948558
13.200000000000001,-0.9136125196015209,1.6101114025824017,5.220744632855131,-0.14594979694632274,-0.13799643469290232,-0.18842841494161203,0.10238457536553619,-0.16356981546990734,0.9812045218140785,-1.618669511983683,-1.8196953727126686,4.158629895541229,-2.7798100910582484,-1.350201669900929,1.8362421989440918,3.0,0.48613204536850346,0.49662813174407094,0.3042623374066289,-0.6782227563769503,0.09177129219292902,-0.4355561359679704,0.5847074269088288
13.3,-0.6796207464361621,1.6564350084233912,5.337162146113703,-0.15271047086878853,-0.14613547501314386,-0.1825221136091512,0.10240049961631632,-0.1636726447831764,0.9811857100148719,-1.6202891809380613,-1.8184530028604398,4.158912181854248,-2.7794255942781825,-1.3499673048602503,1.8362329260531371,3.0,0.4857044350860933,0.49615968147760503,0.3043327489625506,-0.6781511350737723,0.09178793200537366,-0.43560039960227365,0.5847549105417332
13.4,-0.9740842413250302,1.7996255045329577,5.261030531404102,-0.14329196632639565,-0.139680766726223,-0.18436851506440372,0.10247072452381502,-0.16380071336784524,0.9811569992079965,-1.6217470169067383,-1.817342382423518,4.159181428563795,-2.7790646583167664,-1.349727251458937,1.836193561553955,3.0,0.4853580912195937,0.4958228477791063,0.30434646142917043,-0.6781329781138319,0.09177912871424243,-0.4356010902046919,0.584776834133675
13.5,-0.8684703473970268,1.8496220491227928,5.2443786502472465,-0.12265777684216735,-0.14239052848386158,-0.17688671353807303,0.10258041178862007,-0.16393663111607304,0.9811228373632607,-1.6232945065418511,-1.8163682541379418,4.159355640411377,-2.778670411235679,-1.3495058523679655,1.836193561553955,3.0,0.4849786247803128,0.49546243820437286,0.30429938336995904,-0.678152517336309,0.0917712582760215,-0.4355837966851524,0.5847682921039841
13.600000000000001,-0.6884586445109886,1.6193162257626486,5.353330597895441,-0.12750922280919239,-0.14687664897404717,-0.15905913515166317,0.10215693077628255,-0.16324311170467307,0.9812824804707642,-1.6248599501735894,-1.8153647783456321,4.159625331666046,-2.7782884745470358,-1.3492902252349883,1.8361639156308183,3.0,0.4847275575592413,0.49520106017377163,0.30418410779380106,-0.6782025695473803,0.09178145517355785,-0.4355708758050161,0.5847182666002542
13.700000000000001,-0.8620720294602073,1.659687283705961,5.422078725306351,-0.1291248805624688,-0.1517693115151681,-0.1404045662196364,0.10219139093170737,-0.1633093098084975,0.9812678211233719,-1.6263352539149527,-1.8140526161317603,4.159841656503569,-2.777906676150684,-1.3490439051253906,1.8361035583590373,3.0,0.4843411624926957,0.49478972695666223,0.30407547879455477,-0.6782405533421547,0.09178268783934918,-0.43557139323718885,0.5846736281110398
13.8,-0.9633832014124265,1.8222401324552915,5.379188139526395,-0.14747248432660898,-0.16024962136881216,-0.14512310069915077,0.10266280578833412,-0.16410017325229967,0.981086886459502,-1.6277884965973328,-1.81271380251282,4.160087006553742,-2.7775248980440588,-1.3488396831140979,1.836115211097853,3.0,0.48396433144305295,0.4944208368506277,0.3041299973402438,-0.678197568785553,0.09176206089737209,-0.4355845575063706,0.5847169188036305
13.9,-0.9676026610020876,1.7652716319743265,5.322075754794913,-0.14723948314386875,-0.16185126273466116,-0.1480392839335709,0.10236033054485451,-0.1635044443868913,0.9812175900602627,-1.6293880495306323,-1.8116120567195075,4.160320913705548,-2.7771257451596902,-1.3485981518900407,1.8361334800720215,3.0,0.48368198960540565,0.4941381232945486,0.30423635708164887,-0.6781339002931756,0.09176068920979565,-0.4356012351081644,0.5847785505310112
14.0,-1.1461883199941068,1.9445014890135688,5.363536370888186,-0.13270171074812354,-0.1490691388755174,-0.14982397098976893,0.1020578553013749,-0.1629087155214829,0.9813482936610233,-1.6308837786530326,-1.8106770814191917,4.160555362701416,-2.7767295464956225,-1.3484023004688188,1.8361031215713337,3.0,0.48324408536225744,0.4936975484996407,0.30421978263959554,-0.6781292675522652,0.09176115888552441,-0.43559259110840953,0.5847902878643555
14.100000000000001,-1.1733703278137497,1.937860030504491,5.513666269774561,-0.14120871038654315,-0.1581118156031313,-0.14451405472294454,0.10194422886429434,-0.16268724919902972,0.9813970734004736,-1.6322392799958525,-1.8096494967825412,4.160788340898091,-2.776308504103833,-1.3481790555552462,1.8360971304862557,3.0,0.4828757978276022,0.4933471880614494,0.30403842081491134,-0.6782032964562053,0.09175347148458207,-0.43555635605815046,0.5847326310749303
14.200000000000001,-0.9029234223299419,1.7408970112209055,5.549357177940446,-0.16730877061366395,-0.17211707918497726,-0.14136691655102887,0.10202532751829717,-0.16285169110208075,0.9813613801074503,-1.6338712516487275,-1.8083457731646335,4.161033771953638,-2.775937471100283,-1.347987476979391,1.8360857963562012,3.0,0.4825642628285315,0.49302796054620884,0.30403063809970704,-0.6781834144063881,0.09175682253150305,-0.4355646223056926,0.5847490074713382
14.3,-1.0371959846535759,1.7893319903030114,5.573441613621661,-0.16403358622974998,-0.1754866640745768,-0.14364937336070333,0.10214532203053753,-0.163038024275932,0.9813179065296701,-1.6355512488368835,-1.807054668882517,4.161274453042336,-2.775567655931953,-1.3477595488177698,1.8361106117947774,3.0,0.48220563887205903,0.49266276048315183,0.30405725127539257,-0.6781541652505296,0.09174933113841052,-0.4355708050066541,0.5847794987983649
14.4,-1.1056170788950688,1.8367672500207515,5.654688981969653,-0.17062329825742964,-0.17759657567954346,-0.1361338175638255,0.10226598794888918,-0.16322473532891138,0.9812742986514534,-1.6369294549295428,-1.8059489871628827,4.161501407623291,-2.7751867344813412,-1.3475129674979482,1.836038225658442,3.0,0.48191861067000197,0.4923620015345541,0.30405185082545866,-0.678151990446283,0.09173878881774357,-0.43557065323633176,0.5847837878389528
14.5,-1.0473433543663462,1.8167616597403784,5.720956509423294,-0.16689874838250443,-0.17536893681869356,-0.1192644976233377,0.10238665386724083,-0.16341144638189078,0.9812306907732368,-1.638298909686383,-1.8049872210837012,4.161729934481722,-2.774803728317848,-1.3472660515985062,1.8360180653027875,3.0,0.4815154132897012,0.49195387768640714,0.30403422004874486,-0.6781470322912064,0.09173331917778953,-0.4355735596085675,0.5847882308299105
14.600000000000001,-1.087501780791947,1.7707144921912303,5.622270913470228,-0.15696670501072588,-0.1737440235990409,-0.11387357419441232,0.10231629393497138,-0.16330905841766086,0.9812550682372133,-1.640033575422637,-1.8038820397133444,4.161951059077309,-2.7744748729640913,-1.34701700049347,1.8360216348206648,3.0,0.4811449076031901,0.49160182095615457,0.30398812008287185,-0.6781503270441573,0.09172622780241664,-0.43557820894595606,0.5847820593644049
14.700000000000001,-1.0750852890812082,1.7178353435555,5.602206571731019,-0.1641418205599561,-0.1758141337162172,-0.11519565353932128,0.10224109039082978,-0.16319934011867557,0.9812811695234342,-1.641597145490466,-1.8027149325639205,4.1621669761012035,-2.7740686851177587,-1.3467869934049141,1.8360072437002077,3.0,0.480771002518358,0.49118908636605924,0.30384802013808615,-0.6782124597675943,0.09174230943048753,-0.4355544645676291,0.5847251631934068
14.8,-1.049817525370012,2.169138379470462,5.83139267771255,-0.17356528164442228,-0.18659027809144635,-0.113219961291965,0.10214105030641327,-0.1630665996957158,0.981313640273074,-1.6428808737922103,-1.8014476968943682,4.162424682734457,-2.773670148385491,-1.3465416425970733,1.835983812390788,3.0,0.4804598736279782,0.4908389263787394,0.30382745479105533,-0.6782098557966658,0.09175911784995744,-0.43556422801513495,0.5847182732438271
14.9,-1.1066522718456566,2.1705797966876745,5.942827263862076,-0.17686140561037741,-0.19085655460933668,-0.10741990237276544,0.10204019079530602,-0.16293309970871636,0.9813463211690655,-1.6443316783274295,-1.800354111973373,4.16264009475708,-2.773305237868543,-1.3462898411479005,1.8359833719154748,3.0,0.4801807380595665,0.4905645568551167,0.30392448293955665,-0.6781402329059227,0.09176336251982295,-0.4355922884757013,0.5847774517146312
15.0,-1.343044741836311,2.0170162134111096,6.121956434507881,-0.1482915880431482,-0.19506880340081045,-0.10960264863824933,0.10207350726170022,-0.16297697696876215,0.9813355693548529,-1.646055663987347,-1.7993089456720788,4.162868406267254,-2.7728912134333092,-1.3460865189039117,1.8359673537637569,3.0,0.4798334493962643,0.4902296879446237,0.30394681523785594,-0.6781055859715653,0.09176947431641269,-0.4355969057097897,0.5848132296673068
15.100000000000001,-1.4983022862760977,2.0133867146748043,6.205482509761053,-0.1533938888724427,-0.1999167934185705,-0.10754174817891914,0.10211272511995236,-0.16302865571951428,0.9813229072624582,-1.6475892485727683,-1.798186534717056,4.163089207793514,-2.7724860331308174,-1.345839802418844,1.8359122951972089,3.0,0.479442258457346,0.48982772449717554,0.3037979950664077,-0.6781664328829637,0.09176133086237476,-0.43557197064448294,0.584762520907457
15.200000000000001,-1.1107438652545818,1.7075347404271672,6.257819607734053,-0.16734859893251594,-0.2133374461065792,-0.10001504107082614,0.10157734724926645,-0.16206371210581694,0.9815378940550579,-1.6485345819809645,-1.7973910749307334,4.163207338176033,-2.7721897521320757,-1.345675584088506,1.835915285753802,3.0,0.47904287067147616,0.48939668410435444,0.3036769256663983,-0.678214876184688,0.09175480659543919,-0.43555795519436324,0.5847177993317181
15.3,-1.3277425784585757,1.3900679615859015,5.683912907589141,-0.15627535681542065,-0.2190246539188762,-0.10095976068013915,0.1014776993078441,-0.16190980774909378,0.981573552265213,-1.6485251165519255,-1.7974220714964808,4.163219096552322,-2.772214725586504,-1.3456989618359005,1.8359245039115446,3.0,0.4788663068526306,0.4892003728660129,0.30373388803899587,-0.6781642770498261,0.09176863772670524,-0.43558328687035414,0.5847554451755796
15.4,-1.5643024705106514,1.8014752809521806,5.505867062355028,-0.15394435809994456,-0.23058578655762635,-0.10436783175258824,0.10198379235795546,-0.16287946258508396,0.9813605680685726,-1.6485300064086914,-1.7974294344314938,4.163230905337426,-2.7722109663395647,-1.3457045910435543,1.8359546474437358,3.0,0.4788257495273148,0.4891306850902706,0.303711166048289,-0.6781701020231148,0.0917760380788786,-0.43559577352470824,0.5847382265970928
15.5,-1.899080721754909,1.7885472984953663,5.416852612025612,-0.1439686614440814,-0.22051059955127372,-0.10536859704100708,0.10233316835338814,-0.16352406331235428,0.981217488354619,-1.648548637555817,-1.7973729894034969,4.163238048553467,-2.772229301782824,-1.3457210699664515,1.8359279906638577,3.0,0.47881618719984675,0.4891378067870158,0.3037188733846106,-0.6781654171531267,0.09176942447429845,-0.43559607509226894,0.584744473315817
15.600000000000001,-1.6460952041658727,1.8583159864991121,5.472270957993957,-0.14296964929964653,-0.23545422362970214,-0.10791389372307221,0.10247209743329018,-0.16373216633552393,0.9811682796159292,-1.6485571337461236,-1.7973604252505277,4.163238048553467,-2.7721810174126738,-1.3456979951497274,1.8359186860360523,3.0,0.478800801959521,0.4891349607952197,0.30374078251019404,-0.6781547910044536,0.09176078430154576,-0.43559590177530516,0.584758281906832
15.700000000000001,-1.6003019292585279,1.5984573218285003,5.405556699625745,-0.14620302455977016,-0.2380166817500696,-0.1131289204740283,0.10241455244321379,-0.16357335182845606,0.9812006072395091,-1.6485972847316195,-1.7973302990577784,4.163252184245735,-2.7721926174559535,-1.3457145666678285,1.8359123153409682,3.0,0.47878805163481997,0.4891280015597146,0.3037207722944894,-0.6781654964355132,0.09175626076198512,-0.4355817003039508,0.5847571550786461
15.8,-1.8755381748998703,1.622238216752856,5.392453684803596,-0.14295113289294245,-0.23264697345593777,-0.11341663580920237,0.10208310147461679,-0.1629030148331174,0.9813466053189147,-1.6486208106868574,-1.7973619900145472,4.163209062829496,-2.7722109237488306,-1.3457014850178226,1.8359293937683105,3.0,0.4787761406102586,0.48913930237601816,0.3037066625485174,-0.6781770171719166,0.0917419676647448,-0.43557380719077554,0.584751915976456
15.9,-1.5410017439938137,1.839793261658133,5.382515807413661,-0.1369626784370668,-0.24384771173668326,-0.1145288586969298,0.10196704459307308,-0.1626931704414677,0.9813936433088157,-1.6486208598877872,-1.7973708237794745,4.163247235668991,-2.772183232477309,-1.3457060618734686,1.835927334655158,3.0,0.4787692812678925,0.48914883825984085,0.30372322417739867,-0.6781700542843095,0.09174112047708345,-0.4355683014865144,0.5847642251589767
16.0,-1.6250924176737407,1.8364101241425523,5.2490001965285735,-0.13502617507150452,-0.241060206995772,-0.11286039572601693,0.10216534986501564,-0.16315540321099065,0.981296251582602,-1.6486024856567383,-1.7973543997683803,4.163227214145638,-2.77219668798974,-1.3457275736914922,1.8359231501922715,3.0,0.47879770860377024,0.4891294104945978,0.3037256751748691,-0.6781589785350827,0.09177343138127006,-0.43558040026823863,0.5847629879078546
16.1,-1.5712707389861031,1.54707080916313,5.2087732092239545,-0.14273153093323004,-0.24196768852617476,-0.11260444109306533,0.10203121758861272,-0.1629534076614867,0.9813434482909413,-1.6486087752049112,-1.7973337463641166,4.163239278141728,-2.7722045383849085,-1.3457103313339018,1.83597121748126,3.263685757461661,0.4788026426593395,0.4891201588629804,0.3037256924165377,-0.6781600671372814,0.09177569995662496,-0.4355831976775163,0.584759285637141
16.2,-1.6917912526983563,1.8148446241171123,5.234653025907501,-0.1343740594375443,-0.24143855540528258,-0.11584968157672054,0.10139385767055996,-0.16174593588896122,0.9816095158738016,-1.648633949983179,-1.797355404411046,4.1632418701767335,-2.772191103753766,-1.3456972281085413,1.8359404912452546,4.0,0.47879053123673426,0.48912657633688217,0.30372205058051277,-0.6781651615081605,0.0917622563011562,-0.43557632084944053,0.5847606097801018
16.3,-1.8678379588845058,1.8512795444850378,5.029585051252772,-0.13292689004664654,-0.23850714813131438,-0.11733397863760528,0.10144721373461363,-0.1618198005972242,0.9815919416395871,-1.64863243645715,-1.7973271932117432,4.163247223019517,-2.77219798752698,-1.3457168806823274,1.8359162920524532,4.0,0.47878551373242195,0.48913032743338763,0.30370157700209416,-0.6781787028368357,0.09176517893407496,-0.435566039086147,0.5847521052108742
16.400000000000002,-1.6229913175737942,1.3623278795379223,4.923627228465604,-0.14629226659520989,-0.24625678055552638,-0.11385465861059926,0.10158551084785114,-0.16205123812536582,0.9815394864497282,-1.6486288838002874,-1.7973430672526083,4.16324021459996,-2.7721945034291275,-1.3457091490374964,1.835927787868456,4.0,0.47877854568338135,0.4891435528378305,0.3036874807807406,-0.6781845274427867,0.09175783494624257,-0.4355606217546577,0.5847505376140141
16.5,-1.3053965348948422,1.8801441952175704,4.853922607262661,-0.13838470627447236,-0.22472483980580216,-0.11608105488537797,0.10202090541995351,-0.16290601605147154,0.98135250072539,-1.6486036970990599,-1.7973500690855921,4.163244903634448,-2.77218021968984,-1.3457025576134765,1.8359272962905355,4.0,0.47878766859056543,0.48912432246663057,0.3037185898539979,-0.6781642090045075,0.09176719792592235,-0.4355756427888372,0.584761444025858
16.6,0.05176083737226468,2.7816198342895455,3.9131802341395083,-0.18982129603431133,-0.07657855745059476,-0.09566921931417138,0.10181914829325633,-0.16258256829535148,0.9814256818559751,-1.648629743539427,-1.7973552709904907,4.163232638572373,-2.772169815880043,-1.3456609884845179,1.8359686676306495,4.0,0.47879772005617777,0.4891133937354936,0.30371720387196777,-0.6781702619295473,0.09177418899939499,-0.4355872458842167,0.5847446838500678
16.7,0.0888314991970073,1.2408364543450339,2.44046925055815,-0.08971896763922292,-0.06391399190739959,-0.09946906766549649,0.10048240108287022,-0.16014378601634216,0.9819652608783033,-1.648626186344866,-1.7973197220559585,4.163262502988711,-2.772204574161484,-1.3456970923683658,1.8359356632362585,4.0,0.4787882082877716,0.48911745444684884,0.30373618137004355,-0.6781638013371539,0.09177008466005876,-0.4355896639858073,0.5847510194485843
16.8,0.15989214787050174,0.22510510438470288,1.4584669591656791,-0.010167769958511111,-0.04874444078803752,-0.09339339102413124,0.100278512954377,-0.15972813750131745,0.9820545481466156,-1.6486448811549765,-1.7972954961636398,4.1632203625697715,-2.7721758714336104,-1.3457036404775151,1.8359475204368043,4.0,0.4787824219328085,0.48912043564628044,0.30375529321509437,-0.6781544374207904,0.09176153945663379,-0.4355886526732317,0.5847639733647745
16.900000000000002,0.1872794157886326,-0.20821429809429343,1.0355081270690056,0.030823509932880067,-0.03142966420419576,-0.093756213025956,0.10054820241232808,-0.16019419224224496,0.98195043446745,-1.6486139297485352,-1.7972979210861042,4.163229235152294,-2.7722045383849085,-1.345706264824626,1.835945514255448,4.0,0.47877532795978683,0.48912092918091254,0.3037592306142226,-0.6781476629468463,0.09175857143267907,-0.4355815629874334,0.5847775763431677
17.0,0.3088733688392524,-0.24305377740319212,0.9736360160368667,0.03462820934911517,-0.02515985120150225,-0.10128959383209528,0.10135529912222517,-0.16168489119854995,0.9816233925892082,-1.6486428585501758,-1.7972910909206614,4.16325669795764,-2.772145560219978,-1.3456927062673292,1.835932121372155,4.0,0.4787740735288104,0.4891168565861642,0.30375233361692544,-0.6781409010416489,0.09176698097978862,-0.4355808841492116,0.5847846038500558
17.1,0.24519340614763127,0.3785910977885448,0.6783377041926659,0.04068119258045133,-0.025384766196321764,-0.10752177843257857,0.1018212612118302,-0.16252284923247845,0.9814368838739851,-1.6486380486874967,-1.7972840964094439,4.163244319477597,-2.7722104295791232,-1.3456852100723433,1.8359476412953557,4.0,0.4787856106640745,0.48912050779388855,0.30376899768218807,-0.6781347220364506,0.09176611786272239,-0.43559665121817726,0.5847801602555103
17.2,0.06006203726793398,0.4246234765582253,0.47881351373106096,0.03472571201346747,-0.0203277900328264,-0.10910798865590754,0.10200632854696796,-0.1628386582045238,0.9813654589961046,-1.6486387252807617,-1.797326227227682,4.1632408052519505,-2.7722045383849085,-1.3457091490374964,1.8359280705530383,4.0,0.4787767185784285,0.48912272179110794,0.30377009214007555,-0.678135636429303,0.0917593517277456,-0.4355932048467828,0.5847827287689308
17.3,-0.04728737347618042,0.3812157279256435,-0.01444612462151651,0.016312082281546715,-0.027840674988916743,-0.10654628553191138,0.1017648759493526,-0.16236809231248472,0.9814685138629107,-1.6486501693725586,-1.797326227227682,4.1632548560707265,-2.7722236174715533,-1.3457043862662308,1.8359252316512424,4.0,0.47877290341185325,0.4891251002300153,0.3037361686722191,-0.6781599897376681,0.09175423580273184,-0.4355784073002875,0.5847663119785611
17.400000000000002,-0.18496851041865753,0.6845363642624189,-0.5439921744906709,-0.006248742071495393,-0.03485008614756117,-0.10628715015080077,0.1017657137830546,-0.1623596634491378,0.9814698555703669,-1.6486841452877805,-1.797338148156637,4.163224624624012,-2.7722164593138636,-1.345712575987646,1.8359417915344238,4.0,0.478767938835033,0.48912658187953223,0.3037448489163975,-0.6781583102381619,0.09174512550121026,-0.4355776211205157,0.5847702747068118
17.5,-0.12994588336348264,0.806341330733171,-0.42833192534656545,-0.017078394520484902,-0.029102257909909297,-0.1069384102536322,0.10189501843365545,-0.1626655182662303,0.9814057502940495,-1.6486501693725586,-1.7973152360005245,4.163236669593706,-2.7722276907629384,-1.345696538628661,1.8359179496765137,4.0,0.47877830666916377,0.48911413993334407,0.3037595337861613,-0.6781509751947203,0.09176253027820123,-0.43558325028075384,0.5847718571838477
17.6,-0.008937675868973469,0.5196359230865341,-0.3737862470981241,-0.013564478973482594,-0.03177696352531292,-0.1074281460779215,0.10209361384270017,-0.16307062699576017,0.9813178215098193,-1.6486290083202424,-1.7973418327902841,4.16324072935906,-2.772168298760885,-1.3457118298430903,1.8359312110082657,4.0,0.47879625974632745,0.48912051139207136,0.30373899618547645,-0.6781581916471753,0.09177032219639356,-0.4355861491798582,0.5847601061191379
17.7,0.2727350546669886,0.3580007607484723,-0.32592416258709134,-0.019259562493097914,-0.03797979461171044,-0.10617311344948084,0.10241412125559483,-0.16359228804604903,0.9811975094096014,-1.6486240040752924,-1.7973424225721917,4.1632357223035505,-2.772183022776915,-1.345716226540126,1.8359344309316892,4.0,0.47878718943194676,0.4891285701015588,0.30372751177635987,-0.6781667944939743,0.09175030048644736,-0.4355830130867857,0.5847556069988993
17.8,0.11486900201805635,0.6767982197013327,-0.47758428889276644,-0.007992954749944233,-0.028441021771313166,-0.10914983421561911,0.10260304454358364,-0.16390271977246676,0.9811261343443007,-1.6486303844747452,-1.7973476178556187,4.163219402924886,-2.772205633836094,-1.3457264827053363,1.8359201405788843,4.0,0.47877900780406646,0.48912659410345183,0.30373283892005803,-0.6781577881874337,0.09174180463035628,-0.4355866195566601,0.5847646983762742
17.900000000000002,0.06321817757696409,0.44011189214257096,-0.45676305447502685,-0.017807236101934003,-0.034288623347764335,-0.10800816736059561,0.1024697068224069,-0.16369583244444103,0.9811746103497071,-1.6485995028052793,-1.7973555594718904,4.163206823999122,-2.7721726139934573,-1.3456853071795862,1.835915749754026,4.0,0.4787824067011301,0.48912028030146737,0.30373862554564657,-0.6781551341097225,0.09175208610908937,-0.43558893803696247,0.5847644361921183
