xiamingqian9007/apple-picking-rnn/final_data/grasper_20191127_134637_noimg.csv
,/manipulator_wrench.fx,/manipulator_wrench.fy,/manipulator_wrench.fz,/manipulator_wrench.tx,/manipulator_wrench.ty,/manipulator_wrench.tz,/ground_truth.x,/ground_truth.y,/ground_truth.z,/joint_states.elbow_joint,/joint_states.shoulder_lift_joint,/joint_states.shoulder_pan_joint,/joint_states.wrist_1_joint,/joint_states.wrist_2_joint,/joint_states.wrist_3_joint,/mode./mode,/manipulator_pose.x,/manipulator_pose.y,/manipulator_pose.z,/manipulator_pose.rx,/manipulator_pose.ry,/manipulator_pose.rz,/manipulator_pose.rw
0.1,-0.01592723326920194,0.5842114562712689,-0.00027003096839008783,-0.0060664422046582,-0.0005033078795884232,-0.022226059003882002,-0.11742714694773375,-0.3656593562635556,0.9233114185442063,-1.606576036809073,-1.7300787792398005,4.180441030878497,-3.0658866367735804,-1.3297124830930827,2.7223931640572085,1.0,0.45437469006340686,0.4642203160158351,0.3159819861852291,-0.6343458958181658,0.39427928742158935,-0.14417689593872915,0.6491241411675008
0.2,-0.1218168511760875,0.163553283405814,-0.024741774395986765,-0.009865257040828742,-0.0029650624235332502,-0.023341999304563352,-0.1175131686905996,-0.36588633292644734,0.923210618501864,-1.605362806615713,-1.7313493115251253,4.180198114793979,-3.065958699469489,-1.3299330091757833,2.7223704689373216,1.0,0.4544117605028223,0.4642593789674664,0.31597839403643535,-0.6343404334205647,0.3942801646242208,-0.1441836380091828,0.649127448843557
0.30000000000000004,0.06124767399859983,0.7918407739879876,0.26472589243806666,-0.012860497792840812,0.009139410099234694,-0.008087694492729376,-0.1175429383780967,-0.3658872423384915,0.9232064684874631,-1.6015726850137413,-1.734882572267934,4.179370342970906,-3.06608164007554,-1.3306526364721056,2.722275150600217,1.0,0.45476805384359237,0.4646204385224904,0.31592135171807356,-0.6343312687899839,0.39429443556952926,-0.14418819461267934,0.6491267241829839
0.4,0.11471249440322982,0.5197606542624362,-0.021148828934917763,-0.003239865128795684,0.0035192058681847065,-0.003982221251417297,-0.11773224701287115,-0.3663863224684648,0.9229842799804705,-1.597811804826443,-1.7385645347915348,4.178577899932861,-3.0662480793394984,-1.33154676432405,2.722157207027182,1.0,0.45542020897240854,0.4652493452780809,0.31577664335268635,-0.6343369067987271,0.39431723433990856,-0.14420545642098842,0.6491035308130461
0.5,-0.0313577221705738,0.4758635062211316,0.08461937330719169,-0.01004615188757501,0.002561416966247815,-0.008710715272784261,-0.11756102134237197,-0.36604758300188567,0.92313984119177,-1.593962009280716,-1.74228450574973,4.177808731436754,-3.066435492376245,-1.3325260321246546,2.7220606643558316,1.0,0.4565069208910469,0.4663848692847281,0.315622857282675,-0.6343363548135297,0.3942869229943364,-0.14419217277654456,0.6491254336624943
0.6000000000000001,-0.07341264573703486,0.0024411179785955722,-0.30421887154005745,0.0040356598019495845,0.0008835162162682219,-0.0007279854759872945,-0.11690904474069824,-0.364581849980764,0.9238030266015651,-1.5902174841137002,-1.7456229000534866,4.176982381367455,-3.066689880564913,-1.3331343522113726,2.7219387342040533,1.0,0.45783603073212487,0.4678119438937585,0.31529588015952514,-0.6344161616546428,0.3942628572405488,-0.14412805390681344,0.6490762954452609
0.7000000000000001,-0.17517021486094575,0.3128478393140799,0.07506879782114056,-0.0031534874929969314,-0.0031162103207056256,-0.00459353584332652,-0.11678646479018401,-0.36405588129368155,0.9240260304167182,-1.5867003340747474,-1.749055407790244,4.176361560821533,-3.0668529209300845,-1.3337418871856745,2.72188461040265,1.0,0.4585058827067181,0.4684473855323602,0.31519064545730374,-0.6344099778797632,0.3942686381667363,-0.14416444783971674,0.6490707456847947
0.8,-0.23543256212947625,0.32203891246277283,0.011276253762403175,-0.019193598925085344,0.0022968122840602992,-0.009959508757191522,-0.11696805232671496,-0.364432350531053,0.923853959977942,-1.5833135181478826,-1.7522214501118134,4.175625166884556,-3.067084576385512,-1.3344909678262085,2.72177126322846,1.0,0.45953827856975327,0.4695079599884191,0.31495619184994283,-0.6344163459283263,0.3943206111637277,-0.14420919925597003,0.6490230061256431
0.9,-0.1771045300299766,0.424435877265638,0.08284665479568175,-0.0027119300951796155,-0.0008685764387721892,-0.003627511938459156,-0.11751217047906139,-0.36595367238806037,0.9231838474029229,-1.5798492536718365,-1.7551810655356308,4.174900599131136,-3.0672978589772155,-1.3352445144447393,2.721705481974409,1.0,0.46082638813656246,0.4708327137950405,0.31479952532123484,-0.6343923222796943,0.3942999759023913,-0.14417868436537726,0.6490658036059356
1.0,-0.15905610159144923,0.579485709102435,0.08669114956844871,-0.009757062857091544,0.0037245720526727336,-0.004312106087817011,-0.11707106604066676,-0.36473527333318234,0.9237205383757199,-1.576658061752855,-1.7581620036696473,4.1742634773254395,-3.0675311871869524,-1.3359637225145018,2.7216073795683142,1.0,0.4613391441707757,0.4713430227793157,0.31477079695740096,-0.6343668215482423,0.39427402081411045,-0.14417814839338278,0.6491066120104702
1.1,-0.1478106712407128,0.6088100132182965,0.19633190576484544,-0.004997379303593393,0.0024280303335515036,-0.010314948598098376,-0.11653458968937953,-0.36325166271432485,0.9243740508302026,-1.5735619207772102,-1.761069284004456,4.1736066865657575,-3.0677276391799166,-1.3365054961234386,2.721545537137195,1.0,0.46246700273682095,0.47244722201334804,0.31468284903565563,-0.6343171666766036,0.39425962226233574,-0.14416572315414428,0.6491666400704588
1.2000000000000002,-0.012218879926370258,0.4527749265085636,-0.02278356779049438,-0.005188346994336791,-0.0007706937993626015,-0.009311339997221182,-0.11685500974090898,-0.36407733426901007,0.9240085291353285,-1.5704213083749965,-1.763930668105037,4.1730523109436035,-3.0679377214802814,-1.3370320378595912,2.721484123606517,1.0,0.46293150440928676,0.4729722533915874,0.31459288762683874,-0.6343222367365469,0.39425538635459006,-0.14415254749459488,0.649167184446931
1.3,0.10092748264763758,0.3818138130873606,0.12087972705535344,-0.011611482876029259,0.0005295825244728594,-0.009790125736798931,-0.11728190598056917,-0.36514743710249026,0.9235321341775395,-1.567657144794417,-1.7666011360882625,4.1724221156098915,-3.068170209924215,-1.3375360980680457,2.721408245845399,1.0,0.46417312903572794,0.4741815020583305,0.3143906396674916,-0.6342971686343379,0.3942806476934654,-0.1441946798836583,0.649166979297417
1.4000000000000001,0.015140255186091457,0.4299125648396196,0.0007151403117611364,-0.00391459056645851,0.0016179617971584198,-0.012388392438299927,-0.11773297476407023,-0.3662179153799133,0.9230509861963478,-1.5647601411801644,-1.7690963336441503,4.171826721672985,-3.0683786547120686,-1.3381481639010189,2.7213319554376327,1.0,0.4647196707113108,0.47470518434465997,0.3142962361766182,-0.6342832431016372,0.3943017850391216,-0.1442180741245696,0.6491625504688573
1.5,-0.08587621649586463,0.7232135048289912,0.025150229680813815,-0.0011146001189574315,0.0023194592862358725,-0.014404686709419088,-0.11744478196077726,-0.36552010018476494,0.9233640194071583,-1.5619521535428844,-1.7718797261240542,4.171348124394326,-3.068602224389547,-1.3387182271057856,2.721290037740925,1.0,0.4654611640132575,0.4754122300230202,0.3141655547100924,-0.6342930145251375,0.3943126854379559,-0.1442311688353146,0.6491434724032281
1.6,-0.09609712458890744,0.5201773118901807,0.09283890036319727,-0.01054392871658449,-0.002652410809491491,-0.010164644510083127,-0.1172353454239164,-0.36509765268820904,0.9235580508339187,-1.5592389159404416,-1.7743091132207256,4.170894442973617,-3.068797486573135,-1.339318813229141,2.7212042808532715,1.0,0.4664503741287024,0.4764948278778257,0.3139427752276515,-0.634343854957161,0.39428576105179597,-0.1441847006580439,0.6491204698713833
1.7000000000000002,-0.03743040660508859,0.16886488213992207,0.17687455447397685,-0.01535992530605007,-0.005828647684322631,-0.014107190924021025,-0.11732880813364967,-0.3655474916130134,0.9233682549417694,-1.5565771011949536,-1.7766461147098904,4.170411609829301,-3.069033751799377,-1.339764594839341,2.721148944675093,1.0,0.46688702188458736,0.4769863732946717,0.31383350981748087,-0.6343655939646078,0.3942745918623036,-0.14415235784832112,0.6491131928504564
1.8,-0.027830410096938266,0.46896299182964907,0.1969752666001084,-0.007379236596979935,-0.003102357062301464,-0.014370089117672508,-0.1175436605863789,-0.36624592898581126,0.923064090434284,-1.5540245445124636,-1.7792124828711118,4.16990274620458,-3.0692604115055016,-1.3401843958697561,2.7211033092285315,1.0,0.4675561862953658,0.47769171504474073,0.3137757910174218,-0.634349620082923,0.39425446293342126,-0.14414404049414525,0.6491428760663969
1.9000000000000001,0.17046661343134112,0.2859294421264566,0.009730502938099392,-0.011597950679661254,-0.004506995082225058,-0.012905634372989475,-0.11804345603331871,-0.3675128449668319,0.9224958747359963,-1.5515587466777092,-1.7811076892834108,4.169422049248575,-3.069491048852438,-1.3405921464653592,2.721027023485339,1.0,0.4685092074999621,0.47869461516902956,0.31348851004194,-0.6344005402940975,0.3942784373815555,-0.14416923690993877,0.6490729538498134
2.0,0.021703575879010673,0.48233188904571345,0.08735600201421484,-0.011628339476976859,-0.0013245511274785023,-0.019810846891520892,-0.11850047725995985,-0.3687031471466586,0.9219627123870137,-1.5491066748143871,-1.7835088375120767,4.16903829574585,-3.069719453851217,-1.3410070168951003,2.7209858149891746,1.0,0.4688783779818064,0.47899191866433277,0.3135116420509046,-0.6343365715936519,0.3943037643181621,-0.14418317938298855,0.6491169895838131
2.1,0.08897545837315143,0.23891559649265975,0.16980412998170727,-0.005198462728000078,-0.0076887126215685895,-0.01814528313307653,-0.11878297896665471,-0.36956248843775386,0.9215823111369702,-1.546990727625067,-1.7855137024388665,4.168558597564697,-3.0699558029503353,-1.3415034361386577,2.720939835015767,1.0,0.46983478088934943,0.480043585139092,0.31330386393531884,-0.634381960514063,0.3942818812539186,-0.1441918240241486,0.6490840039423198
2.2,-0.10743388811117907,0.5271137335632707,0.062123792918729215,-5.392476726187069e-05,-0.006844681494318786,-0.01246003057220486,-0.11844690115470759,-0.36861398626845193,0.9220047636917329,-1.544518676716734,-1.7872767804265028,4.168145814768971,-3.0701338492263437,-1.3419316450702112,2.720879585355117,1.0,0.47026330440092884,0.48045645513224533,0.31322053403649064,-0.6343861102634563,0.394285638639102,-0.14417146506240938,0.6490821881160473
2.3000000000000003,0.07196880767884638,0.6604854938939722,0.18115455551699514,-0.002614886221675482,-0.0030683350578432785,-0.010672770890280459,-0.11804078553014415,-0.36747017124050874,0.9225137299159112,-1.5424974775686537,-1.7896062290871897,4.167691550292043,-3.070379790106624,-1.342371761218049,2.7208447456359863,1.0,0.47092236381686764,0.48107514846822447,0.31335091911397217,-0.6342771551921882,0.3942449561110708,-0.14418011187489674,0.6492114450023404
2.4000000000000004,-0.09859901035043188,0.7265649734686965,0.0722494076792813,-0.0009319295477298212,-0.00035812961798974857,-0.016614918941916943,-0.11774612696723952,-0.3666716696482649,0.9228688772737049,-1.5402289391917974,-1.791364561179178,4.167290716356312,-3.070523878137106,-1.3427624477936169,2.7207584317916385,1.0,0.471424236720123,0.481566662718449,0.3131514382804443,-0.6343326557951215,0.394267244163778,-0.14419229326908348,0.6491409743139087
2.5,0.016330047352819437,0.24207281408442816,0.02524499715841616,-0.008894012330789325,-0.002264312356896973,-0.014666836521086149,-0.11735589428857426,-0.36554594583735384,0.9233645579740974,-1.5381244575763262,-1.7931614919035737,4.166904926300049,-3.0707521570835543,-1.3430891586389895,2.720716163836264,1.0,0.4720626321025004,0.48221072123361086,0.3129763611549357,-0.6343635789461981,0.3942847422293424,-0.14417852230419154,0.6491031855243755
2.6,0.05970390341319632,0.4180720938380648,0.01583871601760657,-0.013523557229897768,-0.002196469657965378,-0.011012346860758639,-0.11675760618881581,-0.36370789153869454,0.9241661658969322,-1.536320686340332,-1.7950993577425918,4.166545391082764,-3.0709601308618195,-1.343458464332017,2.7206883430480957,1.0,0.4724614161279214,0.4825986670052683,0.3130160622725311,-0.6342945586710608,0.39428461059171543,-0.1441781516937013,0.6491707936013538
2.7,-0.19898990463665492,0.7516693575040114,0.0176545486656926,-0.0005683300524960569,-0.0025556383828799372,-0.014826480934367548,-0.11699077387160099,-0.3642974295751069,0.9239044791867178,-1.5342351372905225,-1.7967940769591273,4.166269779205322,-3.071168545082905,-1.343742076126173,2.720623833505911,1.0,0.47300295090351396,0.48314816801830685,0.31279834097649845,-0.6343600561861522,0.3943080370542593,-0.1441868615965996,0.6490906253928195
2.8000000000000003,-0.1880016011317551,0.49882961000263853,0.06685920774599174,0.0018434446635065963,0.00042165107868440826,-0.01400347797466994,-0.11671708129798516,-0.3635008136217838,0.9242455229252834,-1.5323223794239886,-1.7984268463230186,4.165895235223141,-3.0713632867591416,-1.344079319630758,2.720592975616455,1.0,0.47349967625764694,0.4836676402473192,0.3127823102327433,-0.6343215646600805,0.3943033432645192,-0.1442029660923807,0.6491275149520083
2.9000000000000004,-0.08104223820290798,0.39628203494392855,0.15129465924480423,-0.001786896886715988,-0.0017731550283154956,-0.016685891170487386,-0.114735999727936,-0.35794464224337846,0.926660658982848,-1.5304930668417487,-1.800152228937782,4.1655795579214185,-3.0715654099512086,-1.3443882606507687,2.720605346587964,1.0,0.4741503888037141,0.48435209614558494,0.31268264359374887,-0.6343168339359082,0.39428810316684987,-0.14419453289499828,0.6491432681387109
3.0,-0.10428229187003979,0.6279920495183725,0.11149490802609241,0.0020380422243081314,-0.0038004213459950247,-0.01660617198112075,-0.1148361586722067,-0.3582399592348054,0.9265377608621496,-1.5286864720443014,-1.8016625942588171,4.165304702275882,-3.0717393459678015,-1.3447143837679594,2.720526176935544,1.0,0.47447164042618734,0.4846733075022865,0.3125799865310151,-0.634348576833384,0.39429921570987414,-0.14421153004665704,0.6491017225070667
3.1,0.04745134561307587,0.562584589313819,0.10670421418788945,-0.003437200234166662,-0.004375461497857369,-0.014294029458640192,-0.11550677270699651,-0.3601391328226791,0.9257192033465184,-1.5269829016686545,-1.8033988602667954,4.165034770965576,-3.0719205818496333,-1.345059302527648,2.7205089825553475,1.0,0.4750212872543207,0.48525912691766576,0.31257217694085504,-0.6342927063662954,0.394281822683083,-0.1442013294134179,0.6491691486412683
3.2,-0.18795068910285614,0.4387424664759577,-0.04497358479338126,0.0020821304202101798,0.0009209634684265136,-0.016994292610707513,-0.11531896491910874,-0.3596682579699807,0.9259261428040647,-1.5251991651311763,-1.8048329742925897,4.164759159088135,-3.0721502218320365,-1.3453248463233907,2.7204673192754636,1.0,0.47536071573958605,0.4856482713308306,0.31242414537895874,-0.6343666800749935,0.3942788473464428,-0.1441837868136132,0.6491025661371846
3.3000000000000003,-0.38560422999575417,0.8115137605088377,0.051940355511683314,-0.010732239955917879,-0.008577306865285943,-0.023903467888396274,-0.11538137737705946,-0.35989418423063524,0.9258270022872765,-1.5236535983771855,-1.8061083300166283,4.164435863494873,-3.072337824508322,-1.3456240791770169,2.720400634963777,1.0,0.47597264371657033,0.4862709049895616,0.31232810623893187,-0.6343473915312077,0.39428556629936096,-0.1441761841485846,0.6491190237467228
3.4000000000000004,0.048441036649284785,0.47664964571658885,0.20088363120197664,-0.0096091483099386,-0.008084403026188323,-0.016275634145080896,-0.11688762836817121,-0.3641234011846106,0.9239826511132607,-1.522150800309398,-1.807621341826173,4.164215273613279,-3.072493692437643,-1.3459100832037545,2.720398229902441,1.0,0.47628015444022415,0.48657295651921945,0.31230004601785544,-0.634341061864369,0.39428054094656695,-0.14417864221127405,0.6491277157800156
3.5,0.024075919292698304,0.3706143139202334,0.0728976315301366,-0.00762732222002117,-0.002122144603021986,-0.016745893276554992,-0.11707553194172185,-0.364785748877008,0.9237014874856302,-1.520503044128418,-1.8091614819887918,4.163928889309068,-3.0726550343690895,-1.3462041806930494,2.7203695099612317,1.0,0.47675928194381945,0.4870393313510421,0.3121635337802743,-0.6343716534335074,0.3942908539647374,-0.14417394830698438,0.6490925977311492
3.6,-0.12508938425645477,0.5009967338311809,0.0016751832478255277,-0.0008094291429955457,-0.001488745365197553,-0.01797251733763056,-0.11672252307112262,-0.3638974892595536,0.9240957236702895,-1.51895573321172,-1.8102118495493775,4.163699020832633,-3.0728537044920863,-1.3464095971612255,2.720309927014337,1.0,0.47703576803021674,0.4873817159273427,0.31208403711398613,-0.634397078649486,0.3942829872093106,-0.14414969498150057,0.649077913686054
3.7,0.04147886151700081,0.457672332139034,-0.2134932502378762,-0.006820385925495026,-0.003461704322227114,-0.012564296814094385,-0.1160631543867767,-0.3619020362052374,0.9249619120410162,-1.5176877975463867,-1.8113638631015472,4.163411274380154,-3.07302250484609,-1.3466781089164885,2.7203032166869554,1.0,0.47741079772168493,0.48777332030073384,0.31211110473215525,-0.634340342448026,0.39428916010165393,-0.14414622290344442,0.6491303833529317
3.8000000000000003,0.003646247289421714,0.2764012494420338,0.10034212350359906,-0.00982907574576172,0.00208545638606317,-0.018251390147687726,-0.11603584703791882,-0.36181241652179574,0.9250010817687424,-1.5163698622551318,-1.8125838522591318,4.163192750137343,-3.073233982682706,-1.3468549186097472,2.7202673373375155,1.0,0.4778600313724161,0.48817801357728724,0.3120838007976831,-0.6343265385503882,0.39427451004579495,-0.14416405494235196,0.6491488107371147
3.9000000000000004,-0.23183312646576493,0.48184789190073174,0.20548944890103116,-0.00043898838112376923,0.0022982834926416305,-0.020085764190427183,-0.1162412002224025,-0.3624243303504228,0.9247358275620171,-1.5147710118923952,-1.814067250975088,4.162972927093506,-3.0733530518394208,-1.3470844462444498,2.7202862704810347,1.0,0.47809504033780936,0.48841782939778405,0.31200786732176733,-0.6343536738421649,0.39427134105253214,-0.1441713370187055,0.6491226014319832
4.0,-0.05588053758691508,0.6315031207753646,0.07741192746289699,0.0015758748545890142,-0.0037384700555624676,-0.014264404872296021,-0.11626138188106835,-0.36242214573272,0.9247342388545347,-1.5133922437073262,-1.8152307530332286,4.1626961484630005,-3.0735114480821406,-1.3473001219865977,2.7201915737271087,1.0,0.47844942727494655,0.4888031311207977,0.3119317187665399,-0.6343640013782714,0.3942647169619615,-0.14419093949973677,0.6491121780404651
4.1000000000000005,0.08432301197247258,0.4900007200936305,-0.028237221719173138,-0.0007584929377067399,-0.002538837449575824,-0.013754821915085754,-0.11620897977251582,-0.3621792460348735,0.9248360020805424,-1.5121603952551754,-1.8162490058245326,4.162434101104736,-3.073712172280928,-1.347532688211202,2.7201643658686274,1.0,0.4789504152248443,0.48929469985317714,0.3118221745706357,-0.6343560747542811,0.3942939000914704,-0.14418745004579975,0.6491029733580707
4.2,-0.01685577657412401,0.6258149297889305,0.14614033077056426,-0.0037615977251702886,-0.0009443412454460541,-0.021632571572776746,-0.11634987171763843,-0.36247941738732836,0.9247005091949048,-1.5108547700857897,-1.8173428748099802,4.162182331085205,-3.0738750896849574,-1.3477652671367195,2.7201623690178454,1.0,0.47915038606946353,0.48945862301710014,0.31180574350243984,-0.6343487344067861,0.3943144456070491,-0.14419798085755908,0.6490953269425973
4.3,-0.02807881760088842,0.570796505515375,0.23658767210673606,-0.0016016557922494353,-0.0036436844817110932,-0.01746253087705222,-0.11656998268207407,-0.3630021592493473,0.9244677800201356,-1.5091947486099688,-1.818676423723479,4.1619163290968215,-3.074033573227242,-1.3480064636628384,2.720137999821635,1.0,0.4796428678958628,0.4899038479763759,0.311790303863311,-0.6343183814585108,0.39430224173083506,-0.14421851148818945,0.6491278410714059
4.4,0.0667198430139081,0.588082901298731,0.21257892293240585,0.005090773574638465,-0.001237984829075023,-0.02055144890324101,-0.11678543174349099,-0.3635965926804677,0.9242068023908274,-1.5078210580744713,-1.819961000637597,4.161711240967277,-3.0742029564941604,-1.348239444154563,2.7201196359824356,1.0,0.4799027164472726,0.49017796894359245,0.3118115930047312,-0.6342812763038514,0.39429442953399446,-0.14422155399466982,0.6491681667581843
4.5,-0.04059797401128169,0.4229042168218407,0.21364853677098722,-0.00298791728985097,-0.001086056452020646,-0.01715784180958993,-0.11699884592583104,-0.36422231884191003,0.9239334945631293,-1.5067014694213867,-1.8212624213508364,4.161509303213044,-3.074337965467962,-1.3484700361834925,2.720080990096473,1.0,0.4802309959118681,0.49053821028556366,0.3117349791640325,-0.6342918322112531,0.39429246718715627,-0.14421873203614513,0.6491596716058718
4.6000000000000005,0.012627040275100518,0.3891152620766902,0.1924669086669642,0.0011730042369694498,-0.00240506676323127,-0.018014397893357237,-0.11707188169909213,-0.36446726180523104,0.9238277878874015,-1.5053098170521015,-1.8222713534958659,4.161259174346924,-3.0745275869781614,-1.348718052000432,2.7200405566456074,1.0,0.4806008961964615,0.49092582451257205,0.31148020926039327,-0.6343874587235474,0.39432070668655206,-0.1442084740123392,0.6490513450533247
4.7,-0.010049791968981786,0.4321221437153879,-0.0931592726132848,0.0036373391485329523,-0.006531178218604922,-0.018699037524533998,-0.11708149499687884,-0.3645401682481045,0.9237978028274126,-1.5037622451782227,-1.8233831311413908,4.161092022747069,-3.074703355828756,-1.3489245791553757,2.7200284004211426,1.0,0.48103684966415605,0.4913701380836887,0.3115190963394328,-0.6343365918814258,0.3942926945695128,-0.1442111431750243,0.6491174819657247
4.800000000000001,0.06361729085657969,0.47077578370825857,0.12116861612253194,-0.0023187314142459614,-0.004724726000636377,-0.014962356698662074,-0.11707326995497062,-0.36455083552335793,0.9237946229672542,-1.502337231621898,-1.8247616420258639,4.160825905242376,-3.0748828224725,-1.3491494554887675,2.7200045585632324,1.0,0.48122977556822055,0.4915764553600733,0.3116125722394459,-0.6342756154592724,0.3942593617672389,-0.1442077608754544,0.6491980599138746
4.9,-0.012954704182142854,0.5745656294586494,0.14237302612489153,0.002429896233964013,-0.003710074977889519,-0.016835686418086835,-0.1169827196327879,-0.3642742643556845,0.9239151511217758,-1.5010601638297874,-1.8260410887443876,4.160607045901101,-3.0750645937078027,-1.3493751117619925,2.719972902524191,1.0,0.48176012374563854,0.49214606742592903,0.31141580271336833,-0.6343149415181019,0.39429465938255404,-0.1441785871738406,0.6491446769017198
5.0,-0.0785649166524976,0.5661145841234827,0.274463268755371,0.001142233038547572,-0.0015092662169471842,-0.016418850588504702,-0.11695526830441061,-0.3641968225369526,0.9239491274719565,-1.4996690022232582,-1.8271655898019314,4.160419940948486,-3.0752429648782553,-1.349598232899801,2.7199559211730957,1.0,0.4819847885693179,0.4923501906083539,0.3113058479447138,-0.6343589319963477,0.3943061719167865,-0.14421160007133327,0.649087361292491
5.1000000000000005,-0.2467477217326076,0.5388561583149363,0.23370105043669623,-0.000566091869502996,-0.0002238117692482972,-0.017243711295520745,-0.11719151781063737,-0.3649606203511425,0.9236178287861035,-1.4982245497447213,-1.828340658408847,4.160167175451644,-3.0754243336119593,-1.3498311262109752,2.7199341532262507,1.0,0.48223740078209665,0.492646581801647,0.3112586070042741,-0.6343665812026645,0.3942977137847196,-0.1441871717026764,0.6490904506105213
5.2,-0.3073691042528882,0.562440305289551,0.21631181669504823,0.0012146544006512812,0.0009152255476727717,-0.021611219245490722,-0.11717393918958878,-0.36497211152248593,0.9236155182775794,-1.496846186589267,-1.8295306546203742,4.15994119644165,-3.075631535396587,-1.3500347519439646,2.7198913351123304,1.0,0.4826090196350686,0.4930434586596329,0.3112677349191223,-0.6343388842806572,0.39427093070109914,-0.14418849058562455,0.6491334934174168
5.300000000000001,-0.16372293655678535,0.4782935105112877,0.08709970421586677,-0.0009078494599733524,-0.003697747719729839,-0.02139966940703329,-0.11747008693451236,-0.36575343381747744,0.9232681465376285,-1.4954593758736514,-1.8307262485797957,4.159724712371826,-3.0757913233545326,-1.3502682788115241,2.719848155975342,1.0,0.48311839610950513,0.49354193105955235,0.3112141847684364,-0.6343087163038192,0.39428647951738705,-0.14419131796790685,0.6491529005661643
5.4,-0.2124290887336096,0.6817711079156353,0.02819557828146274,0.0020860847096034283,0.0017123082183464675,-0.01860904028280635,-0.11781227531789337,-0.36661806273118164,0.9228816846879845,-1.493972651848827,-1.8319544669101375,4.15951763857368,-3.0760054967482513,-1.3504662029992163,2.71982848220538,1.0,0.4834876912427036,0.4939046508001492,0.3111377875405594,-0.6343194977979485,0.39428958088328014,-0.1442015289637174,0.6491382134528608
5.5,0.0015291476837386853,0.7529552862107924,-0.02786690217899091,-0.0005207092779442053,-0.003951376168240319,-0.015290482616274016,-0.11703922867874936,-0.36448227289567176,0.923824542240915,-1.4926333257262743,-1.8331737866747029,4.159295356532081,-3.0761899219895934,-1.350689713154928,2.7198280867236795,1.0,0.4836572445783314,0.49410066476760955,0.3111246007725142,-0.6343088986613644,0.3942867016547231,-0.1441943161962368,0.6491519214744309
5.6000000000000005,-0.0764345219449698,0.7519316547418746,0.2865519455928579,-0.0015630598573600912,-0.0011958107473996398,-0.022927075899349135,-0.1166897684006614,-0.36354973991462125,0.9242375612342919,-1.4913184044960448,-1.8345173823715735,4.159103523620705,-3.076359002046306,-1.350908822400382,2.7197781909791034,1.0,0.4841190699376647,0.49458904684636135,0.3110161908173619,-0.6343377679662042,0.3942835265635454,-0.14418777067928645,0.6491270935639689
5.7,-0.046593079439436746,0.3730056692417994,0.07837047083852192,-0.01154154627571607,-0.000502222506651996,-0.024741511778929828,-0.11663038082979509,-0.36344119940676045,0.9242877458224794,-1.4898335312490907,-1.8356106111087225,4.1588616371154785,-3.076575802318801,-1.3511093298541468,2.7197367123718847,1.0,0.48430754012563465,0.4948008619842066,0.31093914819352536,-0.6343582361712388,0.39429935559873525,-0.1441805397034442,0.6490990820721907
5.800000000000001,0.09054347674030015,0.5979485871029544,0.17095535508323687,-0.000819015217319765,-0.006958669693333211,-0.013347035523969436,-0.11662250882754492,-0.3634033661647249,0.9243036207518285,-1.4882820043644958,-1.8367414977885388,4.158620934005496,-3.076775501527183,-1.351360311348406,2.71973166258338,1.0,0.48481374825031814,0.4953257242225828,0.3108731001164196,-0.6343547448052105,0.3942822195421346,-0.14417878589562821,0.6491132927260903
5.9,-0.015209792764574598,0.2578522938480201,0.1313166102453481,-0.0066075931752918385,-0.0026838865786390385,-0.015168682403692865,-0.11666650666792969,-0.36346865633379327,0.9242723286780942,-1.4870179079647328,-1.8379054738585194,4.158427038061168,-3.0769896801610273,-1.3515895048724573,2.7197131917801314,1.0,0.48505465244480833,0.49557630271920367,0.3109477825228085,-0.6342851948690238,0.3942717639261649,-0.1441756915152363,0.6491882914198455
6.0,0.10521146470198549,0.3803764606806251,0.26434148596124085,-0.00950241121507708,-0.004328819134247644,-0.019067789372272215,-0.11690408007709648,-0.36419947383632856,0.9239540648306164,-1.4857684768158825,-1.8393700075554436,4.15814135805827,-3.077165234911107,-1.3517824020326932,2.7196937230669884,1.0,0.48549677047665224,0.49599135575612197,0.3108476454509048,-0.6343234167809546,0.39427253203831725,-0.14419106723501054,0.6491470631013116
6.1000000000000005,-0.09854681022945153,0.5979670587957912,0.2199722027440423,-0.006804977921802423,-0.00044602945497285667,-0.0234917861074112,-0.11714165348626328,-0.36493029133886384,0.9236358009831387,-1.4841950914343112,-1.8406216106810511,4.15803014305761,-3.0773408815973244,-1.3520453611956995,2.719649681771491,1.0,0.4856906150115338,0.4962089810052823,0.3107047333470464,-0.6343839654867248,0.3942875905687129,-0.14417880925779292,0.649081467319675
6.2,0.017468391331240313,0.7471848025816075,0.2093677159552407,-0.003171138128028738,-0.004164472462017728,-0.023035066396893046,-0.11707401037230564,-0.36475829839985513,0.9237122167875743,-1.4826258621123956,-1.8415950921642121,4.157745838165283,-3.0775618780383693,-1.3522569086200895,2.7196202278137207,1.0,0.48607501504925454,0.4966206271094014,0.310456014897145,-0.6344639025906564,0.39431678585352387,-0.14418253111250529,0.6489847659426002
6.300000000000001,0.03168913357111792,0.7221514296066883,0.10040225272089302,0.011832584550872815,-0.011473743335068513,-0.02409198937980357,-0.11677238919535564,-0.3638942137084101,0.9240911928188019,-1.4813784925159195,-1.842689651138998,4.157521729295288,-3.0778266392149867,-1.352490504608083,2.7195963859558105,1.0,0.48642725687478455,0.4970127425333778,0.3106761882769417,-0.6343216436390875,0.39424996854929933,-0.14417595941424272,0.6491658551070487
6.4,-0.39367664475969666,0.413867200307947,0.02945875578366071,-0.0007309142398583286,0.0018606050537874948,-0.024894550624998766,-0.11665252026025237,-0.3635705090192789,0.9242340958750951,-1.4800716442246584,-1.8439461193480433,4.157306983908271,-3.0779905891616757,-1.3527554045123933,2.7195676936905855,1.0,0.4869246629989333,0.49744342036460154,0.310612988701717,-0.634328195532223,0.3942780113409412,-0.14418459891507893,0.6491405021731157
6.5,0.03845583081361703,0.3035107455963505,-0.038966690329718986,-0.004462097805318261,-0.005280168551956373,-0.019629995419607988,-0.11667604834737282,-0.36367314780967636,0.9241907444935384,-1.4784418170987723,-1.8454137622823727,4.157070968090241,-3.078180183212949,-1.3529510204553123,2.7195520619190434,1.0,0.4870740843482529,0.4976077049571478,0.3105768677045215,-0.634336960062112,0.39427210088014086,-0.14417316060101867,0.6491380680017399
6.6000000000000005,-0.272746165457106,0.4842317450438518,0.11171359542965847,-0.003764543129613446,0.003309519550809956,-0.021294317169940038,-0.1165124575667534,-0.36319997334255827,0.9243969359970529,-1.476964914688957,-1.8465208433787914,4.15682226426486,-3.0784036121764125,-1.353192142603656,2.719506216015416,1.0,0.48761654006386296,0.49820102157193497,0.31039862633979404,-0.6343658030323964,0.3942677620575209,-0.14416401702603412,0.6491145476263295
6.7,0.06058184622290637,0.4433155997797452,0.15296885443705927,-0.011847790801930883,-0.004337308023733013,-0.022741877857296276,-0.1161957882301108,-0.36225573648037473,0.9248072740143524,-1.4757432927436278,-1.8475519375398521,4.1565542088890925,-3.078603933598483,-1.3533962662819914,2.7194762229919434,1.0,0.4878682607529263,0.4984276703817267,0.3103735911836124,-0.6343522324603756,0.3942814869805241,-0.1441693319466344,0.6491182927040537
6.800000000000001,-0.07937266161655351,0.20731051134255998,0.22249815949495183,-0.007984130711162774,-0.002900168558193386,-0.020386962984526,-0.11609905559411923,-0.3619263368023528,0.924948813891864,-1.4743691656185356,-1.848668339359089,4.156326285047694,-3.0788480244078578,-1.3536298910724085,2.7194472435739443,1.0,0.48821324392015436,0.4987379933744838,0.31039346201132906,-0.6343219062105001,0.39426501271689973,-0.14419353339868005,0.6491525583210959
6.9,-0.24579153364099224,1.809285445361676,0.13642459324675849,-0.03606838432643043,-0.00246034369395679,-0.007375236433332107,-0.11618041981871366,-0.3620978109894504,0.9248714886844344,-1.4730820755937406,-1.8497958308869908,4.156164819539739,-3.0790465053720935,-1.353797534350144,2.719421229989967,1.0,0.4886429821230727,0.49914478304770804,0.31033643842709924,-0.6343224931168581,0.3942840523967182,-0.14418274637775313,0.649142816642535
7.0,-0.11697849073249889,0.26497860427458403,0.217864228200507,0.014909848758759054,-0.007185208041873451,-0.02337772764835634,-0.1159946652015396,-0.3616139065655243,0.9250840316499359,-1.4730755738109163,-1.8497836355513884,4.156162511896586,-3.079070414472436,-1.3537978462227338,2.7194031584361005,1.0,0.48883463876775834,0.4993593506254377,0.3103584108638799,-0.6342982880665167,0.39427179502347565,-0.14418341805326101,0.6491737636128955
7.1000000000000005,0.15868978156878646,0.28565806632909824,0.11359204914443838,-0.01341987285507168,-0.001522016120175467,-0.023279290886469815,-0.11587487004815986,-0.3613055046836667,0.9252196125515053,-1.473078727722168,-1.8498326900053954,4.156168397088609,-3.0790494920132114,-1.3538073063739289,2.7194266638061593,1.0,0.4889284215702453,0.4994811227913907,0.3102566979477399,-0.6343475176741964,0.39427608429758,-0.1441732781208612,0.6491253053513144
7.2,-0.11393414362287815,0.26034122466362664,0.21111753920298904,0.00031364181173124334,-0.0007462781971503943,-0.019907404355997804,-0.11581768519695262,-0.36116307505366846,0.9252823861859931,-1.4730660268212945,-1.8498335670727006,4.156172479477638,-3.0790774050123484,-1.3538087050067347,2.719439151028957,1.0,0.4889426273336405,0.49948372548794223,0.3102311141268043,-0.6343528201087552,0.3942836845214134,-0.14417573700352326,0.6491149610044271
7.300000000000001,-0.03849182988472888,0.3814363852807594,0.3218598896905808,-0.006854603949497296,-0.0028340563377804713,-0.02008209955202982,-0.11593676115049878,-0.3614430831671568,0.925158070930367,-1.4730846345432014,-1.8498432579311395,4.156172512683866,-3.0790495181237354,-1.3537901370961758,2.71940976040767,1.0,0.4889472001427708,0.4994742102033599,0.3102397407502731,-0.6343516997375076,0.39428767601597825,-0.1441748319571108,0.6491138323993663
7.4,-0.1887346978392181,0.47300236462286704,0.20345282912321933,0.0041345803977355135,-0.001981750953953828,-0.023086285400708936,-0.1160531075573061,-0.36171570153557275,0.9250369807161013,-1.473035676004359,-1.8498150310912074,4.1561582200547305,-3.079050680200094,-1.353791959079851,2.7194093294162243,1.0,0.48894411328508053,0.49947445553356656,0.31025435593695194,-0.6343374967620087,0.394285340692841,-0.1442012621823867,0.6491232597137817
7.5,-0.1260520284239402,0.32875184821821557,0.1102585903968274,-0.005666842663035989,0.0006602110064446252,-0.02475065857818831,-0.11568924464285216,-0.3606882416107556,0.9254832722215741,-1.473067283630371,-1.8498455581501048,4.1561575584146615,-3.079074063668373,-1.3537920067394429,2.7194271272121755,1.0,0.48894694948323547,0.4994770933177816,0.310256038949064,-0.6343379794432269,0.3942889179032848,-0.14419762469475603,0.6491214232229064
7.6000000000000005,-0.0814078067202746,0.4242312695747327,0.09696415868798026,-0.0027397992785298587,0.001629005855621732,-0.02406655833265421,-0.11554534789989249,-0.36031442541358166,0.9256472114531978,-1.4730500790659862,-1.8498397255470251,4.156164973600937,-3.0790565659721203,-1.3538087050067347,2.7194172204837646,1.0,0.48895656569004287,0.49947625469555235,0.31026096600409653,-0.6343338741924849,0.3942891877819291,-0.1441896230542471,0.649127048468706
7.7,0.0015706183575517688,0.15028315645803728,0.05878295288722267,-0.011279743175509886,-0.003924882196128967,-0.017905038365559303,-0.11555786959317323,-0.36032753592945277,0.92564053308584,-1.4730559593591934,-1.8498204754523504,4.156158308822963,-3.0790760311018315,-1.3537967840777796,2.7194109149233125,1.0,0.48894742122583085,0.49948422845790214,0.3102393916883371,-0.6343525207480103,0.39429392171533184,-0.14418479092272354,0.6491070241382076
7.800000000000001,-0.11073981059629177,0.46076558380100996,0.15505811206714806,-0.0029140414407552526,-0.005279417323411221,-0.021908421595969244,-0.11549816931645152,-0.36004280144896705,0.9257587966241236,-1.4730258143766448,-1.8498435125142212,4.156176494884879,-3.0790322858731245,-1.3537856711146612,2.71943998336792,1.0748103342452568,0.4889660091421145,0.49945726535685336,0.31024261307038775,-0.6343377234196232,0.3943126269723654,-0.14419327542410892,0.6491082376456401
7.9,0.12681744911721451,0.15717551776512645,0.11250829027759197,-0.010959730353772222,-0.00430007792745119,-0.021378982067419047,-0.11560171127139737,-0.36042311026210255,0.925597817624976,-1.4730458888026874,-1.8498560547228686,4.156173022221168,-3.0790745220580042,-1.3537944311641001,2.719428539276123,2.0,0.48896200833133024,0.49946343767075246,0.31023206046979734,-0.6343425795646882,0.394310562483288,-0.1441901088500471,0.6491054495035009
8.0,-0.131707846500911,0.3805741994217812,0.09187172991279971,-0.004901460175782848,-0.000131867193686627,-0.02180107716109683,-0.11580615395354019,-0.3610142858755382,0.9253415500922407,-1.473008080585433,-1.8498318670337641,4.156164721386003,-3.079045142061095,-1.3538031668677357,2.7193878614756564,2.0,0.4889553514957494,0.49948296875610276,0.31025441554496563,-0.6343380596419458,0.39428275011422076,-0.14419439225151895,0.6491258092968366
8.1,-0.1768194057568616,0.3017344276026772,0.1942730842571425,-0.006576532611611849,0.0007411741677612822,-0.021298866429729457,-0.11612382341863065,-0.36182998083755585,0.9249830290037829,-1.4730618692923763,-1.8498332330137062,4.156165599822998,-3.0790630779662074,-1.353809346064867,2.719463661004856,2.0,0.4889599841711216,0.49947124861867587,0.31023862595620866,-0.6343379058880867,0.3942999492085004,-0.14419925650047882,0.6491144318472669
8.200000000000001,-0.05121956097727608,0.2097866622393552,0.04301345319163652,-0.009812765840410869,-0.009404246647010544,-0.02030936407215521,-0.11630960630581715,-0.3623284796195885,0.9247649113863575,-1.4730487820197795,-1.8498454263594268,4.156165599822998,-3.0790443788440274,-1.3538087050067347,2.7194273806557865,2.0,0.4889675150395667,0.49947123736340243,0.31025569130261377,-0.6343264368087198,0.39430179222932943,-0.14420155513090424,0.6491240094990482
8.3,-0.1702227689771578,0.4650002884360599,0.23623377706109705,-0.002689281652239078,-0.005040651044420171,-0.024633726974265257,-0.11633367979375062,-0.362438056310185,0.9247189459417653,-1.4730250694174236,-1.8498458715517552,4.156189441680908,-3.079081748556595,-1.3537962579464762,2.719428539276123,2.0,0.48896609115334655,0.49946776501070667,0.3102465978376245,-0.6343352670257993,0.39430189015939143,-0.144194119297546,0.6491169728053984
8.4,-0.04311008615233822,0.56228383370338,-0.026100496267522866,-0.0022587260504407054,0.0010285565796612347,-0.026029931394861247,-0.11676357370509965,-0.36368093797292717,0.9241753945107182,-1.4730583859444364,-1.849847293797894,4.156158640793774,-3.079050680200094,-1.3537967840777796,2.7194161415100098,2.0,0.48895683908210835,0.49947808492478546,0.3102510094206704,-0.6343368161473449,0.3942980309447742,-0.14419842879976089,0.6491168458796951
8.5,0.0848959474971937,0.3277132393708254,0.025047105266420424,-0.006482861336662584,0.0003886921985036066,-0.022679675617259566,-0.1172198445848218,-0.3649974806632633,0.923599501657036,-1.4730441712241136,-1.8498276534159823,4.1561833829650165,-3.0790555885708417,-1.3538131363723251,2.719428539276123,2.0,0.48895579848560794,0.49948503462030164,0.3102473599277057,-0.634339824342552,0.3942959268070935,-0.1441869328118735,0.6491177379818704
8.6,-0.1829984008999389,0.4412750597109325,0.15669382259295683,-0.010334160782535537,-0.004840423691876352,-0.026482642990248457,-0.1169204100803721,-0.3641981563517871,0.9239527369267685,-1.4730310440063477,-1.8498610657556591,4.15618416814272,-3.079021345073238,-1.353782994366698,2.7194456963676235,2.0,0.4889667120416275,0.49947191150294773,0.3102436140392967,-0.6343476295530971,0.39428833277340575,-0.14419909510192275,0.6491120215270408
8.700000000000001,0.011696820247319967,0.31373780445024446,0.10556374855781037,-0.008026749440065326,-0.0004645750774240603,-0.024121940247558805,-0.11686859993547002,-0.36407861915090844,0.9240060782773516,-1.4730116757981087,-1.8498520491355144,4.156159112631025,-3.0790871948588254,-1.3538092083923101,2.719441487111652,2.0,0.4889476377310826,0.49948829966375585,0.3102541010116915,-0.6343506139635376,0.3942775919628151,-0.14418997024058536,0.6491176561472551
8.8,-0.007781225853166256,0.09826470123848491,0.04471630865805215,-0.010926625200425005,-0.0005312913911914299,-0.02360164581145782,-0.11723756472767558,-0.3651184911448032,0.9235483829739408,-1.4730234689855926,-1.8498512707152308,4.156171422320537,-3.0790438579503747,-1.3538038302697122,2.7194635782446848,2.0,0.4889644978290076,0.49947872295056506,0.31025383480837526,-0.6343314461914107,0.39429649605023426,-0.14419579847796954,0.6491236101672175
8.9,-0.16457978947988094,0.6491101229198359,0.22460312030423973,-0.004548388586114039,0.0007652754255191661,-0.027230770531796924,-0.11760652951988114,-0.36615836313869793,0.9230906876705299,-1.47303716542797,-1.8498269520201625,4.156171366049021,-3.0790451357519957,-1.353802328525878,2.7194647789001465,2.0,0.48894617860554307,0.49949376073523427,0.3102852520744509,-0.6343184805900719,0.3942797114157398,-0.14417009024172234,0.649152185105709
9.0,0.02744767902485489,0.4448299401879007,0.20152065995660082,-0.006332971854652779,-0.0029572583295030827,-0.027946610900306,-0.1176155237338936,-0.36617056885809574,0.9230848739631746,-1.4730406722729585,-1.8498444947768415,4.156181600409598,-3.0790441648747198,-1.3537792413211005,2.7194269527171717,2.0,0.48895332692580307,0.4994957697075346,0.31026079235126797,-0.6343375902758648,0.3942846068067421,-0.14418157246769597,0.6491279878105737
9.1,0.06322726845781432,0.15564155029980703,0.20711195750806072,-0.006680283855644038,-0.004699101280907817,-0.030867872313380104,-0.11758524425935273,-0.36607065362193114,0.9231283616658277,-1.4730375223446417,-1.8498616160350285,4.156184475927406,-3.0790680437197104,-1.3537745178290268,2.7194181939563253,2.0,0.4889453833498068,0.4994994420610051,0.31024233073491786,-0.6343505943240868,0.39428021326821994,-0.14418390231597092,0.6491174309928702
9.200000000000001,-0.08641566021334297,0.41114370141272993,0.11888656536482113,-0.006332913593566533,-1.9126534063411502e-05,-0.02934170819699386,-0.11739948856125315,-0.36551381794147797,0.9233721321790828,-1.4730688497282929,-1.8498442235291332,4.156175889399951,-3.079040390623141,-1.353790007937301,2.7194334782730607,2.0,0.48895409263932677,0.4994901048787662,0.3102496354521601,-0.634331792912865,0.39429133433278685,-0.14419474780666067,0.6491266400903556
9.3,0.17107301038668893,0.6293635591744542,0.20569819785811105,-0.030149231082776663,0.0029385034860624068,-0.02876388711898606,-0.11697306332923657,-0.36424969192526113,0.9239259306154237,-1.473038143731934,-1.8498327730091888,4.156153202056885,-3.07905702413762,-1.3538089839576368,2.719428341389867,2.0,0.4889619353266144,0.49947711857620253,0.31025676216175385,-0.6343311722302266,0.39429266822978126,-0.14420630301238577,0.6491238694492494
9.4,0.303173508723952,1.8601392512487394,0.38730850073477036,-0.09872902172002164,0.024333876204703897,-0.026711201831861212,-0.11694169098434003,-0.3641471082714207,0.9239705212056256,-1.4730310440063477,-1.849893487780636,4.1561684424812135,-3.0790869198241175,-1.3537903297992397,2.7194156307190434,2.0,0.4889723640563679,0.4994704548093744,0.31023007658187923,-0.6343450705337222,0.39429955062365885,-0.14421232084300353,0.6491047699598442
9.5,0.3773994270843537,1.874966744457207,0.33157303450138587,-0.11254565094904165,0.03291795146503412,-0.02096310358123994,-0.11677754917754689,-0.3637630220241523,0.9241424757044945,-1.4730783128647922,-1.849875112573141,4.156188784785696,-3.0790632853948954,-1.3538030866751802,2.719428539276123,2.0,0.48897968910730444,0.4994709690296975,0.31023444997022026,-0.6343449714564792,0.394294176969034,-0.1442048746274319,0.6491097852673905
9.600000000000001,0.5147952061834054,1.836345927563605,0.6373547668828652,-0.12316515918882896,0.009006634027397754,-0.021909872824275502,-0.11684416329638915,-0.3639878715269403,0.9240450237591005,-1.4730310440063477,-1.8498681724389174,4.1561721383249,-3.079050680200094,-1.3538321191077967,2.719427409325801,2.0,0.4889506835215526,0.4994938293327745,0.3102296044842688,-0.6343545869810783,0.3942900208339677,-0.14418286336993577,0.6491078025700057
9.700000000000001,0.5952497431578216,1.8210995684823514,0.7987141023562813,-0.1458242800833337,0.007248152325559837,-0.01816862621804595,-0.11735391170514134,-0.3653690406500889,0.9234354496684647,-1.473025321553524,-1.849887033502096,4.1561713205803,-3.079056878642315,-1.3537729430676302,2.71943998336792,2.0,0.48896184591890235,0.4994923947685696,0.31027810221322943,-0.6343239093446478,0.3942931342762249,-0.14418992791508664,0.6491343212188031
9.8,0.39012000778192324,2.467843111755231,1.2884431668048781,-0.17910314801681476,0.01894360270248597,-0.014494045636384595,-0.11682686275696444,-0.36394300277466535,0.9240651200101173,-1.4730609534097032,-1.8498931076177403,4.156165836217425,-3.0790630779662074,-1.3537970048099144,2.7194526175284603,2.0,0.4889482186563969,0.4994945077858778,0.31022632172059916,-0.6343556075874665,0.3942960628542095,-0.14417803145881247,0.6491042082629473
9.9,0.4891874283025106,3.395603154864279,1.531088439533907,-0.23021905873687315,0.02621909177957773,-0.01582580008821942,-0.11618918831664916,-0.36215786415792406,0.92484563949565,-1.473067283630371,-1.8498689650038576,4.156177146542341,-3.0790689796327197,-1.353833166977028,2.7194340817014075,2.0,0.4889464243103378,0.4995038371072899,0.310206541615659,-0.6343644722826786,0.3943003280912131,-0.14416666353960117,0.6490954788754423
10.0,0.5368201440092852,4.031127362419847,1.8761274530276149,-0.27949322589691294,0.02664359204371706,-0.01118061359062107,-0.11517819451638775,-0.3593043267442732,0.9260785767295198,-1.4730486738654005,-1.849887033502096,4.156189441680908,-3.0790454481071543,-1.3537958945375053,2.719410574186098,2.0,0.4889526983083612,0.4994917550727346,0.31019491619644285,-0.6343711367577185,0.3943058501165744,-0.14417512645643196,0.6490837313658673
10.100000000000001,0.7842786834646118,4.094013428895017,1.9245076866895785,-0.31943103012026386,0.020058628556349253,-0.0038452408758828565,-0.11341599328589365,-0.35432544856759957,0.9282149066783508,-1.4730868211909298,-1.8498876051748971,4.1561667431686,-3.0790745220580042,-1.3538160946532152,2.719445790145477,2.0,0.48894743663305085,0.49949717919654757,0.3102387355687985,-0.6343433228041703,0.3942930711559325,-0.14417497460770906,0.649118709905248
10.200000000000001,0.4691773169000686,4.1940968930448275,2.356592689104712,-0.3175865150677542,0.016529090631942016,-0.003005473589330142,-0.11179480083859938,-0.3498661609806614,0.9301031578684911,-1.4730369988798546,-1.8498505375379837,4.156194930899198,-3.079050423860005,-1.353802987071016,2.7194340284944127,2.0,0.4889303528447984,0.4995114531686249,0.31018980770713156,-0.6343873954610266,0.39428065059759637,-0.14417314102737255,0.6490835897254009
10.3,0.49682504462542865,4.209858787462004,2.618903878075269,-0.340423069547699,0.012990157849446092,-0.010585512671793883,-0.11020706066170442,-0.34535537197801963,0.9319704028307608,-1.473047935298527,-1.8498512707152308,4.156172550388729,-3.0790684120584744,-1.3538169406463554,2.71943387336839,2.0,0.4889411867169967,0.49950969014245883,0.3102334950562245,-0.6343466007731987,0.3942862651874245,-0.14416603638149264,0.6491216258345504
10.4,0.30161199152934093,4.163666884925821,2.5096402691611543,-0.33964680061867053,0.017925226361455552,-0.01352799309114358,-0.10897618141903319,-0.34183129661229883,0.9334212169190791,-1.4730515347946473,-1.8498683143412609,4.156205190516632,-3.0790424113412915,-1.3537916613807046,2.719421469114968,2.0,0.48894335422317625,0.4995019805783089,0.31021960707120805,-0.6343488174578463,0.3942940168020339,-0.14416580160706324,0.6491148032135321
10.5,0.5040173086329596,4.018060873662413,2.580941732455776,-0.342067270490408,0.013227338271357532,-0.01173369576045609,-0.10857734003233835,-0.3406885297836224,0.9338853195227728,-1.4730496881734068,-1.849882477560067,4.156189441680908,-3.0790630779662074,-1.3537855798055105,2.719452381134033,2.0,0.4889524153763196,0.49950184635019146,0.31024459015976363,-0.634346390096612,0.3942846243593777,-0.1441803637639418,0.6491196461901912
10.600000000000001,0.453455203944991,4.214920321417892,2.5155373854297527,-0.33393762566985336,0.013121895843380414,-0.01339860768959128,-0.10821975531953482,-0.33964847751185934,0.9343056295295445,-1.4730391621404928,-1.8498610363334098,4.156169879454966,-3.079063550085582,-1.3537946287670035,2.7194456887935794,2.0,0.48894834482559374,0.49948087084289805,0.31022085474091793,-0.6343556872104927,0.39429610113018826,-0.14419194183686537,0.6491010172897205
10.700000000000001,0.6101960818873559,4.3689434184526394,2.548368267705855,-0.3306299872235343,0.010070788778822802,-0.010772364129473768,-0.10816426325618497,-0.33950311213685685,0.9343650902819892,-1.4730558395385742,-1.849874073646292,4.156183220950123,-3.0790452391990413,-1.3537957451509306,2.7194099207792237,2.0,0.48893430465619087,0.4995006069269203,0.3102368482711704,-0.6343583501752649,0.39428115835667776,-0.14418402370306044,0.6491092504629924
10.8,0.450282444669449,4.10359107184241,2.639152383500008,-0.35015748779892225,0.016878136647592787,-0.0043998607589130385,-0.10821730710027828,-0.3396607866662027,0.9343016224878914,-1.4730554937056377,-1.8498578811446844,4.156189441680908,-3.0790330910380943,-1.3537724653827112,2.7194274779760996,2.0,0.4889536315976767,0.49949657119140817,0.3102394791922781,-0.6343411880255081,0.3942898116804522,-0.14418506218397167,0.6491205353571745
10.9,0.7032860118029038,4.132800063141481,2.640542268101335,-0.3491562052085576,0.010488217821516583,-0.0068231711330399075,-0.1083375880058027,-0.33996912082971786,0.9341755328492043,-1.4730661368842597,-1.8498512707152308,4.1561842930080655,-3.07906822663905,-1.353809899533934,2.7194030260538553,2.0,0.4889684778720988,0.49947954495302005,0.3102244037543299,-0.6343447803452509,0.39429515867262693,-0.14420083346367168,0.6491102734701139
11.0,0.5906760077197731,4.331537027884957,2.6948992823580693,-0.342904102938264,0.014839993160615073,-0.01069890555150234,-0.10825375568217131,-0.3397237444742441,0.9342744641665073,-1.4730625520399323,-1.8498763916058885,4.15616937773912,-3.0790630779662074,-1.3538087050067347,2.7194417392378254,2.0,0.48893890442124255,0.4994990261908482,0.31021302560810915,-0.6343674983071586,0.3942777778764312,-0.14419008667666053,0.6491010166904054
11.100000000000001,0.37475283346395805,3.9845011198142397,2.405892646446722,-0.34838395369137104,0.022752544367901792,-0.012312027637178792,-0.10812572537238663,-0.3393570721264233,0.9344225947436051,-1.4730535926772943,-1.8498512707152308,4.156198007443608,-3.0790638445780525,-1.3537939322358106,2.7194241806975916,2.0,0.48894649619212377,0.49947938887240995,0.31023007779623085,-0.634349059744671,0.39430079891872827,-0.14419080479554205,0.6491048930531322
11.200000000000001,0.49648374622479075,4.045340949000052,2.529771154912187,-0.35772879129578783,0.013944442476299635,-0.005644196634828858,-0.10805325759767104,-0.33913700159963805,0.9345108709402283,-1.4730733184689586,-1.849875112573141,4.156184032427698,-3.0790450455613345,-1.3538087050067347,2.71942200153432,2.0,0.48895216505974787,0.49949111464080675,0.3102335705287847,-0.6343384819172196,0.3942944431693493,-0.1441820045246105,0.6491210457349195
11.3,0.624408717029042,3.9493564011051485,2.6263425744047804,-0.37094274725057963,0.01204834551290632,-0.008694868336134903,-0.10804654488509269,-0.3391220109609788,0.9345170972537169,-1.4730752166262213,-1.8498455019527862,4.156172579144532,-3.079080290820449,-1.3538078778517113,2.719414136882098,2.0,0.4889536935525607,0.49948108434638977,0.3101835430521907,-0.6343624682624093,0.39431441797706135,-0.14418246146291921,0.6490853691479489
11.4,0.6192993803255925,4.280010767248852,2.5647183840173855,-0.36048969157665234,0.014364214522114577,-0.01136041096133455,-0.10798890593022356,-0.3390101977369888,0.934564314514872,-1.4730618333567,-1.8498516098126347,4.1561887634861,-3.079080426521148,-1.3538030276383273,2.719434533094249,2.0,0.4889384660841219,0.4994977005731789,0.31021375024103787,-0.6343642238609267,0.394281343949418,-0.1441854907954891,0.6491030715863457
11.5,0.7600794540894069,4.284976405809212,2.593447646016666,-0.3604893614463137,0.0107652246528144,-0.007699380731589024,-0.10788297188268549,-0.33876038337891634,0.9346670887602491,-1.4730493652866572,-1.8498513992567656,4.156177880516771,-3.079050680200094,-1.3537848631488245,2.7194232470004067,2.0,0.48893706261800596,0.4994931715092229,0.31021126676309213,-0.6343652270556921,0.3942990933606805,-0.14416683888703166,0.6490954523356685
11.600000000000001,0.6185882557711468,4.206372712165451,2.6840745594697553,-0.3596385460471676,0.014067513347524475,-0.008909512818214185,-0.10770036921430699,-0.33823690479892876,0.9348776933273527,-1.4730485286932937,-1.8498577982556599,4.156166779340977,-3.0790693444050192,-1.3538044457701117,2.719439326053175,2.0,0.4889467554499037,0.4994989807167126,0.3102419238771583,-0.6343497915774169,0.3942798858671064,-0.14419218031517342,0.6491165755565529
11.700000000000001,0.6113201621865479,4.344711792764137,2.526602911631936,-0.3559442343421534,0.015773368022973053,-0.011126948823641665,-0.10788241067107719,-0.33878572667222256,0.9346578781998724,-1.4730310440063477,-1.849868942850465,4.156207795862102,-3.0790445104774182,-1.3538029538004555,2.7194400416886815,2.0,0.48893809742240957,0.4994955548158885,0.31023014753712763,-0.6343585093875683,0.3942840820581751,-0.14417234744053925,0.6491099124467357
11.8,0.3841428458509173,4.2784926499780225,2.4192064685398225,-0.35583997710263965,0.01570513033683411,-0.014834827288936283,-0.10804171733326978,-0.3392336726275542,0.9344771210361451,-1.4730502386459539,-1.8498418756391632,4.156186966561243,-3.0790869198241175,-1.353802110376977,2.7194348701206903,2.0,0.48893717547505566,0.49949652407784995,0.31023980059733347,-0.6343564283614049,0.39427837701308255,-0.14417501375379685,0.6491148192928461
11.9,0.35270046038129427,4.097559732214471,2.4899483411510364,-0.3574389529228754,0.021328020158956473,-0.01615478516612989,-0.10810692163487591,-0.3393473964484617,0.9344282919243249,-1.4730593078838463,-1.8498343222538658,4.156185973335636,-3.0790423721307976,-1.3538267358180793,2.719421313556806,2.0924927835290608,0.4889329494008557,0.4994940772210173,0.31026682623615714,-0.6343316486883919,0.39429254916426115,-0.1441631510480578,0.6491330611097471
12.0,0.39616801316088157,3.768604566876765,3.062859954977882,-0.36367825884446514,0.011110691357480862,-0.014744895313357152,-0.10819248975119745,-0.33950392694128817,0.9343614708251458,-1.4730567651445952,-1.849735370893627,4.156189441680908,-3.0790381629817927,-1.3537788467096885,2.719428539276123,3.0,0.48894874611685485,0.4994646091157915,0.3102398104868382,-0.6343469542688931,0.3942987126734787,-0.14419124608366823,0.6491081199204454
12.100000000000001,0.15708292629962597,4.08741728550615,2.996930357148791,-0.37193945744013096,0.013165933709035797,-0.00964364361220829,-0.10843612236406017,-0.3401366224935597,0.934103028553205,-1.4739927792512204,-1.8487593998092877,4.156276053671017,-3.078906979842791,-1.3535970754948345,2.719442230439592,3.0,0.4889167019809348,0.4994436154808623,0.31029642825791076,-0.6343195411021133,0.39429256838931986,-0.1441865239492693,0.649139689589525
12.200000000000001,0.3076422329840437,3.4492044599667646,3.5050873529019633,-0.33901358065153775,-0.008877299071122896,-0.012667773304340053,-0.10818531911738846,-0.339307789464126,0.9344331767499656,-1.475491848614799,-1.8477408625386746,4.156489484778761,-3.078723539718694,-1.3533788623804133,2.7194714151806694,3.0,0.48870815256959005,0.49917173708038526,0.31046391633767895,-0.6342467052542499,0.39427748800828805,-0.14421621569392137,0.6492134182646934
12.3,0.13205480463582922,3.834088937965753,4.044165070018145,-0.3227485917820665,-0.017522665725018885,-0.02085680275019701,-0.10808533706552241,-0.3389953666487111,0.9345585269692553,-1.4768831061137664,-1.8466908208523893,4.156788402795069,-3.078485151330465,-1.3531773860201382,2.719458814025113,3.0,0.48844376548500396,0.4988659218499813,0.31039961026191715,-0.6342967655368776,0.39431079718238976,-0.14422589856158036,0.6491421251459101
12.4,-0.277042350754601,3.7912409688841766,4.339938400427423,-0.32985135761742557,-0.01985696669771113,-0.05421239745994667,-0.10822541053012755,-0.33946391891406646,0.9343722171934823,-1.4784402990465983,-1.8453995333238409,4.1570225547275,-3.078268667260641,-1.3529189910831445,2.7195420408373696,3.0,0.4880347169270269,0.49852714376743346,0.3103235685135533,-0.6343641326649984,0.3943196853803742,-0.1442160553578105,0.6490730793113669
12.5,-0.14596901936410345,3.430260496780175,4.682736956315294,-0.32185203864138473,-0.0380188284052113,-0.04962353793880682,-0.10811870039300277,-0.339242269274494,0.9344649366503087,-1.4799953660547562,-1.843941337308793,4.157252940192436,-3.078072029609308,-1.3526960495068254,2.7195611000061035,3.0,0.48775699964287766,0.49826787809359263,0.3103708521732707,-0.6343648426044823,0.3943128835908035,-0.14420324146281308,0.6490793645258748
12.600000000000001,-0.060042130595387835,3.8536523217909413,5.134508260055092,-0.32432412958941453,-0.037556502505823125,-0.047396222739719544,-0.10788393031672693,-0.3386523583103893,0.9347061768648263,-1.4812547358537989,-1.84275365582207,4.157442545055281,-3.0778672765801267,-1.352527786860105,2.7195849418640137,3.0,0.4873885774132109,0.49789836723834563,0.3104843040302963,-0.6343388424256837,0.3943015886492116,-0.1441762690788577,0.6491176269469596
12.700000000000001,-0.37392998250256426,3.146069295334074,5.055301954050573,-0.32995136776494605,-0.07626710146990441,-0.05929849985859206,-0.10786922573404527,-0.33868022813079557,0.9346977049893443,-1.4825210895077057,-1.8417431052546116,4.1576420190161345,-3.07763143625654,-1.3523024420996406,2.7196150482806503,3.0,0.48691154044613827,0.4974325383916838,0.31062714764601423,-0.6343193507962134,0.39427321548764904,-0.14418174497047484,0.6491526917234262
12.8,-0.8709602303486274,2.7514661442592687,4.6961048721791165,-0.31717360200005074,-0.1195932449682583,-0.08368837826234914,-0.10816753147645847,-0.3395377250674877,0.9343519050941954,-1.4839299209372074,-1.8406461193703085,4.157856177543017,-3.077422137883346,-1.352103058491842,2.7196219757153695,3.0,0.4867069111780976,0.49724124757997096,0.31066367164895653,-0.6343174149762072,0.3942608465261684,-0.1441820970841092,0.6491620173999705
12.9,-1.6900643911038813,2.767084866225165,5.430990248384863,-0.2920221379758923,-0.20823077462772088,-0.12427686601653776,-0.10820681358460228,-0.3396508149937256,0.9343064185628133,-1.4855008772109086,-1.8393469459307596,4.158090378179269,-3.077239641913721,-1.3518944745753239,2.7196862949273157,3.0,0.48641058555543065,0.49692102092034923,0.3107272084341568,-0.6342925020603944,0.3942575387276615,-0.14420457915102072,0.6491833749706227
13.0,-2.3131633957463644,2.8463712251623114,5.547759366789392,-0.2939321093480474,-0.3037446972098089,-0.12965427010200803,-0.1080680864908841,-0.3392577161414377,0.9344653501267867,-1.4867979055886498,-1.8379661109232286,4.1583256849020795,-3.0770491787176035,-1.3516529178382877,2.7196907869607134,3.0,0.4858949792482079,0.49638021186058545,0.31070445160675664,-0.6343594929745203,0.39429619048065934,-0.14417117956939368,0.6491018555104573
13.100000000000001,-2.8215950422020897,2.5619564051491013,5.905873207697062,-0.29247709701041064,-0.36178459612441083,-0.1410723418170446,-0.10805922667172824,-0.3393011220283923,0.9344506146580719,-1.4880562715783583,-1.8368528432932334,4.1585171423830465,-3.0768546711408744,-1.3514501592701573,2.7197075292424113,3.0,0.48563550237929864,0.49612098606017346,0.31083116826224894,-0.6343244898534155,0.39426799104359006,-0.14417243384690331,0.6491529112076109
13.200000000000001,-3.2860918359466376,2.387732255119896,5.8999219795923965,-0.26854219808888663,-0.3937674422437542,-0.1590273591609464,-0.10810854686400137,-0.33938195141178457,0.9344155543897704,-1.4895739684985554,-1.835816259615672,4.158757291704857,-3.0766247431568896,-1.3512273586917225,2.7197105009280054,3.0,0.48523292886904695,0.4956881252288044,0.3109853325266529,-0.634276163502737,0.3942585305064684,-0.14418375647882964,0.6492033609761914
13.3,-3.262356315103903,2.297757872916163,5.881052274264445,-0.2544407657666448,-0.421335236704654,-0.1762163038771685,-0.1081674519453393,-0.3395080812573281,0.934362909329388,-1.4912076718926568,-1.8346236495834494,4.159009832442154,-3.0764644023282903,-1.3509869849966856,2.7198057318566424,3.0,0.4850102663348327,0.4954750660480192,0.3109210138431582,-0.6343203820035161,0.3942730082877758,-0.14418552778534338,0.6491509697195891
13.4,-3.2421342151269523,2.3168072944723312,6.039109669103507,-0.28622721247864996,-0.4452123106406723,-0.1799654694387899,-0.10822758134407884,-0.3396547140607746,0.9343026612023426,-1.4924315686998422,-1.8332857541741068,4.159214352762233,-3.0762440526494896,-1.350768072151442,2.7198018851892907,3.0,0.4846291602385338,0.49507265928985633,0.31082735560622,-0.6343955133169787,0.3943115504981727,-0.14419186239368384,0.6490527256290164
13.5,-3.4385932652009856,2.441612845577669,6.117924076560073,-0.2902811900425268,-0.46572146903549155,-0.18812742721038256,-0.10813172427534617,-0.3394085860635528,0.9344031989220585,-1.4938201429746705,-1.8320658592281363,4.159428639263272,-3.076073880731466,-1.350518481160116,2.719828325610081,3.0,0.48416478307746263,0.4946108086724187,0.3110019473680008,-0.6343534192056897,0.3942989267045749,-0.14417234708652937,0.6491058698527014
13.600000000000001,-3.6660507392896466,2.1462946666013982,6.390624765962035,-0.29075909876259254,-0.48355542595753276,-0.18915053517473915,-0.1080237289470146,-0.3390426316739339,0.9345485347716546,-1.4951904648045926,-1.8309263905463837,4.159708809711524,-3.075878759423727,-1.3502857542730446,2.7198489540318875,3.0,0.48394339595043157,0.4943602946074325,0.31109541041384126,-0.6343234682651084,0.394285721942811,-0.1441932117483199,0.6491385250975824
13.700000000000001,-3.4563210453857773,2.3870793878216956,6.2492335937605406,-0.2861260384896956,-0.49474828727997866,-0.19928114858504753,-0.10820057999003849,-0.33952486461229836,0.9343528214864543,-1.4967144418393552,-1.82970791750466,4.15990686416626,-3.0757198938731083,-1.350026032754334,2.719874305095418,3.0,0.4836064918728469,0.4940243121800038,0.31116617518736045,-0.6342975369123677,0.39429218919139103,-0.1441938757769569,0.6491597880321792
13.8,-3.3922699781421404,2.6019747229575803,6.5576431621922575,-0.29474095879017254,-0.4907440973903926,-0.21196687799581287,-0.10837743103306237,-0.3400070975506629,0.9341571082012539,-1.4980077743530273,-1.8285468561802698,4.160141038595607,-3.0755365832005337,-1.3497876283759729,2.719891209828615,3.0,0.4831286254950714,0.49356511551809995,0.31113561051688654,-0.6343652210323982,0.39431169996012627,-0.14419349929798772,0.649081878024085
13.9,-3.3414463737180338,2.46009223743594,6.589410253647834,-0.3106241969639482,-0.49244954217790254,-0.2139156122763053,-0.1083348030875837,-0.3398768147146994,0.9342094570629053,-1.4993808092446805,-1.8273035488524378,4.160386089013638,-3.075338415338885,-1.349577621860316,2.719920460054193,3.0,0.482914337597137,0.4933737141247385,0.31119438298004043,-0.634361905262562,0.3942843568564993,-0.1441990647741926,0.6491004920720347
14.0,-3.6275602179749344,2.734709363219946,6.705483329216584,-0.30081022028225496,-0.4968484563227358,-0.22320629640526302,-0.10829005823713528,-0.33978928455720875,0.9342464891324627,-1.5008332650046736,-1.8261615238585414,4.160606110702753,-3.0751806267388195,-1.349357264273563,2.7199876818587008,3.0,0.48244051475652,0.49286473886588433,0.31129703760491023,-0.6343368211513949,0.3943012124295608,-0.1441913219690347,0.6491164871399766
14.100000000000001,-3.6308657663337445,3.0600095783516696,6.734703177637785,-0.3302634372681736,-0.48466459794749017,-0.2275544628244669,-0.10824432481231212,-0.3397505972821921,0.9342658586879237,-1.5021209716796875,-1.8249142494737292,4.160877704620361,-3.0750023327269496,-1.3491668268926744,2.7199647595405128,3.0,0.48218841313407973,0.4926082324729346,0.3113316215443307,-0.634354766384013,0.3942947902800377,-0.14419220682250627,0.6491026546052335
14.200000000000001,-3.312310410586011,3.0372642835765635,6.904895965206966,-0.3420575488111541,-0.4894900944715781,-0.2304041920113812,-0.10820651674510641,-0.3396993127073424,0.9342888867019937,-1.503532046804918,-1.823648314852324,4.161116322854134,-3.0748588681233744,-1.348935692285614,2.7200138592054333,3.0,0.4817382875992545,0.49218046453767705,0.31143614362760097,-0.6343508687346098,0.3942746447843921,-0.14418506147941454,0.6491202876678288
14.3,-3.0828230200352826,2.9806078568693577,6.89079289001354,-0.343408113060555,-0.4948217078538501,-0.23440709525034004,-0.10817741923836233,-0.3396341827582968,0.9343159356355539,-1.5049461310752952,-1.8224308429482177,4.161291506258224,-3.074658715424094,-1.3486899103681502,2.7200344985374536,3.0,0.48150121170421867,0.491944683560089,0.31151220599535506,-0.6343328995949422,0.3942700253434538,-0.14417189429948327,0.6491435777247156
14.4,-3.5214890846917166,3.4809326667525786,6.661579437816896,-0.3243026391426403,-0.4855531106385411,-0.24209327620076976,-0.10808330997402865,-0.3393371679862025,0.9344346774035631,-1.5063905715942383,-1.8214155636229457,4.161570235443652,-3.0744804756160486,-1.3484868064361049,2.7200949277386477,3.0,0.48113397068794606,0.4915746767941237,0.3115692435666746,-0.6343403362142608,0.3942720168695539,-0.14416386339232123,0.649136884683803
14.5,-3.459690218568782,3.187848393056434,6.911850963963462,-0.36198971890753473,-0.47760239407270727,-0.24178930891216335,-0.10798695846271157,-0.3390321555370071,0.9345565816453936,-1.5076110720365237,-1.8201926092234986,4.161774517366751,-3.0743026946676753,-1.3482878843890589,2.720105116395396,3.0,0.48075028232879724,0.49117122064972407,0.3115260962636142,-0.6343744242753259,0.39430011443127183,-0.14417719080307148,0.6490835441119808
14.600000000000001,-3.519096693887729,3.4210401061187086,7.144797107053086,-0.36900969962356167,-0.5040181239852611,-0.24992510020827383,-0.10760609779369357,-0.3380042737060857,0.934972334614897,-1.5089703036630546,-1.8187319293809685,4.162001811534964,-3.0741497478880824,-1.3480959994031336,2.7201319685937553,3.0,0.48057822345558565,0.4910026515481399,0.3115466207488078,-0.6343794804377638,0.3942948547536623,-0.1441582868320052,0.6490859963456018
14.700000000000001,-3.75900126488116,3.4761420388750413,7.005738207878214,-0.3593532898877432,-0.5184403271261474,-0.261164759418943,-0.10735011130233803,-0.33734887554844684,0.9352388361011542,-1.5104953331254602,-1.8175221882262171,4.162225251816663,-3.07402038313202,-1.347841496559496,2.7201334464821367,3.0,0.47998573253187166,0.49037925675171606,0.3118740973634407,-0.6342811539643057,0.3942451673419473,-0.14416271714071996,0.6492112728071144
14.8,-3.331492860661971,3.4346011105815246,6.84447994014553,-0.342578435480149,-0.514147360390672,-0.26679662136472465,-0.10749685209020139,-0.3378068152692617,0.9350564090950249,-1.5120153427124023,-1.8164939910968636,4.162471975644857,-3.073716779748434,-1.3476206039891152,2.7201986993145333,3.0,0.4797566237882951,0.49015981166830147,0.3118814088329414,-0.6343122590901881,0.39425139354144156,-0.14413308861183446,0.6491836792663126
14.9,-3.477609433578273,3.241210256072016,6.900449216887825,-0.3589510915668787,-0.5131913464847037,-0.2738015326834513,-0.10776554961828377,-0.3385678852422045,0.9347504279120873,-1.512909550056724,-1.8157115237141526,4.162644806217479,-3.073490980823595,-1.347419901361463,2.7202137489490417,3.0,0.47926986487719747,0.48964366297827844,0.31174516303732414,-0.6343912661302674,0.39427741957205553,-0.14416880239998908,0.6490827330069645
15.0,-3.2521508659550253,3.2960331344618097,6.478365476459329,-0.3672840006776191,-0.5318654561380066,-0.2710040354252934,-0.10780661035521862,-0.3387048132696593,0.9346960905173437,-1.5129183323001103,-1.8157172362849023,4.162639141082764,-3.0735303197271637,-1.347400967274801,2.7202209360279532,3.0,0.479117679147185,0.4895375748937265,0.3117736221663518,-0.6343704172811728,0.39427141119116815,-0.14415088722953698,0.6491107376301617
15.100000000000001,-3.635483207446377,3.145291978974749,6.6612729449085615,-0.3563567158414984,-0.5340072285085716,-0.2711210362519233,-0.10788303917441194,-0.338875212566069,0.9346254959341735,-1.5129401811250338,-1.8155769518906266,4.162648384960454,-3.073521050839288,-1.347403284269401,2.7202110545413274,3.0,0.4790576373874746,0.4894581289449219,0.3117899624992712,-0.6343539560736303,0.394282714355546,-0.1441673291479666,0.6491163075909431
15.200000000000001,-3.8036473324425915,3.525250094080174,6.496145203420361,-0.3506923051384546,-0.5407370566069556,-0.27180809922469323,-0.10781559580316594,-0.3386331780091623,0.9347207964270916,-1.5130793953326578,-1.8155036125771162,4.162624707551794,-3.0735279477759887,-1.347422906241875,2.7202060317608483,3.0,0.47904819799626014,0.4894340375364662,0.3118113850297634,-0.6343522423727455,0.3942752544672759,-0.14416668320904696,0.6491226569485437
15.3,-3.6263263367602496,3.113925733876634,6.458957621570644,-0.3576318245280996,-0.5486073020733534,-0.26324226762968994,-0.10753820720663952,-0.3377974767731809,0.9350552264302047,-1.513075828552246,-1.8155085049071253,4.162644076656688,-3.073515963422558,-1.347386616905207,2.7202011826747543,3.0,0.4790298624300457,0.48937685403896736,0.31185767290474964,-0.6343281143573837,0.3942738307359917,-0.14417884669994313,0.649144398340498
15.4,-3.70211484278084,3.3787658352388874,6.445631834267718,-0.34699360759270254,-0.5433738261998289,-0.259231973872215,-0.10767035201064619,-0.3381210742183176,0.9349229750512966,-1.5130569712246298,-1.8155298544998886,4.162612411747662,-3.073523075782848,-1.347391538610993,2.7201991345780216,3.0,0.4790155039138418,0.4893937115329921,0.311846320811831,-0.6343351656333784,0.3942762513372036,-0.14415726813572394,0.6491408301100785
15.5,-3.689877780125188,3.296319626651224,6.322386355430107,-0.3507971614541073,-0.5445959472160714,-0.26208255899312655,-0.10784678000084587,-0.33857002759115745,0.934740261027569,-1.5130622226543247,-1.8155110487983237,4.162658570217023,-3.0735328923898138,-1.3474149408996934,2.7202254553567067,3.0,0.4790311187019127,0.48938202515480694,0.31183839992859264,-0.6343266569654559,0.39428932446197407,-0.14417993094256223,0.6491361709162011
15.600000000000001,-3.7401748660292524,3.0529945634569264,6.239085178580476,-0.355358953572282,-0.5420981202172865,-0.25884495851513156,-0.10769039339567048,-0.33815902960325317,0.9349070624915262,-1.513075828552246,-1.8155037655190973,4.162624413432599,-3.0735182042229123,-1.3474111378210918,2.720205725876886,3.0,0.4790232195033194,0.4893717573809128,0.3118200982688903,-0.6343464411644684,0.3942929018745405,-0.14417682833336543,0.6491153536044724
15.700000000000001,-3.760732389396596,3.23039492616966,6.4996565635917465,-0.3510898846221461,-0.542257475160893,-0.25976189603446664,-0.10725476894572024,-0.3369394722190717,0.9353972245750368,-1.5130497079087206,-1.8155396850408998,4.162651538848877,-3.0735394993133904,-1.3473817080699817,2.7202086448669434,3.0,0.4790344631799483,0.4893751277613585,0.3118305853667211,-0.6343415777659018,0.39428568381107265,-0.14418473362813003,0.6491227348103644
15.8,-3.59016310656783,3.2304657394733787,6.451362758061413,-0.3494518260726464,-0.5481803078265551,-0.25674194683793905,-0.10708620318347603,-0.33651199010525595,0.9355704979516852,-1.5130643844604492,-1.815496107141012,4.16262894404443,-3.0735347244400786,-1.347396478847309,2.720198447828609,3.065111257862526,0.47902413214293166,0.48939092918372895,0.31182871365245857,-0.634340633816973,0.3942817804651982,-0.14417311253503595,0.6491286093709276
15.9,-3.7129796646754096,3.239936845938877,6.324652589623881,-0.3502416647794709,-0.549171971851379,-0.2579420953146426,-0.1070369440253458,-0.3364039933421426,0.9356149943974529,-1.5130909445167948,-1.8155161597186182,4.16262674331665,-3.0735179132365014,-1.3473963136364944,2.7202086448669434,4.0,0.47902149292210133,0.48938714168055214,0.31181720338537666,-0.6343527930468257,0.39428104996677854,-0.14416806053980616,0.6491182926947728
16.0,-3.7107636334850707,3.1274685083221807,6.2388274044822944,-0.349560722296417,-0.5503438221602753,-0.2560241011445283,-0.10712024454661326,-0.3366309120278157,0.9355238477295479,-1.5131083641039103,-1.8155204258360804,4.162600479430469,-3.073535351944724,-1.3474105593304184,2.7201845631391866,4.0,0.47902590172701576,0.4893741226286484,0.3118001135053253,-0.6343676303378917,0.39428048473029087,-0.14418319824814252,0.6491007735962665
16.1,-3.711011045414096,3.025544807501706,6.301513378376683,-0.3508751003855251,-0.5497527087154628,-0.25670012582694435,-0.10739644675747038,-0.33732686731334754,0.9352414061740248,-1.5130468805824837,-1.8155138203621202,4.162609030095543,-3.073549886743063,-1.347400967274801,2.720190396657804,4.0,0.47904590378753636,0.48936096507051474,0.3118171412976632,-0.6343565912514246,0.3942872417301177,-0.14419752732344096,0.6491042745649842
16.2,-3.6629831330309695,3.086925258083378,6.236910647896369,-0.3495933120557161,-0.5500897458322546,-0.2514468024103799,-0.10745629154433711,-0.3374675201978832,0.9351838418268561,-1.5130838189152518,-1.815515639159809,4.162612191820785,-3.073521064362221,-1.3474226554029594,2.720244884490967,4.0,0.4790349209783433,0.4893710585686249,0.31183950058187254,-0.6343324401940921,0.394291337459758,-0.14418262469318802,0.6491286985322612
16.3,-3.598201393377416,2.629328854181078,6.070881258150947,-0.36117023809769466,-0.5500220259434714,-0.25059523942588774,-0.10723631882808986,-0.33687585979967705,0.9354223283161965,-1.5130775691594183,-1.815503456156704,4.1626152992248535,-3.0735255680479945,-1.3473953851434273,2.72019624710083,4.0,0.47903155557143623,0.48937983732776497,0.31185705700931804,-0.634329332486259,0.39428280959621026,-0.14417726123980032,0.6491381065272983
16.400000000000002,-3.5174394896020846,2.9335583168585195,6.2398216655102,-0.35378104726722615,-0.5517145201257158,-0.2553592863347888,-0.1074972387973191,-0.33758922776356126,0.935135102297877,-1.5130529403686523,-1.815496107141012,4.162604378480815,-3.0735308184057053,-1.347411467990223,2.7201883663303614,4.0,0.47903887139743834,0.4893713741983995,0.31184108036609737,-0.6343286924700734,0.3942868257101134,-0.14418406669915196,0.6491347809898528
16.5,-3.6205404010375495,3.3190034899609726,6.365714141340604,-0.3451296595205912,-0.5486931649549331,-0.2500985734784667,-0.10742969196185921,-0.3374107290598285,0.9352073685073253,-1.51307349697247,-1.8155216479533092,4.162634584826753,-3.0735243459307657,-1.3474172692191508,2.7202058501512543,4.0,0.479035491807455,0.48937040614895005,0.3118340839858819,-0.6343337411025869,0.39428927914676365,-0.1441811924306663,0.6491289956534008
16.6,-3.7268003373027323,3.3349844478298585,6.200897701078542,-0.3430695996687618,-0.5471875428944502,-0.25343220755275125,-0.1076941954681863,-0.3381646103310237,0.9349045058175646,-1.513075828552246,-1.815472265283102,4.162588110671307,-3.0735226981895165,-1.3474083626685176,2.720234800260182,4.0,0.4790255642260329,0.4893628337051393,0.3118217130936525,-0.6343557431989512,0.39428961630050985,-0.14418488292457768,0.6491064697598761
16.7,-3.808153550825335,3.3201983386002056,6.221170630917691,-0.3438371586494565,-0.5431446282402951,-0.2567406578893262,-0.10751395220016807,-0.3376409647409095,0.9351142833619743,-1.5130825302174342,-1.8155008250378282,4.16260290145874,-3.0735255680479945,-1.3474021269364802,2.720234833408365,4.0,0.479037321682039,0.48936387321014385,0.31182657659323065,-0.6343402780058579,0.39429251856400405,-0.14419092501046776,0.6491184781290167
16.8,-3.928479810174432,3.342998445068038,6.275794738567932,-0.3438796696346023,-0.541361475511421,-0.25652177448480606,-0.10725530539807482,-0.3368962017778976,0.9354128379862138,-1.5131189406864227,-1.8154858867798778,4.162599823664105,-3.073549886743063,-1.347430727968548,2.7202371467105926,4.0,0.4790419959179609,0.4893539457856909,0.31183038609553143,-0.6343418912271676,0.3942885385737831,-0.14419473401338953,0.6491184730590394
16.900000000000002,-3.7205700913401087,3.216825452927162,6.038646510078433,-0.3460567490954873,-0.5477379978853586,-0.24789486328624583,-0.1071380611703921,-0.336562453916304,0.9355463730906007,-1.5130766276484608,-1.8154817345823275,4.162607804718199,-3.0735255680479945,-1.34740587053426,2.7202299785822115,4.0,0.47904281466874066,0.4893692674965439,0.3118466943182975,-0.6343283182246493,0.3942859121365366,-0.14419260848906046,0.6491338042700193
17.0,-3.6846069689095993,3.129069112120465,6.172283831774957,-0.34758781632284574,-0.5458840851979844,-0.24994040520383148,-0.10716772971445705,-0.33665746868893914,0.9355085030481709,-1.5130585908014373,-1.8155051312404613,4.162638091171266,-3.073539015725605,-1.347400967274801,2.7202164421117687,4.0,0.479041407910837,0.48935654009761276,0.31186389680287285,-0.6343284573586052,0.39428020363628935,-0.14419532388064316,0.6491365324618041
17.1,-3.6372288797173504,3.044463758988617,5.974027571307263,-0.35046853557334146,-0.5480567049104706,-0.24708538836912428,-0.10759269748571167,-0.3379061580940939,0.9350094319728629,-1.5131120681762695,-1.8155067897783355,4.162608804717495,-3.073533003431639,-1.3473905820528234,2.7202009120679533,4.0,0.4790311581072748,0.4893608651521512,0.31185282804068987,-0.6343353403158744,0.39427594914749653,-0.14419146141332745,0.6491332485751085
17.2,-3.6551422839142904,3.235082561051042,6.300288251152956,-0.34710178566341665,-0.5449120394243335,-0.24953671026929547,-0.10764451812471486,-0.33810681450972874,0.9349312463080428,-1.513096403720111,-1.8154873147152581,4.162603868179772,-3.0735542829559397,-1.347405363487678,2.720211898510273,4.0,0.47902831707912225,0.48936683185352575,0.31182501727955386,-0.634352860781699,0.3942832577398589,-0.1441716249122476,0.6491160938185718
17.3,-3.760864064127892,3.2389403733624125,6.183493615873049,-0.34511076605062435,-0.5438596675119927,-0.2523066356584337,-0.10800289807145172,-0.33910630646404893,0.934527585009599,-1.5131006240844727,-1.8154887370338324,4.162651854956464,-3.073532938155174,-1.3474128882037562,2.7202210426330566,4.0,0.47902875633291414,0.48936478001355377,0.3118234665421604,-0.6343521977606438,0.39427670031785794,-0.14418186451763138,0.6491184504594847
17.400000000000002,-3.6633765310085007,2.8411828568440187,6.085493041675947,-0.353810797184392,-0.5414376715448168,-0.25168352910045005,-0.10798253886107088,-0.3390096932912162,0.9345650033757527,-1.5130685768826764,-1.8154603443541468,4.16262674331665,-3.0735453449523167,-1.3474160749197377,2.72019991065397,4.0,0.479033044502627,0.48936221975393746,0.31184984687906503,-0.6343319972610765,0.3942797493783159,-0.1441947547645013,0.6491334756268167
17.5,-3.8071886573082088,3.103223414475024,6.089666967433309,-0.34894968602927884,-0.5399719122284211,-0.25009846168441086,-0.10777816913246784,-0.3383920606596158,0.9348125231240791,-1.5131181398574023,-1.8155039508061637,4.162583263386333,-3.0735365747556362,-1.3473965883315686,2.720216488532095,4.0,0.4790342986847418,0.48936846049443333,0.3118477352742424,-0.6343295631751527,0.3942801895932425,-0.1442004122713305,0.6491343300712997
17.6,-3.6362103925658826,2.964493945700039,6.1594206306432255,-0.3494344794353736,-0.5433596671057821,-0.25097232572755257,-0.10772512825276817,-0.33827694999578883,0.9348604167129871,-1.5131006240844727,-1.815480947981173,4.1626206141628055,-3.07354103039103,-1.3474020703929526,2.7202210426330566,4.0,0.47903630415538956,0.4893748585166883,0.3118440209533576,-0.6343369871955263,0.39427798346293336,-0.14419108737312852,0.6491304866929763
