xiamingqian9007/apple-picking-rnn/final_data/grasper_20191127_124903_noimg.csv
,/manipulator_wrench.fx,/manipulator_wrench.fy,/manipulator_wrench.fz,/manipulator_wrench.tx,/manipulator_wrench.ty,/manipulator_wrench.tz,/ground_truth.x,/ground_truth.y,/ground_truth.z,/joint_states.elbow_joint,/joint_states.shoulder_lift_joint,/joint_states.shoulder_pan_joint,/joint_states.wrist_1_joint,/joint_states.wrist_2_joint,/joint_states.wrist_3_joint,/mode./mode,/manipulator_pose.x,/manipulator_pose.y,/manipulator_pose.z,/manipulator_pose.rx,/manipulator_pose.ry,/manipulator_pose.rz,/manipulator_pose.rw
0.1,0.12302557381004044,0.47932240948039934,0.310727153746961,0.01315998390163832,-0.0023779280526705984,0.0027185000719690197,-0.06163016103696346,-0.14573450658311446,0.987402199253969,-1.9254217147827148,-1.7993089161314906,4.171377070538552,0.3949952194208253,1.3323937133271206,-0.3285435996476264,1.0,0.4574171366196896,0.4591171443501357,0.3444150923600718,-0.6354043398629204,0.432601087871866,-0.11816283210051312,0.6286136880194628
0.2,0.4017831911700898,2.1539324570145015,0.47615550092256415,-0.07341401299442529,0.004419465704030139,0.024738666749671692,-0.0617319204357331,-0.1460042040937544,0.98735600942959,-1.924669553064091,-1.8003069837695918,4.171292400497624,0.3949927523796457,1.3325286155765774,-0.3285787741290491,1.0,0.45742405797585717,0.4591532371137103,0.3444081976632712,-0.6354117958915717,0.4325840630806007,-0.11816032574907062,0.6286183384450379
0.30000000000000004,0.2793654091555865,0.8748207493533027,0.3846682154955232,-0.010408330401105503,-0.005557424634477264,0.07195940261968205,-0.06152424196163678,-0.14573816279557436,0.987408154820621,-1.9213215518964788,-1.8035372978791457,4.170654773712158,0.39483971752279307,1.3333036937054599,-0.32867657608061845,1.0,0.4576008480964989,0.4593819634774661,0.3442981127984492,-0.6354403945349247,0.43258263966289295,-0.11814287561553241,0.6285936889572434
0.4,-0.03057389674391483,0.07860001397405601,0.08138138728441396,-0.0029579579518260977,0.010316720901068503,0.1330652896817341,-0.061209671444243295,-0.14526314805974896,0.9874978003526778,-1.9173832794747034,-1.806816467232253,4.169783630603419,0.39469154449575544,1.3339534671829913,-0.3288526978867876,1.0,0.4584882526704018,0.46039697243597766,0.34400039377360214,-0.6354921259238805,0.43255148088514056,-0.11808819642462734,0.6285731080296051
0.5,-0.1453488208353871,0.4701354662904231,0.1995755698483282,0.004172944194610222,0.015251405049092663,0.19038158908330602,-0.06158325908186422,-0.1457859026831914,0.9873973622543114,-1.9137650432652573,-1.8105764141587561,4.1688923835754395,0.3944041716770613,1.334712326547947,-0.3289926390688184,1.0,0.45926337789403887,0.46112046667668505,0.34377455273570634,-0.6354905555436631,0.4325837106356878,-0.11812582088652784,0.6285454458886403
0.6000000000000001,0.10850320613917906,0.11508325736728042,-0.15989383950293268,-0.0012349016693515812,0.00020754088252500358,0.23741804389776008,-0.061950409035421865,-0.1463604398863521,0.9872895208719601,-1.9101292450798784,-1.8136551142668789,4.168253922166618,0.39421454265094413,1.3357431133482167,-0.3291806417946555,1.0,0.4603706539600984,0.46211496244123573,0.3434814364055772,-0.6354826635744274,0.4326218511102831,-0.11819159062191252,0.6285148098052469
0.7000000000000001,0.08238033046222441,0.3019409470733059,0.005345857740491372,0.01106933235176917,0.0031746876390168913,0.2542031914362466,-0.062260525315688924,-0.14739373690201227,0.9871160912321026,-1.9065710533139228,-1.8170149875676722,4.167418789291239,0.3939900450559751,1.3363280296325684,-0.3293029300963008,1.0,0.4611807602069537,0.4630063240173019,0.3434730298574963,-0.6354081695810617,0.43251924799155805,-0.11810000179857234,0.6286779364043558
0.8,0.19023780800469883,-0.1994352801264801,-0.030894872891464115,0.010931183387717163,0.0039050857634360544,0.23542123534082757,-0.06201496982799786,-0.14678572119676178,0.9872214530018563,-1.9031421270836613,-1.820000074943949,4.1665691147392305,0.39376346848798205,1.3369375457221955,-0.3294290336781283,1.0,0.4627183512633267,0.46442569978560727,0.3430381202264605,-0.6353961882131789,0.4325846232635559,-0.11815322450928509,0.6286350636562903
0.9,0.24961270154944604,0.2788630830643367,0.0893755814714955,0.006441947966828819,0.009213360912785941,0.23555638130973186,-0.06147063415002261,-0.14525296027973983,0.9874830956631331,-1.8998568743842674,-1.8231143093312672,4.165992259979248,0.39355642125588575,1.3375569648646588,-0.3295546075606485,1.0,0.4631766412745498,0.46482636876171113,0.3430132525664632,-0.635340572087122,0.43258629294355955,-0.11817120221370003,0.6286867451956708
1.0,0.2608980324113095,0.2655663600081805,0.20121404686317435,0.009293196640275194,0.004558132870321382,0.23117090401155158,-0.06183415549453941,-0.14594113365994799,0.9873588177537307,-1.8966398239135742,-1.826090997769194,4.165385675417134,0.39327156124672386,1.3382079448368223,-0.3296783367674257,1.0,0.46417514853981745,0.4657964607804945,0.34264507406026734,-0.635386871576338,0.43263805834100166,-0.11821511664979219,0.62859607069949
1.1,0.15037846534765398,0.3818487705046726,0.16344273664441417,0.01129983386788291,0.00399704091022487,0.2284773071566747,-0.06233841793005465,-0.1472315862769436,0.9871352014777602,-1.8935500895069202,-1.828959772322374,4.164820109055134,0.3930660459820315,1.3389497726211421,-0.3297871646771869,1.0,0.46526266217559625,0.46694958883973486,0.3424094802576647,-0.6353570781385025,0.4325928300417455,-0.11818529125796495,0.628662917298331
1.2000000000000002,0.11847063246528292,0.4201912958884174,-0.020112542333546597,0.009883907448829301,0.0038053412883074073,0.2310184338707585,-0.06187837241242793,-0.14646223467705793,0.9872765035793581,-1.890488671299855,-1.8316589599336492,4.164316457261055,0.3928366077779036,1.3395300267833266,-0.32993350412892847,1.0,0.4659175823323228,0.46769505997591193,0.3421727288543646,-0.6354277130983583,0.432550527568548,-0.11813215323972097,0.6286306203946069
1.3,0.0729361527231425,0.49435184087758954,-0.0170135425843636,0.008098151616992285,0.008242318745975166,0.2234998351710339,-0.06066313530714297,-0.14389782836841652,0.9877314245800919,-1.8875734398677848,-1.8344271557496075,4.163696616233374,0.39259545385327144,1.3400432924315548,-0.3300411736229115,1.0,0.466806072713407,0.46861122447312836,0.34201708608931264,-0.6353921564170195,0.4325307072887401,-0.1181039468039616,0.628685495749154
1.4000000000000001,0.32141677449892747,0.10592906598857528,-0.03794153466024421,0.000692304045541554,-0.001825767636100226,0.22883580317332874,-0.06093107290198708,-0.1443872559939395,0.9876433587344431,-1.8848106329794587,-1.8369518026438156,4.163131142668607,0.3923739217638554,1.3405311519929806,-0.3301046411327383,1.0,0.4673130698161843,0.46911641893543515,0.34175024149613537,-0.6354644619966984,0.4325600551867661,-0.11812844233854475,0.6285876130713506
1.5,0.20746970397162368,0.3803857075304813,0.04066108620344538,0.005702697200056486,0.005155275020440326,0.22436724779671974,-0.06123621501367559,-0.1449530082359235,0.9875416356961669,-1.8819878863468704,-1.8395587438281615,4.162527561187744,0.39215958767531356,1.3410015892777576,-0.33027258154537226,1.0,0.4682096056002153,0.46997150030280554,0.34159295392489625,-0.6354068154814742,0.43256202412308764,-0.11815313998072856,0.62863988867946
1.6,0.41252867942727706,0.3652554747235913,0.03649590172918066,0.002380651255713314,-0.0046477443531516395,0.22801597231854775,-0.06229727623571598,-0.14706738153367419,0.9871626908813733,-1.8794330109030293,-1.841974489512722,4.162029141713552,0.39190534584148184,1.3415095391384062,-0.3303149688266829,1.0,0.46922856938515267,0.47094044514793704,0.3412814763830863,-0.635397716810884,0.432616136025524,-0.11818730146699617,0.628605426395454
1.7000000000000002,0.3514550149420678,0.2838347694056757,-0.0600972506907876,0.004562854098082126,-0.0012882214310707039,0.22296728535114543,-0.06195596296984796,-0.1462457121203721,0.9873058388106521,-1.8767777822885832,-1.844041353416882,4.161413042828388,0.39170366006641383,1.3421137415705424,-0.33040437852993026,1.0,0.46960617096381346,0.4713342402009212,0.34111467826964675,-0.6354369734635846,0.43262226955970357,-0.11819828369657953,0.6285594565095921
1.8,0.29485333944097974,0.3633856186123327,0.1605411954877789,0.0031658543335662376,0.0050785116088321695,0.22111272325906955,-0.06162169942636601,-0.14544438767395165,0.9874455346483594,-1.8742175382182296,-1.846680982070108,4.161007404327393,0.3914304905554115,1.3426234855353054,-0.3304956536357134,1.0,0.47047173385736113,0.4720940898632789,0.3410481416796037,-0.635336789881539,0.43262591903470743,-0.11817449801288098,0.6286626803157632
1.9000000000000001,0.06856117034288892,0.17536182237588724,0.06019465117870368,0.01611883775636141,0.0038366062251295767,0.2192955423536229,-0.061904434930130814,-0.1464236759232969,0.98728309983552,-1.871770735206844,-1.848526355279152,4.160559406320504,0.39122067054726956,1.3430000068256691,-0.330623337402513,1.0,0.47140357762467505,0.47310591083517584,0.34063592176709573,-0.635453621678401,0.43260035580259965,-0.11815055268959276,0.6285666820269841
2.0,0.40841993794628745,0.20322841707264128,0.17304786993497032,0.0036800724530216895,-0.000404632626929526,0.218378770945028,-0.061535703402955916,-0.14546955090443772,0.9874468810727104,-1.8694079518247058,-1.8506899726572914,4.1601477613199895,0.3909473034537326,1.3433940360830872,-0.33067127838574334,1.0,0.47181748035757765,0.47352497186375453,0.3406021933133583,-0.6354200615935369,0.4325861368514614,-0.11815694872912666,0.6286091909886599
2.1,0.4964863880715647,0.46597568043175863,0.08985929648657236,0.010730076817067634,-0.005102797673417867,0.2227753894437264,-0.06147970090744064,-0.14530283680068212,0.9874749486976666,-1.867063496353921,-1.852876031664262,4.159736156463623,0.39074774089536773,1.3438048893146302,-0.3307741013752829,1.0,0.47258758608421525,0.4742750912836576,0.34049869568317725,-0.635353582648068,0.4325934486030327,-0.11816950789213565,0.6286689913193829
2.2,0.26178426114074016,0.14722933756760193,-0.044055915210521296,0.005629650485515225,-0.0021878652336872082,0.22227454014174353,-0.06180719914276733,-0.14611107945676702,0.987335202242198,-1.8649084612222797,-1.8546541022995393,4.159351825714111,0.3905035442491994,1.344204958938637,-0.3308143644356618,1.0,0.47297632877453105,0.47469962732712584,0.34030195645385863,-0.6354062857618088,0.43260404164170324,-0.118165361478085,0.6286092128790346
2.3000000000000003,0.19324616494810704,0.08864305629566577,-0.114219181850479,0.004519278784734447,0.0001343481717087714,0.22012130974643684,-0.06210336415917201,-0.14682776190444274,0.9872104974276491,-1.8627519607543945,-1.8567795675750318,4.158984341668464,0.3902948076414679,1.3445628154744205,-0.33093087166563134,1.0,0.4737707508921585,0.47552132913764644,0.34018224622899607,-0.6353752147332542,0.4325740744526845,-0.11816007818919783,0.6286622324717759
2.4000000000000004,0.22163359672195854,0.42904976391138644,-0.02756618413218806,0.009308444328071657,-0.0030897578588289084,0.21786504512377067,-0.06236212329582135,-0.14743513894833432,0.9871037494598885,-1.8605089720309138,-1.8585554960954944,4.158632755279541,0.3900599265954092,1.344946107179105,-0.3310002862759589,1.0,0.4741507186909776,0.47593609247521124,0.34004886448084504,-0.6353880135634646,0.4325819717995615,-0.11815352911779717,0.6286450933960178
2.5,0.2335416831550492,0.26638537547421537,0.003362387339059164,0.006197987722507841,0.0015757101109648598,0.2172010860058871,-0.06161448053092175,-0.14575974564535335,0.9873993767497214,-1.8587053941876701,-1.8603705817640306,4.158231218463214,0.3898086910585196,1.3453413320391365,-0.33106535346686566,1.0,0.47477627571994274,0.47658028979907374,0.3398734638398697,-0.6353951532608241,0.4325705810472966,-0.11816083348311315,0.6286443422601002
2.6,0.3738034578622507,0.18787920417574855,0.2070330406387526,0.0012871572680035834,0.0014496371539455158,0.22022715529310666,-0.06151355656938525,-0.14560066911007963,0.9874292516466414,-1.8565441843899242,-1.8620908974212214,4.157829467462098,0.38962848531374966,1.3457613941862479,-0.3311191797138263,1.0,0.4753910657072093,0.4771957153225905,0.33965724913147194,-0.6354435416928826,0.4325650686109037,-0.11816167849057332,0.6285990649648951
2.7,0.28762936577373854,0.10045663971828439,0.012349571882581574,0.005346014318271701,-0.00500522652929185,0.22595261513308162,-0.06163831606235916,-0.14595320392649674,0.9873693352884602,-1.8546350405054184,-1.8637941456977498,4.157532428074809,0.3894437022084826,1.3460954555030007,-0.331197051472009,1.0,0.4757577296974925,0.47755092860836634,0.33958586568881416,-0.6354230509090084,0.4325712439937871,-0.11814302648877661,0.6286190344996143
2.8000000000000003,0.4132492280877752,0.07243997918476558,-0.0035065069961938075,0.0006699262858315047,0.0002905543298803333,0.22371498914722124,-0.06177938711991159,-0.1463424321543187,0.9873029774171285,-1.8529672714934529,-1.8655482041894198,4.157163827404866,0.38920964521531337,1.3464557814453937,-0.33125001127660986,1.0,0.47626475942167573,0.4780749615353364,0.3395596072810355,-0.6353720349037165,0.43253750775528355,-0.11811706187691899,0.6286986888333098
2.9000000000000004,0.3778902047450957,0.3748302907627201,0.15197844697845345,0.014468226916123265,-3.717730088958647e-05,0.2192840134950668,-0.06110712902544789,-0.14469398381159024,0.9875875513098097,-1.850930731898151,-1.867118700024945,4.156811237335205,0.3890229898640136,1.3467157370945577,-0.33134181429860043,1.0,0.47692695328708545,0.47871059861559384,0.33919204539508013,-0.6354608705585617,0.43259135647873176,-0.11813719024448505,0.6285680588209874
3.0,0.05546096867825454,0.1616069706083644,0.05781543088850665,0.012443392709312065,-0.000566611792385016,0.2152110511514951,-0.06175246931228807,-0.14600845277018262,0.9873539356103007,-1.8492138851525923,-1.8685576530136205,4.156466292226567,0.3888220495771529,1.347022827938282,-0.3313893645454082,1.0,0.4773095170018127,0.4790299507001321,0.3391187235352918,-0.6354340489058371,0.43261095575713965,-0.11815897519958318,0.6285775903019555
3.1,0.18350348059043817,0.27063083870056903,0.017457648231869502,0.008321477031163725,-0.002371496932148347,0.21405353305665673,-0.06129666958475176,-0.14496013553534232,0.9875368403514891,-1.8477368862750465,-1.8701581352421068,4.1561546833636696,0.3886200704028331,1.3473088058747849,-0.3314646354683035,1.0,0.4779274323074379,0.479656442621404,0.33908076652547897,-0.6353763627823746,0.43257829156958827,-0.11816369440862212,0.6286574906925732
3.2,0.012557418582959601,0.21511071937336698,0.08573711363200628,0.014593843293077361,0.0026674229945200085,0.21662342785197625,-0.06137603848682948,-0.1451448782100055,0.9875048973451299,-1.8459132312538178,-1.871760153742927,4.155860410047734,0.38846220137793946,1.3475823542344922,-0.33151513734926397,1.0,0.4781859039740792,0.47992065991564736,0.3389194018782734,-0.6354274433342904,0.4325959475633792,-0.11816431216343166,0.6285935934610953
3.3000000000000003,0.0956875811492162,0.09274058441527713,0.048277232520266736,0.00222798318926668,0.00469084405519748,0.2125606001829786,-0.06164864490576331,-0.14569899531093755,0.9874062966224416,-1.844268034766702,-1.87289114408437,4.155560875499949,0.3882709621064466,1.347825737830201,-0.3315430601025592,1.0,0.47865858066335454,0.4804094477655499,0.3386904522822433,-0.6354659465823238,0.4326171608210478,-0.11817745511567204,0.6285375979205624
3.4000000000000004,0.5952900069634669,-0.04364497344701947,0.04093754774615456,0.0028241473711916056,-0.005678127344312372,0.2149973550872386,-0.06172760084179456,-0.14580888621336485,0.9873851681562057,-1.8428201810485692,-1.8741260680625218,4.1553210185495395,0.38805214940991206,1.348077947626225,-0.3316148672274213,1.0,0.4792242507758465,0.4809378619985808,0.33877685192245877,-0.6353378046819513,0.43259495667532555,-0.11818962147289963,0.6286801180068324
3.5,0.34662514837931635,0.053073396381184856,0.033590112245109216,0.003815731323534283,0.001387049545830037,0.21542436273169874,-0.06162945862772726,-0.14559088159263628,0.9874233380439186,-1.841279115005329,-1.8755767790275664,4.15506447840124,0.38787513840075194,1.3483691215515137,-0.3316529625523139,1.0,0.479417840214443,0.48113610686877084,0.33872191795162576,-0.6353527742521505,0.43259193675232577,-0.11818943847663269,0.6286671020019625
3.6,0.10117167638134154,0.5315643531254627,0.2294989106999281,0.013886136471379415,0.004333962201912231,0.21292623028737892,-0.06126172961541668,-0.14489939705279067,0.9875479798967175,-1.8398015318198206,-1.877090192191316,4.154808882989487,0.38768923686498635,1.348620891571045,-0.33174258867372686,1.0,0.4799253717299458,0.48169296980415377,0.3385099445806017,-0.6354118381194674,0.4325793305833648,-0.11816954294178868,0.6286198198041616
3.7,0.49828538969838293,0.04873740033517276,0.01093116571887301,0.002661576162303931,-0.006001952883241909,0.21871812626561143,-0.06127360611028887,-0.14490810568370166,0.9875460240544408,-1.838472828926422,-1.8780743960097195,4.154558571025091,0.3875107041707602,1.3488607739731424,-0.33180136053046927,1.0,0.4804148633885853,0.48222041973290375,0.33825886795681326,-0.635463733027869,0.4325961238984185,-0.1181688647524747,0.6285559298880735
3.8000000000000003,0.5555069349354606,0.20830255406000953,0.07321103835924639,0.006723885755368763,-0.005342399657617506,0.223083059569036,-0.061369010109443234,-0.14507088317547498,0.9875162119526594,-1.8370733261108398,-1.8790405333140858,4.154296840013319,0.38734351786679083,1.3491584048582677,-0.33181459108461553,1.0,0.4806711826193783,0.482421965597096,0.33826008766806753,-0.6354231866114214,0.43259879507545423,-0.11818406709147065,0.6285922229089149
3.9000000000000004,0.14565658737991063,0.3227244900139101,0.11124835104464574,0.014836505065444051,0.0011572252939631286,0.21316911931064492,-0.06148692994083815,-0.14537748887809201,0.9874637256975589,-1.8356817876712288,-1.8802852858982761,4.154078006744385,0.38719446581157535,1.349403069704442,-0.33184744404754524,1.0,0.4810869797180988,0.4828183655358545,0.33833135397353564,-0.6353409660027366,0.4325659974843423,-0.11817069699311855,0.6287004064824885
4.0,0.3299002985982436,0.11813770719598853,0.03492804009971082,0.010802673204046244,-0.00022725765179437235,0.21652571040340912,-0.061611187524952045,-0.1457245793216061,0.9874048571255487,-1.834430859570713,-1.8815695608962877,4.153890297894687,0.3869781282930907,1.3496077418060644,-0.33187382805629506,1.0,0.48133188907411933,0.4830788996821642,0.3382782836213855,-0.635340100799411,0.43255608601019024,-0.11815974365522143,0.6287101587783287
4.1000000000000005,0.33569268280440284,0.24040171707015,-0.1430589437674303,0.008734577327530095,-0.0024691948192245993,0.21950258410489396,-0.061631310233427196,-0.145797435330409,0.9873928749063825,-1.8331804275512695,-1.8827556883211196,4.15366210355695,0.38684905024529054,1.3498232675509572,-0.331942238280944,1.0,0.4816651468589082,0.4834444176344842,0.33805172194297817,-0.63541125204887,0.4325637124252992,-0.11815347118260432,0.628634180354546
4.2,0.33907490142424024,0.4982817720336217,0.29664924198479625,0.012260531692730591,-0.002766764196051755,0.21689016460874105,-0.061506937626845615,-0.14552922115604514,0.9874401242463999,-1.8317328446456522,-1.8839123438598748,4.153442859649658,0.38666073858227534,1.3500356674194336,-0.33199152134698073,1.0,0.48214134766867345,0.48392363319715315,0.337876766208415,-0.6354170908416111,0.4326005866555471,-0.11815837500834281,0.6286019817874012
4.3,0.2489608900174766,0.18840100801900697,-0.07930369288597021,0.00847762597559501,-0.0018640495605131214,0.22441373031999143,-0.06134751450476878,-0.1451808682592728,0.9875013581747847,-1.83024405392467,-1.8848878397917141,4.153262243603097,0.3865052896687011,1.3502425647294911,-0.3320315571947903,1.0,0.4823486870030013,0.48415353732650185,0.33782848313418684,-0.6354168051508607,0.4325827894002134,-0.11814382249213677,0.6286172533851981
4.4,0.3001997450943105,0.01762248901332897,0.02337771139432885,0.005755924738936597,-0.007796222983086368,0.2191627086076789,-0.06153665270619912,-0.1455286216851805,0.9874383084975691,-1.8290544057765186,-1.8861092380540556,4.152995703228145,0.3863231861283214,1.3504278218586319,-0.3321062211302806,1.0,0.48270665235237636,0.48450432308728597,0.3379198512637733,-0.6353289405520028,0.4325482436659296,-0.11814276739962061,0.6287300221158112
4.5,0.05954377925301554,0.10673933470321297,0.13617570284531716,0.006312303898895578,0.002408292513549454,0.2172277682682939,-0.06180100618547145,-0.14606003294882242,0.9873434180858551,-1.8278687186744105,-1.8873610415203177,4.152787466078847,0.3861438848528667,1.3506818914265188,-0.3321278353474714,1.0,0.48320010364147253,0.4849820684164316,0.3376653059645564,-0.6353847933004363,0.4325967124210816,-0.11816204288264684,0.6286366044598688
4.6000000000000005,0.2582805404668038,0.26789024325170024,-0.0495074514271537,0.00030246642475037467,0.0020372232928149493,0.22267115633370899,-0.0619440837964319,-0.1464531414345173,0.9872761705979212,-1.8263897252922223,-1.888558042832068,4.1525908159370255,0.38593882185104234,1.3508939448516262,-0.3321498076068323,1.0,0.48341414341129724,0.48522094897339046,0.3375221586755682,-0.6354402307072098,0.43259775451659144,-0.1181615776547209,0.6285799372809461
4.7,0.279368221390317,0.1637971685870649,0.08769275171838771,0.007167490564593789,-0.0009028180135919107,0.21938999677476834,-0.06200644018090739,-0.1466324198016382,0.9872456650176287,-1.8248535923103144,-1.8895890636425416,4.15235648318091,0.38578159228491027,1.351124580466179,-0.3321813204595028,1.0,0.4837275156712069,0.4855527098387564,0.33743005402083714,-0.6354506491459068,0.4325928875027196,-0.11816036268237727,0.6285729829326695
4.800000000000001,0.2892068910524082,0.41331833310784294,0.041678239886689644,0.012785154134929793,0.0005519784762852165,0.2192633144297617,-0.06180581627772797,-0.1461150647237462,0.9873348602627731,-1.8237076611210166,-1.8907200907161468,4.1520792664864175,0.3855481341357376,1.3513197898864746,-0.3322482833563866,1.0,0.48423193689862915,0.486062222599791,0.3374587838349653,-0.6353627592171497,0.43257337419655617,-0.11816236457983008,0.6286748728341861
4.9,0.43316769431305674,0.36156229371486487,0.01328402101978193,0.010221410728349551,-0.00421702211790607,0.21845943701420842,-0.061937160245078414,-0.14637778644274402,0.9872869044223337,-1.8225418725468674,-1.891880969518461,4.151871000866705,0.3854291252801466,1.351530392993044,-0.3322830041764162,1.0,0.4844400570132542,0.48622754948425506,0.33742610984039434,-0.6353571996330549,0.4325692004702857,-0.11818601745651698,0.628678917219838
5.0,0.16683497044073894,0.18765470810133783,-0.04789969449572768,0.008628986212637796,-0.001046397048219639,0.22210486966848356,-0.06282608869962954,-0.14844333668886,0.9869229141183306,-1.821009635925293,-1.8930303059019984,4.15165570110533,0.38526671777626725,1.351800855817957,-0.3323410820684162,1.0,0.4848494557243396,0.4866386867056137,0.33714563788613827,-0.6354400259900624,0.4326033219725915,-0.11817119998332366,0.6285745036847491
5.1000000000000005,0.2524149361581035,0.2719578157360923,-0.03226604411945451,0.009854775903349513,-0.0018851710367430324,0.22018569778533179,-0.06221716218704274,-0.1470755651183957,0.9871661317138515,-1.8195707499681826,-1.8942078271681277,4.151393572181508,0.38511411772151166,1.3520045859739402,-0.33236581483949834,1.0,0.48514186432378886,0.48693519580625827,0.33712678838705523,-0.6354061819263317,0.4325965206235745,-0.11817293343966061,0.628613070271725
5.2,0.17256525956274893,-0.03936550730267764,0.010671230081547172,0.008541685959369369,-0.0014793038532073435,0.2204454168511209,-0.0619786254009484,-0.1465104005325706,0.9872655671204966,-1.8183061631860695,-1.8953212753364244,4.151154704759312,0.38485206669393734,1.352194795037575,-0.3324382745060694,1.0,0.48559023194556605,0.48740067081811234,0.33711031989150597,-0.63535951726812,0.43255878883737797,-0.11815481305354769,0.6286896039928157
5.300000000000001,0.5066417253035083,0.2962915401576238,0.0710177688734454,0.009835917806823613,-0.0015597317121912614,0.21674001803100645,-0.06189825545275496,-0.14628797171871127,0.9873036034857151,-1.8171074707533246,-1.896639799804052,4.150937613860781,0.38471900103375034,1.3524238879335806,-0.33243798063593094,1.0,0.4858534356122493,0.4876518751557353,0.3370172515455581,-0.6353574989461678,0.43257960872224827,-0.11816092296644314,0.6286761701657662
5.4,0.4610700049026585,0.15492095072511297,0.0905655755920439,0.005781624868020444,-0.0019459609702951084,0.21652372906334488,-0.06179279433881246,-0.1460471444274256,0.9873458418276233,-1.8157033920288086,-1.897693675010064,4.150723348586512,0.3845153547945741,1.3526992797851562,-0.33248588439042015,1.0,0.4862389375397693,0.4879966704499585,0.33679028167704417,-0.635411729700276,0.43262199256012024,-0.11817349722987969,0.6285898264091409
5.5,0.03850731955675202,0.22244042428149402,-0.12239659346686696,0.006172901537482785,0.004556045576444899,0.21830511037393552,-0.061676278653314535,-0.1457982112040659,0.9873899314606375,-1.814231855486297,-1.898784806123201,4.150530979120314,0.3842997367439124,1.3529508981325955,-0.33255687486784585,1.0,0.48665416532453865,0.4884308029507908,0.3366934422772567,-0.6354129144042371,0.4326095876962651,-0.11816704700602676,0.6285983788107129
5.6000000000000005,0.3257495041229868,0.37400706360127794,-0.09231707639804854,0.010412311768275163,-0.0008901676487727461,0.21774431048729442,-0.06155420010318258,-0.14557429963054674,0.987430589235389,-1.8129252604588395,-1.8998760750553672,4.150277450310512,0.3841079167202496,1.3531205304219822,-0.33257049926500315,1.0,0.4868591374767436,0.4886734557145542,0.33671944167860707,-0.6353836667999141,0.43257872342302595,-0.11814572002254986,0.6286531896411205
5.7,0.20908346373717085,0.23777839517821342,0.05118109031471037,0.010296514246861677,-0.003441214915368353,0.2158597874714507,-0.0615288108691099,-0.14556360155650044,0.9874336815312474,-1.811623082672783,-1.9011742077269496,4.150052212722673,0.38386908854293444,1.3533357679744158,-0.3326060181096228,1.0,0.48731596903838054,0.48912590591114224,0.3366459111946862,-0.6353682897151656,0.43256507001706374,-0.1181532443128968,0.6286767114216137
5.800000000000001,0.10307272560938452,0.5817406826695207,0.1879288637099764,0.017018741403622875,0.0015100512462527084,0.2146847198115897,-0.06188934734494242,-0.1463255904789026,0.9872985888926793,-1.8102655410766602,-1.9024892469721588,4.14982271194458,0.38370561418650734,1.3535404981693415,-0.3326503304675581,1.0,0.4875771938112413,0.4893768005721575,0.3364974846242493,-0.6354044443079916,0.4325861562662697,-0.11816373986340824,0.6286236872262452
5.9,0.31506966087138405,0.14871284996359485,-0.018078519660582548,0.016300693615795017,-0.005751279093291862,0.21592382260200674,-0.06174631914999001,-0.14600221154086426,0.9873554039683854,-1.8088804243609466,-1.9033894175326942,4.149604922937905,0.3835418723050926,1.3537657437045663,-0.33272422075119995,1.0,0.4879400601304214,0.48976633146994275,0.33624627213322106,-0.6354776290238074,0.4326122306414315,-0.11816302733921581,0.6285318924921449
6.0,0.16618242805499348,0.5792287233662795,0.015516211010704418,0.019353078335984892,0.004926973527942958,0.21221157953784764,-0.062044942960741915,-0.1466395786242976,0.9872414928670724,-1.8075373058113196,-1.9044688763433932,4.1493916511535645,0.38325612127270503,1.3539894502226106,-0.33276111284364873,1.0,0.4882372642392358,0.4900279865698383,0.3363087603560073,-0.6354061231630869,0.4325940903198185,-0.11816653882159481,0.6286160042268644
6.1000000000000005,0.12449864384302914,0.6752465316489487,0.010538858842991657,0.018730679165102876,0.004750616858436826,0.21645962994174464,-0.06258696715890712,-0.14780642582060638,0.9870334922629579,-1.806165171521361,-1.905545357059161,4.149172846626897,0.3830690920756046,1.3541865348815918,-0.33280879655946904,1.0,0.488629614576003,0.49039629266110496,0.3362656723080817,-0.6353819861917152,0.4325946433408432,-0.11818720679367346,0.6286361350783054
6.2,0.2155333156841311,0.28280063137775374,-0.04166770912102241,0.012791628780467003,-0.0026814340817457615,0.2181451253438668,-0.062088019547788476,-0.14673502986583065,0.987224523629053,-1.8047181588632089,-1.9069155302090233,4.148952554773401,0.3828352739804054,1.3543804045076724,-0.33285516561758355,1.0,0.48908865021835524,0.49091535335567454,0.3362024251074113,-0.6353686564801058,0.4325688317678161,-0.1181570363902593,0.6286730397409795
6.300000000000001,0.24021364196885758,0.3301323653014253,-0.13001230959410173,0.012118352186649512,-0.0007256582724836109,0.21052854667919602,-0.061850005806792195,-0.146221375162547,0.9873163164958992,-1.8034940590630761,-1.908175607720846,4.148734163814158,0.3826789511277294,1.354588043137102,-0.3328807989703577,1.0,0.4894435039485996,0.4912823317426171,0.3359898009299893,-0.6354252379441716,0.43259109149545394,-0.11817353647946607,0.6285974306488223
6.4,-0.05611741052476005,-0.1120565939924465,-0.11631734362825932,0.0037378189312532208,0.0033559440011288015,0.21206824167364074,-0.06212651005470909,-0.14681202578017052,0.987211351946958,-1.8021665027326357,-1.9091204221504627,4.148525438056326,0.3824407297321777,1.3547983169555664,-0.33291703859438115,1.0,0.48970281671575755,0.4915387072123411,0.3358248756941634,-0.6354700950886123,0.43260440467707606,-0.1181858630696011,0.6285406025648272
6.5,0.2772531379176471,0.431109111442873,-0.07710888439970119,0.013479825224198385,-0.0020469671498783105,0.22201230053683818,-0.062021295893892756,-0.14654150176281402,0.9872579550664073,-1.8006823152838545,-1.9101058445372523,4.148312091827393,0.3821939490674848,1.3549949450161616,-0.3329503316197476,1.0,0.49010937353531553,0.49191271677178783,0.33578746314374297,-0.6354238479931753,0.4326150814704737,-0.11817949775943944,0.6285812047740276
6.6000000000000005,0.10598931386072445,0.21190453671155354,-0.052852417139428724,0.013564612956966697,0.0012854867935179805,0.21429687462558342,-0.06167788476374368,-0.14573359420977947,0.9873991382701113,-1.7991773562008215,-1.91124501454137,4.148103517369488,0.3819903152374463,1.3552277193432132,-0.33297664323915654,1.0,0.4903330531823029,0.4921364057939578,0.33582073785973526,-0.6353857617422274,0.43260702887802205,-0.11817964545838974,0.628625217231944
6.7,0.5044825743401733,0.10944801759326028,0.12634168881251773,0.006307899520415397,-0.005168494859541099,0.2200331265698973,-0.061503360956877154,-0.14533975079935518,0.9874683161403898,-1.797943572223489,-1.9125405750670375,4.1479201146707405,0.3817631072697176,1.355433464050293,-0.33306407681280126,1.0,0.49065477891396053,0.4924831636206795,0.3359483259536504,-0.6352900887374204,0.43255686462154086,-0.11816463098929421,0.6287592400942882
6.800000000000001,0.3754017055612344,0.2584518859980869,-0.018945895639626148,0.00768039718496543,-0.003773213548344528,0.2184778563126364,-0.06143738872979245,-0.14521204528452747,0.9874912129012033,-1.7967972682418194,-1.9137348085438957,4.147707365483081,0.3817043963322017,1.3556686415969974,-0.33307879128769824,1.0,0.4909935428746502,0.49283088964931987,0.3356822626091126,-0.6353788224945325,0.4325909504521537,-0.11817275409769645,0.6286445909266454
6.9,0.30860324085838026,0.5776258268954828,-0.07426608153693802,0.008304110330656204,-0.010276351189189207,0.2214221886140402,-0.061717427385560124,-0.14588025920771105,0.9873747807409223,-1.7953171364192806,-1.9149170415436623,4.147476454850854,0.38150612890209956,1.3558901456923447,-0.3331357778775635,1.0,0.491358480827946,0.49321357997447435,0.3354772802036562,-0.635423782249827,0.43259574575947757,-0.11816724804784487,0.6285968813086213
7.0,0.2693475231618591,0.20617236206168588,0.183628081224098,-0.007487213176158164,-0.007742965316641953,0.221696315240521,-0.062143246695461646,-0.1468819022439299,0.98719996216357,-1.7946127433862535,-1.9152998221407316,4.1473922123776905,0.3814264265290643,1.3559761703059,-0.33312234085069564,1.0,0.4919069754615198,0.49374910212820056,0.33539675497897903,-0.6353684078009366,0.4325765631923903,-0.1181678998395549,0.6286659294034248
7.1000000000000005,0.39427950902883346,0.24561091357157241,-0.003263544801232485,0.02075261586345651,-0.007606129747626384,0.21627805557037766,-0.06170052386512354,-0.1458660332348903,0.9873781287976509,-1.794679558000366,-1.915306762831938,4.147375780876744,0.3814183935494578,1.355959220892196,-0.3331466214664082,1.0,0.49198161373129384,0.49381790820533905,0.3354367239072777,-0.6353482642932012,0.4325626812386918,-0.11817027762680826,0.6286953915409385
7.2,0.3913538511374571,0.19349925756292244,0.05015097190938225,0.013043283945982672,-0.006712065170230127,0.21276490838358636,-0.061470515175527374,-0.1453785704887958,0.9874646514503789,-1.7946569453968721,-1.9153337912113748,4.147379824739344,0.38141867369113336,1.3559914594538072,-0.33312894474699417,1.0,0.4919740425341793,0.49381988454612363,0.3354188586408251,-0.6353525298397614,0.43258151455127736,-0.11815193010572422,0.6286815708345761
7.300000000000001,0.4150264451334249,0.2715577293177973,0.056273929096914886,0.006139262428803889,4.940338811183038e-05,0.21413084332478094,-0.06141603104350905,-0.14531801232730612,0.987476938017948,-1.7946576551709856,-1.9153251934787827,4.14737532213756,0.38141939658267643,1.3559765295301165,-0.3331206480609339,1.0,0.4919719261849092,0.4938352560199334,0.33538840596246655,-0.635373256878361,0.4325783446308137,-0.11813836655914975,0.6286653533852374
7.4,0.3392380973250887,0.17505150302559952,0.16090559246316544,0.006733483350555509,-0.004559723401672838,0.21411726998367495,-0.06163677798668685,-0.1458229756081932,0.9873886029871966,-1.7946936237861921,-1.91540162594814,4.147363217964332,0.38136738532994424,1.3559572088169751,-0.33315277371750873,1.0,0.4919735820374823,0.4938360057031988,0.335376021839947,-0.6353844224813157,0.4325732255337168,-0.11815486414459662,0.6286544903986713
7.5,0.3157149418157782,0.23572374095014578,0.06479125714235476,0.006562238738603874,-0.0008924958174126864,0.21143353077291627,-0.06185354977732896,-0.14631637248511317,0.9873022046609722,-1.7946978857430043,-1.9153825343842792,4.147344092687538,0.38140213898420716,1.3559658343757224,-0.3331206480609339,1.0,0.49197233758877784,0.4938486837260017,0.33534893214348893,-0.6353937381352017,0.43257564434034346,-0.11815155270950681,0.6286440328631491
7.6000000000000005,0.23126292701715434,-0.012539645496418672,0.03432805433063462,0.0032901546210699893,0.00021256982979863466,0.21320237753683896,-0.06200713459288929,-0.146625915768317,0.9872465911913274,-1.794705952343741,-1.9154028755964894,4.147388793521146,0.3814231592365722,1.3559874918365666,-0.3331609692965813,1.0,0.49198589274462745,0.493838115002438,0.33534708997995283,-0.6353914440261437,0.43257973229310687,-0.11817238741322572,0.6286396224552301
7.7,0.07666294060500634,0.5578331036747287,0.11835504106580595,0.014608335435068714,0.0031981722049382287,0.21441691244354966,-0.06215705188766978,-0.14692982658438586,0.9871920404348677,-1.7947015762329102,-1.915401121179098,4.147379398345947,0.3814088343410555,1.3559966087341309,-0.33319217363466436,1.0,0.4919889345015186,0.49383001253822767,0.33537992201049244,-0.6353802568527994,0.43256729236070174,-0.11817640610019768,0.6286587339905831
7.800000000000001,0.2656995564781831,0.6660405575418691,0.10189757907958943,0.017909793160681104,-0.0016613330716267758,0.21329784088449832,-0.062223845512418934,-0.1471060785901329,0.9871615758732623,-1.794721584437457,-1.915390442613653,4.147354602813721,0.3814057351481261,1.3559727668762207,-0.33317615578649673,1.0,0.4919824513166651,0.49384714493580395,0.3353364720263753,-0.6353956923171146,0.4325866581858817,-0.11815354177848975,0.628634104952654
7.9,0.46522930180757305,0.27547098322166724,0.21058857714832288,0.011420583382575247,-0.003006529629597646,0.2130607414618528,-0.062355424313088034,-0.1474347771357724,0.987104175871893,-1.7947059588880951,-1.9153959150123276,4.147352002116234,0.38140774427963026,1.3559727668762207,-0.33314448991884404,1.1966348575719303,0.491986651560101,0.4938453635454716,0.3353175403041479,-0.6354091172210232,0.4325874499049528,-0.11815408151776519,0.6286198890886473
8.0,0.49710768019998774,0.20631911143601867,0.12332672659399498,0.008670435889488163,-0.0049416930271269,0.20899971658455227,-0.0625335008289958,-0.1478711558873044,0.9870276846460013,-1.7946945984299119,-1.9154115189784782,4.147337413306709,0.3814178557763737,1.3559365272521973,-0.33311399571003564,2.0,0.4919796090921835,0.49383817803822144,0.33533878812016055,-0.6353982809806311,0.4325810866426506,-0.1181466246055674,0.6286366224618428
8.1,0.3760536046451035,-0.03056597620291998,0.23753178723379503,0.0004797143635258813,-0.003292594882552284,0.21055205663851773,-0.06221810802118821,-0.1470661630846888,0.9871675020023599,-1.794684432625092,-1.915401121179098,4.147379398345947,0.38141171514477534,1.3559842109680176,-0.3331504738519436,2.0,0.4919991769115264,0.49383979798713584,0.3353038848846805,-0.6354180466726183,0.4325932558018472,-0.11818030984844151,0.628601937128449
8.200000000000001,0.3845817724975163,0.14741479163901666,0.1629211097120213,0.0064178563321786175,-0.003160988094768313,0.2101775729897728,-0.06190806486423789,-0.14627479361886897,0.9873049550006321,-1.794708187965242,-1.9154311838106564,4.147361214546052,0.3814351222628188,1.3559665461025725,-0.33314448991884404,2.0,0.4919995822806305,0.4938241716267525,0.3353393577137882,-0.6353928990975,0.43258923482833445,-0.11818439291585803,0.6286293557878284
8.3,0.5125219978968844,0.6107048864177699,-0.020034995250390018,-0.014011249351722568,0.0005601476964812288,0.21381667671802052,-0.06203050498628581,-0.14658477927425886,0.9872512655551748,-1.7947015762329102,-1.9153709362239664,4.147379398345947,0.38141439250400744,1.355963269582609,-0.3331195175149223,2.0,0.4919930476071492,0.4938325058508006,0.3353439272684728,-0.6353898993179419,0.43258919121897926,-0.11816572185888931,0.6286359277537459
8.4,0.16215617841457874,0.5008279171720185,-0.07711367329461259,0.011559489777590859,-0.00018793160058558692,0.21288284227147372,-0.06207416040863082,-0.1467028403910818,0.9872310123854096,-1.7947099670737086,-1.9153774605664613,4.147358932463682,0.38141171514477534,1.3559645645305065,-0.3331404558607679,2.0,0.49199293331588745,0.4938384076761515,0.33533747512423756,-0.6353926415511344,0.4325885955335459,-0.11817346739133959,0.6286321099671046
8.5,0.4330889494636345,0.2345791952065644,0.1167749642693836,0.005264680422565763,-0.0035203431458187655,0.2059029308549531,-0.06203925726300243,-0.146629527840611,0.9872440995208893,-1.7946838320634215,-1.9153850461350195,4.147361427897887,0.3814346033283691,1.3559603691101074,-0.33314033580372066,2.0,0.49199514813673473,0.49383303097314946,0.3353189952902585,-0.6354099473950472,0.432578077076058,-0.1181877164981452,0.628619176969298
8.6,0.2582970906697551,0.3581467521526591,0.12425692756104705,0.004599153388245023,0.0023980921769711956,0.21647287000783863,-0.061574424563824885,-0.14555859360040874,0.9874312913826119,-1.7946966626817418,-1.9154166829419548,4.1473740753321815,0.38141171514477534,1.3559656921238732,-0.3331186937752104,2.0,0.4919971404595723,0.49383231819741574,0.33532991875531354,-0.6353967509215392,0.4325940781235218,-0.11815698314071096,0.6286272821202541
8.700000000000001,0.4601603235439296,0.3868047152861999,0.045492322592186926,0.004376011916487758,0.0007964604036149988,0.21273217727269386,-0.06129546946336533,-0.14491467879378522,0.9875437030696833,-1.7947263717651367,-1.9153979891106416,4.147354602813721,0.38141834227740057,1.3559603691101074,-0.33314448991884404,2.0,0.491996734536092,0.49381938637122097,0.33534209008359583,-0.6353898913984433,0.43258884063933833,-0.11818050652745857,0.6286333977286771
8.8,0.2796760453091566,-0.004427200605072679,0.07857020815249643,-0.0022849000882078,0.0031719674722126626,0.2122778357328169,-0.0612210049902235,-0.1447406336333098,0.9875738360466976,-1.7946901321411133,-1.9153702720152201,4.147369178010133,0.3814129389007583,1.3559676567083137,-0.33316579212898556,2.0,0.4920012892634845,0.4938265706607636,0.3353175834903833,-0.6354027160442294,0.4325979572973353,-0.11817802219057288,0.6286146282555904
8.9,0.43456175114336254,0.19813080034721375,0.01783805455689176,-0.0004883444016418013,0.000358121292157316,0.21794854535166774,-0.06114654051708167,-0.14456658847283438,0.9876039690237118,-1.794713020324707,-1.9153820169568807,4.147371891894973,0.38143953046948975,1.3559727668762207,-0.33316374782050684,2.0,0.4919907156781543,0.4938308940400722,0.33533129636340464,-0.6353958172100072,0.4325875020394661,-0.11817721942467829,0.6286289472815687
9.0,0.3416535638064267,0.5375810167990827,-0.07598448978936341,0.00769883316215728,-0.007025141975584117,0.2177924905854704,-0.06144422529212024,-0.14525639276857744,0.9874841091128355,-1.7946901321411133,-1.9154081836111394,4.147361947743044,0.38140380522088896,1.3559654219468977,-0.33313963142193037,2.0,0.49199607441576343,0.4938376778855393,0.3353279244798552,-0.6353989585536828,0.43258907111033873,-0.11816286015580628,0.6286273916276547
9.1,-0.38642492124355127,0.2472925991963199,0.05707131057543016,0.012133921379952818,-0.02830055016187715,0.22063300249064946,-0.06182518775861426,-0.1461358240443785,0.9873303845909148,-1.7947110587167625,-1.91539685677433,4.147367000579834,0.3814308157607594,1.3559926273415535,-0.3331122316873979,2.0,0.4920055551340577,0.49382856993312435,0.3353339791764995,-0.635395068637329,0.4325890831235487,-0.11817178966158065,0.6286296366238797
9.200000000000001,-0.13928858700926033,0.2071444824750546,0.16009621234311933,-0.0011135398588017157,-0.045062631719832116,0.21101936557725937,-0.062289728786564566,-0.14720504759617786,0.987142630752128,-1.794669826579509,-1.915397484188988,4.147382824633062,0.38143117704125484,1.35598036242177,-0.3331643228744129,2.0,0.49200469269360475,0.4938305707545143,0.3353474480624002,-0.6353865911880197,0.43258717690442056,-0.1181664627161122,0.6286405182658003
9.3,-0.5460136109440541,-0.45239987047502483,0.2882082232438283,0.03930954455443755,-0.07823566741213792,0.20450538335829294,-0.0618601968405542,-0.14622894696793046,0.9873147099488496,-1.7947041091090628,-1.915401121179098,4.1473578207527035,0.3814176559552048,1.3559933907951482,-0.33312947481779026,2.0,0.49200188195236083,0.4938361064984213,0.3353291826236076,-0.6353996392496243,0.4325721483282161,-0.1181897719624528,0.6286332895541108
9.4,-0.9334376889841977,-0.16821793313149036,0.6869666681868751,0.04100192582836093,-0.12454514736058354,0.20793916022257294,-0.06174848794861131,-0.14600913530191645,0.9873542607011354,-1.7947059198015243,-1.9154085175574134,4.147387292176153,0.38142084869442433,1.3559603691101074,-0.3331243462500916,2.0,0.49198584174943305,0.4938544950250574,0.3353113665974656,-0.6354104708112026,0.43257536442811134,-0.1181583667670198,0.6286260319429376
9.5,-1.17028929238687,-0.025849415824478722,1.0467790221245057,0.01551091433725839,-0.1582889341966524,0.2152811390034932,-0.061892285869275365,-0.14632069077735949,0.987298998401515,-1.7946726133977333,-1.915401121179098,4.147390842437744,0.3814454050358908,1.3559842109680176,-0.33310125338246815,2.0,0.4919935070934606,0.4938468194517401,0.33532456283120393,-0.635398852368015,0.43258620760375555,-0.11816472933936403,0.6286291181138248
9.600000000000001,-1.6442950580871318,0.262590148195246,1.341594410803165,0.017473633365815214,-0.17112293183087285,0.20832207557569982,-0.062056048818901734,-0.14670782789773634,0.9872313564310716,-1.7946932510696791,-1.9153946234112522,4.147370977188692,0.3813936772911083,1.3559809620840948,-0.33313039471270245,2.0,0.49198914402553734,0.4938467684229375,0.33531212432483376,-0.6354040416154254,0.4325882525848129,-0.11815647182526093,0.6286240178279917
9.700000000000001,-1.452247247385316,0.20230989899523757,1.696490646779348,0.001689405974509017,-0.1930492137294742,0.21768319201430458,-0.06180607614711535,-0.14629398775318664,0.9873084859166655,-1.7947139523398314,-1.9153923051064692,4.147402286529541,0.3813878949460571,1.3559698078733393,-0.3331533059914728,2.0,0.4919639400886484,0.49385624693159164,0.3353261901092042,-0.6354144697051265,0.4325622592185945,-0.11814233166541771,0.6286340215560378
9.8,-1.6294682032431833,0.4777108288723014,2.1264248193787894,-0.011203544006961844,-0.19337750203385642,0.21568888880152715,-0.0618205892387629,-0.1462851217533296,0.9873089055662526,-1.794717971439597,-1.915422199772028,4.147384703814709,0.3814205065021913,1.3559515777526914,-0.33315917411277923,2.0,0.4919596301958428,0.493865102063122,0.33533540065455286,-0.6354184903311408,0.43255996743383396,-0.1181537137922559,0.628629395300627
9.9,-1.402349822107884,0.4435435470919729,1.9523205045178285,-0.02090120135401786,-0.19270874790859394,0.2139879526779939,-0.06186239276686121,-0.14631804220358785,0.9873014100642735,-1.7947038616596127,-1.9154418770921016,4.147396619139734,0.38138150421367734,1.3559650660506466,-0.33313256898988897,2.0,0.4919842238961678,0.4938495598561936,0.33532776882396953,-0.6354051284997828,0.4325801393468987,-0.11815648892574657,0.6286284990704223
10.0,-1.6549875553751594,0.6770550888473001,1.8786532107688785,-0.017464689448948818,-0.1893762537899667,0.20831741173790966,-0.062162328917245935,-0.14696667163254593,0.987185897999581,-1.79469250665626,-1.9154249630370082,4.147402286529541,0.38141408965992196,1.355965316016663,-0.33313256898988897,2.0,0.4919828429594923,0.4938566987632821,0.33531643333914174,-0.6354077048738958,0.43258596603859706,-0.11816128081065476,0.6286209846087923
10.100000000000001,-1.649678247317739,0.618076307238635,1.9935402638189004,-0.016866360654961766,-0.1881969374786766,0.2174255477330103,-0.06249219518568189,-0.14768669166008258,0.9870578615648773,-1.7947087896048004,-1.9154108386081017,4.147398055809634,0.38139836370434566,1.355951040378264,-0.33314448991884404,2.0,0.4919808815173836,0.49384713839087724,0.33533926758691107,-0.6354003515967217,0.4325817548170009,-0.11817346905546924,0.6286290239891907
10.200000000000001,-1.564395341694209,0.548008984650957,1.9437674519237536,-0.014599933809648797,-0.19106399354533443,0.21089446759092303,-0.0619384349008475,-0.14643164324059654,0.9872790004748255,-1.794713020324707,-1.9154140295491304,4.1473993637039515,0.3814106092107686,1.3559822360858627,-0.3331345438720439,2.0,0.4919918067233734,0.4938385657997753,0.33532608504477956,-0.6354020767428661,0.43258782318506506,-0.11816994678349667,0.6286237664772508
10.3,-1.3607820205825603,0.5016699431359039,1.966148874500721,-0.014190644361896664,-0.19381697046489166,0.21832631388365692,-0.06145332241861179,-0.1453209714918611,0.9874741622687189,-1.7946955687470714,-1.9154249630370082,4.147390842437744,0.38140036666443544,1.355994748842619,-0.33317171622246333,2.0,0.49198519577725336,0.4938498337974018,0.3353144241421946,-0.6354101911043089,0.4325846963621436,-0.11816170116775467,0.6286192662424529
10.4,-1.612948199778708,0.35540207378127436,1.9863391168950317,-0.015855252237988286,-0.19031494343512564,0.21528664522602886,-0.06128969060215048,-0.14491331876626762,0.9875442598925412,-1.7947112079697825,-1.9153948638592824,4.147398661819691,0.3814288642044411,1.3559603691101074,-0.3331463777885572,2.0,0.49199093971438246,0.49383905283338975,0.33532478825465845,-0.6353979112242818,0.43259398586650366,-0.11816861313032832,0.6286239867160699
10.5,-1.4858749276484784,0.47356847961587256,1.9591995829019777,-0.013008183656359956,-0.19132109020988497,0.21226525883294567,-0.06167497641707697,-0.14581767044581895,0.9873870607355908,-1.794708375708895,-1.9154027338929216,4.1473876170100965,0.3814001699438281,1.3559966087341309,-0.3331357944175362,2.0,0.4919873030428061,0.4938391043877054,0.3353266738774089,-0.635405038742037,0.43258381266410784,-0.11817239569600908,0.6286230720055385
10.600000000000001,-1.2910588130238387,0.5354431782594846,2.1815173466187443,-0.022686810050132955,-0.1946380703166046,0.2107666378771097,-0.06194801691544636,-0.1464752860620322,0.9872726127532206,-1.79469399723166,-1.915401121179098,4.147392062992654,0.38144445827175427,1.3559739874311303,-0.33313511181261707,2.0,0.4919817172708051,0.49384144594810964,0.3353143531267236,-0.6354156266358548,0.4325844875256967,-0.11817000539840339,0.6286123546377655
10.700000000000001,-1.6771542202341354,0.35206165010086554,2.059269480924927,-0.03466935312485387,-0.1874222592937357,0.21910465316984132,-0.06214911047912195,-0.14695895731921468,0.9871881821257654,-1.7947005542356576,-1.9153815376430734,4.147423845737134,0.38139955603447356,1.355983188970765,-0.333153217106385,2.0,0.49197687674139007,0.49385446447156023,0.33532069808186615,-0.6354187394307853,0.4325765503100767,-0.11816422702015125,0.6286157563685114
10.8,-1.5082442621528434,0.6372707950628961,2.1048869205035987,-0.02850628411131166,-0.18838088522895985,0.21526165352362725,-0.062281272114932985,-0.1472667641576795,0.9871339917647456,-1.794668330768322,-1.9154343666436862,4.147383338029415,0.3814126606688075,1.3559822411262838,-0.3331892188720637,2.0,0.49196815942704325,0.493849075893152,0.3353187094829251,-0.6354131390694515,0.43257775684539074,-0.11815112187979394,0.6286230503084198
10.9,-1.4630557119931598,0.8100889210199751,2.1728783223908885,-0.022446991493923867,-0.19202584995596575,0.2168211755719412,-0.06188371583322935,-0.14635418554184748,0.9872945967265897,-1.794713020324707,-1.9154360152721788,4.147380031536979,0.38142447838455534,1.3559610550670587,-0.3331774052899501,2.0,0.4919868011087259,0.49384680067272924,0.33531395574716455,-0.635414079135306,0.43258138098990284,-0.11817266984000471,0.6286155557734672
11.0,-1.5024853286570075,0.7242332643133547,2.0303119646141656,-0.024449265967163295,-0.19092889418192058,0.21407900164813176,-0.06197607337817902,-0.14656128772739746,0.9872580520739522,-1.7947120908835739,-1.9153906525019135,4.147391307158311,0.38139789898377907,1.35594842157103,-0.33313256898988897,2.0,0.4919671514845338,0.4938644125105907,0.33533062637584005,-0.6354104163901362,0.4325626854851209,-0.11815341350488234,0.6286357424979576
11.100000000000001,-1.3714215544185555,0.4264650393889525,1.9933381985652543,-0.026976071753066395,-0.1936324935459964,0.21795694129859491,-0.06219445410661752,-0.14705682087319966,0.9871707250901868,-1.7946787118911742,-1.9154492693144423,4.147390817602475,0.381411689316096,1.355972753961881,-0.3331206977314712,2.0,0.49197801419288945,0.493847925818565,0.3353304594950432,-0.6353991461777849,0.43257154231314093,-0.11816667234210002,0.6286385474698216
11.200000000000001,-1.3687883969169565,0.4424579166379526,1.9401530322821974,-0.02789734164043749,-0.19366561718629202,0.2078295081491209,-0.06203647246101133,-0.14666235689445253,0.9872392762724357,-1.7947366020979063,-1.915413241739472,4.147379781638271,0.38142335088273444,1.3559842109680176,-0.33315541269070437,2.0,0.4919842007898237,0.49383675906529867,0.33532730125619825,-0.6353980329657012,0.43259287193151796,-0.118154629491417,0.6286272587051129
11.3,-1.353593235814364,0.8086757788266692,2.112007657062253,-0.02115364275118788,-0.1939360173655119,0.2173777023424714,-0.06194155941983937,-0.14643026379757068,0.9872797291385649,-1.7947009193650663,-1.9154137263453903,4.147425001980262,0.3814123720126192,1.3559727668762207,-0.33316696330207957,2.0,0.49198969277559057,0.4938432881561808,0.33533834703826865,-0.6353938349716515,0.4325892328555061,-0.11816319322594662,0.6286323964481548
11.4,-1.30844448794859,0.720331319551351,2.048715284961993,-0.021028975457531074,-0.19268153680141567,0.21756362980904353,-0.062185187779173694,-0.14702905212436718,0.9871754369753976,-1.7947135705328725,-1.915401121179098,4.147379869952946,0.38138841303471244,1.3559832284534363,-0.3331221218328059,2.0,0.49198321552082175,0.493848771518735,0.33533245515269244,-0.6353927604770826,0.4325853959390301,-0.11815328030947078,0.6286379860505543
11.5,-1.4727655984679275,0.5057245017201341,2.0121692217248004,-0.024464811214828623,-0.18950559756468718,0.21000568928508506,-0.06178898778604738,-0.14611403993408692,0.987336036865611,-1.7947009259084294,-1.9154605252396975,4.147402286529541,0.3814318936430324,1.355963078795444,-0.33316426724874926,2.0,0.49198264645411954,0.493850901190798,0.335315889530892,-0.6354058382381347,0.4325818782485631,-0.11816024775029614,0.6286258785600759
11.600000000000001,-1.5549732841876491,0.8061671909664219,1.977342059743915,-0.01712611399333422,-0.1873449312363363,0.21145730969658288,-0.06209311512509972,-0.1467681683647834,0.9872196040650622,-1.7947061253371321,-1.915403515272006,4.1473904118287175,0.381414013473967,1.3559654888337807,-0.3331659376838463,2.0,0.49199311401123597,0.49382979790081877,0.33532682278485193,-0.6354015417613628,0.4325978631914757,-0.11816967317811425,0.6286174495115691
11.700000000000001,-1.3286016963080887,0.65451479934083,2.115840987170352,-0.02031395090778742,-0.19351025433004115,0.21358342585995016,-0.06241650934897225,-0.14748991010902401,0.987092088268643,-1.7947215817409723,-1.915413042108053,4.147383819906715,0.381379897081519,1.3560058420455443,-0.33313717478235466,2.0,0.491994137258304,0.49383104625074287,0.3353557871566637,-0.6353776584481199,0.43258401131079166,-0.1181721608235031,0.6286506539482428
11.8,-1.3542896019231716,0.7380160652608467,1.8768690583310246,-0.019304305311600888,-0.19413188841438808,0.213077830957613,-0.06216670574767423,-0.14697589642556205,0.9871845240251718,-1.79471515034145,-1.91541882358207,4.147396657199577,0.38141920349119224,1.3559507507469475,-0.3331564108477991,2.0,0.49198245093376597,0.49384956306061806,0.3353176270788989,-0.63540380966296,0.43258402588570805,-0.11815837135102267,0.6286268038303682
11.9,-1.2673485350913014,0.39699283215822856,2.0796750502447887,-0.03350385931121466,-0.1940923502797128,0.2099211136693952,-0.06144055821362241,-0.14529602587207568,0.9874781786158903,-1.794721046116041,-1.915413042108053,4.147365178647249,0.3814003257855914,1.3559842109680176,-0.3331396464972397,2.2149089245810756,0.49198148048221263,0.49385367326976154,0.3353359489160572,-0.635397740387725,0.4325781599710938,-0.1181621100174517,0.6286362722452622
12.0,-1.4568177696361082,0.6713304569890084,2.18353059286248,-0.04170407050746687,-0.19107015084320245,0.21596509879102255,-0.06228036213000775,-0.14717800703764872,0.98714606394455,-1.794713020324707,-1.9153929626789368,4.147389036471923,0.38144143269986763,1.3559507309841317,-0.3331363314186827,3.0,0.4920040057556802,0.4938256383112675,0.33531509498697054,-0.6353960249554134,0.43259973120032086,-0.1181686288584172,0.6286219366121355
12.100000000000001,-2.069631685266147,0.7445787965329831,2.737334799752013,-0.029599579611200084,-0.19566484036789566,0.20974331908719088,-0.06215489953305737,-0.14687226840225062,0.9871999146279534,-1.7953519372099054,-1.915093664751573,4.147402286529541,0.38148516179306685,1.3558764457702637,-0.3331060840973976,3.0,0.49197913143760275,0.49383309829173655,0.3353167505643009,-0.6354051901711204,0.43259523622092455,-0.11816119267412847,0.6286171636603575
12.200000000000001,-1.4796838470582796,0.7082829632723938,4.096686886951842,-0.05634379379386387,-0.18058723001086913,0.20598623450665157,-0.06167436367204071,-0.1457436429074739,0.9873981138631471,-1.7966804980005886,-1.9139974882019808,4.147535800933838,0.3816251512976348,1.3557229738717622,-0.33311118098420983,3.0,0.4919600369155599,0.4937749523129281,0.3352727980292516,-0.6354353978718048,0.43261071189713995,-0.11817851258590113,0.628572721525787
12.3,-1.1871511184907417,1.0756598645461195,4.766140239238564,-0.09250116958556187,-0.1662504056982596,0.20031207174021606,-0.061808920633445126,-0.14596433171458312,0.9873570811211222,-1.7978204299213028,-1.9127418998972485,4.14776441167047,0.38182482546065133,1.3555444653457205,-0.33301707263516994,3.0,0.4915760803868663,0.49329317560362224,0.3352674256333028,-0.6355009799501181,0.43265900214157993,-0.11821130475089105,0.6284670077079493
12.4,-1.2305118633085554,0.9385912113894213,4.722160633311014,-0.10203052901812744,-0.15613318722929237,0.18160488641601652,-0.06190624720477251,-0.14614128704986523,0.987324840220954,-1.7990889821972569,-1.911564572801939,4.148067052071515,0.3820762048043842,1.3552945868802069,-0.3330208784254063,3.0,0.49134561251146547,0.4930921050230648,0.3354491655211621,-0.6354388177266117,0.432622181660761,-0.11820422093915409,0.6285565360518155
12.5,-1.2069702881392634,1.3102175688942974,4.611408709374073,-0.08972575533864346,-0.16214053521065885,0.1737269532052244,-0.06187359542556592,-0.14616556054325835,0.9873232933076161,-1.8004904363105578,-1.9104166722494242,4.14826354211555,0.3822871881672363,1.3550852545452783,-0.3329930310591238,3.0,0.4908447689129211,0.49269451326982744,0.335703317822878,-0.6353691022013258,0.4325738023247457,-0.11815448983416732,0.6286696477819019
12.600000000000001,-1.4285116149316022,0.901285288259379,4.437754801178233,-0.050639734165953326,-0.17451052772743905,0.1605945159789038,-0.06192108898778012,-0.14635285153654515,0.9872924249874439,-1.80201735980666,-1.909434786763063,4.148514819419247,0.38250340006535305,1.3548316955566406,-0.3329246037026768,3.0,0.49059447454900107,0.49242093713752877,0.33577771991813304,-0.6353547387928555,0.43257836642977276,-0.11816058966673357,0.6286798770757829
12.700000000000001,-1.6282980532489797,1.0926456524184378,4.799240562214394,-0.04448518612823546,-0.1886070776850149,0.12541176241778762,-0.062262338737422575,-0.14713764948911248,0.9871540851096109,-1.8033059451402527,-1.908323210337407,4.148731237689242,0.3827224484284987,1.3546249651324624,-0.3328713112591767,3.0,0.4902562092030245,0.49208597761643535,0.3357359084358104,-0.635441386633213,0.43257977898274774,-0.1181794261098644,0.6285877840152796
12.8,-1.2546480211241162,1.1385131148400238,4.951871075168101,-0.07550838283568719,-0.18643384933248686,0.12737194448820718,-0.06251386336560526,-0.14771585358924882,0.9870521906987508,-1.8046275718718354,-1.9069801976595293,4.148979102709447,0.38287775175020955,1.3544085018161967,-0.33285695711244756,3.0,0.48979125187437494,0.4916405594808953,0.3358390037485561,-0.6354298842769803,0.4326075672863312,-0.11816551347476392,0.6285829032988339
12.9,-1.4930251245547848,1.464514316277357,4.7878830736868325,-0.08242996253026019,-0.18495125783214036,0.11993228485879302,-0.062417363248620475,-0.14749272388592288,0.9870916605362684,-1.8058876551553875,-1.905687254996668,4.149214267730713,0.383087566978096,1.3541910428486899,-0.3328326384173792,3.0,0.4895418545506458,0.49138477875092623,0.3359902417845487,-0.6353927451639132,0.43259142126041616,-0.11816629933317832,0.6286314081772093
13.0,-1.539057760985289,0.9904088941026884,4.877416679946567,-0.04007603555910037,-0.20935139239556502,0.0750007782005751,-0.061932638963344465,-0.1464234658045333,0.9872806276988446,-1.8073889637551113,-1.904663732027285,4.149438361210665,0.3833022132075635,1.353952864689669,-0.33273343630406965,3.0,0.48909087932288553,0.49093204717030464,0.336231290725842,-0.6353430526407065,0.4325588083047896,-0.11816846407694095,0.6287036638328313
13.100000000000001,-1.4987748849500881,0.5244686176964322,4.916097459198997,-0.0400955067943638,-0.2030816519227119,0.08669588648340676,-0.06150552774892051,-0.14548642534046524,0.9874461612218178,-1.8086993848620048,-1.9036801490360697,4.149641439495424,0.38350590961456466,1.3537088979047245,-0.3327291565669387,3.0,0.48885603492923957,0.4907178466410649,0.336240413056997,-0.635376421127809,0.43255843199526167,-0.11816708338254839,0.6286704596125695
13.200000000000001,-1.3605836150480695,0.641760798222812,5.150020531980527,-0.047429395902432336,-0.19670783508766615,0.07760999910068907,-0.06215936611590642,-0.1469359733144827,0.987189686547491,-1.8100970984622486,-1.9025606414270928,4.1499006152711635,0.3836821157247767,1.3534811234183701,-0.3326969390196459,3.0,0.4885758338359452,0.49043937619575234,0.33620282093747467,-0.6354241154619749,0.432581971115493,-0.11816230869882442,0.6286069523622576
13.3,-1.334256991401265,0.8105043929823783,5.356620973705043,-0.06713054232061617,-0.19103401696738675,0.06581664583642229,-0.06270743724425087,-0.1481476738852512,0.9869751992901172,-1.8114611218689354,-1.9012419070742816,4.1500939390583405,0.38388627978819784,1.3532687867523,-0.33260088402935967,3.0,0.4880211459171387,0.4898786109936315,0.3362821345710862,-0.6354462518205064,0.4326098036732128,-0.1181710136773704,0.62856378382751
13.4,-1.5983456350298333,1.2621025544710691,5.284004421760195,-0.07486529567800486,-0.18342830003980184,0.05159267212586236,-0.06271599333169671,-0.1481461230452829,0.9869748884002624,-1.8127567278595702,-1.8999525951287315,4.150325051993296,0.3840991251497207,1.3530633812766812,-0.33258342625719484,3.0,0.4877957456232239,0.4896274966496255,0.3364215904964452,-0.6354040834616017,0.4325942857556319,-0.11816168255572919,0.6286188443146575
13.5,-1.4061329239010198,0.7109014864507772,5.143004061621272,-0.06325163354161992,-0.20187715091166344,0.04242656922419937,-0.06268142168978885,-0.14805516238078004,0.9869906896155693,-1.8140822577342974,-1.89897227348933,4.150525802192142,0.384247710285397,1.3528523445129395,-0.3325398966026988,3.0,0.4873524268595896,0.4891583607429379,0.33665170461746413,-0.6353560152836437,0.4325801989403378,-0.11817237291431534,0.6286751113313043
13.600000000000001,-1.55301036210237,0.474773729949714,5.223093463509872,-0.03677474082844387,-0.22353141182478442,0.03592016822863022,-0.06241374534577849,-0.14748094301415002,0.9870935765070823,-1.8154790198769242,-1.8978876577471024,4.15071738550508,0.38443246092463434,1.3526462283929939,-0.3325309841976395,3.0,0.48712710293604505,0.4889596501177762,0.33670604346716787,-0.635364872723877,0.432565192327209,-0.11817208387348094,0.6286765396358409
13.700000000000001,-1.5050865006432945,0.6070783407035396,5.278338831283301,-0.047049887621049814,-0.22506397535265377,0.02041657725799685,-0.06192455461745557,-0.14635957682410336,0.9872906666877737,-1.816906185431312,-1.8967387139255436,4.150978217028492,0.38462308475568696,1.3524521040434212,-0.3324640887382877,3.0,0.4866767142076142,0.4884988850044828,0.3366859710107362,-0.6354291239393859,0.43259616852212207,-0.11818121582087603,0.6285885646881464
13.8,-1.590132823717684,1.1046081859231716,5.516363249959195,-0.05996242983632523,-0.2211527983429398,0.016282126207592174,-0.061415542797775884,-0.14517958746457477,0.9874973386748628,-1.8181315297623784,-1.8955306464823647,4.151180094575652,0.3848591648745846,1.3522470792094332,-0.33244321449854036,3.0,0.4864366641012146,0.48825323642686996,0.3367504565077949,-0.6354189466971749,0.4326026643382287,-0.11817465754647144,0.6285956150813439
13.9,-1.7638941291439647,1.181912233819554,5.572719737101092,-0.06220574503973198,-0.2225213038338633,0.01269717623453367,-0.061522830955593355,-0.14546222548191803,0.9874490305928942,-1.819316459255503,-1.8943084155775554,4.1514130331746,0.3850200465749114,1.352024776644472,-0.3323940882324458,3.0,0.4860512154424397,0.4878544882441494,0.33689878311605964,-0.6353986468110134,0.4325960765653135,-0.118172262883192,0.6286211183662989
14.0,-1.7625491255660992,0.8419668168143107,5.657754011233905,-0.03610077180180004,-0.23678862948301618,0.015249643749062432,-0.06163139849664812,-0.14574823617117522,0.9874001234165848,-1.8208377403261946,-1.8932314118206204,4.151639087117625,0.38522109861359005,1.3517975807189941,-0.33234410062909925,3.0,0.48563874603997736,0.4874688554880248,0.3371174491517862,-0.6353444028070003,0.43256075251491843,-0.11815933355302712,0.6287026778214393
14.100000000000001,-1.8649330092353882,0.6361275337943307,5.687739211564725,-0.02390968473952016,-0.23726142675689915,0.0186003854915988,-0.06174954199852667,-0.14605949072261357,0.9873467321234212,-1.8223480768339173,-1.8921011261284706,4.151830983918941,0.3854109893850769,1.351587856516471,-0.3322651514928454,3.0,0.48541211908272014,0.48726017758172546,0.33710457626823714,-0.6353816674096527,0.43257511139074606,-0.118144624621533,0.6286579017224319
14.200000000000001,-1.7404392287075454,0.6568490058626095,5.7779413649967655,-0.03408457994739745,-0.2364042446416846,0.025333228646994166,-0.06171491448188778,-0.1459831826712424,0.9873601528501335,-1.8235326779494045,-1.8909916044744801,4.152059781544371,0.38562479792815996,1.3513303730095538,-0.3322504241616732,3.0,0.4850271017650835,0.4868564276804713,0.3370885380128659,-0.6354376675205438,0.43259318096589106,-0.11815473603622483,0.6285869620267929
14.3,-1.9156380422167194,0.6434956843258903,5.631080150536143,-0.042787019314490686,-0.23813145741798233,0.02560499914099724,-0.06158185499001624,-0.1456571639555642,0.9874166212644864,-1.8247077891970642,-1.8897900547448905,4.152294635772705,0.3857908561394681,1.3511161860203582,-0.3321978310931297,3.0,0.48459264046004685,0.4864075721574548,0.3372630445346655,-0.6354095653264034,0.4325801368895045,-0.11817206404055607,0.6286210883678366
14.4,-2.160646662245561,0.3788478653446917,5.63037248119912,-0.02743485066052198,-0.24798926130317225,0.025304334728201806,-0.06156169170655518,-0.14556286442209435,0.9874318239086599,-1.8262242776962545,-1.8886661255236916,4.152540171765478,0.3859492614487051,1.350885891818254,-0.33213762403863906,3.0,0.4843224727226078,0.4861382386703582,0.3373748562678232,-0.6353809203590715,0.43258061435289186,-0.1181572375210663,0.6286524996777825
14.5,-1.879402833234254,0.7287904273715765,5.855556144381759,-0.02462406654031786,-0.25058491308358455,0.032530152351166075,-0.06163193962950891,-0.14566225480386089,0.987412765141691,-1.8277057412151778,-1.8875114368947083,4.15273904800415,0.38612168937455454,1.3506621198358368,-0.3321135679828089,3.0,0.48393596828295726,0.48573147417926815,0.33743713111024237,-0.6353973416354647,0.43259914432865365,-0.11816980388598855,0.6286207887258012
14.600000000000001,-1.9506206673162645,0.8760774579910661,6.072029540911433,-0.050724057770685525,-0.2462141160846701,0.028076825846884854,-0.061876619194341946,-0.14621284578537955,0.9873160150494096,-1.8288537336802122,-1.8862819236188255,4.15297033279848,0.3862878894697634,1.3504263798722842,-0.3320650605618674,3.0,0.4836817834131362,0.4854720322289319,0.33747246763873884,-0.635414408958583,0.43261054882124184,-0.11816615186894953,0.6285963748613916
14.700000000000001,-2.1053509260128376,1.0239514968928898,6.087164894550949,-0.048255023873748575,-0.26068314258220737,0.029376386179558123,-0.0618321422649349,-0.14608153390563205,0.9873381889434656,-1.830096181272205,-1.8850999343655015,4.153181552886963,0.38644711553540034,1.3501981761319601,-0.33202573718727885,3.0,0.48330845687480095,0.485081310817758,0.33760264857811506,-0.6354016510502984,0.43260505182023057,-0.11817539545411027,0.6286113162292222
14.8,-2.038765817883152,0.38739698293555563,5.908317272789985,-0.02999406181586942,-0.2740486878071068,0.03394374098601291,-0.061593591288096564,-0.14549315489121672,0.9874400891968942,-1.8314865921081118,-1.8840577434890053,4.153422767976308,0.386549003485521,1.3499241424530242,-0.33197003999818975,3.0,0.48288834913530687,0.484672186739932,0.3378191999600485,-0.6353500554597052,0.4325861234855345,-0.11818877990904533,0.6286739736132863
14.9,-2.4115682973013626,0.09035723204787716,5.780093739020063,-0.016773578393731114,-0.26278640216562815,0.0339836431583624,-0.06181295776850631,-0.1459950765956198,0.9873520767855657,-1.8329618335821891,-1.8831103072594402,4.1536760019268835,0.38679403011456104,1.3496996748431298,-0.3319565109375307,3.0,0.4826507537009253,0.48441308894649976,0.3378409797383543,-0.6353637610274242,0.43260187984663817,-0.11819849086303433,0.6286474540503144
15.0,-1.9246638736336865,0.7920366226669247,6.120460689657519,-0.05120683855304578,-0.2606438184266866,0.03627310476966304,-0.06203232424891606,-0.14649699830002288,0.9872640643742372,-1.8342782650231506,-1.8817158800609401,4.153939656466077,0.38701814061480133,1.349488893532672,-0.33189024985907245,3.0,0.4823053520133278,0.48409373308809783,0.3377695190032061,-0.6354390485076681,0.4326335884106507,-0.1181959701176884,0.628550003148939
15.100000000000001,-2.0786029344003203,0.7109050644763449,5.479848480243788,-0.02914263964314216,-0.2803714181443448,0.034559216871058916,-0.06207844850961079,-0.14664380626825146,0.9872395019608804,-1.8344179259907893,-1.8814744290619967,4.153995990753174,0.3870689111896972,1.349435806274414,-0.3318804235221113,3.0,0.4818320645534975,0.4836592712677833,0.33797519812141735,-0.6354052069116136,0.43260111108198346,-0.11817753005396181,0.6286100326200559
15.200000000000001,-1.8678607138090797,0.5065108533937274,5.442684338571036,-0.02781546709863247,-0.27852320197529806,0.036760300864193886,-0.061980287781048894,-0.14649485733788395,0.9872677839539895,-1.8344536692148738,-1.88145174602651,4.1540201429145736,0.3870813089558105,1.349423885345459,-0.33187063537254313,3.0,0.4817286362759829,0.4835850632161406,0.3380800582213746,-0.6353613119413103,0.4325695642572938,-0.11816796682083845,0.6286779040048263
15.3,-1.9702762225524417,0.45115768059009415,5.238766216952116,-0.026788363960571767,-0.279709151382478,0.0324396854012536,-0.06178035038719042,-0.14608861844638898,0.9873403906098559,-1.8344748893326317,-1.881489507888868,4.154006044898016,0.38707786937994354,1.3494287148682809,-0.33186758116041604,3.0,0.4817221225792353,0.48359073624300747,0.3380791309031836,-0.6353597444891073,0.432567896119197,-0.11816010808445149,0.6286821129849479
15.4,-2.22535741789928,0.3859992919105812,5.191480545875988,-0.019596596177307992,-0.27039732444143977,0.032238106754226024,-0.06149908859063157,-0.14547323306397456,0.9874489356509133,-1.8345454483843864,-1.8814602285537356,4.154025353573738,0.38708474735754,1.349418099890364,-0.33187619819181857,3.0,0.4817132775477312,0.4835993006187284,0.33804598167270616,-0.6353817363311819,0.4325672130340183,-0.11816206415365664,0.6286599891353845
15.5,-2.122547827415317,0.2660549529248524,5.284662023887564,-0.014904409176021982,-0.2802692187048528,0.03799959348484851,-0.06150495039349908,-0.14544348227617737,0.9874529525918443,-1.834557574444771,-1.8814755878844203,4.1539884025392535,0.3870689111896972,1.3494195206582553,-0.3318780835794364,3.0,0.48171305873117976,0.48358655475537277,0.3380207309676703,-0.6354000355607068,0.4325807792568267,-0.11815688687386862,0.6286331317320815
15.600000000000001,-2.304958984720641,0.5915416369509806,5.171247167495267,-0.006323389894513684,-0.27936331748682325,0.03456526918037773,-0.06151079043300926,-0.14541374267064683,0.987456969240495,-1.8345422744750977,-1.8814861243756327,4.153990084412348,0.3870587961581333,1.3494340003770229,-0.33188473222060333,3.0,0.4817246274182967,0.4835596411013373,0.33803580784766857,-0.6353856451465116,0.432580571714205,-0.1181757910183962,0.6286442661269878
15.700000000000001,-2.168932507638068,0.4006742911933918,5.219545829189221,-0.01621468649935586,-0.28179977966474706,0.0397559494061965,-0.06148455584463714,-0.14540048338278422,0.9874605551292394,-1.8344958998332515,-1.8814636669554652,4.154019832611084,0.3870721276123041,1.349427999180054,-0.33186227480043584,3.0,0.48172168169440216,0.48356212545775124,0.3380248012711568,-0.6353919635744242,0.43257719687921103,-0.11815937857747479,0.6286432872618197
15.8,-2.065753427875724,0.17804136658878073,5.121479696425125,-0.019484011756983624,-0.28434986652970823,0.043206836069885714,-0.06145832125626502,-0.14538722409492158,0.9874641410179836,-1.8345325832689514,-1.8814546679783295,4.154049536102458,0.3870813089558105,1.3494270226891305,-0.3318642608077642,3.0,0.48171781086093934,0.4835758276504772,0.3380232372033165,-0.6354038106790569,0.43256723975422606,-0.11817009812940713,0.6286361494330639
15.9,-2.17083093513238,0.3263166814959971,4.978121363758275,-0.00634319759005056,-0.2952188763806856,0.04201375175781701,-0.061434705618000636,-0.14532910303073943,0.9874741650532944,-1.8345320861757257,-1.881481860347201,4.154029293174786,0.3870718483921079,1.349432245075397,-0.3318707474996974,3.0,0.48171640380010017,0.4835812033148532,0.33800961517353517,-0.6354126920040766,0.4325716042615031,-0.11816059665300166,0.6286259550999852
16.0,-2.1337967402478824,0.5874768852167522,5.08206381277263,-0.0027099914230850983,-0.28236735549958747,0.043738895758186326,-0.06153928380455719,-0.14556463788416035,0.9874327296400005,-1.8345295761927907,-1.8814725354127118,4.154040744096154,0.3870696769847341,1.3494678728934024,-0.3318772482010994,3.193957415704739,0.48171334613370476,0.4835737518303572,0.33804991142576346,-0.6353809459412991,0.43257176488651833,-0.11816766162010561,0.6286566038028545
16.1,-2.0821230647759688,-0.012625556019540823,4.933069047138896,-0.007984265271433054,-0.2961515252823381,0.03933606005523395,-0.06178318309642907,-0.1461200186583699,0.9873352649186422,-1.8345390161049346,-1.8814845995543013,4.1540380488953454,0.38706664629007737,1.3494383550666929,-0.3318593655413618,4.0,0.48172619956089596,0.48357347899153647,0.3380201454941343,-0.6353883736152378,0.43259317747123144,-0.11816639187952352,0.6286346007897604
16.2,-2.51095901124413,0.3150081192798452,4.984115959585646,0.0032698007160771106,-0.29962908781647374,0.03412075769773861,-0.062027082388300944,-0.1466753994325794,0.9872378001972839,-1.8345163630252062,-1.8814781699279532,4.154043674468994,0.3870813089558105,1.3494353294372559,-0.3319007229125754,4.0,0.48171211341369913,0.48358103595317037,0.33803997128625063,-0.6353831370515661,0.4325729125376958,-0.11815993839256383,0.628655051238938
16.3,-1.8909605251175763,0.6247773713280564,4.927490074917474,-0.028701309774494678,-0.27492089662445696,0.04223360500715107,-0.061887113630622624,-0.14634119688106959,0.9872958989644389,-1.8345514459501289,-1.881470758573793,4.154034502993963,0.3870813089558105,1.3494400640555178,-0.3318498873433875,4.0,0.4817121234312196,0.48358659487452677,0.33800660467465354,-0.6354010619052104,0.432580308598923,-0.11816639102816431,0.6286306317493371
16.400000000000002,-0.9284200342064468,1.6271255154684252,4.757355022484074,-0.09539011172936132,-0.19269342676741874,0.04940632438148118,-0.061317626542981084,-0.14501162015118305,0.9875280611105802,-1.834589958190918,-1.8814709761469097,4.154036365277549,0.38704602300610347,1.349406545188506,-0.33189621028943994,4.0,0.48171958662010705,0.48358175915138035,0.3380163796840325,-0.6353964840887223,0.4325784776993433,-0.11817183921923213,0.6286354945869289
16.5,0.032059119251624496,0.9093173878571219,2.693123569592495,-0.053903467125132096,-0.08358814247265448,0.04196486212559797,-0.06164989639604466,-0.14566660047788418,0.9874106811428922,-1.8345537185668945,-1.8814875088133753,4.154007434844971,0.38709804732402353,1.3493876457214355,-0.3318741957293909,4.0,0.4817203843005218,0.4835741604782033,0.3380135364781944,-0.6354008751464622,0.43257893769977557,-0.11817444588908493,0.6286302497179496
16.6,-0.1567870974116471,-0.018825038241211123,1.5813973949456968,0.003296735520962643,-0.0737363171755534,0.044121934857669846,-0.06201384927627707,-0.14639130777013862,0.9872810200917003,-1.8345753029338474,-1.8814553979420479,4.153985850478017,0.38710515081372066,1.3494087712946774,-0.3318874748006802,4.0,0.4817425469766074,0.4835468117222737,0.3380316032517908,-0.6353695611594182,0.43260119738106795,-0.11820061545696237,0.6286416620636515
16.7,0.5394080001982136,0.29916752603390434,0.6808858692150497,-0.002623425589267173,-0.045127665531168475,0.04795541136406942,-0.06186882383467236,-0.14620177426800313,0.9873182093034688,-1.8345699850939512,-1.8814416474466944,4.154017441457334,0.38711515742608443,1.3494596481323242,-0.3318741957293909,4.0,0.48173156239273973,0.48354712198548583,0.3380407171622794,-0.6353653137705423,0.43259205991061384,-0.11819336093462489,0.6286536066790117
16.8,0.48021104656923375,0.057777403693182766,0.4953138682165291,-0.009101190044326635,-0.034738131554781324,0.034839182422709905,-0.06176687769338388,-0.14603731005671486,0.9873489520354465,-1.834611272517761,-1.881498795122673,4.153995990753174,0.3870584317197797,1.3494698229848061,-0.33189708565781484,4.0,0.48171745825126694,0.48357061144365215,0.33801290523460953,-0.6353969784585238,0.43257841317086426,-0.11816753232528793,0.6286358489049978
16.900000000000002,0.5977692974951772,0.28604666527561323,0.10782396302936566,-0.005756634192748349,-0.028117278252747086,0.037161652899408794,-0.06174453799314178,-0.14595182111803542,0.9873629916474829,-1.8345754754523793,-1.8814755878844203,4.153995990753174,0.3870689111896972,1.3494353294372559,-0.33183974732737326,4.0,0.48172658649148586,0.4835706751406335,0.3380143535244461,-0.6353905970707304,0.43258425418652224,-0.11817232971843128,0.6286373777249565
17.0,0.4564684238906879,0.3852520781662179,0.24702222061369053,0.0019384410104164628,-0.017630997012903833,0.028365019909857687,-0.06130930119514337,-0.14490929063120023,0.9875436080488796,-1.8345639741693922,-1.8814837700241216,4.153995396508524,0.3870806651907734,1.3494458454286453,-0.3318735767245476,4.0,0.48173262927439714,0.48355831737488897,0.33801759024147643,-0.6353829927155763,0.4325936664063944,-0.11817640119768334,0.6286378214463679
17.1,0.5193548548603261,0.5997006878715987,0.2913926001787964,0.009736825845360772,-0.021305588730871128,0.030890537919323162,-0.06146770466609312,-0.14529585452892455,0.987476927172214,-1.8345766067504883,-1.8814757295644704,4.154007729539475,0.38706920588420163,1.349435476784508,-0.33187391236929054,4.0,0.4817239752612879,0.4835583030009289,0.3380252621579092,-0.6353851967992032,0.4325856715444107,-0.1181587333245914,0.6286444163452318
17.2,0.3809483181890569,0.28109721438932916,-0.0798428017235358,0.001449337968797225,-0.022090942571614144,0.03780065034171451,-0.061530819806541646,-0.14545505932581335,0.9874496130266662,-1.8345537834364454,-1.8814993657263264,4.153996011238295,0.38709368452970905,1.3494591081327088,-0.33186227480043584,4.0,0.48173038048835165,0.48356469729370644,0.338016315379937,-0.635392354419316,0.43259153994772254,-0.11817137211771503,0.6286307678780547
17.3,0.6476207991171719,0.1555767540721609,0.11398817371360428,-0.0034946142961487124,-0.024935586022322057,0.03425223883861361,-0.06140796215128637,-0.14516950864786918,0.9874992984931622,-1.8345554655188894,-1.8814856890717142,4.154039277454397,0.38707654552333015,1.3494282823600563,-0.3318741957293909,4.0,0.48173464908617725,0.48354946805525134,0.33801540960468496,-0.6354035892922423,0.4325839466570985,-0.11818208462465574,0.6286226234259115
17.400000000000002,0.43558843600164326,0.05451031567391806,0.26176955525939044,-0.005975804615127505,-0.020356792329547395,0.033819404712445995,-0.061322112021121165,-0.1449851233608219,0.9875317167901919,-1.8345479712359334,-1.8814571504655586,4.154019832611084,0.38708194416951036,1.3494477272033691,-0.33185661972716013,4.0,0.48172390193353115,0.48355660785618126,0.3380130775104741,-0.6353960810204213,0.4325870523486826,-0.11817834754341369,0.6286287780050133
17.5,0.40877774032166236,0.04661350508536406,-0.040178462358094344,-0.0024071004436575583,-0.018234053020995854,0.024150553046259758,-0.061214762482049434,-0.14474557456909526,0.9875734966082818,-1.83455893317726,-1.8814569183505814,4.1540430941487925,0.3870564522268347,1.3494290999558245,-0.33186770668623333,4.0,0.48172242181801345,0.4835676215318369,0.33800769386123586,-0.6353977007201342,0.43258548165890454,-0.11817339228279199,0.6286291532643692
17.6,0.29340728487259,0.12320449150790307,0.04947942951188072,0.0028539621628982815,-0.02441519722058389,0.03013612451482532,-0.061071820777329325,-0.14441391797998462,0.9876309200757416,-1.83455158493331,-1.8814755878844203,4.154039019239888,0.38704776870392915,1.3494165307442108,-0.3318764182643748,4.0,0.48172933968044984,0.48355907972304374,0.3380015811404701,-0.6354115985155203,0.43258336549343185,-0.11818861853249392,0.6286136991982497
17.7,0.5886283309534845,0.019301545680418662,0.1025950962309512,-0.0006465812874081295,-0.021152363628505904,0.02930206215757113,-0.06152205313124108,-0.14550215946676576,0.9874427233062439,-1.8345710123138357,-1.8814938680567463,4.154032230377197,0.3870749718294041,1.3494413900769628,-0.33185618140966044,4.0,0.4817120729196373,0.48358067819856937,0.33800533757347395,-0.6353999943170693,0.43257730000372785,-0.118154592207802,0.6286359988765846
