xiamingqian9007/apple-picking-rnn/final_data/grasper_20191127_131200_noimg.csv
,/manipulator_wrench.fx,/manipulator_wrench.fy,/manipulator_wrench.fz,/manipulator_wrench.tx,/manipulator_wrench.ty,/manipulator_wrench.tz,/ground_truth.x,/ground_truth.y,/ground_truth.z,/joint_states.elbow_joint,/joint_states.shoulder_lift_joint,/joint_states.shoulder_pan_joint,/joint_states.wrist_1_joint,/joint_states.wrist_2_joint,/joint_states.wrist_3_joint,/mode./mode,/manipulator_pose.x,/manipulator_pose.y,/manipulator_pose.z,/manipulator_pose.rx,/manipulator_pose.ry,/manipulator_pose.rz,/manipulator_pose.rw
0.2,-0.17009311991928677,0.2717796599257509,-0.19981094920118814,-0.00013945387139837782,0.0010341280946221721,-0.0034696641794259306,-0.11747350315015327,0.31456600530609546,0.9419384880801954,-1.1196457112060312,-1.8576812849701612,4.162348464071521,-3.6124677894286332,-1.3566738388995452,2.0396176541076425,1.0,0.4746775684934894,0.48529689246682506,0.41270050043899736,0.7893611790221337,-0.15612884019415235,0.32491342537484963,-0.49695470651116463
0.30000000000000004,-0.03372427408841194,-0.20936402681034028,-0.2594914339421681,0.014263049765414329,0.0010204236911173872,0.004944191384694649,-0.11752390980679048,0.3148354172829711,0.9418420230420804,-1.117528229398089,-1.8598629091050698,4.1621503057298845,-3.6124443622617077,-1.357046717997486,2.0395493507385254,1.0,0.47467052373326324,0.48530652638514843,0.41268318282171873,0.7893756363172836,-0.15612752065351895,0.3249026586443672,-0.4969391959677667
0.4,-0.09368563010442069,0.0609544104209333,-0.21198158291537,-0.002080083956240711,-0.0023923003053978016,0.004214181852637121,-0.11740134907885287,0.31471586379450267,0.9418970414686575,-1.114079098221269,-1.8631504970063864,4.161319923588763,-3.6123787365355433,-1.3575801493236557,2.039306358435102,1.0,0.4750362071685866,0.48582485189656077,0.4124877590329401,0.7893906674592961,-0.15608082963329717,0.3248523714366861,-0.49696286130968576
0.5,-0.18319000318668377,0.6194589929559164,-0.1394284133802759,-0.006617148661948315,-0.006814741131438526,-0.0036848830577547722,-0.11724661898893653,0.3142388977277669,0.942075719297037,-1.1106835407826143,-1.866843555726395,4.160623688381987,-3.6123508223885668,-1.3581649187025924,2.0390845724762254,1.0,0.4763407432872246,0.48697657119432375,0.4119704927108935,0.7893670153896727,-0.15616206828474594,0.3249138983732147,-0.49693468593744905
0.6000000000000001,-0.3499501334365853,0.2996575181588759,-0.17275852469203354,-0.0065221206968179325,0.006289342660842681,-0.003028107955497168,-0.11777325359264178,0.31503513510864495,0.941744253002645,-1.107219475872718,-1.8701836864004004,4.159996540378716,-3.6122865660511945,-1.3587922633532528,2.0388642458282895,1.0,0.4770046241004782,0.4876277610693605,0.41159810839263833,0.7893991333058408,-0.15617518058102797,0.32492681684454383,-0.4968710949549622
0.7000000000000001,-0.37062469583890617,0.3506598995277601,-0.2790336804261417,-0.005199539796671973,0.005025534539287412,-0.0028459353818948473,-0.11784643527659698,0.31521262020198487,0.9416757511396513,-1.1037536122701856,-1.8737523749260339,4.159405191525935,-3.6123112675451585,-1.35943601739696,2.038666482594284,1.0,0.47780183458520403,0.4884240423964033,0.4112596387624217,0.7893919970520389,-0.15617517950696672,0.3249294039412084,-0.4968807409736981
0.8,-0.12285451095575295,0.30001888067407045,-0.15461251642904433,-0.003506107466767652,-0.0037619247390175007,-0.00021581401600573677,-0.11769751852803419,0.3149821644990139,0.9417714812666759,-1.1005002305521767,-1.8769771956325987,4.158840115270671,-3.6122506759745834,-1.360114948654925,2.038491313257161,1.0,0.47871681694186313,0.4893675564525142,0.4109041868825166,0.7893675529462877,-0.1561522745110803,0.3249333509642493,-0.4969241903467269
0.9,0.0678610703413441,0.20096228230325353,0.002620257207958679,-0.0015104163311384158,-0.000895888361229908,-0.0021114459425484546,-0.11730515545448215,0.31422671894857973,0.9420727150043123,-1.09713982037054,-1.8800545289716692,4.158361257453795,-3.6123143148595376,-1.3605846601932328,2.0383118423082958,1.0,0.47963841657616885,0.49037063012292087,0.41048973449879056,0.7893695425962814,-0.1561062697391131,0.32491701194526745,-0.49694616722340834
1.0,-0.1876602348814817,0.23077488077730787,-0.2473315687340499,-0.006631233610401831,0.006102071416079964,-0.008647183476217792,-0.11740039508586272,0.31464612181501644,0.9419208763826253,-1.0940269380353316,-1.8831205994716527,4.157771191399268,-3.6123102709946435,-1.3610348134474264,2.038135051727295,1.0,0.48042936370311023,0.49127269171686344,0.40999988039341256,0.7894423796904654,-0.15606998516906204,0.32484328860185346,-0.4968900549702291
1.1,0.09502885793847105,0.02968233328598128,0.12326135131622132,-0.0016289320654868092,0.004317761366546835,-0.008997675403235624,-0.11718465506401185,0.3139038432080507,0.9421953318421766,-1.090959358781171,-1.886108769601377,4.157177171836825,-3.612307210961813,-1.3614675874071909,2.0380061155255556,1.0,0.4817502477951355,0.4925375619062012,0.40957133707410454,0.789351373535266,-0.1561268929553683,0.3249266003703806,-0.49696227901706913
1.2000000000000002,-0.2508752919194736,0.36819899695994807,-0.19120153927648678,-0.002915355617695961,0.0025651005696179906,-0.0067723525679155815,-0.11711576979630871,0.31358884896054207,0.942308825582679,-1.0879507252768081,-1.8891545565578851,4.156672553906495,-3.6123672924437464,-1.362002744329142,2.037817600449383,1.0,0.48237362737931405,0.4931354370992236,0.40927519636089343,0.7893605205848946,-0.15614497693056667,0.324945017828239,-0.496930025365647
1.3,-0.14670006372074942,0.578058590731506,-0.13100591115060312,-0.0010041158175049772,0.0039304747349239826,-0.008464353710777854,-0.1173145942766973,0.3140608570121807,0.9421268573392413,-1.0850725852945773,-1.891890471663584,4.156118360598989,-3.6124162455860795,-1.3625519879306833,2.0376885419257715,1.0,0.4834963104952555,0.4942833739629456,0.408794984661241,0.7893548962959452,-0.15613452983450068,0.3249440989764901,-0.49694284261606375
1.4000000000000001,0.037043177219060225,0.17968059610244286,0.06818832595048423,-0.011100627782711073,-0.005941482697747633,-0.009436386838853434,-0.11720274094023148,0.31383821459025624,0.9422149823915977,-1.0821891470264897,-1.8945019728850936,4.155606332008114,-3.612466618855981,-1.362989023540933,2.0375443325999214,1.0,0.4843105847429435,0.49503689398467815,0.40848125978930033,0.7893376878900248,-0.15617518223596966,0.32493590498308816,-0.49696275975450405
1.5,-0.13282755466505977,0.41688489232951587,-0.09532750965127251,-0.005325776563012747,0.0019257803612426204,-0.006979862594210249,-0.11719172345863181,0.31389376573079447,0.9421978569589937,-1.0796415148043486,-1.8973442424374476,4.155193316857693,-3.6125467186960423,-1.3634444855840775,2.0374330491100596,1.0,0.4846970439862828,0.49544858678939835,0.4083890268531617,0.7892937404427428,-0.15616932720940055,0.324951044247401,-0.4970244977658455
1.6,-0.03901345687411409,0.35401895668375044,-0.2238819646817405,-0.002127227318333857,0.002263530462584742,-0.00871677329054005,-0.11722064579515226,0.31394265579833,0.9421779702554752,-1.0768118758171747,-1.8997689221652043,4.154779135630851,-3.612632886959778,-1.3638295270183272,2.037274356875651,1.0,0.48545327963030604,0.49623161613199784,0.4078812408535487,0.7893797911053048,-0.15614929284968165,0.32491170837445005,-0.496919838100962
1.7000000000000002,-0.47554795380496884,0.3247668189941047,-0.0037746124575678552,-0.0042955349276351225,0.002134065593410443,-0.007925632154626022,-0.11735507999485259,0.31421517159541545,0.9420702978541878,-1.0743273019874393,-1.902512809796786,4.1543351650405524,-3.612722501400848,-1.3642306417261336,2.037146677556075,1.0,0.48644013075539877,0.49724118553067476,0.40751282521735055,0.7893468901032059,-0.15615596263011036,0.3249281586998291,-0.4969592479302501
1.8,-0.13600346189095064,0.13542095473021248,-0.14447152583914208,-0.0023572601413657432,0.00035073682110709674,-0.009867895481224359,-0.11757774961644886,0.3146913804132204,0.9418836486499371,-1.0716813964389937,-1.904744447365965,4.1539684213567565,-3.612808606568407,-1.3645591149945935,2.03703287763976,1.0,0.4868820496062623,0.4976782894938264,0.4071848181480505,0.7894070925182517,-0.1561642977992385,0.3249070147410696,-0.4968748193929713
1.9000000000000001,-0.3257559043249357,0.4386451431914073,-0.03185957268499179,-0.002170712617833373,0.00722549776791635,-0.0101845273562662,-0.11755641996747739,0.3145728171023528,0.9419258948397013,-1.0693864822387695,-1.9070162354962692,4.153574466705322,-3.6128910490484025,-1.3648950908474249,2.0369221674017752,1.0,0.48749916365415735,0.49834235599258914,0.4069983455835895,0.78936090526312,-0.15616264418748632,0.324934239572308,-0.4969309104454319
2.0,-0.11963833935065041,0.36169496368436654,0.010982982130843533,-0.006606090172468193,-0.000794716135047236,-0.011860160440419107,-0.11749054321293798,0.31427796964202553,0.9420325388401137,-1.066800859717304,-1.9095784933163318,4.153249421445127,-3.6130105188861683,-1.3652433542393216,2.0367809687877623,1.0,0.48849280315719945,0.49932127525608055,0.4064963400547732,0.7894006105933874,-0.15617759208083143,0.3249416877340018,-0.49685826479912687
2.1,-0.109373870777303,0.2493376700838391,0.12855519666412296,-0.0066136138452335316,0.0019206431189750385,-0.007645558675876583,-0.11756972884272357,0.3145756756833799,0.941923230606181,-1.0645856857299805,-1.9114223984533454,4.1529346724252685,-3.613080222831085,-1.36567639078433,2.0366666835728138,1.0,0.48885807914742785,0.4997661759284463,0.40629236846361605,0.7894135871342978,-0.15615833458666464,0.32491970923237046,-0.4968580738392322
2.2,-0.038568309137674325,0.004941202530190786,0.12373251705599624,-0.011344272907261834,-0.0012838233490908085,-0.011104896574600152,-0.11754384760767371,0.3146373614961796,0.941905677939626,-1.0622943284569923,-1.9137343941246765,4.152516095912104,-3.6132022385432614,-1.3660011662383242,2.036561970177884,1.0,0.4892954004760864,0.500236212428721,0.4061755174863321,0.7893804971753509,-0.15613089840361732,0.32491738511028184,-0.496920784528049
2.3000000000000003,-0.2263726479752657,0.45149887842177494,0.1959103239928146,-0.00851634119023922,0.0015996345993666075,-0.009266048228898444,-0.1171863108973844,0.31380480326576193,0.9422277102441012,-1.0600630396115585,-1.9157623497754632,4.152171036850439,-3.6133397177364572,-1.3663542906390589,2.0365111337358885,1.0,0.49026400712824136,0.5012107442614012,0.4057646711818515,0.7893695645429222,-0.15614094827869873,0.32491804981853584,-0.4969345588164155
2.4000000000000004,0.002113021870589954,0.21547669233456673,0.0397177591166558,-0.012493133079594416,-0.0030630866357995662,-0.011403868258524609,-0.11708361376097748,0.3135931764337378,0.9423111281137094,-1.0578936272799706,-1.9176654900454815,4.151859760284424,-3.613429276707094,-1.3667133490191858,2.0363504554331806,1.0,0.49056983274732024,0.5015054178390891,0.4056544629026919,0.7893575832167405,-0.15614494782550986,0.324928422188997,-0.49694555188729095
2.5,-0.20597481461748976,0.2912743388122566,0.0011320774028126118,-0.0067680522443477045,5.257020750198526e-05,-0.009777533443785992,-0.11750625507028108,0.3146487987581752,0.9419067732757604,-1.0558958053588867,-1.9198026505424823,4.151500953193208,-3.613516469995016,-1.367040471545186,2.0362811210916743,1.0,0.4910420256875593,0.5019943120050786,0.4054811416241344,0.7893448939090772,-0.15613159099680807,0.32492680616397596,-0.49697096030709
2.6,-0.23527264281024887,0.4752836138573548,0.01978074353631999,-0.0058533262439027355,0.0021588593496030413,-0.011086763745474546,-0.11763675151400622,0.31495949783390637,0.9417866379298967,-1.053717195747513,-1.9216070755729167,4.15119849022193,-3.613638745942487,-1.3672941148221385,2.0361603659792418,1.0,0.49178495075633283,0.5027646488698021,0.40507292874817097,0.7893824562482986,-0.1561199530648965,0.32491032363637934,-0.49692572847148964
2.7,0.016496213739984986,0.3262786963112245,0.07145407117735082,-0.004412544216035427,-0.003085425909467662,-0.013431187921063242,-0.11774123146754731,0.31524134592954334,0.9416792671941696,-1.0517216811747765,-1.9234863592375109,4.150892868418547,-3.6137673119323894,-1.3675877446455909,2.036085605621338,1.0,0.49217103956724995,0.5031491130132355,0.40495099246070376,0.7893587263560053,-0.1561346465215665,0.3249183889695456,-0.4969535328284177
2.8000000000000003,-0.16864967502071357,0.5980860964400175,0.0326969362482806,0.0015379481331321131,-0.00041745231190275494,-0.010199835358365831,-0.1177885036452704,0.3153815188134021,0.9416264392269457,-1.0500351518573183,-1.9252042529927087,4.150604822150557,-3.613852163354391,-1.3678276036775423,2.0359529788359936,1.0,0.49284369463329325,0.5038356102100757,0.40468498795117386,0.7893415049487134,-0.15613204006524348,0.3249292138146458,-0.49697462776298934
2.9000000000000004,-0.03974448050902074,0.18105679363506638,0.014624001190083485,-0.011620097232407693,0.0007345173264862755,-0.009976877635531657,-0.11777254629982502,0.3153154696388461,0.9416505317684666,-1.0480099023389151,-1.9270393803902686,4.150331914224758,-3.613974615813142,-1.3680496228584007,2.0358608092955026,1.0,0.4931264420024443,0.5041204469561699,0.40452500755820753,0.7893566184475488,-0.15613903855238925,0.324917914701534,-0.4969558111733808
3.0,0.07876423823871159,-0.011618393636365312,0.16157738829110202,-0.017213739981894786,-0.005339173143222943,-0.008953461949044823,-0.1180731790956866,0.31596500326590277,0.9413949616755896,-1.0461794410400242,-1.9287612422752096,4.150055738861099,-3.6140971600561307,-1.3682766352142217,2.0358127871727643,1.0,0.4935602651903149,0.5045575247882423,0.4043343795919781,0.7893555046844434,-0.15615519703927855,0.3249293088883135,-0.4969450531873263
3.1,-0.042439073390806104,-0.056963094806888145,0.030102889254777734,-0.01631209918525489,0.0006978887735988475,-0.008211301465138907,-0.1182703346483881,0.31632408745825497,0.9412490587398082,-1.044663584932902,-1.9302875747152746,4.149784409299276,-3.6141749821104945,-1.3685466644573385,2.035749912261963,1.0,0.4942439058518402,0.5052653693480191,0.40398591608308343,0.7893796249648791,-0.156145771359635,0.32493110438142314,-0.49690852597060603
3.2,-0.029178495667912363,0.35573944914645883,0.09717698926692499,-0.007854461870641555,-0.0032684839932027626,-0.008434393179580878,-0.11755573439270618,0.3144840146648352,0.9419556304269205,-1.0427816193314683,-1.9317747822957507,4.149530412214697,-3.6143185100951136,-1.3687976042376917,2.035642147064209,1.0,0.49454645713386336,0.5055088188607734,0.4038141928969006,0.7893950794166417,-0.1561856974782926,0.32493688529966214,-0.49686764542256867
3.3000000000000003,0.08653224990948986,0.47846654087981555,0.2286712301032346,-0.0037033748870274087,-0.008842539419253892,-0.008554738092448947,-0.1176479758671985,0.3147831875598091,0.9418441444308728,-1.0410470962524414,-1.9336409895702045,4.149274646802279,-3.614388593850225,-1.3690204551309528,2.035608302933121,1.0,0.49489621260020894,0.5058646769728886,0.4037464238607355,0.7893542174661514,-0.15618149981732285,0.3249487582057494,-0.4969261142501495
3.4000000000000004,-0.069226853095071,0.17049776946334558,0.03520500675817958,-0.00808576542481774,0.0012742826243069617,-0.006938502937183746,-0.11768733539590831,0.31494317976382746,0.9417857710818293,-1.0396633775923125,-1.9349285564818324,4.149033515061266,-3.6145390629740266,-1.369277578356666,2.035507669425106,1.0,0.49544822948051215,0.5064678502266464,0.40344029984967394,0.7893874105496591,-0.15615405266610943,0.32492851635518444,-0.49689524767386584
3.5,0.03260745242608301,0.2166292596636918,0.0021315468785059674,0.00041751725151451674,-0.0004902311755242989,-0.009880387845726143,-0.11753271660978369,0.31459263788122027,0.9419222222917124,-1.0380598293467747,-1.9361798950754332,4.148857623582393,-3.614678938894683,-1.3694683031090933,2.035407124143658,1.0,0.4958981584379365,0.5069328185275103,0.4032499548859188,0.7893820662595206,-0.15615502123747363,0.3249182356944694,-0.4969101557861009
3.6,0.031206263154208005,0.46279343541606466,0.07648277151368472,-0.0027685922099072334,0.0010278323385876096,-0.006377223190688033,-0.11748400853304754,0.314504216623297,0.9419578574073534,-1.0364508813094504,-1.9375828613105057,4.148644640272515,-3.6147792586054597,-1.369697927477568,2.035381386269005,1.0,0.4960808534845201,0.5070980404791035,0.4032141941916507,0.7893664447106902,-0.15616239132407458,0.3249281974997615,-0.49692614136338975
3.7,-0.008501327720110453,0.4757291387792728,0.010394264101311099,-0.005879272345705999,-0.0005439914167255418,-0.008472479344625727,-0.11765317203960345,0.3149457671535604,0.9417886742499936,-1.0350710090390722,-1.9392125140890948,4.148436328279362,-3.6148761978041617,-1.3699045024699652,2.0352951617937554,1.0,0.49643634846171847,0.5074735680559603,0.40310962232337466,0.7893383590906264,-0.15616249207700245,0.32493482219088105,-0.4969663894713585
3.8000000000000003,-0.056657785500044355,0.46745946109964487,-0.09808395951331995,-0.005143998977653187,-0.004675703669574286,-0.012445448895948452,-0.11838075379833296,0.31672947223943565,0.941099589776146,-1.0336540570847648,-1.9403704396393202,4.148235168705925,-3.614959569114316,-1.370096930234802,2.0352669832107906,1.0,0.4968613399426387,0.5079506852026383,0.40282429581383894,0.7893865643040976,-0.15614403201439034,0.32491027234818537,-0.4969116705060266
3.9000000000000004,0.04372654354104331,0.07581083525837812,0.06278681275621828,-0.009921860649112367,-0.0019017710030159616,-0.010352392244331156,-0.11840718659144672,0.31677111435324706,0.9410822483868444,-1.0322410184927533,-1.9414266448657673,4.148059261437631,-3.6150956037849773,-1.3703067184044009,2.0352094073536615,1.0,0.4973303868786446,0.5084061181269323,0.40261568999466596,0.7893872586355294,-0.15614777739943633,0.3249133300455235,-0.4969073912469292
4.0,-0.054478806712616845,0.3305786022763961,-0.04094117822275839,-0.008330591799722136,0.0003985467864014941,-0.00978865006386609,-0.1185919415457135,0.31726890931763696,0.9408910776230739,-1.0308542698781673,-1.9426929852890742,4.14782190322876,-3.615201791311278,-1.3704620863569104,2.035088017566901,1.0,0.49756519196001414,0.5086227594223147,0.4026703487731718,0.7893107825033961,-0.15614772235631968,0.324953760256915,-0.4970024457904626
4.1000000000000005,-0.22364190348868904,0.45046470052839693,0.02926507681709869,-0.005740487268907103,0.0003674087198210453,-0.014728462090308562,-0.11878634295169326,0.31779994105772424,0.9406874907622331,-1.0294731143412075,-1.944164252013423,4.1476664688359275,-3.6152904139479376,-1.3706476848096878,2.0350489140375725,1.0,0.49798651666455923,0.5090922458852488,0.4024648666633226,0.7893167711659925,-0.156140585801542,0.32493936620262365,-0.4970045880205543
4.2,-0.16940995730860686,0.4142218977708966,-0.01839352690420018,-0.003362409081482617,0.0010310864440118781,-0.012264854935467563,-0.11864444915599487,0.3173898336862773,0.9408438247102711,-1.0280569354050464,-1.9453590121484308,4.1474407906712925,-3.6154314480223597,-1.3708287675480115,2.0350087131326458,1.0,0.4982473837673145,0.5093620954719461,0.4022065597556207,0.7893902700571672,-0.15613582055562042,0.32490672467149784,-0.4969106834650825
4.3,-0.2681600510597417,0.4293959094386581,0.03557522403261523,-0.006610753569237612,0.0005785769246534125,-0.012415629926169729,-0.11887958579768347,0.3179350004325153,0.9406296625181243,-1.0266596615234673,-1.9466061350555874,4.147248319914917,-3.615557323617276,-1.37100554254051,2.0349654028202364,1.0,0.4985294490434427,0.5096302913846056,0.4021330539663834,0.7893654323229813,-0.15614939024108487,0.32492130597957997,-0.49693634109553153
4.4,-0.021966206025981844,0.39173694388239877,0.04571753489057087,-0.004310031796217517,-0.003826191982802731,-0.01122362181809552,-0.11840793863227943,0.31678311492714983,0.9410503269475838,-1.025331505181856,-1.9477404386893826,4.147066593170166,-3.6156554191857313,-1.3711698690997522,2.034875024422383,1.0,0.4990019095158488,0.5101251973115143,0.401946621968962,0.7893523303268202,-0.15614924211055195,0.324931447706941,-0.4969505680517836
4.5,-0.0022029232602086557,0.27720897942566025,0.0521779223822708,-0.007512452872864459,-0.004414090396612927,-0.010244246079378143,-0.11255335011349131,0.3025492388465259,0.9464059687635058,-1.0240350484017295,-1.9491202004603545,4.146857935100205,-3.615790895321063,-1.371371280601762,2.03482921724397,1.0,0.4992421797779365,0.5103649631357596,0.40189026348636125,0.7893333514887706,-0.15613863740610662,0.3249498898594333,-0.49697198635014733
4.6000000000000005,0.06487458876111277,0.15111290091006788,0.051006862540984396,-0.005873172194530854,-0.005672313816631981,-0.011513568362464137,-0.09534490654738632,0.260673203827326,0.9594859494440582,-1.0223947356808745,-1.950432069226546,4.146701715748815,-3.6158907392010344,-1.371516617484361,2.0347849745499462,1.0,0.49971274771662794,0.5108507802337795,0.40157963317699824,0.789376050176686,-0.1561666184506845,0.324928048672356,-0.49690965162201
4.7,-0.05165731080202282,0.4697287696638595,-0.005362501063780639,-0.0059665719577177805,-0.0015585626150425467,-0.016724079776630728,-0.07409709533403297,0.2089599306706407,0.9751088253985438,-1.0210934271680434,-1.951648549491395,4.146517451658244,-3.6160333914103404,-1.371699693310795,2.0347255497895844,1.0,0.49988558155402396,0.5110372238127161,0.4015724587215464,0.789345723224824,-0.15614087200123258,0.32494913596344255,-0.4969521268230836
4.800000000000001,-0.08684921222242324,0.24074819454558588,0.13771145053292458,-0.009731647660923895,-0.006391181372960826,-0.014243983979589613,-0.07150359112897522,0.20264982502664566,0.9766353543290366,-1.0198103680403583,-1.95286026379709,4.146280842122402,-3.6161316747374657,-1.3718974843086928,2.0346682913199836,1.0,0.5002183896615312,0.5113703326825176,0.401437905799994,0.789342690382568,-0.15615099438958588,0.3249474458204461,-0.496954868721015
4.9,-0.13679784830603436,0.3399973380552664,0.08902236350383992,-0.007389855026261999,0.0008978422865178865,-0.012612920054828796,-0.07354807916684963,0.2076941719303265,0.9754248145872209,-1.0184708187613774,-1.9541635172816734,4.146118640899658,-3.6162811718382777,-1.3720721637267663,2.0345817704268074,1.0,0.5006581773794898,0.511846711957294,0.4011669996291354,0.7893853205769513,-0.15614500902047646,0.324908284355581,-0.49691463912097844
5.0,0.00723453611968386,0.1128034469609707,0.0711351827418728,-0.008992208133705229,-0.002208490940716161,-0.013251011213294937,-0.07401632761344021,0.20886077227580724,0.975139993619782,-1.0168270267678436,-1.9553778231130547,4.14593651449892,-3.6163861137509343,-1.3722661850902906,2.0345545619197147,1.0,0.5008624295959473,0.5120459730325387,0.4010524824005797,0.7893900686592022,-0.15614765790398408,0.32490047309391645,-0.4969113713899792
5.1000000000000005,-0.01177997473449853,0.2379777525273451,-0.019151588863262008,-0.006803194963286665,-0.003504010124252361,-0.013348366025313214,-0.07435687468619279,0.20971408277864043,0.9749312473441175,-1.0154645144644012,-1.9566511500911001,4.145738342051009,-3.616552600783094,-1.3724497086492513,2.034486493762558,1.0,0.5012352563997516,0.5124136630046137,0.401034147581749,0.789314488181869,-0.1561490472073527,0.3249456495907592,-0.4970014472961517
5.2,-0.016202229865791146,0.2472161121765133,0.021385762587675904,-0.012208723418711508,-0.007089919368204848,-0.014219305923665665,-0.07421531580134892,0.20932565785781887,0.975025139468236,-1.0142794098498489,-1.957993173642006,4.145543575286865,-3.61664662136348,-1.372628299549528,2.0344102142645797,1.0,0.5015626599398217,0.5127462967300089,0.40092260161263543,0.7893032882811372,-0.15614458696786976,0.3249553763121207,-0.4970142759268246
5.300000000000001,-0.08920244203747549,0.15413373682349188,-0.022217938661051644,-0.013739216855754596,-0.0041724012114530435,-0.011309320741204764,-0.07383355913704076,0.20831317566066157,0.9752713251712117,-1.0128660311609752,-1.959284035763792,4.145349957483957,-3.616782428318983,-1.3728062626409328,2.0343525781335594,1.0,0.501979658738555,0.5131658544867183,0.40053826783334545,0.7894049110695136,-0.15615806174015825,0.3249071548479834,-0.4968801534187885
5.4,-0.21870208438881167,0.4488195952162503,0.029393422845327907,-0.0035777115604376953,-0.002088057788804118,-0.015903990909587863,-0.07408572913086472,0.20896860420890465,0.9751117396793945,-1.0112552642822266,-1.9604638865692698,4.14520317555957,-3.616883645310484,-1.3729931545439242,2.0343361726459195,1.0,0.5022445963245418,0.5134465738403072,0.4003640910087345,0.7894320635750891,-0.15615654823224187,0.32488520686150796,-0.496851840900608
5.5,-0.12320283886184102,0.32573317108299016,0.010047756473599706,-0.007978477033287027,-0.004968933778431787,-0.011588992351765573,-0.0743393384019281,0.20962886103963735,0.9749509559163572,-1.0098378920186861,-1.961656135399344,4.144970434303886,-3.6170652765412523,-1.373154378411395,2.034211232197461,1.0,0.5025046183505756,0.5137260154793267,0.4003454003770211,0.7893796201247174,-0.15615045873828193,0.32490949282377585,-0.4969211919817649
5.6000000000000005,-0.08490092761312384,0.07379529122642126,-0.03164849732063392,-0.013451072195747989,-0.002074961316399458,-0.012270875520520046,-0.07456134292151909,0.2102327937327588,0.974803376818533,-1.0085759135498398,-1.9629678552793082,4.144793273388655,-3.61722220859977,-1.3734029145023667,2.034172551933376,1.0,0.502835522034876,0.5140793543054046,0.40028958762548833,0.7893328031435634,-0.15614010635950806,0.32493476214794764,-0.4969822868226016
5.7,-0.2971413127139968,0.46777199165864836,0.2741077768485509,-0.0034036546797308544,-0.0007208175612911187,-0.017505912302959777,-0.07143672516070153,0.20261512148210348,0.976649276466505,-1.0071042495078228,-1.9644987338222164,4.1446354931397575,-3.617344114527424,-1.373577896748678,2.034141538542122,1.0,0.5032858192116433,0.5145462541598597,0.4000090761085036,0.7893862172255997,-0.1561178127982762,0.3249122039397085,-0.49691919696504216
5.800000000000001,0.08472059085470757,0.13943669664692332,0.20965852679524827,-0.016294597427275327,-0.0043376067276330605,-0.015043671238543724,-0.07006062701174201,0.19929325155186156,0.9774321620965996,-1.0055965349081644,-1.965675905659257,4.14440777241366,-3.6175299055379457,-1.373709503804342,2.034102138434142,1.0,0.5037437742730893,0.515044985382373,0.399698655021391,0.7894348585429686,-0.15611480668261488,0.32487532120620494,-0.49686698111552774
5.9,-0.2218107996393632,0.275561731321953,0.08420318141520346,-0.011364582418916497,-0.0020814364797335652,-0.017814928577276398,-0.06846893171986713,0.1953366579168768,0.9783431634154517,-1.0041075956394252,-1.9667521838019164,4.144234114460229,-3.6176639064226297,-1.3739318030945018,2.0340152058646463,1.0,0.5039532584570763,0.5152341962831992,0.3996740046016349,0.7893983172873934,-0.15613684419241355,0.3249015787675433,-0.49690094250647554
6.0,-0.09305783382361046,0.19720088670894254,0.11041701730442183,-0.0038264732619034117,-0.001752405662205587,-0.01634455446529494,-0.06830618862299317,0.19495819798798616,0.9784301178865191,-1.00274197991281,-1.9679732592632337,4.1440244304118385,-3.6178675011214856,-1.374123029562638,2.0339673287114572,1.0,0.5043712575222186,0.5156076535567284,0.39967194025281405,0.7893200625220101,-0.15614474748545168,0.32493997670457053,-0.4969976541918361
6.1000000000000005,-0.07903430215997109,0.2583576554774515,0.0705334182841095,-0.008685425426911867,-0.008634899819160824,-0.013465397854938738,-0.0684747324222996,0.1953610534699449,0.9783377811622168,-1.0012956987534503,-1.9694676980160466,4.143830566567256,-3.6180076131813883,-1.3742899194495473,2.0338832786173646,1.0,0.5045581968467477,0.5157796133053858,0.3996062857296072,0.7893174655805215,-0.15613595664309302,0.32495496363071924,-0.4969947416064344
6.2,0.25560475587704495,0.2395332002571467,0.14255475269228596,-0.009909814972363463,-0.008868037436265167,-0.013553769894628573,-0.06889176176259366,0.19636880323470346,0.9781067725395495,-0.999867509989851,-1.9708498058297446,4.1436304338883225,-3.6181176717673,-1.3744619881999023,2.033860612721331,1.0,0.5048831891794417,0.5161249545979524,0.3993479916528347,0.7893708092373628,-0.15613773965118727,0.3249213479435191,-0.496931433329726
6.300000000000001,-0.14184748020912458,0.49250871901668647,0.028396276249146785,-0.0030481720688691535,-0.00015747601099660915,-0.013458474576503936,-0.06920176489240297,0.19714906401471138,0.9779280727033656,-0.9985023916399521,-1.9718536125214876,4.143464422057458,-3.618283503231624,-1.374608341847555,2.033770370820386,1.0,0.5053860865127294,0.5166939140401964,0.3990392296306835,0.7894065269125667,-0.15613211029604787,0.3248942740371482,-0.49689416388222635
6.4,0.07248286773583953,0.06392705932161209,0.06592673230583879,-0.011301361539418093,-0.002990859052477167,-0.011702083100553446,-0.06864188258248508,0.1956810449193284,0.9782615533824013,-0.9969237114813109,-1.9730034985196092,4.143270255935258,-3.618453489262407,-1.3747738759875945,2.033774587926648,1.0,0.5056119701223575,0.5168645754783588,0.399011732387252,0.7893737779689203,-0.15615002692513794,0.32493308407197047,-0.4969151825229635
6.5,-0.00284240718596597,0.3085343816969949,0.21623066534833907,-0.014810025377843986,-0.012303769207692895,-0.014374023381652366,-0.06852026831743686,0.19535857581581367,0.9783350969512727,-0.9954645041651373,-1.9744958643530257,4.143067701817626,-3.618634021320701,-1.3749496223089794,2.0336793061070795,1.0,0.5058821937514512,0.5171261363313845,0.3990174933033616,0.789314655668671,-0.15616012275749927,0.32496145757374334,-0.49698736553212164
6.6000000000000005,-0.2534409515139074,0.3057351581556093,0.08582341401770777,-0.0067887252713822385,0.0015398589200705344,-0.014396744579584831,-0.06869238163153854,0.19577224368760068,0.9782404584541222,-0.9941488524750396,-1.9758621033350645,4.142903893610814,-3.6187950573363246,-1.3750928617526987,2.033616542816162,1.0,0.506369943314359,0.5176555794403525,0.3987333921536157,0.7893562165844583,-0.15614581248983853,0.32494514882297826,-0.4969365138906282
6.7,-0.29113803260248355,0.17330353085186564,-0.03042150116725302,-0.014661499108402122,-0.0048038728250870445,-0.01581951967386231,-0.06849476164981594,0.19518112910127652,0.9783725033417995,-0.9927150638811696,-1.9769914727587763,4.142760533843198,-3.618927618066305,-1.375281297053211,2.03351074112951,1.0,0.506634785625668,0.5179249744581096,0.39849571256046895,0.7894129108299822,-0.15615679370455465,0.3249198758391282,-0.49685952368806774
6.800000000000001,-0.16923362653492552,0.13562951661710174,0.1371283526641714,-0.009705851081700292,-0.007648597965777884,-0.015691631782427228,-0.06831318942673675,0.19485542246564508,0.9784500703577342,-0.9910227722053907,-1.9781787652351073,4.142563778229168,-3.619108153966383,-1.3754469943377812,2.0334978405710817,1.0,0.5070576124603372,0.5183846683019234,0.3983760619128818,0.7893725325285493,-0.15615427548361588,0.3249275192389387,-0.49691946468102854
6.9,-0.08285507099504659,0.08440018524748183,0.1369837987565886,-0.014795690627307779,-0.0036346881141952813,-0.015332141051124721,-0.06813276963101382,0.1945487754002464,0.9785237251893508,-0.9896228754707582,-1.9795032532988264,4.1423966036033155,-3.619310635816472,-1.3756054851256534,2.0334607867814056,1.0,0.5072264374678018,0.5185831491719824,0.39840536911774943,0.7893183157981963,-0.1561435044977055,0.3249454780123433,-0.4969972219922394
7.0,-0.11049528820669013,0.10379377423959374,0.23592383888658858,-0.009894435675598709,-0.0009261236420194693,-0.01729400638936207,-0.06770679857362204,0.1934670075364592,0.9787673169845981,-0.988306647960328,-1.9808713183951892,4.142201340938788,-3.6194852091799,-1.3757886159205657,2.0333741625064956,1.0,0.50752990680636,0.5188912586045382,0.39828383685197355,0.7893209346027863,-0.15613289118963927,0.3249547630965077,-0.4969903262916099
7.1000000000000005,-0.09297290617660142,0.20929167984372024,0.2395834584787657,-0.010306884656914015,-0.024556063922902695,-0.014769526180501627,-0.0673726181840011,0.19260402113870934,0.9789608990023715,-0.9873590469360352,-1.9818654947316614,4.142036369568292,-3.619525356740279,-1.375957275026895,2.033395634360339,1.0,0.5080738224443649,0.5194183088031336,0.3978742361482192,0.7893987009365661,-0.15615426758195958,0.32490780179134027,-0.4968907888165396
7.2,-0.06410732076090281,0.4042626935883443,0.17672271878667328,-0.009556770469465053,-0.01294360799199101,-0.011460772474424119,-0.06719274151419984,0.19212987840781612,0.9790664014146442,-0.9873243247501174,-1.9818534521638849,4.142055988311768,-3.619566493748518,-1.3759791625676094,2.0333619848819056,1.0,0.5082224158212076,0.5195526215661292,0.3978006347555666,0.7893942816055829,-0.1561587583461036,0.3249146745770825,-0.49689190434608377
7.300000000000001,-0.26615269096351807,0.2623636994241626,0.07152455478159422,-0.00289503924398542,-0.0029969898815139727,-0.013921982100658179,-0.06700482848907865,0.19166407582039333,0.9791706026176297,-0.9872369766235352,-1.9818382046740683,4.142038258577985,-3.619533517174068,-1.3759822365018493,2.033350185883841,1.0,0.5082574779786302,0.5195824571702952,0.3977721355530028,0.7894088386339924,-0.1561484391288519,0.32490526342007864,-0.49687817445132765
7.4,-0.06955606933903663,0.13942327742869123,0.2701174106065628,-0.012513792980112569,-0.00396503187376544,-0.01804899023957687,-0.06680506516923437,0.19121057148935958,0.9792728850759934,-0.9872080996790168,-1.9818412266173304,4.142002609714638,-3.6195276125688376,-1.3759641232458395,2.0333621920710025,1.0,0.5082662316811944,0.5195891058866254,0.3978568065732043,0.7893660186788253,-0.15614396826927193,0.3249336257667979,-0.4969290578888578
7.5,-0.06482427532084786,0.253960218511787,0.28280932914815105,-0.013050352757221445,-0.006364167424898911,-0.019429981676102857,-0.06681755592404613,0.19125413576056252,0.979263379508833,-0.9871900632227686,-1.9818146246356032,4.142026039250432,-3.6195246181883753,-1.3759938380505299,2.033317859395864,1.0,0.5082561996066424,0.5195985539266115,0.3978535994520234,0.7893679301700721,-0.15614159132203748,0.324923018991327,-0.49693370383583324
7.6000000000000005,0.16866328466124986,0.10947766108862708,0.08343680300841272,-0.016421519299086685,-0.011184943751922645,-0.015585713493159292,-0.0671539247280824,0.19205617597378946,0.9790832968269949,-0.9872137549450947,-1.9818353378240086,4.1420413841043295,-3.619527705927348,-1.3759849707232874,2.0333412644335676,1.0,0.5082620523889032,0.5195827327403363,0.39785827241033156,0.7893644708055427,-0.1561441813724638,0.3249353836800976,-0.49693030022939466
7.7,0.003206871684825599,-0.01022715985695094,0.08346547812025004,-0.017984960085212182,-0.004799331662399906,-0.017187682119480737,-0.0675892153115209,0.19313818140333877,0.9788401858203866,-0.9872026443481445,-1.9818322407775417,4.142044247955102,-3.6195246181883753,-1.375970114705166,2.033329486846924,1.0,0.5082621260243458,0.5195958018559959,0.3978461184401073,0.7893728623656735,-0.15613170916372204,0.32493554736701724,-0.496920782028218
7.800000000000001,0.0333457364641192,0.02828223575305766,0.0560165913590401,-0.015805459311288243,-0.009774623272272819,-0.019682345661060037,-0.06818032144772104,0.19466117096397537,0.9784977964412795,-0.9871902465820312,-1.9818476682303858,4.1420349956981255,-3.6195392787752803,-1.3759611288653772,2.0333111243049133,1.0,0.5082504402695309,0.5196007711190539,0.39786869847791845,0.7893631845930851,-0.15612227052888802,0.32492841993127164,-0.4969437808997462
7.9,0.05377458972013956,0.05407942150622429,0.0696805416963707,-0.01389058938508166,-0.004437291081824101,-0.016853807579003028,-0.06801644190186422,0.1941478127723832,0.978611407892882,-0.9871752143468021,-1.9818560454484833,4.142016966701634,-3.6195065721348607,-1.3759881979456494,2.0333503148865484,1.0,0.5082578683978152,0.5195924837350203,0.3978708457173329,0.7893602074475041,-0.15613566691871678,0.32494093914912847,-0.4969361150884117
8.0,-0.08310561758658298,0.03810723187081215,0.06334920788316889,-0.01248304131782163,-0.0023544171714550872,-0.017700546937679848,-0.06821574171579456,0.1946007890357506,0.978507453069034,-0.9871995958624098,-1.981844157853614,4.142035633261669,-3.619506638803032,-1.3759974472237706,2.0333440257788897,1.1300476780022652,0.5082673173902648,0.5195855697526295,0.397844895510496,0.7893667531295135,-0.15616197594649972,0.32493267487634436,-0.4969228542942643
8.1,-0.08208791342101357,-0.022879047723619622,0.022339637464522874,-0.0140880740394441,-0.0030516073909345734,-0.018406610912705623,-0.0682946020944199,0.1947834683395695,0.9784656248737438,-0.9871863246849628,-1.9818475713166508,4.142016780464992,-3.6195301944180103,-1.3759702616795149,2.0333086132117657,2.0,0.508264861521011,0.5195796764487164,0.397863888855647,0.789357529595665,-0.15615705470675695,0.3249389927385965,-0.49693492102484216
8.200000000000001,-0.14731571350798445,0.2368870110090146,-0.12084205963073436,-0.010217234462122507,-0.0015824807830081217,-0.01855202712626696,-0.06799223566437826,0.19404474791477483,0.9786335090217269,-0.9871873796879489,-1.9818687195174198,4.1420166847478805,-3.6195401901595097,-1.3759858651365413,2.033353328704834,2.0,0.5082704225693695,0.5195964338899466,0.397836224924676,0.7893648419504746,-0.15616810078994534,0.3249297256298482,-0.49692589386172625
8.3,-0.1503880892706114,0.14301863758532862,-0.09931490835588397,-0.01294996653900006,-0.0019626515791250233,-0.020183012955720392,-0.06833763983746993,0.194916433638438,0.9784357882519104,-0.9871793687625194,-1.9818426881044473,4.142021268634346,-3.6195231567012587,-1.375993968678009,2.033346776887188,2.0,0.5082728100086553,0.5195991269010302,0.3978563204317261,0.7893554493573249,-0.1561526493704958,0.3249380391548619,-0.49694023320180447
8.4,-0.025498311418676492,0.1405943887282045,-0.11682908513574132,-0.012003088989825054,-0.009001144075775009,-0.015134261328922522,-0.06863437225011339,0.19566352758568423,0.9782663697707463,-0.9871951034527429,-1.9818387981819745,4.142032146453857,-3.619541174740218,-1.3759681929236207,2.033359915925919,2.0,0.5082560542273046,0.5195986449550438,0.39785855095270467,0.7893683595715172,-0.15613374967010818,0.3249360047854957,-0.4969269945528866
8.5,0.043859859321207964,0.1370947087175079,-0.03408034765250765,-0.01111836008631412,0.001591020025868515,-0.018901494855400686,-0.0685700363432302,0.19550559116185381,0.978302451454621,-0.9871555363990253,-1.9818596281599552,4.142016573875181,-3.619511656961036,-1.3759546482517075,2.0333478883895486,2.0,0.5082683985145107,0.5195909922399865,0.39783564691020445,0.7893685246890105,-0.15616514001100207,0.3249270356143595,-0.49692273323174063
8.6,0.07445708592088791,0.3112632982332445,0.005383621623356984,-0.012793601986171115,-0.0024967990930555755,-0.015318652838374244,-0.06851154919208331,0.1953556402885231,0.9783365100637461,-0.9872140497928297,-1.9818412266173304,4.142037887823312,-3.61953035955783,-1.3759730497943323,2.0333352282163784,2.0,0.5082607075969517,0.5195938312314288,0.39786452556886204,0.7893566558550733,-0.15614879042191615,0.32493155679680785,-0.49694376795032924
8.700000000000001,-0.11046996999455871,0.4323520969100902,0.07666963083993597,-0.016831919140698398,-0.002170652137794329,-0.017952397204304027,-0.06846548960218617,0.19522265728364543,0.9783662700003847,-0.9871873810706528,-1.9818439819167328,4.142053343224341,-3.6195035316298676,-1.3759547185352268,2.033329486846924,2.0,0.5082738504375561,0.5195812351391912,0.39785465382262075,0.789365504528074,-0.1561465907801725,0.3249488116627981,-0.49691912042887193
8.8,-0.0019168630216334637,0.41350742655124495,0.0001318538537471714,-0.008726947263751568,-0.00981441694804288,-0.017335056233060902,-0.06841943001228903,0.19508967427876775,0.9783960299370233,-0.9871835540511308,-1.9818476617431962,4.142032146453857,-3.6195365391173304,-1.3759519508379667,2.033355961890317,2.0,0.5082767896300521,0.5195945868106532,0.39784669334587275,0.7893642816394144,-0.15614732789748462,0.3249434570187918,-0.4969243328747781
8.9,0.09699959834246187,0.12903860804128267,0.04578508875892,-0.014287377383425668,-0.015293885016297809,-0.012553856819562432,-0.06851871088516391,0.1953436939308614,0.97833835969278,-0.9871874596437256,-1.9818293056883753,4.142019748687744,-3.6195338593689597,-1.3759849707232874,2.033377170562744,2.0,0.5082705991728146,0.5195805597040555,0.3978566461909255,0.7893612044210647,-0.15615834069203904,0.3249331191026808,-0.49693252026551693
9.0,-0.28958400512367855,0.49036079353845313,0.12725700176333993,-0.0033831086876896267,-0.011574128531927824,-0.020518682900601964,-0.06865920406802835,0.1956934317726885,0.9782586367891007,-0.9871834464216342,-1.9818266145317809,4.142008304595947,-3.6195126972594203,-1.3759915093390538,2.0333568069731114,2.0,0.5082652145834976,0.5195896027861019,0.397859675046644,0.7893551894968021,-0.1561598745124978,0.3249354627838448,-0.4969400602005817
9.1,-0.300666996393475,-0.33269719612275206,0.14487742049033986,0.012230407053899056,-0.03259687010285632,-0.02147936591845747,-0.0686665884910479,0.19571286888809958,0.978254035940102,-0.9871888239297523,-1.9818293056883753,4.1420307618336505,-3.6195061749313995,-1.3759941923517753,2.033353328704834,2.0,0.508270876272178,0.51958367307908,0.3978518559646939,0.7893611683701182,-0.1561659534366051,0.32493538972116803,-0.496928700482625
9.200000000000001,-0.8424879376811866,0.31388096348623373,0.03166708665259549,-0.022753092109116198,-0.046021626537323605,-0.016360024312229965,-0.06830698266333331,0.19489578918481743,0.97844213659431,-0.9871717785268785,-1.9818475498350798,4.142037968073511,-3.6195126972594203,-1.375990568434493,2.0333535773742195,2.0,0.5082618075471517,0.519599873979106,0.39786614774105084,0.7893485015836722,-0.1561503521656991,0.3249347364186966,-0.4969541504350798
9.3,-0.5814480129468662,1.1269160104364622,0.22791590171478285,-0.11772030757080132,-0.06539102461299405,-0.0024245172158277664,-0.06815834375137476,0.1945631265909673,0.9785189920773306,-0.9871836985963763,-1.9818503351518344,4.142044544219971,-3.6195456476518344,-1.3759730497943323,2.0333407364247282,2.0,0.508261611262007,0.5196047606249956,0.3978642577393879,0.7893523134237842,-0.15614829447983888,0.3249268441641191,-0.49695390265607464
9.4,-1.1774537011794446,1.9656750681605835,0.33035789708226554,-0.1805262121332112,-0.07452253746318008,0.003385349461668908,-0.06858993794510085,0.19558067069333096,0.9782857133002685,-0.9872299037517599,-1.9818621277666937,4.142041126674266,-3.6195365391173304,-1.3759670369051193,2.033353328704834,2.0,0.5082708083512695,0.5195961621653034,0.3978600167076814,0.7893571973271246,-0.1561483812784527,0.3249362371841807,-0.49693997607012014
9.5,-1.0533980413818056,2.3016512436369205,0.8054054935677245,-0.23024620607823462,-0.09483241504079384,0.0038910096839040414,-0.06912149213128602,0.1968763672810668,0.9779883871098785,-0.9872114043301726,-1.981846818512682,4.1420503964164155,-3.619530210083727,-1.375952003884098,2.0333589206001856,2.0,0.5082562258537359,0.5195994419504482,0.39783842768079714,0.7893793874071944,-0.15613682446087895,0.3249236976449973,-0.4969165578772936
9.600000000000001,-0.9515004693041724,2.8106771742261505,1.4980982395653195,-0.26215258309578926,-0.10949098258994037,0.011732407382716237,-0.0691901767827448,0.19704817075698697,0.9779492385536123,-0.9871844396403293,-1.9818650684752406,4.142044544219971,-3.6195424621978662,-1.3759582253945262,2.033343888062345,2.0,0.5082655553431211,0.5196063924225741,0.3978277731544354,0.7893748728957078,-0.15614570349192336,0.3249252831359132,-0.4969199027015764
9.700000000000001,-1.0056322610410124,3.151603888343847,2.269019023169524,-0.29563907978349546,-0.11590547408334341,0.012521121189586792,-0.06895659430642907,0.19647689366988322,0.9780798664156855,-0.9872140884399414,-1.9818650684752406,4.142010013880216,-3.6195135519015547,-1.3759747590786013,2.03331159329827,2.0,0.5082619507975621,0.519605067436204,0.3978302569006091,0.7893753475817159,-0.156142682351591,0.324914534550454,-0.496927126061918
9.8,-1.1472594412847779,3.3438806416856717,2.9108656494763014,-0.32102201592357427,-0.12454538434708062,0.011473599347854288,-0.06825659540016722,0.1947454683892736,0.978474213667571,-0.9872140884399414,-1.9818799930468436,4.142032146453857,-3.6195249866456076,-1.3759549841722836,2.033353328704834,2.0,0.5082672087850458,0.5196136926821918,0.3977996904353557,0.7893868449265083,-0.1561521392482429,0.324914980337331,-0.4969055986981449
9.9,-1.2623634701044002,3.5237517453112357,3.2457819853873064,-0.3439875751869158,-0.14173049045008485,0.01159979302008375,-0.06758026992202736,0.19308192528551452,0.9788521293088713,-0.9872201440423598,-1.9818864684052289,4.142044544219971,-3.6195183102691897,-1.3759849707232874,2.033350409939754,2.0,0.5082583645601799,0.519598416363948,0.397836264305109,0.7893751881022494,-0.1561556279062783,0.32492244844150187,-0.49691813690034903
10.0,-1.186074549109909,3.103083251760118,3.4767524831622953,-0.3626119899876176,-0.15662953615558847,0.011350655071831629,-0.06697851376557928,0.1916322053702105,0.9791782867489797,-0.987238883972168,-1.9819126480171771,4.142041964454575,-3.6194938164888106,-1.375980009635987,2.033377170562744,2.0,0.5082710219969646,0.51959757796603,0.39783926138809855,0.7893650879450037,-0.1561623741726321,0.32492252343111205,-0.4969320120434
10.100000000000001,-1.1885619196197157,3.22622861931473,3.754425564198832,-0.36909423135893704,-0.1646238136813314,0.00818415304973185,-0.06840076072766763,0.19512003033607078,0.9783813018360642,-0.9872454477511776,-1.9818722967957465,4.142019748687744,-3.6195293107968247,-1.3759683571858832,2.0333600801881815,2.0,0.5082647579988268,0.5196088296095069,0.39780805563069743,0.7893869448307281,-0.15614926734293177,0.3249123015988354,-0.49690809402627223
10.200000000000001,-1.4284152910254586,3.312705595164622,4.081408712523504,-0.374961090928979,-0.16287696332114854,0.008327362165088432,-0.07018134132876164,0.1994730740899964,0.9773866816804793,-0.9871924779120649,-1.9818593539845581,4.142038601149661,-3.6195131892070105,-1.3759817358201696,2.033337944293134,2.0,0.5082581150258729,0.5196102843699191,0.3978143529767276,0.7893867395193781,-0.15614182622023254,0.32491077645044486,-0.49691175566889634
10.3,-1.1640811171823962,3.5327473672519596,3.871434903499665,-0.3604769074986424,-0.170903651948009,0.014068735204192148,-0.07059798343733517,0.20046739622777818,0.9771531728314393,-0.9872026443481445,-1.9818594066351967,4.142022692844567,-3.619503607250487,-1.3759773527927657,2.0333634139550205,2.0,0.5082678940384351,0.5195966600448649,0.3978448681018694,0.7893644408648399,-0.15615524778459508,0.3249249128628753,-0.496933716997069
10.4,-1.0422211983580387,3.047150057326955,3.9997475453949796,-0.36702411956894465,-0.17162659778103057,0.015310616812309058,-0.07061533909247698,0.2004874912229685,0.9771479655575467,-0.9872057340312882,-1.981830914898346,4.142019748687744,-3.619505603960377,-1.3759714405843617,2.033344149358662,2.0,0.5082608001665603,0.5195911605314514,0.3978650912377375,0.7893563025948465,-0.15615829914772722,0.32492546075186196,-0.4969453270896834
10.5,-1.2045733862111967,2.9001718397323644,4.337230317092785,-0.36765759308847684,-0.17198133252630277,0.01166228347936197,-0.07052036198398322,0.20025009645357988,0.977203537859055,-0.987227556656818,-1.9818503712435036,4.1420500968255345,-3.6195043683510746,-1.3759877470260693,2.0333559939555044,2.0,0.5082739817349549,0.5195933417510945,0.39784682384011477,0.7893631578051171,-0.1561603810602801,0.32493591598786625,-0.4969269473354894
10.600000000000001,-1.2411033367474302,3.111185748362933,4.3303017461169455,-0.35722361697936567,-0.17465351411871363,0.00889134593017422,-0.07060802147587714,0.20052231666878081,0.9771413799107551,-0.9872255325317383,-1.981883740800869,4.142044544219971,-3.6195126972594203,-1.3759702819661754,2.0333394531323186,2.0,0.50825797316312,0.5196017384563306,0.3978296324236711,0.7893745928397451,-0.1561542903077068,0.32491486103784506,-0.49692446395236056
10.700000000000001,-1.065749969969232,3.04369221945743,4.078842503961204,-0.3572418365639291,-0.17442267580939275,0.014776038796809214,-0.07046909142736846,0.2001808137241442,0.9772213125703181,-0.9872026443481445,-1.9818531475462855,4.142032146453857,-3.619527061591808,-1.3759800839164222,2.033367396949014,2.0,0.508248862596082,0.5196073457551813,0.39787540305861907,0.7893512614433265,-0.15614102366229715,0.32492416609841157,-0.4969596090959212
10.8,-1.1721667874589556,2.914839666083619,4.114618611432411,-0.3614035971863311,-0.17477571991471827,0.013496185305016412,-0.0702850410849525,0.19970720064037725,0.9773315924370843,-0.987205512744038,-1.981844684688486,4.142047252334467,-3.6195217972357754,-1.3759730497943323,2.0333560368193297,2.0,0.5082653018210687,0.5195863183966029,0.3978368423176566,0.7893779787728872,-0.15616414482507318,0.32491869196908535,-0.4969134835246311
10.9,-1.1937779532001096,3.005678011971612,4.271294688136654,-0.354968318229929,-0.17176233045169298,0.009708577439313016,-0.07034168435217703,0.1998415833298053,0.977300046238509,-0.9871967340199131,-1.9818741479002382,4.14202270385186,-3.6195126972594203,-1.3759758912982898,2.033300853644647,2.0,0.5082629181952527,0.5195923385997212,0.397847413168471,0.7893696467305764,-0.15615123077442244,0.3249261990260718,-0.4969258688522339
11.0,-0.9646683625844268,2.645529667899969,4.302654300515543,-0.3685971512662371,-0.17618201765949948,0.011137611275438521,-0.07030505297105287,0.19976880453653165,0.9773175544798948,-0.987180794602373,-1.9818322127144823,4.142044544219971,-3.6195355701086283,-1.3759382560161695,2.0333428689561255,2.0,0.5082421605324201,0.5196202558350521,0.39783196194142895,0.7893804303754836,-0.15612567396771548,0.3249193145029794,-0.4969212705562691
11.100000000000001,-0.8316642749671126,2.7059404093326154,4.409119803861032,-0.3621566094988054,-0.17970717353110716,0.00849877778800633,-0.07020938557614552,0.19955777530829957,0.9773675401658485,-0.987180282637257,-1.9818412266173304,4.1420536744259815,-3.6195172623624257,-1.3759611288653772,2.033323905401035,2.0,0.5082568629727887,0.5196138534315909,0.39785253795246733,0.7893575293344471,-0.15614138838101219,0.3249309102235426,-0.4969451290623214
11.200000000000001,-1.0089918173940688,2.851670562906369,4.283559708227316,-0.3573993844928557,-0.17624222080280724,0.006741603047207971,-0.07006091499622576,0.1991952397209016,0.9774521596304613,-0.9871902465820312,-1.9818412266173304,4.142052312125865,-3.6195347010243792,-1.3759812945373853,2.033361096610729,2.0,0.5082519881736702,0.5196069082422211,0.3978549395175349,0.7893609524816645,-0.15613590228390006,0.32492988477846446,-0.49694208585416255
11.3,-1.357886441712618,3.0394467378151,4.091850587449097,-0.3538541213194441,-0.1694616228313683,0.009882833838942394,-0.07003817829292831,0.1991457097565065,0.9774638810193178,-0.9871990596206137,-1.9818197431327957,4.142045676239191,-3.6195449224862224,-1.3759742289810202,2.033330618866144,2.0,0.50825564797477,0.5195956287449846,0.3978643636039901,0.7893685648067132,-0.15613907774388636,0.3249246133297535,-0.4969324430431045
11.4,-1.2636577606312154,3.0540045593811307,3.9803319282185976,-0.3515320640879169,-0.1737055634230173,0.009667306839858029,-0.07000262771758231,0.19909477087751581,0.9774768026430135,-0.987183808228929,-1.9818264405859662,4.142037876658676,-3.619551439752791,-1.3759668590701957,2.0333523913483575,2.0,0.5082450967113361,0.5196120161918308,0.3978227949470541,0.7893858887525038,-0.15613661313956223,0.32490469686541856,-0.49691872034621193
11.5,-1.1584380054111134,2.732495342749789,4.065700387826951,-0.3565706817855517,-0.17087688087992947,0.009191472968737721,-0.070012609923522,0.19909962831310468,0.9774750421515935,-0.9871914540676969,-1.9818316277761938,4.142044544219971,-3.619535378073421,-1.3759538521120593,2.03337364098926,2.0,0.5082644844768889,0.5195943535217298,0.3978698224122886,0.7893561631267053,-0.15615653155224601,0.32491941020826764,-0.49695006012412357
11.600000000000001,-1.097493939593063,2.842849097615593,3.9447811401894883,-0.35378265929933944,-0.17526049544860117,0.008608397707306611,-0.06984908848903192,0.198653333504567,0.9775775870489664,-0.9872049879885005,-1.9818482649622104,4.1420395679816515,-3.619517579843495,-1.3759660114494523,2.03335567234519,2.0,0.5082626488646371,0.5195984934240525,0.39785137903029805,0.7893646682919588,-0.15615819880400003,0.32491951979421635,-0.49693595468159857
11.700000000000001,-1.0065317723827483,2.737033107043958,4.0156474831377205,-0.35691309548615563,-0.17791933433334842,0.0109715921468057,-0.06997527251370358,0.19890440755928346,0.9775175068973686,-0.9871807153292724,-1.9818265494255345,4.142065519564526,-3.6195209660479426,-1.3759941353894016,2.033362126784304,2.0,0.5082708075795729,0.5195823168328608,0.3978587299191999,0.7893590322027193,-0.15617333033995087,0.32492903382737065,-0.4969339313696808
11.8,-1.2854336553090893,2.7347151425468605,3.817929267014111,-0.3568370994378558,-0.17080404434012436,0.009211496888411169,-0.07011746699134475,0.19925612210021731,0.9774356370433723,-0.9871654347675602,-1.9818293056883753,4.142034869729018,-3.6195246181883753,-1.3759518264702313,2.033343654213882,2.0,0.5082476970203158,0.519609989297802,0.3978616050177808,0.7893631229400132,-0.15613201385552553,0.32492228293366887,-0.4969448303835954
11.9,-1.2051668089112528,2.9126904689486026,3.9984342197966196,-0.35188248000074523,-0.17124353424983751,0.006251188335844968,-0.07026808699712768,0.19967262971075883,0.9773398745666444,-0.9871861685740391,-1.9818384898547905,4.142047171512009,-3.6195429865212057,-1.375951944698962,2.033329486846924,2.0,0.5082522092549476,0.5195945004856373,0.3978687238999282,0.7893588353391802,-0.15615157294727514,0.3249298404293458,-0.4969405539263473
12.0,-0.9963038470219847,2.854834016187111,4.038411360206535,-0.35399942384646754,-0.17832854563631645,0.011028593998117087,-0.07038026053030284,0.19994593917232198,0.9772759244194845,-0.9872061322118273,-1.9818173847594203,4.142050753951167,-3.619523270667835,-1.3759558945047758,2.033326764979411,2.0,0.5082586627314216,0.5195950803798486,0.3978644079242326,0.7893584573028831,-0.1561540648839599,0.32492789761762797,-0.4969416416989188
12.100000000000001,-1.0894806489038944,2.6621591137841834,3.870693136192863,-0.35831181531544004,-0.17623406042761502,0.010512951943222344,-0.07022191536507733,0.19960928275708248,0.977356126762243,-0.987159733672805,-1.9818268197297917,4.142063414160713,-3.6195221322297915,-1.375963614823961,2.033381256217133,2.088070011943121,0.5082481382678466,0.5196093890484477,0.39785792637237677,0.7893645280582402,-0.1561335698548289,0.32492504049542076,-0.49694030654277593
12.200000000000001,-1.0593140817623863,3.2435163306292636,4.594802480313305,-0.36627448920974703,-0.1787905946721479,0.0076204271163372115,-0.07051155434440849,0.20028925480379148,0.9771961585724667,-0.9874017109071589,-1.9815232115793968,4.142055988311768,-3.6195246181883753,-1.3759707009551292,2.033353328704834,3.0,0.5082544451210096,0.5196145353993076,0.3978387448503794,0.789370906502439,-0.15613376378890764,0.32492659137190627,-0.496929099562565
12.3,-0.9506688993764789,3.1020039206364465,5.163566311534676,-0.36227280460966615,-0.183013133329215,0.006190504933938904,-0.07041594278647433,0.20005636913083863,0.9772507235195694,-0.9885740280151367,-1.980301629593817,4.142186638547631,-3.6193777491981645,-1.3758472686539227,2.0333745267149594,3.0,0.5082046349476065,0.5195416709661329,0.3979320937587093,0.7893375270456953,-0.1561293862903848,0.3249434684192487,-0.4969724594639455
12.4,-1.1129934950928975,3.1226230758229634,5.49064237060802,-0.33471973046870857,-0.17484281723997935,-0.028143669067839102,-0.07031997402048967,0.19982281406373648,0.9773054502210665,-0.9899124692772481,-1.979198853093588,4.142376681621141,-3.619187320583712,-1.375657339231319,2.0334643023931647,3.0,0.5078884865294526,0.5191560870856042,0.3982230869670994,0.7892734917243035,-0.15614537142791596,0.3249847352692923,-0.49704215121547984
12.5,-0.8775430938749282,2.46012506962749,5.365387939109878,-0.2914403746212987,-0.15722534959427897,-0.04822002289203936,-0.07010161634139071,0.19935990688020983,0.9774155982505577,-0.9916048049926758,-1.9779337811736184,4.142580621134978,-3.618979426573533,-1.375483592152406,2.0335137317847924,3.0,0.5076509784745128,0.5189453855132657,0.39830858823264714,0.789275662229335,-0.1561462656894541,0.32496951512187966,-0.49704837487425063
12.600000000000001,-0.7797381337617117,1.908155155855671,5.590773597940432,-0.26820196201109386,-0.15826142466583676,-0.07336783615096724,-0.07003120459331506,0.19916746910847968,0.977459943938934,-0.9932329729378941,-1.9767922938179567,4.142765867853739,-3.6187948763680056,-1.375313534022811,2.0335809110158896,3.0,0.5071956105387015,0.5185190572656584,0.39831645053864423,0.7893738980842127,-0.15611477606332747,0.32491761433052735,-0.49693618263896916
12.700000000000001,-0.9422972617753089,2.196282026328837,5.408811361931822,-0.276790303290266,-0.16884087207842385,-0.09122826778643994,-0.07011258752695887,0.19925253689566913,0.9774367754661784,-0.9945686977877476,-1.9754604548041108,4.142953160012122,-3.6186632507329652,-1.3750892930245666,2.033632037436608,3.0,0.5070275463907918,0.5183079394943171,0.3982764033887659,0.7894172799090825,-0.15614895423150446,0.32489811088587045,-0.49686927839839884
12.8,-0.9697890555550577,2.4150033671983513,5.326876593082643,-0.29474436456113956,-0.18046048324067118,-0.10401321723708176,-0.07013623131786734,0.1993722708178938,0.9774106560737166,-0.9959745363383034,-1.9740307848890752,4.143170614854234,-3.618514779160091,-1.374930523363399,2.0336849930056764,3.0,0.5066933382576659,0.51797670414119,0.3984656676695721,0.7893985678087767,-0.15615038715102864,0.3249070048081255,-0.49689274090154373
12.9,-0.9485794564119819,2.1802699040246494,5.026724633514622,-0.2699979407568397,-0.16793594789580948,-0.1241326282882183,-0.07015530470660428,0.19949474877425785,0.9773843030981222,-0.9974374631358238,-1.9727643338754282,4.143322889499227,-3.6183577425203657,-1.374725643788473,2.0337491035461426,3.0,0.5061790156725775,0.5174700620536908,0.39884340767453774,0.7893316964858519,-0.15613316151529713,0.32494027170019185,-0.49698262406789495
13.0,-0.9162491483777364,2.049762192749917,4.920929912477697,-0.2689097938956973,-0.1643136171729792,-0.13863484005713902,-0.06989178699511073,0.19879126336265862,0.9775464763467026,-0.9989538308025478,-1.971707681684708,4.143491972731122,-3.6181934249208942,-1.3745545837992545,2.033795015991552,3.0,0.5059439669063756,0.5172221691632717,0.3989455787472923,0.7893312685480939,-0.15613737535363584,0.32494817173951834,-0.4969768145427706
13.100000000000001,-1.3947392783910482,3.070406831229254,4.710016757999899,-0.3547206130203981,-0.20105865117637423,-0.15214322449899884,-0.06874629607779957,0.1959110014931531,0.978205788147293,-1.000383263163795,-1.9704534900714643,4.143741244740258,-3.6180945581058648,-1.3743601099391212,2.033831507908171,3.0,0.5055062417002565,0.5168402185340762,0.3988897173334246,0.7894553098393693,-0.15612281614704115,0.32488199087845115,-0.4968276079764456
13.200000000000001,-1.3744154637292494,3.213457128474072,4.6844205298894845,-0.35377842302347845,-0.2154616841732584,-0.1635567359425281,-0.06774808158847084,0.19345635344495485,0.9787663422433027,-1.0017454257994207,-1.968961367497169,4.143924803395028,-3.6179170992278737,-1.3741534445185974,2.0339265082488676,3.0,0.5053501198145346,0.5166232762676932,0.3989947570263751,0.7894354019046121,-0.15613504599057854,0.3249162952164596,-0.4968329646229547
13.3,-1.2202452824575143,2.705736889679649,4.660650350963744,-0.3473020353381084,-0.2193341007871238,-0.17789055178856672,-0.0670902023968369,0.19193181103281673,0.9791121786544564,-1.003213062932178,-1.967529093474069,4.144131183624268,-3.617775713652292,-1.3739828656561979,2.0339653904162143,3.0,0.5050016993808919,0.5162849367723588,0.3992976643493648,0.7893536796131211,-0.1561497678223367,0.32493438937049085,-0.49694633623227624
13.4,-1.3926460660182352,2.981557802725881,4.6194897374145825,-0.3241608849328679,-0.20907805789105363,-0.2039792149009705,-0.06659284066173009,0.19067777164410402,0.9793908274618536,-1.0045301414676804,-1.9665233179423198,4.144286632537842,-3.6176325283446253,-1.373806375809882,2.034005790062105,3.0,0.5045075672669506,0.5157533040121809,0.3995959153333575,0.7893237419163573,-0.15615133034789513,0.3249615965316174,-0.4969756063001127
13.5,-1.0654114327520614,3.011165987997331,4.720359346871806,-0.3518140361780338,-0.20742991420458443,-0.20591596685153915,-0.06624488142374274,0.18977856062291856,0.9795895255299018,-1.0059906940024108,-1.9653743182255548,4.144473219893325,-3.6175009212889613,-1.373633520290922,2.0340750517541033,3.0,0.5043023602236038,0.5155598893043214,0.3996157487954151,0.7893584493483676,-0.15614456621758477,0.3249443928078921,-0.49693385320963346
13.600000000000001,-1.050357755522047,3.0928386691519485,4.523539758692894,-0.34529775068267093,-0.19837847654864277,-0.22237419953856977,-0.06610545858951447,0.1893955083834766,0.9796730982033114,-1.0074779223384926,-1.9639953974805788,4.144641210126041,-3.6173263178772834,-1.3734563032733362,2.034144878387451,3.0,0.503893042068192,0.5151412407330855,0.399679207092123,0.7894181055136833,-0.15614937004618912,0.3249141207627132,-0.4968573669076053
13.700000000000001,-1.1625199644055437,3.030355605540897,4.361644141446381,-0.3610671211312968,-0.19796569665326905,-0.23038758134929718,-0.06614636258300256,0.18949951777031893,0.9796502290638051,-1.0089395609589717,-1.9624752347143382,4.144825458526611,-3.6172262630858363,-1.3732856866122096,2.0342456724265916,3.0,0.5036668555381706,0.5149057321835515,0.3998067029637992,0.7894036636479052,-0.15617220262201306,0.32491317439663336,-0.49687375464091177
13.8,-1.1155149838112572,2.9397444022698096,4.191572134017346,-0.34305237555531676,-0.1892055455647168,-0.23254856154119508,-0.06617553171760378,0.18960837641459202,0.9796272056402864,-1.0101128984705412,-1.9613673221666148,4.145013059558839,-3.6171227740238736,-1.3731039360120567,2.0342549071502596,3.0,0.503330585595661,0.5145277565456133,0.4000684703623773,0.7893541696012463,-0.1561678887019604,0.32494067654053305,-0.49693575258868194
13.9,-0.8392892489711772,2.8876081737929904,4.009724819769015,-0.34364054291732754,-0.17977175239674711,-0.21875889642965884,-0.06613929146695718,0.18960360051958772,0.9796305775815757,-1.0115631363753692,-1.96020880446363,4.145190675501996,-3.616949033706048,-1.3729201110288447,2.034371852874756,3.0,0.5028492955746636,0.5140674334281854,0.4003599965603981,0.7892962681291114,-0.15616234937003523,0.3249604294360323,-0.49701654002401024
14.0,-0.8510766102542834,3.033637920206752,4.027285924393182,-0.3657402142184868,-0.18373193346981428,-0.21363210646238223,-0.0659199582059375,0.18906894337591929,0.9797484529837241,-1.0132124279766548,-1.958914171142142,4.145411356716621,-3.61682398220856,-1.3727611715760304,2.034403057563596,3.0,0.5026624556304075,0.513869869857347,0.4003720182941611,0.7893461246385911,-0.15614942753982133,0.3249532975661753,-0.49694607976911603
14.100000000000001,-0.937856384760497,3.3272349282628424,3.992725004744623,-0.3975235580854457,-0.18633447909371179,-0.20896037926496427,-0.06567033986532707,0.18844663954515592,0.9798852681936701,-1.0145919084747894,-1.9575997007283474,4.145641803741455,-3.6166511974730433,-1.3725793605192744,2.0344557762145996,3.0,0.5023264601078077,0.5135276707639678,0.40043196992837365,0.7893874393222351,-0.15616134647498978,0.32490990997724833,-0.4969050763536021
14.200000000000001,-0.7039920025885987,2.5733183866112275,3.5780037672502334,-0.35228334139369016,-0.16873660809022303,-0.21188844218723288,-0.06559837408297865,0.18833875555986485,0.9799108966635711,-1.0157235566131997,-1.9562756674696675,4.145783343499913,-3.6165426765807878,-1.3724137234775582,2.0344895507753034,3.0,0.5018095000138814,0.5130144644304352,0.40072274205687447,0.7893477994318433,-0.1561350681629376,0.3249306781495315,-0.4969627213575956
14.3,-0.22647559071944656,1.0346524143957188,3.198076820910149,-0.16905223378967546,-0.07976605020391059,-0.23825763130701344,-0.06563821787819164,0.18847260053957474,0.979882448592818,-1.0171790331155335,-1.9550619132073264,4.145973241516615,-3.6163486055041094,-1.3722123737329008,2.0345396995544434,3.0,0.5016312768226449,0.512832582878028,0.4008844944855017,0.7893122004982288,-0.15612931469985458,0.32495053993221235,-0.49700808226201043
14.4,-0.16816066898556678,2.060621104609824,3.4103999050013845,-0.20990320514103805,-0.0683440619141164,-0.24278592929314413,-0.06583271596502574,0.18889594232174783,0.9797878981414003,-1.0188959350234352,-1.9538740592772144,4.146216869354248,-3.6162363385978566,-1.3720787207232874,2.0345865157342726,3.0,0.5013580867875072,0.5125347619243271,0.4010016189974235,0.7893103632027318,-0.15614666978396102,0.3249549752279538,-0.4970026480118093
14.5,-0.5850209753066681,2.7727031906589863,3.5210058505044963,-0.24099004736537147,-0.07883899261427285,-0.23580993779531847,-0.06499825161612804,0.18686543280462917,0.9802323061545181,-1.0201837444138433,-1.9525788743243702,4.146363347875897,-3.6161226693168453,-1.3718865553485315,2.0346882687594063,3.0,0.50087658759375,0.5120649513001432,0.4010144007698921,0.7894130975702566,-0.15614180627886431,0.3248932173113397,-0.4968813692035482
14.600000000000001,-0.4152622246310483,2.5307573049101206,3.4965946385034816,-0.23301044701720738,-0.06888350262625707,-0.23445097524399836,-0.06327082735256942,0.1826300189315615,0.9811363292912069,-1.0214150789731602,-1.9513477708958353,4.146572320622779,-3.616003041149301,-1.3716809039076017,2.0347145441526036,3.0,0.5006192835071651,0.5117984645775567,0.40116247234515384,0.7893888261178477,-0.15613882492978692,0.3249148041260071,-0.49690675041660526
14.700000000000001,-0.24741296516467515,2.3118396253012974,3.548785962114047,-0.22933690603634882,-0.0626897185161765,-0.23254991924192325,-0.06187047349577757,0.17919351386093332,0.9818662354134098,-1.0227634951875018,-1.9501344166197718,4.146762410231999,-3.6159377205776777,-1.3714564607741224,2.034792423248291,3.0,0.5003466483442072,0.5115240606344843,0.401356354385227,0.7893522295068132,-0.15614171267327354,0.32493366495968257,-0.4969516442391041
14.8,-0.1514631458713156,2.272422948268139,3.6671783233724944,-0.2300775284544522,-0.05944447939319718,-0.22224691184397583,-0.061535716938049836,0.1783773881241259,0.9820357021266735,-1.0243138969114403,-1.9487873665405167,4.146975979217439,-3.6158458344055067,-1.371293869099888,2.034872394791354,3.0,0.49990151562528656,0.5110906522558621,0.40154605298238355,0.7893654749613305,-0.15613766634666934,0.32491561801876456,-0.4969436761388294
14.9,0.17652574848376243,2.4174168995323937,3.898173113930222,-0.23589478232285283,-0.06396129740231206,-0.23093019188306835,-0.061354905593928956,0.17793122663714783,0.9821282701063617,-1.0255750003995692,-1.9474999220621028,4.147150200253507,-3.615708244307346,-1.3711248310443545,2.034909408932706,3.0,0.49947522008223666,0.5106127997463842,0.40172601922707757,0.7893705239535096,-0.156153487536278,0.32493088701690503,-0.4969207008226027
15.0,-0.026997176549357876,2.1691052360756795,3.8953989535072497,-0.2296422805354092,-0.0532739406974809,-0.22816850384545628,-0.06153867551627989,0.17836123422091818,0.9820387224033333,-1.0268491239476885,-1.9463582635197008,4.147345229472698,-3.6155962702769564,-1.3709002089453453,2.0350038121422505,3.0,0.49928047629108957,0.510398683302928,0.40185986038712534,0.7893527118479425,-0.15615813653931768,0.32492814710160006,-0.49694932529583724
15.100000000000001,-0.2093235819495258,2.2428798002839856,4.041965791989076,-0.21695268426753167,-0.04813513321180024,-0.22879307152504105,-0.06161503426797828,0.17853692913115624,0.9820020696897513,-1.0283051415539664,-1.9452480435023425,4.147580186511399,-3.615486844251115,-1.3706876554932241,2.0350441932678223,3.0,0.4990109129797881,0.5101468608525858,0.40194946619484934,0.7893663013217833,-0.15614512754659016,0.3249387436842013,-0.4969248980821548
15.200000000000001,0.021303801826522195,2.2451683010559775,3.908762454005987,-0.21170276484729506,-0.05129927311353294,-0.22678663195241014,-0.061426223318831304,0.1780847934800842,0.9820960006802898,-1.0298030145333377,-1.9438192588812502,4.1477732281273045,-3.6153752548224123,-1.3704765484843637,2.0350717756256387,3.0,0.49844682635751586,0.5096291835395003,0.4021307640779138,0.7893941521837885,-0.1561297574353647,0.3249224958482792,-0.4968961088929326
15.3,0.0668393294033689,2.199531328001256,3.597662010264565,-0.21821028689931335,-0.05595426619427991,-0.21834935543110737,-0.061455843653731766,0.17816810824807103,0.9820790532849359,-1.0299984497317412,-1.9435648021652467,4.14782190322876,-3.615347524682516,-1.3704475847606732,2.035090923309326,3.0,0.49828427949442694,0.5094585245518007,0.4022152354453088,0.7893862349598524,-0.15614012816138245,0.324920559074019,-0.4969066941838102
15.4,0.07375720868663344,2.336318334117822,3.8807878003104825,-0.21810812433959395,-0.052131113095108136,-0.223785912316792,-0.061468936461866824,0.1782108085476177,0.9820704195746351,-1.0300230235406065,-1.943564510678852,4.147788165817062,-3.615347524682516,-1.3704716614736088,2.035122840522786,3.0,0.4981651530782139,0.5093420599135405,0.4022746861502169,0.7893840776320901,-0.15613271865360545,0.32492184469437946,-0.4969116088271335
15.5,-0.10540921961378281,2.2400409380424184,3.7774348549520704,-0.2124340536531285,-0.0513898284977188,-0.22037556794152297,-0.061269488063614666,0.17773222682719753,0.9821694689006314,-1.03002473972715,-1.9435441564516034,4.147832923706111,-3.615336504205165,-1.3704405726941458,2.0351157188415527,3.0,0.4981184462667024,0.5092939466028179,0.4023317936548815,0.7893660808734841,-0.15613325033704667,0.32493055168164237,-0.49693433679862414
15.600000000000001,-0.05311737864629381,2.484902878168916,4.0503457251549015,-0.22996136970968584,-0.060902194448998484,-0.2149416359227011,-0.06107003966536251,0.1772536451067773,0.9822685182266275,-1.0299990660907155,-1.9435723493725443,4.147811911975481,-3.6153429240272077,-1.370460252546364,2.0351157188415527,3.0,0.49811543020641125,0.5092883875128863,0.40232024852581716,0.789372067534573,-0.15613926401815478,0.3249243323704928,-0.4969270041582087
15.700000000000001,-0.32611045974433234,2.886725689441661,4.308337979536852,-0.2487677246110111,-0.07000134887337515,-0.2152488976116494,-0.06098092210732511,0.17704486839894362,0.982311775479508,-1.030011008611656,-1.9435931644835414,4.14782190322876,-3.6153242624570394,-1.3704856077777308,2.0350813147202356,3.0,0.49813934671306803,0.5092766688937221,0.402328140085259,0.7893574637628373,-0.15616445138219665,0.32492370738493787,-0.4969426957966338
15.8,-0.17118471718032852,3.017365560610275,4.218540021591374,-0.28579310195578245,-0.07847953195618078,-0.2103984922795143,-0.06092721384793332,0.17692268222416638,0.9823371269666463,-1.0300501128623416,-1.9435619020702513,4.14782190322876,-3.6153674461543965,-1.370509449635641,2.0351157188415527,3.0,0.49812462860678935,0.5092965476843169,0.4023127970847297,0.7893737061833936,-0.1561343494082177,0.32492410415920947,-0.4969260945628646
15.9,-0.23615081864013196,3.1160018677826,4.074165858351278,-0.3056934423264859,-0.08279973814224524,-0.2101943968486251,-0.06094866990996631,0.17699364433729176,0.9823230066083178,-1.0300000331277686,-1.9435560481263332,4.14782190322876,-3.6153461169693593,-1.3704631194901635,2.035099206221597,3.0,0.4981199991983885,0.5092970908708463,0.40230649263933044,0.789379236367034,-0.15612930516282603,0.32492584803279057,-0.4969177543036104
16.0,-0.28505031438302575,3.2247343927383665,4.0548878988153865,-0.3068830916011726,-0.08311244823024057,-0.20561182707181233,-0.06099519291734428,0.17712902049001147,0.9822957225763976,-1.0300342616564457,-1.9435812435545863,4.147808180065258,-3.6153351269164027,-1.3704736868487757,2.0351099829773447,3.0,0.49812379948459307,0.5092999051705,0.40231024297796825,0.7893745123988203,-0.15612965979620855,0.3249180245471115,-0.49693026254339523
16.1,-0.20171102804242583,3.198842739617547,3.9862716870515293,-0.30707690979415503,-0.08458950519492717,-0.20537633002283293,-0.060910013007966606,0.17693351034431193,0.9823362121597741,-1.0300340974187276,-1.9435693226256312,4.147800532559314,-3.6153303746308936,-1.3704931582126245,2.035120471127062,3.0,0.4981162639017303,0.5093048796356693,0.402287809795333,0.7893840887078903,-0.15613130942845455,0.32491155049257214,-0.49691876505871896
16.2,-0.3816682242159733,3.3418592981373885,4.164528429844589,-0.30589521473643666,-0.07961387115464788,-0.20743743208350782,-0.060827010433627114,0.17673461069305624,0.9823771833551158,-1.0300137015230615,-1.943552400783929,4.147795662431897,-3.6153498313545853,-1.3704713801767063,2.0350957211872305,3.1301551216902843,0.49811073881291656,0.5093047077511226,0.4023104062282973,0.7893784588365774,-0.15612435386702905,0.3249141671355704,-0.4969281827880072
16.3,-0.4001899802295224,3.2291316136970343,4.162627286910241,-0.30889339321962617,-0.08337490686392418,-0.21149350237561576,-0.060919161895933584,0.1769449313875616,0.9823335962307855,-1.030041312077828,-1.9435550163717614,4.147817132578931,-3.6153351269164027,-1.3705098253641843,2.0351347900496335,4.0,0.4981197136568489,0.5092966990551283,0.4022963612761102,0.7893784036769569,-0.15613922047185103,0.3249200337000995,-0.49691976348218253
16.400000000000002,-0.41916263414439464,3.2899878983633277,4.13286141930353,-0.3064898751425599,-0.08000059773567579,-0.20203711274988356,-0.0609916973330104,0.17710735214088952,0.9822998516745524,-1.030007837181606,-1.9435669947139749,4.147834300994873,-3.615315940881805,-1.370466421743133,2.035110876785308,4.0,0.49811953015087235,0.509304756636175,0.4023083567164375,0.7893745767711565,-0.15612164103080214,0.3249215947400382,-0.4969303452404549
16.5,-0.16313172671433435,3.2286296640383045,4.07159381728384,-0.311393157789997,-0.08705594765824015,-0.20778448862797907,-0.06099111006806905,0.1770912161741685,0.9823027972818784,-1.0300435717358396,-1.9435573941331996,4.147834300994873,-3.615323682824606,-1.3704856002142543,2.0351033210754395,4.0,0.49813556708550155,0.5092979044694638,0.4023225651403291,0.7893637384075068,-0.15614248350268323,0.32492530558129085,-0.4969385868755256
16.6,-0.2489044995747566,3.401259679910953,4.08325670240802,-0.3107330692447901,-0.08843320849611074,-0.19895890534256125,-0.06089400661142066,0.17683529098903508,0.9823548537012108,-1.0300418149408141,-1.943547342277025,4.14779806137085,-3.6153314038977946,-1.3704736868487757,2.0350928592790023,4.0,0.49812928210874124,0.5092917353438963,0.4023299922622996,0.7893603235092806,-0.15613134585759283,0.3249296924011845,-0.49694464229538937
16.7,-0.3159561043828676,3.368194326952249,4.1303146293439035,-0.30612848017069777,-0.08152474862663303,-0.20017580569348858,-0.06075499126567295,0.17647523799952441,0.9824282363547218,-1.0300369271274092,-1.9435574016966761,4.14782190322876,-3.6153338350075632,-1.370497951714309,2.035139560699463,4.0,0.49813191120052575,0.5092902236378298,0.4023209805425855,0.7893627615576445,-0.15613810822643376,0.3249317429749966,-0.4969373041267789
16.8,-0.39015734695735393,3.114704415029598,3.9235307127709076,-0.3115218065414624,-0.0836488946472357,-0.2027907184859069,-0.06064833755781114,0.17622532542742084,0.9824797125466791,-1.0300521148977702,-1.943548003777965,4.147812692305766,-3.6153304744813974,-1.370498005543844,2.03513714143326,4.0,0.4981161765861977,0.5092880054393736,0.40232554299606976,0.7893716722308389,-0.1561358251719681,0.3249273634539903,-0.4969267306718328
16.900000000000002,-0.4689429741709088,3.178504530346419,4.021035056782086,-0.3124420270455725,-0.08346443362472132,-0.20682204485696362,-0.060593628849700897,0.17612193865935832,0.9825016252954469,-1.0300321578979492,-1.9435574016966761,4.147797763806123,-3.6153392664589825,-1.3704697065193723,2.0351233209554964,4.0,0.4981252600137331,0.5092891942386277,0.4023187380850023,0.7893737784397709,-0.1561306568544832,0.32492399420741386,-0.49692721186327476
17.0,-0.3845915130216668,3.275176769055637,3.8169765596464087,-0.30667628754686205,-0.08499007329967716,-0.2052828773682729,-0.06070839096023569,0.1764576258667679,0.9824342967041998,-1.0300404393557976,-1.9435432405686741,4.147823045291019,-3.615359445611471,-1.3704617659198206,2.035140614910779,4.0,0.4981134608356661,0.509304711484181,0.4023116565916594,0.7893757791313281,-0.1561196424841296,0.3249184734092127,-0.49693110406661317
17.1,-0.33666636536508776,2.994138009428404,3.8392226764122523,-0.31415099395916335,-0.08602181709588332,-0.20501519821326836,-0.0608324547192953,0.17675220945192985,0.9823736633211648,-1.0300389861562946,-1.9435574016966761,4.147817287395308,-3.6153017182045977,-1.3704652739532437,2.0351157188415527,4.0,0.4981147493295098,0.5093013466437755,0.40232943577796054,0.7893633627071017,-0.15613816533750996,0.3249149799678217,-0.49694729170535085
17.2,-0.1362457682787102,3.1358266326285187,4.053166891862643,-0.3137701717132689,-0.08862041278067383,-0.1954850816404337,-0.06093637962211224,0.1769681507155876,0.9823283708637442,-1.029990187480923,-1.9435489363919918,4.147845500811239,-3.6153247886243722,-1.3704844559029739,2.035139560699463,4.0,0.4981212853350333,0.5093002918002371,0.40231912553111465,0.7893628394229606,-0.15614127877049913,0.3249236287013866,-0.49694148982909275
17.3,-0.0609632473134073,3.2022834672590923,4.171545551252,-0.31138074710293373,-0.0902252521940496,-0.2003842691557502,-0.06090142641727363,0.17685304118324813,0.9823512670738306,-1.0300139523018583,-1.943564874267543,4.147831987848667,-3.6153157334165806,-1.3704692384906876,2.0351122177916157,4.0,0.4981379711064316,0.5092990960055181,0.40230816289131544,0.7893704113655695,-0.156141392675172,0.32492885066413885,-0.49692601175636913
17.400000000000002,-0.33326188894293296,3.2440274253760215,3.951084274374882,-0.3085016719632685,-0.08776797075119197,-0.19887837453246018,-0.06075535461242124,0.17653426989544396,0.9824175823505351,-1.0300282914738335,-1.943568050775593,4.147840186888791,-3.6153389933405187,-1.3704617659198206,2.0350935687574054,4.0,0.49812401617366914,0.5092961457994775,0.4023068090523883,0.7893754359303926,-0.15613554437107252,0.3249151440879538,-0.4969288299907297
17.5,-0.4372463939413911,3.302326640007998,3.963702336409432,-0.30867490797846264,-0.08546790044441803,-0.19755822046850952,-0.060583753045150505,0.17618304131328416,0.982491291953749,-1.0300394730531799,-1.943543330279926,4.1478023623464395,-3.615325747292889,-1.3704562964542502,2.035139560699463,4.0,0.4981145498052422,0.5093131347528664,0.40234269522730637,0.7893526538284332,-0.15612851020925095,0.3249227464446588,-0.49696225715511805
17.6,-0.37461644645802816,3.2609433645057417,4.0407221387034395,-0.3086431862458021,-0.08611626846065173,-0.1960296882728908,-0.06064451071873515,0.17634968551147082,0.9824576417088918,-1.0300343136348746,-1.9435501249451568,4.14784428378872,-3.6153110674566755,-1.370480963600295,2.0351033210754395,4.0,0.4981073391803811,0.5093149521269839,0.40234441535383847,0.7893533294911249,-0.15612451062907573,0.32492028394355976,-0.4969640504947451
17.7,-0.44117850762374095,3.1210336378324186,3.962098343861975,-0.31485711220268237,-0.08628432937808993,-0.19469418152082602,-0.06072662959081626,0.17654321857398012,0.9824178105388071,-1.030043601989746,-1.9435550397503603,4.147826816077097,-3.6153499033483554,-1.3704808838850993,2.0351157188415527,4.0,0.49810566438719434,0.5093138439070246,0.4023273815863896,0.7893617280446302,-0.1561204201206981,0.3249184799402759,-0.496953174970271
17.8,-0.21515909403508385,3.337016509061609,4.031541340831877,-0.31189551815937927,-0.09074961427242846,-0.19230833474911407,-0.060824258856902104,0.17674097538155256,0.9823762066870656,-1.0300030349240938,-1.943571663628976,4.147783583526318,-3.6153450900390376,-1.3705024266256067,2.0350933579528045,4.0,0.4981187838622807,0.509297296365776,0.4023011637320586,0.7893846143937128,-0.15613759730905102,0.32491332225428154,-0.4969147958017868
17.900000000000002,-0.14824258824183226,1.9842388378084037,3.280586398636129,-0.23052355819157444,-0.06835075521135844,-0.20472016063245707,-0.060912449334411346,0.17690526186506542,0.9823411831506516,-1.0299817012244818,-1.943531305343887,4.147800315865728,-3.615340934620562,-1.3704736868487757,2.035099767866159,4.0,0.4981244627737286,0.5092945425547045,0.40233549690006887,0.7893565885708125,-0.15615246683041933,0.3249209709621836,-0.4969496411223332
18.0,-0.10150648059998307,1.8728080395689068,3.2117488676705968,-0.21539948862572672,-0.06423633434087708,-0.2065839393401165,-0.06087695343281575,0.1767918969157522,0.9823637895414644,-1.0300068054078544,-1.9435409922094513,4.147800349655458,-3.615317973890424,-1.3704639661934823,2.035112122170086,4.0,0.49812945726476576,0.5092970755363235,0.4023318977345102,0.7893559351106929,-0.15615160067496658,0.32492700723901224,-0.4969470044973294
