xiamingqian9007/apple-picking-rnn/final_data/grasper_20191127_135055_noimg.csv
,/manipulator_wrench.fx,/manipulator_wrench.fy,/manipulator_wrench.fz,/manipulator_wrench.tx,/manipulator_wrench.ty,/manipulator_wrench.tz,/ground_truth.x,/ground_truth.y,/ground_truth.z,/joint_states.elbow_joint,/joint_states.shoulder_lift_joint,/joint_states.shoulder_pan_joint,/joint_states.wrist_1_joint,/joint_states.wrist_2_joint,/joint_states.wrist_3_joint,/mode./mode,/manipulator_pose.x,/manipulator_pose.y,/manipulator_pose.z,/manipulator_pose.rx,/manipulator_pose.ry,/manipulator_pose.rz,/manipulator_pose.rw
0.30000000000000004,0.03666499305710752,0.18622856202252014,-0.1795774688263177,-0.018015423178392203,-0.0014560770199950935,0.0405196736038625,0.0551279649735868,-0.49882996787445494,0.8649440610609826,-1.4725204356215378,-1.7449835185078857,4.1825337409973145,-3.364438405874036,-1.336377411897533,2.3382432173121255,1.0,0.44629834926864465,0.45592406555331083,0.33139423270803775,-0.7553458931198218,0.2694525595427868,-0.2501642247138086,0.5424626812751255
0.4,0.3684739479398267,-0.20270016081307235,0.12901793872006637,-0.004545094979723153,-0.0009370619010761023,0.1352741965031562,0.05515194358681184,-0.49945735407011926,0.8645811760764992,-1.4697421312040617,-1.7485604109088126,4.181742674845534,-3.363887449304098,-1.3369554913408184,2.3380034070284332,1.0,0.4467084587476444,0.4563369232649814,0.3312687599380131,-0.7553268714619402,0.2694578476837758,-0.25016361646655033,0.5424868206376275
0.5,0.4873974819652001,0.010228296189111363,0.22424555344051075,-0.005889271756667994,0.0036193085166013233,0.2199006578004595,0.05510270627152852,-0.4995302851934241,0.8645421825789134,-1.4666427719097839,-1.7517508593902733,4.180989498262446,-3.363362761924625,-1.3376499097791694,2.3377306996735374,1.0,0.4477724049294472,0.457387305280396,0.33080537890387535,-0.7553136685522152,0.26948970273468814,-0.25017975812317383,0.5424819359606309
0.6000000000000001,0.43914486026613886,-0.1348674036089349,0.19102027215867678,0.001216219553772708,-0.0071791265898552975,0.24501955172343157,0.05496563136557953,-0.4986738978607088,0.8650451301736699,-1.4636290389712494,-1.755181225564735,4.180301357152546,-3.3629079308429133,-1.3384783465924752,2.3375212513145085,1.0,0.44865655728864134,0.45826189325097827,0.33040275364828564,-0.7553144038111272,0.26951122637086106,-0.2502123755103649,0.5424551754725697
0.7000000000000001,0.5373338448391364,0.015146756003890816,0.16851847982830803,-0.0043757130318628785,-0.012657740308989845,0.24888871445190977,0.05518139591886012,-0.500478830437539,0.8639882619380104,-1.4606579644404107,-1.7584655383304841,4.1795486529092765,-3.3625456295409144,-1.3393767515765589,2.3373064012499167,1.0,0.44935639047888076,0.4589988353069035,0.33016044863850325,-0.7552901935496221,0.26948036500061434,-0.25020090583134036,0.5425095051039077
0.8,0.524465322848462,-0.10921406095238739,0.15647222926412344,-0.006467764511371552,-0.0036874808142144536,0.24031219551849864,0.05519772716430193,-0.49948148992709696,0.8645642593422321,-1.4577034871034191,-1.7616871865076913,4.178818225860596,-3.3621470729990945,-1.339940373097555,2.33708442433274,1.0,0.45025877453603547,0.4599513587238462,0.32979945805258515,-0.7552810720690151,0.2694404222330671,-0.25016701489909376,0.5425576703887084
0.9,0.43245385408024734,0.027022949555889395,0.16024871168702115,-0.005690119636977089,-0.0072390757206795674,0.2364675059314249,0.055328477636297085,-0.5009543346994587,0.8637032447534481,-1.454926907665225,-1.7649527583840046,4.178138153735518,-3.3617872431146236,-1.3404894211074136,2.3368580641117234,1.0,0.45152480976100434,0.461234030003729,0.32916277702772206,-0.755333432622377,0.2694461455974345,-0.25015556284971197,0.5424872114261563
1.0,0.23701979667441775,0.16698743641687736,0.09183518514300702,-0.010577389158600634,-0.008581925895046999,0.23745116207384287,0.05529626204458286,-0.5011605388574946,0.8635857968810623,-1.4522164122763999,-1.7679573636438857,4.177536487579346,-3.361382460157307,-1.3410561720477503,2.3366959804133534,1.0,0.4524204908807477,0.46212917955309296,0.32877042918068383,-0.7553359132002743,0.2694680931147114,-0.250200031316944,0.5424523475403432
1.1,0.5726517660642845,0.21929678023866045,0.2420017095664152,0.0019226428772057482,-0.013637499402240162,0.23644259021131595,0.05530820723479952,-0.5012653702991051,0.8635241864724564,-1.4496080532568896,-1.7708026044284872,4.176906504513657,-3.361084429063688,-1.3417619548824444,2.3364568395058365,1.0,0.4532388389695621,0.46299126915244604,0.3284173030584767,-0.7553330994780224,0.2694609182978671,-0.2501968084917152,0.5424613160065463
1.2000000000000002,0.27988451304733325,0.28011401593991075,0.14178851853455066,0.0014779287147714771,-0.01068367769598521,0.23477698538398686,0.05539512943326605,-0.5013666510101134,0.8634598186444706,-1.4469669934792246,-1.7739631613142413,4.176292979484651,-3.3607472144538115,-1.342399791822747,2.3362456207740596,1.0,0.4540383238768124,0.46385871783769106,0.328075218601728,-0.7553313380939275,0.26943284393794703,-0.2501587290946416,0.5424952742268825
1.3,0.47381141059875365,-0.3883824601272664,-0.006007677381633755,-0.010378136971928164,-0.0106266692707514,0.2289958134482982,0.05543826296599864,-0.5008911463325233,0.8637328630686785,-1.4444281265708698,-1.77651330962308,4.175733161784522,-3.3604704342284144,-1.3429948686024176,2.336117532292526,1.0,0.4546647661641083,0.4645381832808429,0.3277453712734099,-0.75536452626735,0.2694064728424485,-0.2501239917688086,0.5424781779842669
1.4000000000000001,0.6014658374548604,-0.03733712985914251,0.30954302952412704,-0.011016341557639668,-0.016154862397219395,0.22893050543304858,0.05547253453084991,-0.5009860968695118,0.8636755246588625,-1.4420242794550373,-1.7794710544251395,4.175159974312168,-3.3602048197802685,-1.3434579792489665,2.335917039131503,1.0,0.4556273389628432,0.4655334406156157,0.32727601247559446,-0.7553954540854542,0.2693972228191759,-0.25011504432428494,0.542443830167702
1.5,0.4280666843030372,0.22193348132153573,0.14076985528251418,-0.0057325220451606585,-0.012436575724501856,0.23107295380330764,0.05541261913927053,-0.5010416267394431,0.8636467341248726,-1.4395492250591806,-1.7817060169509842,4.174609210080819,-3.359990736047262,-1.3439276809504879,2.3357491066190694,1.0,0.4564297953449482,0.46631758617537844,0.32689846966386554,-0.7554083836650548,0.26941985603552754,-0.25013202392192657,0.5424067529733252
1.6,0.4405110411814378,0.2061261925068697,0.280116610574766,-0.006690784548610805,-0.011640018530755986,0.2312762692650015,0.05522487256130885,-0.49973252751537955,0.8644172980030642,-1.4373574437522378,-1.7845195169652117,4.174047179538607,-3.359750055616084,-1.344425044632996,2.335562815829666,1.0,0.4572686935276249,0.4671218365613381,0.3266676743459325,-0.7553372824214093,0.26943508528769283,-0.2501809714859845,0.5424756272005063
1.7000000000000002,0.57124360463015,-0.2212307397325718,0.06956560829256608,-0.00799227914916154,-0.01524992343840748,0.2317498767631551,0.05520142624269459,-0.49947035531224454,0.8645704952987272,-1.435028161724362,-1.7865731780560294,4.173511510134578,-3.35952649480132,-1.3449355360436173,2.335450927952485,1.0,0.4578592332003036,0.4677122881555768,0.32634303942775233,-0.7553700993052153,0.26945936878556653,-0.2501762538301393,0.5424200435721667
1.8,0.4820184630805873,-0.04238040133329595,-0.06408227270656389,-0.005755646766446255,-0.014491863931716382,0.23321022041379835,0.05519749158728612,-0.4993325121120857,0.864650376527327,-1.4328805696127518,-1.7890806181667878,4.173065662384033,-3.3593106957990413,-1.3454216582314558,2.33526555244338,1.0,0.4583950534382929,0.4682651525552183,0.32620723904094334,-0.7553318401050214,0.2694391322910919,-0.25017553379366736,0.5424837026168063
1.9000000000000001,0.49697118341124064,-0.11621973499328746,0.10546052258137317,-0.008479615975791898,-0.013694034064899031,0.2328171597777652,0.055250300033074566,-0.49993978470481804,0.8642956368966535,-1.4306659855020614,-1.791428087673721,4.17253554455483,-3.359158733404985,-1.3459408293510242,2.3351426124572754,1.0,0.4591825158219068,0.46908128306688,0.32591533669364264,-0.7553142677382563,0.26942107960137235,-0.2501676582352617,0.5425207660454463
2.0,0.5363889659884111,-0.18429193635973942,0.0722578140164892,-0.01042309096787362,-0.012152432717848324,0.23015969402572548,0.05531064817929907,-0.5006460640446275,0.8638831473190601,-1.428759583465243,-1.7935782975768344,4.172011373283469,-3.3589230955062686,-1.346431080495016,2.3349988397758743,1.0,0.4598614561156894,0.46974360248505226,0.32556274792728607,-0.7553446860885022,0.26944336567401095,-0.25015656118662777,0.5424724626996325
2.1,0.6514878274164286,-0.009958856907234304,0.16917442707268426,-0.0068254401726682255,-0.01574164462135642,0.23085887596063026,0.0553086880340323,-0.5004292926923825,0.8640088602830475,-1.4266143169681027,-1.7957710134788132,4.171651485286485,-3.358771743662427,-1.3468037901229448,2.3348679542541504,1.0,0.4605752667624185,0.4704502669429137,0.325234111228484,-0.7553538792933008,0.2694545531809759,-0.2501379098320854,0.542462705512036
2.2,0.7538183755023774,-0.06165202951591192,0.17574033530451522,-0.006594751534647618,-0.015548656418871258,0.22715747838492867,0.055297811333740204,-0.5000804292527139,0.8642115920909464,-1.4246104972626075,-1.7978336245535718,4.171210406515469,-3.3586362907467766,-1.347126309071676,2.3347501967708553,1.0,0.46103696730859123,0.4709484133210741,0.3250603700844756,-0.755344451857974,0.2694334348849344,-0.25014460397806854,0.5424832350535245
2.3000000000000003,0.7339915310400786,-0.023639051562662244,0.20538890382626881,-0.007256997632611838,-0.014982558521048057,0.22751078629945298,0.055210404032733994,-0.4992810900386009,0.8646786661391446,-1.4229443714976406,-1.7998973354943846,4.170884609222412,-3.358464318371665,-1.3474671972559598,2.334659512174156,1.0,0.4615211032014626,0.47146471526655365,0.3248998328180212,-0.7553199242203827,0.2694284707882177,-0.25015891563472353,0.5425132515735417
2.4000000000000004,0.5585468607988255,-0.1502201936436198,0.0961362477620132,-0.008631095672403256,-0.010219770825358838,0.23198532977849934,0.055111319820534264,-0.4984130179834551,0.8651860730847178,-1.4208080411618387,-1.8018187842103746,4.170464429344135,-3.3583236119812354,-1.3478591927647858,2.334484937636116,1.0,0.46211350564987097,0.4720831446307486,0.3246146957938494,-0.7553283744912227,0.26944518120514005,-0.2501610133988097,0.542492219657625
2.5,0.4253816242698912,-0.027659788995390386,0.18557559059899997,-0.006125821931133613,-0.012005109558950242,0.22651713331451487,0.0551890382718409,-0.4991413320215979,0.8647605461002634,-1.4191509505049758,-1.8039141394558156,4.170079432009134,-3.3582141903025344,-1.3482770666411574,2.3344065953413478,1.0,0.4628182906216971,0.4728203170716468,0.3242807292507424,-0.755346114368862,0.2694391061554289,-0.25016682663305156,0.5424678556692317
2.6,0.6582070613728622,-0.011638722291637047,0.11948979323338228,-0.008021959934139837,-0.01370896323927175,0.23333638235163667,0.055295283047359985,-0.5001272158630584,0.8641844943712775,-1.4175785772957248,-1.8056237265514576,4.169709261561325,-3.3581153314835,-1.3486526661552674,2.3342834691266923,1.0,0.46336118047287544,0.47337246695486923,0.32403155051219484,-0.7553640170403246,0.2694301265000948,-0.25015689136862673,0.5424519687452818
2.7,0.39584813545874387,-0.07989315505134273,0.11396549449864414,-0.009843889856987389,-0.012693941394101377,0.22553101712560733,0.0553557217620448,-0.5004683611217134,0.8639832696138119,-1.4156788136753768,-1.807334615000317,4.169373989105225,-3.357964668916035,-1.3490116984440572,2.3342279303128213,1.0,0.46388796470523863,0.4739173376719487,0.32377328329320143,-0.755384458720127,0.2694144324352728,-0.25013425629778985,0.5424417359920161
2.8000000000000003,0.53195808576447,0.16089663875602628,0.0460392859304443,-0.006172942417632939,-0.009766704782261174,0.23136047753123523,0.0554082785386712,-0.5006985649573126,0.8638465420630114,-1.4140435680900652,-1.8092719659709429,4.169017399955042,-3.3578249417976,-1.3493116962897975,2.3340778776050843,1.0,0.4642974030814082,0.47435437430181615,0.32368113567815887,-0.7553399264665519,0.26940201556872573,-0.25013491275807537,0.542509608129222
2.9000000000000004,0.5942515038986735,0.18720843107433055,0.03419951726482991,-0.006850388561330297,-0.020055660715419525,0.22913236878812113,0.05540460345541259,-0.500731311580759,0.8638278088261618,-1.412664652713196,-1.8107687287945387,4.168669938198669,-3.357730052765158,-1.3496582619464967,2.333959817043884,1.0,0.46486904200412876,0.4749278786527564,0.3233042212097566,-0.7554093294667578,0.2694272330633878,-0.25010837836032046,0.5424126751029712
3.0,0.7131315417639021,-0.013725119897317221,0.12642876537600647,-0.0076717448794108665,-0.019439584714537557,0.2310391373053483,0.055390556883073386,-0.5007276388980699,0.8638308386386088,-1.410996094935358,-1.8121549209597119,4.168359385147382,-3.3576478581271973,-1.3499739396092876,2.333876833628351,1.0,0.4652751150639797,0.4753070994200681,0.3231097880421629,-0.7554213864336029,0.26943221005107637,-0.2501172051137085,0.5423893406141322
3.1,0.4829240364617046,0.09990577630674743,0.18510048842433446,-0.002371459273412658,-0.015826245937065355,0.22589762160976937,0.05536275854997219,-0.5006301518338747,0.8638891115736643,-1.4094712232932067,-1.8139469035617697,4.168047635983198,-3.3575718047219856,-1.3502430438942672,2.3337819246145397,1.0,0.4656294807005704,0.475654093470739,0.3231047321329802,-0.755348093679064,0.2694154328289417,-0.2501514607634826,0.5424839431788687
3.2,0.6899610684379334,0.22348859340375535,0.32279035949583595,-0.005070599561654306,-0.018411066693490463,0.22887158454786052,0.055332158529859246,-0.5005135516874546,0.863958639353956,-1.4080394708519515,-1.8155934116100032,4.16772636246348,-3.35745968441152,-1.3504991672088336,2.333713089314016,1.0,0.4662328826090957,0.47627611482249793,0.32286483843935676,-0.7553363055522619,0.269422768458648,-0.25015947248801595,0.5424930190106185
3.3000000000000003,0.7200345236869455,-0.23556031173940084,0.31047915238785084,-0.005669859603265179,-0.013707128121027472,0.22791599405519727,0.05535057717912291,-0.501203407312601,0.8635568749472854,-1.4066874500096302,-1.816812654534811,4.167433261871338,-3.3574075067800058,-1.3507539299763363,2.3336230393148183,1.0,0.4666645587485749,0.47669000308828824,0.32258156291564394,-0.7553764781332497,0.26946001326587665,-0.25015472387332627,0.5424207699356852
3.4000000000000004,0.5919971531206139,-0.09413343643655864,0.25756259540048154,-0.009004138589079114,-0.01503483871269793,0.22966550145063386,0.05537957869713016,-0.5020673724288155,0.8630533610762182,-1.4052480506133598,-1.8181494583745887,4.167143393255357,-3.357305418457597,-1.3510280199854285,2.3335342589891455,1.0,0.46712896105940294,0.47711703862819954,0.3225233126146068,-0.7553065777951568,0.2694572095302284,-0.25019302599710447,0.5425018299637001
3.5,0.6003665761911635,-0.08416742917379366,0.20319783606200084,-0.004840606163585933,-0.01652440942551274,0.23202166575929886,0.05532595944660088,-0.5014813190741814,0.86339700522393,-1.4039636623550948,-1.8196789988996216,4.1668761752693255,-3.357267519036764,-1.3513008340437411,2.333388589107101,1.0,0.46742107874442534,0.47743202831927206,0.32245424527728495,-0.7552862489783092,0.269436409393175,-0.2502047132890187,0.5425350724566559
3.6,0.5132912662930069,0.13920401092017842,0.2427151353959139,-0.003931634242615964,-0.011702577348211582,0.22951639926631562,0.055252599781551386,-0.5005488157144995,0.8639430591379881,-1.4027243050697649,-1.8211349179134428,4.166633255057385,-3.3572079143919886,-1.3515312062824707,2.333380636188959,1.0,0.46773245729328916,0.4777557202135918,0.3222783662752458,-0.7553052863987578,0.26944369505131344,-0.2502008946084089,0.542506711361562
3.7,0.6328758965099186,-0.09592501527142594,0.22585428599130433,-0.00787496677941044,-0.013939529274628272,0.22874849762717975,0.05524319208319488,-0.5003303436455625,0.8640704460474522,-1.4013959891888084,-1.8222739803415617,4.166371359386501,-3.357123991052145,-1.3518039658509795,2.3332998144336554,1.0,0.4682374190827543,0.4782783483928083,0.32196946271952864,-0.7553450051249391,0.26946610733346194,-0.2501710253221697,0.5424540518058757
3.8000000000000003,0.463311383298763,0.26156586644546337,0.44531388696058016,-0.008298169875325204,-0.015773312903126814,0.2272803752650079,0.05529739095845483,-0.5008797502005139,0.8637479832035593,-1.4001599416320036,-1.82346013355302,4.166127149999006,-3.3570639095702113,-1.3520016475891279,2.333204108696592,1.0,0.46858425636170387,0.47863105485601654,0.32188700775345075,-0.7553167587307162,0.269448833212521,-0.25018333607630533,0.5424962844210701
3.9000000000000004,0.4982752135860553,0.18693434679228318,0.46017348123754687,-0.005040589238409318,-0.017566400753060436,0.2295026327567294,0.05540864966713866,-0.5021987284727342,0.862975246707834,-1.3990584553649748,-1.824803968469137,4.165884736306748,-3.3570033512511195,-1.352236878491523,2.333165061590563,1.0,0.4688403258048758,0.47887910610554085,0.3218223767645843,-0.7552948477980663,0.2694435459058157,-0.2501981872901582,0.5425225668450256
4.0,0.5321082886688943,0.06945684975131541,0.4572263869956295,-0.008915696014965488,-0.014468727794793662,0.23120806622802031,0.05537655741599728,-0.5019009925581532,0.8631505060139771,-1.3979626222609838,-1.826055215207539,4.165692637649602,-3.356931825677389,-1.352456505158495,2.333082675933838,1.0,0.4691664783858685,0.47921425716971633,0.3216269966550206,-0.7553174985819595,0.26945714316968905,-0.2501830177941768,0.542491273605502
4.1000000000000005,0.6316379240006194,0.10183460636199838,0.3447943377602271,-0.002177240395918237,-0.01766548802524776,0.2264205335266213,0.055441638109356574,-0.5020501290833796,0.8630595739096633,-1.396716359728261,-1.827123556353902,4.1654310698571955,-3.356895558995994,-1.352681723989898,2.3330466240644454,1.0,0.4695699656423993,0.47965661605413756,0.32136743962660563,-0.7553579974565863,0.26945116472534114,-0.25017434735162336,0.5424418507395261
4.2,0.4609928186081209,0.23794735656093938,0.2943538028165754,0.0021466964948323774,-0.0075820351796960835,0.2254140460590896,0.05552463117157893,-0.5024262287279078,0.8628353190243954,-1.3954038187293523,-1.828352128186713,4.165267012112081,-3.3568479023375453,-1.3529532375098385,2.3328982335210062,1.0,0.4700130291209049,0.48014791475776375,0.3212554717879725,-0.7553352761335079,0.26940996686421137,-0.250163239561783,0.5424990727683285
4.3,0.45573002567948356,0.15712560996383526,0.4574446286899174,-0.0014933099443259585,-0.011216770603888697,0.2268856220681715,0.055574816479725224,-0.5030075932108602,0.8624933385534609,-1.394403647207999,-1.8295298067608896,4.165036424298902,-3.3568089600635145,-1.3531377951251429,2.332890287737231,1.0,0.47026029831891875,0.4804240218232612,0.32123137404099134,-0.7552914717471108,0.2694109288272148,-0.2501598321327913,0.5425611509515167
4.4,0.6997222709347818,0.23107296395954036,0.44210946384427807,-0.006563392410995661,-0.017799957633597645,0.22864971961754885,0.05560363210776416,-0.5032787543415306,0.8623333041550405,-1.3932743072509766,-1.8307083088270526,4.164767677087277,-3.356738197256306,-1.35337154293722,2.3327994997315704,1.0,0.47053099032445467,0.4807049831768894,0.32108650300749964,-0.7553063455222784,0.26940877325580975,-0.25015459671701396,0.5425439291411607
4.5,0.7496006682323308,0.2331294352767359,0.36753721761764707,-0.005544104647323139,-0.016417071126072123,0.22837230335572015,0.05561553918440647,-0.5032528460842906,0.8623476444222072,-1.3922078027611686,-1.8319059811034144,4.164548838185886,-3.356659696177666,-1.3535724143371042,2.332746982574463,1.0,0.4709529997610869,0.48110946716655884,0.32080385232177355,-0.7553571621424144,0.26941511981689736,-0.25015076310404305,0.5424717933060391
4.6000000000000005,0.6000863035905979,-0.11078348316688762,0.32467400089851645,-0.009563609932109765,-0.011436275621947392,0.22835171180798747,0.05559555947897246,-0.5031673955107443,0.8623984753238974,-1.3908576965332031,-1.8331462941404895,4.164390454654874,-3.3566618638911363,-1.3538014209060634,2.3326516151428223,1.0,0.4712583727823797,0.48142150356726426,0.32063273622355787,-0.7553768408935362,0.2694189825135818,-0.2501424842979889,0.5424462901083187
4.7,0.4238749650099488,0.0411410048962083,0.2945247428453818,-0.006093817600168826,-0.008098467328441028,0.22747243633932127,0.055499418801986874,-0.5020075896030345,0.8630806128479963,-1.3896150588989258,-1.8344262996649936,4.164124011993408,-3.3566438035688244,-1.3539754369057846,2.332595511458877,1.0,0.4715325641391974,0.481718809834944,0.3205507452027263,-0.755357653207797,0.2694149960108956,-0.25014633009361825,0.5424732151964307
4.800000000000001,0.6826913082236428,0.24014739380999575,0.44573817057329357,-0.004224504180569091,-0.011682272510241391,0.23067190753250574,0.05548565137905952,-0.5020921124754053,0.863032017965793,-1.3885633607344194,-1.8355955736382599,4.16389778657393,-3.35657307073909,-1.3541585300855254,2.3325653197548606,1.0,0.47196381794338904,0.48217283480117346,0.3204217562214361,-0.7553276894370267,0.26942284411733,-0.2501526443126503,0.5425081263730898
4.9,0.8837986163909113,-0.08534272084420917,0.346787005802298,-0.01011785848633004,-0.02323551476991385,0.23028282808687736,0.055305175037503006,-0.500197916132179,0.8641423085991247,-1.3875299971164556,-1.8366811110582306,4.163690844809466,-3.3565479717650355,-1.3544095198260706,2.3324710755928435,1.0,0.4722789035464184,0.48249789142800703,0.3202352596756916,-0.7553525414590851,0.26942976741890845,-0.2501480984230193,0.5424721812178404
5.0,0.5649442926075227,-0.14912698033422295,0.15014292271437202,-0.008527465516961827,-0.01309540701641455,0.2273897459593298,0.055056950096903125,-0.49758566820440675,0.8656651273256428,-1.3862662018726848,-1.8378561361731383,4.163449461560739,-3.3564972460166005,-1.3546244220389352,2.3324137030650594,1.0,0.4726593410228268,0.48284777942554047,0.3200456255213755,-0.7553600376893044,0.26944940010601337,-0.25016034955700767,0.5424463418201271
5.1000000000000005,0.7032011196547626,-0.03307680104961849,0.30879228254310614,-0.007110021294856959,-0.014476782109805342,0.22543848333830951,0.054900658854237554,-0.4956443127267894,0.8667875084916831,-1.3848926553509566,-1.8393147568098391,4.163221766315184,-3.356500288049215,-1.3548184544409343,2.332351458015986,1.0,0.47289148280334964,0.4830874661354743,0.31999749254815446,-0.7553419181170035,0.2694305142671397,-0.2501733802337751,0.5424749436973816
5.2,0.8471601320224766,-0.11797133325994762,0.28344701747422746,-0.00907837001680403,-0.015547875593160019,0.22845116198655538,0.05480905743480716,-0.49448985399804635,0.8674533697767474,-1.3837385928213115,-1.8405604829849753,4.163030084316943,-3.3564397297301234,-1.3550398527934124,2.3322698220409794,1.0,0.4731745613625021,0.4833919868033361,0.3198642540123268,-0.7553530429858688,0.2694217514811118,-0.250169082944235,0.5424657871420823
5.300000000000001,0.5442497994280335,0.18546216128687723,0.35776571529136264,0.002556347076775105,-0.014811230602844316,0.22831806575318805,0.05476191174421351,-0.4939334799498183,0.8677734772502592,-1.3826446007474067,-1.8415256483156204,4.162753627618116,-3.3564483584163547,-1.3552658737448195,2.3321967124938965,1.0,0.47353240342696,0.48376379272926795,0.31968761742552715,-0.7553637798175631,0.26943062661142303,-0.25015604246623874,0.5424524421561113
5.4,0.5801667046058785,0.07814533717019564,0.24931411801931708,-0.00654805135446047,-0.01327335618229991,0.2299449186607646,0.05476913356564088,-0.4943396542971692,0.8675417211777278,-1.3816705136201635,-1.842657413643771,4.162512507508949,-3.356426470856869,-1.3555427100001463,2.3321435118424456,1.0,0.4739348907646771,0.4841560516617557,0.31956034908130226,-0.7553368436385942,0.2694454543098054,-0.25014892340842065,0.5424858670154243
5.5,0.4295725076837026,0.12425477469745218,0.22164157015798922,-0.003359788290851912,-0.011210812649176219,0.23323665643496871,0.054770048807738905,-0.4944033002556612,0.8675049540568788,-1.3802362553192604,-1.8438440306351362,4.162243042916309,-3.356378601985842,-1.3557174841510218,2.332075797332899,1.0,0.47428446662088436,0.4844837747818755,0.3194042149574688,-0.7553411020496448,0.2694485149421322,-0.25014981466292024,0.5424780065348405
5.6000000000000005,0.46568028305716025,0.4995717607783943,0.25084152906618606,0.00532085769809785,-0.012971887684093101,0.23253323587466532,0.054910289916783435,-0.4962072104793567,0.8664656875182842,-1.37903279941452,-1.8453166807654033,4.162054275877439,-3.3563383605524524,-1.355943439251668,2.3319668901937396,1.0,0.47463226581756635,0.48482079123515015,0.31926746994778243,-0.755338929029332,0.2694515443941269,-0.2501618168042954,0.5424739928601331
5.7,0.4342621087501914,0.2587933791752042,0.012358323618958916,-0.004955580964619499,-0.011034402804556991,0.22560895640182338,0.05472983132509055,-0.4943333523755752,0.8675472927926529,-1.377831103510296,-1.8464809046353874,4.161805484025664,-3.3563319645323695,-1.3561981360064905,2.3319144412830073,1.0,0.4750244872138871,0.4852148966257004,0.3190520878740944,-0.7553607261870313,0.26946173583347033,-0.25016809008550556,0.542435685550632
5.800000000000001,0.7772782278641149,-0.03705905718562166,0.20747520432815456,-0.008258727680924777,-0.015822395412409918,0.23481047810746483,0.05455810735084692,-0.49217783685517674,0.868781676751076,-1.3767501883024715,-1.847438244180931,4.161616908826991,-3.3563081226744593,-1.356377903615133,2.331846892660679,1.0,0.47537121191263104,0.4855774846770925,0.3189264202146637,-0.7553428767605692,0.2694607513328804,-0.2501555669969161,0.5424668048080348
5.9,0.5675940567507296,-0.13275523765119887,0.21291768289980745,-0.011867858810714496,-0.015504988631497282,0.23263161902661417,0.05446529398362484,-0.4910793001303928,0.8694104637691139,-1.3754928846109058,-1.8485446591183903,4.161377975831758,-3.3563324413695277,-1.3565806808043894,2.3317996809027117,1.0,0.475639547614335,0.4858524720940148,0.31886720212484515,-0.7553243457474987,0.26945132296378954,-0.25015213446098306,0.5424988727166085
6.0,0.39820744418753046,0.1153212123115746,0.13918160946761016,-0.006909294488388483,-0.007302701395897552,0.23039075052596292,0.05425999149216637,-0.4887848893163138,0.8706659806439736,-1.374232030563124,-1.8499096041784098,4.1611736052706165,-3.3562962017455042,-1.3567890965753824,2.3317431265493895,1.0,0.47602511174100753,0.4862321009368606,0.3187687872917855,-0.7552971339410092,0.2694487238713948,-0.2501701937435776,0.5425297216069134
6.1000000000000005,0.5987094850772545,0.10011138055015172,0.27580915046528076,-0.0014347230560955125,-0.01600110626787081,0.23016798037795183,0.05220886480855901,-0.4652019012023089,0.8834728936523764,-1.3730791363110904,-1.8511530361571253,4.160982608795166,-3.3562643943612027,-1.3569777647601526,2.3316496984656037,1.0,0.47628928777945884,0.4865149455637156,0.31862445342942924,-0.7553181338564328,0.26944538794447653,-0.2501749149694026,0.5424999645190205
6.2,0.5589205326735105,0.26458235362088,0.16286069465604097,0.003975351166982592,-0.01603491514327996,0.2287278079282835,0.051483207115462996,-0.45680764078474706,0.8880706948517935,-1.3719358444213867,-1.852426889363718,4.160755634307861,-3.3562224198260457,-1.3571978078471163,2.331587257945993,1.0,0.4765740248809915,0.48681383484060486,0.31844920038119856,-0.7553401661909704,0.2694462369032737,-0.2501714127389516,0.5424704812295864
6.300000000000001,0.672659001595054,0.0746567817094275,0.22911771727411143,-0.0034149463726302984,-0.01517774197678478,0.23508594887152715,0.051754199578348724,-0.45983715017774546,0.8864938060786136,-1.3707112706727873,-1.8534676316862102,4.160543974535953,-3.3561854176003583,-1.3573510817831234,2.3315511029448563,1.0,0.47692150212498,0.4871830931414684,0.31825153977759335,-0.7553551579462398,0.2694453893402253,-0.250162491775985,0.5424541411361294
6.4,0.6320052351376004,0.16677209593791015,0.24660846596273073,-0.00708570285163998,-0.01278653914654883,0.22987141695991173,0.051862506434956566,-0.46125810118468075,0.8857489502264871,-1.3694585404898838,-1.8545829258360804,4.160312175750732,-3.3562236704811994,-1.3575533072101038,2.3314657943007657,1.0,0.4773079043080481,0.48757855421253526,0.3181369053447093,-0.7553265643603159,0.26944921981920844,-0.2501713708584914,0.5424879577587364
6.5,0.7027507084352983,0.39277532228081263,0.3211261024447445,-0.007591696141031935,-0.02050226856724767,0.2306502509005963,0.05206236728645807,-0.46341417742566726,0.8846059724000682,-1.3683582467849473,-1.855949955924446,4.160138124650759,-3.356189925608619,-1.3577506027372326,2.3314030142754527,1.0,0.4776485622085332,0.487910691526047,0.31809657752913656,-0.7552778835867417,0.2694622080769423,-0.25019074420136195,0.5425403473466277
6.6000000000000005,0.6608889358357445,0.11960711335320123,0.24459296165320743,-0.008084729013746132,-0.014987353400845223,0.23163907560004143,0.05226222813795958,-0.4655702536666538,0.8834629945736493,-1.3672256469726562,-1.8571726702383793,4.1599380199382265,-3.3561201787055692,-1.3579506037910127,2.3313584327697754,1.0,0.47800520176611294,0.4883268167240742,0.3178179568143193,-0.7553400819035826,0.26944580442438665,-0.2501671555281352,0.5424727766837211
6.7,0.49185996425374334,-0.010316616914880672,0.18838854914209838,-0.002514678223430331,-0.013691113556271813,0.23094650474669073,0.052473517613704536,-0.46798506577565463,0.8821744917429016,-1.3659508355469767,-1.8583257567989286,4.159688629936783,-3.3561443374747086,-1.3581312913594679,2.3312680848450724,1.0,0.47830692486655485,0.4886369993868701,0.31761149698406005,-0.7553715242603514,0.26944524435493195,-0.25016282989945193,0.5424312667682446
6.800000000000001,0.7011497979108456,-0.32543346718973604,0.2747429171990008,-0.011668476029541283,-0.01780548315751618,0.2284826903224076,0.052696750872418194,-0.47067027657726734,0.8807339041965139,-1.3645720558024037,-1.859557613348943,4.159492368577703,-3.3561476522577154,-1.3583893715028257,2.331209828330808,1.0,0.47865119816164137,0.4890063530636375,0.31752404405409324,-0.7553375236074793,0.2694443875168816,-0.25016705399780653,0.5424770894334906
6.9,0.5129512752363007,-0.027279883544896466,0.27980137105882397,-0.008326038897845025,-0.012816144297531296,0.22547246872277948,0.052596471310972746,-0.46978075909762423,0.881214503045346,-1.3634099145815608,-1.8607607129414934,4.159269628197339,-3.3561787846883195,-1.3586044785579225,2.331159066130675,1.0,0.47894268719700933,0.4892999121964757,0.31748693860434557,-0.7552960346895772,0.269445746135756,-0.2501834254881405,0.542526629284284
7.0,0.44497774866350903,-0.03601966097463624,0.2254708882974209,-0.0065811643596628885,-0.011887035240587502,0.22754128683954336,0.05253332843424764,-0.46906058953658286,0.8816021209696515,-1.3622950638836695,-1.8619189962481641,4.159059689093215,-3.3561884365477503,-1.3588101196493776,2.33109539240478,1.0,0.47923377883577656,0.48959369538039554,0.3173649388794768,-0.755305871232274,0.2694421497516557,-0.25017910935952004,0.542516711318038
7.1000000000000005,0.7045839558155798,-0.1632497293053632,0.31485925718445584,-0.006443777703393907,-0.012217658081763855,0.22600531960490455,0.05252186438397282,-0.4686351874498322,0.8818290651419242,-1.3612865074171232,-1.8631092510619105,4.158802509307861,-3.356132756272137,-1.3590415159808558,2.331029500580458,1.0,0.479662610902253,0.4900133775612095,0.317098752555275,-0.7553519484247719,0.2694451378878753,-0.2501620172786896,0.5424589540145328
7.2,0.5903054404340659,-0.23881342981431175,0.3198093660821807,0.0073114959285922355,-0.009181414402305762,0.22657038913684135,0.0525465279821747,-0.468729994994562,0.8817772129312006,-1.3613101149213678,-1.8630612551090011,4.158800730925196,-3.3561184676203877,-1.3590543357174376,2.3310277272487414,1.0,0.4799386741760479,0.4902800327313262,0.31694206952862264,-0.755364846392242,0.2694433247529323,-0.25015281182365345,0.5424461395545467
7.300000000000001,0.5340224480908837,0.06744739470647534,0.19791873260414927,-0.003977988837796777,-0.014367324163200022,0.23030299583811703,0.05256748746328666,-0.4686123371220518,0.8818384973734396,-1.3612656126316152,-1.8630777266802885,4.158802509307861,-3.356068776985632,-1.3590763250934046,2.331023262948219,1.0,0.47999122925195076,0.49034196895341564,0.3169163119095399,-0.755366606947261,0.26942523515839467,-0.2501550382530092,0.5424516463293863
7.4,0.4791920365435496,0.20382759779621237,0.0910272891997627,-0.009693879712831829,-0.005514766769594086,0.2317603790076815,0.05259048658437463,-0.46883373575755877,0.8817194152608405,-1.3611459732055664,-1.8630787334837855,4.158781949987786,-3.3560670606341345,-1.3590763250934046,2.3309988975524902,1.0,0.47998149948047214,0.49034189837361203,0.3169199384718332,-0.7553702153493583,0.26940572595701906,-0.25016605903167133,0.5424512286770102
7.5,0.6283332842820983,0.08856879733737988,0.2748731187557197,-0.0034974192186917317,-0.016019003373985215,0.22999966733426683,0.05260390332517001,-0.4690754733753645,0.8815900386053503,-1.3611122002875617,-1.8631582519914527,4.158808387922353,-3.356056352654928,-1.3590644041644495,2.3310055928973985,1.0,0.4800078377916826,0.4903626564269153,0.3169836213014703,-0.7553291349023936,0.2694212702762099,-0.25016947525131866,0.5424991343245031
7.6000000000000005,0.6772804505772422,0.06724359861262677,0.2181816308894165,-0.00849569296729592,-0.013054432969418495,0.2263535662930942,0.0526043206466498,-0.46931312718700513,0.8814635364098535,-1.3611345291137695,-1.863136486875134,4.158784091058191,-3.356089787351208,-1.3590739970028194,2.331006639137433,1.0,0.48002283345364694,0.49036156505793815,0.31696506778376093,-0.7553303116626127,0.2694289130190448,-0.25017053997486305,0.5424932092125412
7.7,0.5854388408998192,0.06480646568636492,0.19952092566168664,-0.006767699275157307,-0.010913056537902,0.22292910925057932,0.0525332347161583,-0.46865406490495015,0.8818181479969347,-1.361151370205062,-1.8631411800895765,4.158793335734967,-3.3560706394124544,-1.3590739599695472,2.3310517890578972,1.0,0.48002671769800576,0.4903648841718773,0.31694575635756284,-0.7553339791338722,0.26943784134344756,-0.2501664550116209,0.5424855522545209
7.800000000000001,0.6096819292519133,0.10236276829469335,0.13949003001168198,-0.005732073144886513,-0.011244913683599412,0.22862210726458687,0.05247896705212619,-0.4680780489340936,0.8821274436511196,-1.3611456646058187,-1.8631500929785327,4.158802200708114,-3.356022197158416,-1.359064082706379,2.33104498683628,1.0,0.4800241919124427,0.4903685775874278,0.31693785114398815,-0.7553338337107103,0.26944238138819115,-0.25015940161613315,0.5424867524159459
7.9,0.473022702303929,0.2518087243643452,0.062458507183946285,-0.0028787257726264554,-0.011841369150058633,0.22542447095782311,0.05245729304492756,-0.46772855652272877,0.8823141209724243,-1.3611323183419801,-1.863138814965719,4.158769618360926,-3.3560801945128382,-1.3590524832354944,2.3309682173773445,1.0,0.4800192018830491,0.4903698773849653,0.31695322473902204,-0.7553343043724079,0.26943801613272905,-0.25016018859769495,0.5424879022996507
8.0,0.35580948606498236,0.09746890018222165,0.10331326375723301,-0.006682913100442323,-0.008820360475384117,0.2247080627446427,0.05247911181289767,-0.4680409783011994,0.8821471345175907,-1.3611073196896466,-1.8631413294364445,4.158797681524068,-3.356068273583883,-1.3590644041644495,2.3310137092105,1.0,0.48002131162031925,0.49036307564272735,0.31694793380127906,-0.7553412979437947,0.26943759398381517,-0.2501682408796474,0.5424746609971558
8.1,0.5434792555696721,0.04837703004072909,0.10850918004090808,-0.008277702314617393,-0.01385950611289535,0.2251342835188082,0.05251305820539018,-0.46843285132490653,0.8819370344676488,-1.3611536562414246,-1.863119687838064,4.158761991982028,-3.356087400711538,-1.3590404282032218,2.3310180246801453,1.6662912918311594,0.4800237130161892,0.4903601463480232,0.31694375989421303,-0.7553411574379534,0.2694391427082152,-0.25016319279661947,0.5424764153645358
8.200000000000001,0.5870317404895693,0.025457990856235922,0.11381796378299314,-0.0076804151290423405,-0.011803515617630721,0.22354515781577,0.05252952761310667,-0.46860145178963214,0.8818465331097746,-1.3611369774501931,-1.8631413653161604,4.158769875722613,-3.3560657232334417,-1.3590644041644495,2.3309988975524902,2.0,0.48003215384798315,0.4903495449129494,0.31694009941549706,-0.7553408820953293,0.26944934999636627,-0.25016237793724394,0.5424721046162365
8.3,0.6318505790489704,-0.04165733439605779,0.27426685891054386,-0.010909114432038245,-0.01379055485471737,0.22348282675646097,0.052516603367806294,-0.46841135319326804,0.8819482992979376,-1.3611345291137695,-1.8631457554040447,4.1587934558515665,-3.3560777042675234,-1.3590644041644495,2.331018666444735,2.0,0.4800248683409313,0.4903615062276846,0.3169465660726433,-0.75533794277002,0.2694376841273809,-0.25016679321666774,0.5424799555335814
8.4,0.5431105189811976,0.2095912762827947,0.34191729981617525,-0.0035646628202731802,-0.010691727708853975,0.22284090742732682,0.052492570135803614,-0.46813154361806736,0.8820982793573267,-1.3611230850219727,-1.8631439381850632,4.158819517546685,-3.3560854201965693,-1.3590660786547162,2.3309879662073274,2.0,0.48002168838793685,0.4903675823585829,0.31694326557706876,-0.7553394118653477,0.26943276401636784,-0.25016971560382717,0.5424790060012565
8.5,0.6394529615298767,0.05200880490547571,0.16767674295735832,-0.008175824775757842,-0.01515810896623104,0.22378197916870715,0.05239972310498922,-0.46742786945340176,0.8824768306971584,-1.3611532158220983,-1.8631455807450927,4.1587859100664835,-3.356056352654928,-1.3590363741019564,2.330993742402909,2.0,0.48003315940379926,0.4903538065069414,0.316938835449292,-0.7553384148382973,0.2694461200401653,-0.2501757498045004,0.5424709777256522
8.6,0.559472581221526,-0.04352727897265438,0.10574908216463863,-0.017606052556798906,-0.015931201032275587,0.22221895068732497,0.05242871378893942,-0.4673565912866469,0.8825129138155225,-1.3611345291137695,-1.863126894036764,4.158738747487409,-3.3560733813163033,-1.3590695118968694,2.3310324811556553,2.0,0.4800314649880866,0.4903572045744155,0.31693467592425995,-0.7553446194096787,0.26943486077278755,-0.2501733992440379,0.5424690148200904
8.700000000000001,0.6036003901146703,0.02656222169940657,0.15775413008434044,-0.009172482129418184,-0.016024608862530945,0.22611434982400297,0.05245464977535061,-0.4674372639450618,0.8824686418536067,-1.3611357329692515,-1.8631600967645505,4.15879759399443,-3.356099290687386,-1.3590337614957417,2.330989911117409,2.0,0.48002789340424046,0.4903705427740331,0.31694807675590697,-0.7553371954548493,0.2694287366999808,-0.25017572727910775,0.5424813199392444
8.8,0.4352408655613997,0.22540730409453294,0.22658247849824192,-0.011571108673470418,-0.011091549528651223,0.22653156490300655,0.05242837090174036,-0.4675778518486133,0.8823957231822834,-1.3611072402293518,-1.86315333313654,4.158764522226614,-3.3560992148345004,-1.3590737278515388,2.331025440541941,2.0,0.48003821782230466,0.4903601020398721,0.3169448373938119,-0.7553346210442529,0.2694421582144269,-0.25017638044624924,0.5424779371509036
8.9,0.4923635318454707,0.19078179946440782,0.11822864227459948,-0.015768111015277766,-0.011742288616492461,0.2275640117111758,0.05239041696821534,-0.4675122006328748,0.8824327604092725,-1.3611281446752688,-1.8631486357504305,4.158759193892068,-3.356070373728127,-1.359068604452937,2.3310133114570775,2.0,0.48004451023650074,0.490352998889768,0.31695338925577643,-0.7553266956719112,0.269455157086116,-0.25017394499030887,0.5424836388067703
9.0,0.5458049311646572,0.060859213753017144,0.0821851836239619,-0.01189715415997088,-0.011264011743278245,0.22564368373394947,0.052341087958724455,-0.4670955290153434,0.8826561326392264,-1.361125706378078,-1.8631599262443528,4.158827826614779,-3.356107243787183,-1.3590698653230022,2.3309908150378322,2.0,0.4800464598794177,0.4903560347815803,0.31695893468744263,-0.7553186387627602,0.2694628564884169,-0.25018062268336455,0.5424879528104175
9.1,0.6573129061169684,0.06326325637898611,0.17029498512562552,-0.013292012274602714,-0.012938946718323158,0.22139840113459897,0.05234584286381785,-0.46678402229856125,0.8828204962757514,-1.361120213168241,-1.8631507358946742,4.158769890079476,-3.356106074950187,-1.3590524832354944,2.330995043359841,2.0,0.480031173058853,0.49036907467719476,0.3169520600465367,-0.7553282455376729,0.26944840016436755,-0.25016676193294046,0.5424881495164954
9.200000000000001,0.7085077777621946,0.035562212276947315,0.18798147008667782,-0.016553440201599923,-0.01792134244061186,0.22489854945754376,0.0524387958435748,-0.467544927839959,0.8824124656201288,-1.3611200786976332,-1.8631441834020395,4.158770014945041,-3.3560813785691526,-1.3590828775860393,2.33101737097408,2.0,0.4800243288911454,0.4903740470507943,0.3169554162190888,-0.7553308896874746,0.26943714886355524,-0.2501656591842773,0.542490564766893
9.3,0.6653222001481804,0.07604142884069759,0.10109917245373454,-0.014710928161391443,-0.017051379390782072,0.22755364333329206,0.052376544634532236,-0.46695500387446015,0.8827285536010846,-1.361109733581543,-1.8631334024206037,4.158802509307861,-3.3560655673113255,-1.3590644041644495,2.331041168723195,2.0,0.4800338649666214,0.4903667754115022,0.3169421459416144,-0.7553366181277363,0.2694355665682735,-0.2501746993807931,0.5424792056596432
9.4,0.6561324195473328,0.1679573043986518,0.11997857906062717,-0.00999605402198557,-0.012818077558360777,0.2236238602394141,0.05236163631896117,-0.46673388530576293,0.8828463751978527,-1.3611179009613192,-1.8631626568236292,4.158779621124268,-3.3560709602219676,-1.3590644041644495,2.3310362800663453,2.0,0.4800369318457088,0.49036048675136723,0.31693526358637103,-0.7553409553240715,0.2694348395043008,-0.25017434994138,0.5424736888576425
9.5,0.9330637059178237,-0.11797386778065014,0.19471131656579355,-0.004321313816577069,-0.01040730525458169,0.22452891902043073,0.052312633317156375,-0.46635685741472677,0.8830484358518207,-1.361162464716169,-1.86314427813784,4.158780138871823,-3.3560989407723434,-1.3590644041644495,2.3310172762382795,2.0,0.48004104500377504,0.49035145106248673,0.316944291784386,-0.7553345434364651,0.26943832005556184,-0.25018413019174685,0.5424763775294391
9.600000000000001,0.7718715966008214,0.025324108720803665,0.22674064106784564,-0.01048978442880058,-0.019464014863258033,0.22183468338884846,0.052275288835021944,-0.4660644821201936,0.8832050680417881,-1.3611036959044955,-1.8631560383399093,4.158802509307861,-3.3560708728217437,-1.3590778490709183,2.331004096028211,2.0,0.48004009419327387,0.49035117616984025,0.31694239504183874,-0.7553344195620169,0.26944790938065416,-0.2501798695201236,0.5424737520306394
9.700000000000001,0.42813528718500865,0.0791609337996049,0.11703311834995936,-0.010278965237567602,-0.012498785644521832,0.22211344340051178,0.05229078709750499,-0.46609366899687227,0.8831887481817454,-1.3611200019173197,-1.8631323995807871,4.15880207630411,-3.3560774417408266,-1.359048820622574,2.3310112953186035,2.0,0.48002655800239163,0.49036333076074423,0.3169241320271977,-0.7553516944699463,0.26944959300932936,-0.2501644776726528,0.54245596005506
9.8,0.8355033849207427,-0.09563881456141175,0.32510274672404704,-0.024053096837870474,-0.018916365667443594,0.22176280657810582,0.05244481344687328,-0.4677179350582775,0.8823186940371774,-1.361109733581543,-1.8631933109291776,4.158793746264933,-3.356098815979062,-1.3590377695473017,2.3309988975524902,2.0,0.48002401464716293,0.4903686612210551,0.3169204280084514,-0.755354342864896,0.26944368296429244,-0.2501620478139838,0.5424563284351039
9.9,0.6294096207647615,0.33356933992223015,0.20109452110184356,-0.05150332859163525,-0.014208205490430042,0.2233907711514177,0.05248781271733274,-0.468144855387201,0.882088987835511,-1.3611289007382112,-1.8631599508738417,4.158785653316489,-3.356082900462626,-1.3590578951350698,2.3310017117402695,2.0,0.48002359464864763,0.49037537379970436,0.3169374718885269,-0.7553431789718592,0.2694377441776329,-0.25016565226239307,0.5424731610147048
10.0,0.41359582326748245,0.9212824912927199,0.441876414259312,-0.10733555854554586,-0.027411770505294215,0.21982006148369437,0.05224180082188176,-0.46541931720058227,0.883546568941753,-1.3611612693802935,-1.8631507358946742,4.158788389761959,-3.356079532786575,-1.359077098296922,2.3310200639562955,2.0,0.4800384674191574,0.4903631544014438,0.31693607491154474,-0.7553351204553482,0.26945082892683714,-0.2501669986277278,0.5424772616386231
10.100000000000001,0.8437719742003134,1.2362382686541387,0.3146739576260124,-0.11471228147299932,-0.028061837060837938,0.23155321305419757,0.05239243661154746,-0.4671141657112904,0.8826426976003068,-1.3611063317757188,-1.8631797466813211,4.158799107502037,-3.356125960061928,-1.359079868641138,2.3310193376045762,2.0,0.48003050260992713,0.4903640536610035,0.3169256496482121,-0.7553443057123814,0.26944829298376977,-0.2501652485999698,0.5424665387182219
10.200000000000001,0.8137745801357442,1.351882437592289,0.425461803416285,-0.1155770821011702,-0.020120859973840773,0.22923734604168122,0.05231342062310978,-0.46613774591620977,0.8831641148337337,-1.361129243250715,-1.8631817913068556,4.158793504845167,-3.3560776532325236,-1.359055024515809,2.3310339765179493,2.0,0.48002216380115065,0.49036830404672377,0.3169243858364015,-0.7553542110798357,0.26943860166531525,-0.25016545919136085,0.5424574626311028
10.3,0.6026862374058058,1.3139349825245594,0.5869667979433115,-0.10808577138258081,-0.015324732466286625,0.2268050921029207,0.052334892103063295,-0.46650409464021103,0.8829694130436121,-1.3611424444358844,-1.8631507358946742,4.1587616361394915,-3.356088439640041,-1.3590524832354944,2.331019063608648,2.0,0.4800402856266857,0.49035661195496977,0.3169172698792299,-0.7553522154543982,0.2694522764493642,-0.25016714112635946,0.5424526733504519
10.4,0.6629265257809485,1.1364564461484132,0.6104598852517977,-0.11996777454634004,-0.01636524421560828,0.23104483430942277,0.052334693604788735,-0.4663921397600075,0.8830285646897543,-1.3611041962954666,-1.8631626568236292,4.158760732397762,-3.3560739532047683,-1.3590587245435644,2.331032183773653,2.0,0.4800414212469083,0.4903641426047206,0.316914194759382,-0.7553516228105237,0.2694445656719015,-0.25016435608329507,0.5424586130690696
10.5,0.6151853394337478,1.2235972289117256,0.6588858565002021,-0.10903067576968142,-0.02687330236451456,0.2332934550074156,0.0523412048935618,-0.4664530983216534,0.8829959752295384,-1.3611186248815241,-1.8631567024249247,4.158782428903209,-3.356068273583883,-1.359088827718761,2.331011040331478,2.0,0.4800300440066517,0.4903708303825286,0.3169056229628036,-0.7553570506651158,0.26944151676475736,-0.2501563266868912,0.542456272221574
10.600000000000001,0.5957882613378922,1.2700942601899756,0.5956651313606167,-0.106342277010152,-0.035462724582816095,0.23579923593709404,0.05233162471377803,-0.4663605294227159,0.8830451732984519,-1.3611345291137695,-1.8631817627641136,4.158779621124268,-3.3560921154417933,-1.3590695147081593,2.331030026632804,2.0,0.4800302833180098,0.4903682682294774,0.3169046808142018,-0.7553519756696936,0.2694483683029572,-0.250160613096683,0.542457959040013
10.700000000000001,0.03932072000676343,1.032056613647146,0.7368264485602001,-0.08091680260216422,-0.06286697640582227,0.22635437615596052,0.05224417061678657,-0.4653359996133055,0.8835901992712996,-1.3611345291137695,-1.8631869755186976,4.158767223358154,-3.356104794110379,-1.359061126819516,2.331035056489615,2.0,0.4800330133808652,0.4903745686175808,0.3169208509395936,-0.7553419849435117,0.26944273853176903,-0.25016350579928204,0.5424733328010783
10.8,-0.015168458350988966,0.4842743330748774,0.9276098854699041,-0.07489746856973405,-0.06625157872354115,0.22034671698476474,0.05218526142843309,-0.46471011137763146,0.8839235440709059,-1.3611469583077864,-1.8631501157407506,4.1587825616625755,-3.3560865209987085,-1.3590854488008173,2.330977485821634,2.0,0.48003986040125185,0.49037636150127306,0.3169451196295367,-0.7553254790161273,0.2694387016705012,-0.25017258233057277,0.5424941343841662
10.9,0.11578882474932159,0.4800059532933451,1.1245606950686153,-0.0617485807226654,-0.0763654245710197,0.21205732290770024,0.05224921513626526,-0.4658000548130419,0.8833457715030596,-1.361119789752819,-1.8631809734213107,4.158773107767357,-3.3560651792687324,-1.3590673119466858,2.3310106663708963,2.0,0.4800520231364511,0.49036106720786526,0.31694299862688047,-0.7553229795287637,0.26945013603338736,-0.250180490418045,0.5424882883542888
11.0,-0.24883748035521797,0.559775828108593,1.2861689501852864,-0.053363808014691004,-0.07320813648641623,0.21484392514623565,0.05236243394731205,-0.46710250217297394,0.8826505509803422,-1.36111302174059,-1.8631507358946742,4.158776567833724,-3.356068273583883,-1.3590583549480784,2.3309781089851236,2.0,0.48005224330236135,0.4903535438505973,0.316932385651255,-0.7553314262881046,0.2694549886962774,-0.25018307089142533,0.5424729270365508
11.100000000000001,-0.10396625618846006,0.37283238110173117,1.2593230687914323,-0.048174531848330295,-0.0813184374777412,0.21767296777797726,0.05247837480153013,-0.46827514549866694,0.8820229048400439,-1.361143993896007,-1.8631507358946742,4.158797846472508,-3.3560660668952473,-1.3590833889022,2.331025672394276,2.0,0.4800314989798871,0.4903725177646098,0.316937749238903,-0.7553428818787902,0.26943252899608006,-0.2501715125944778,0.5424734623924121
11.200000000000001,-0.1008439401440102,0.022293345044336166,1.3397932520405749,-0.04443641868085782,-0.08879239608343958,0.2207381908245628,0.052498737354007306,-0.4683668380356765,0.881973002152429,-1.3611073979501451,-1.8631626568236292,4.158758242672474,-3.356068273583883,-1.3590524832354944,2.3310048899606475,2.0,0.4800249414128146,0.49037386021901097,0.31693935766539283,-0.7553431455330384,0.26943578766907333,-0.25016217030308724,0.542475785052799
11.3,-0.21453281548937134,0.19852300971629755,1.2269040387410612,-0.03328261397098826,-0.09231354998411846,0.2180254479907152,0.052505302495500054,-0.4683303607593962,0.8819918554659231,-1.3611459732055664,-1.8631626568236292,4.158805529779439,-3.356101492736329,-1.359061196134276,2.330972208329581,2.0,0.48003070614346505,0.49036654620422654,0.316922453589063,-0.7553488014381324,0.26943868273948274,-0.25016302970359505,0.5424660754177235
11.4,-0.4208662037250155,0.06317273385675953,1.1360762181938546,-0.03835891313781671,-0.09332886530013366,0.21582304359876597,0.05244269320669668,-0.4676512938099158,0.8823554225240122,-1.3611198146190953,-1.8631597368210602,4.158817943876646,-3.356059272657497,-1.3590495632329254,2.331037938060706,2.0,0.48004103921217056,0.49035740008963025,0.3169226606354196,-0.7553439078370556,0.26944440365538086,-0.25017099053280123,0.5424663765875992
11.5,-0.2329812605289453,0.05002354880527548,1.153325620634837,-0.038479441834657964,-0.09975540363499583,0.21704416149036926,0.052380083917893304,-0.46697222686043544,0.8827189895821014,-1.3611285128515902,-1.8631779470234826,4.1587910652160645,-3.3560621375224082,-1.3590734326596645,2.33100769055106,2.0,0.4800347107160469,0.4903538557353326,0.316953612070081,-0.7553367335459036,0.2694395393133422,-0.2501804118361827,0.542474437318752
11.600000000000001,-0.2782711768679613,0.0935644795003906,1.1553153016361832,-0.0358367281097297,-0.10576629801411738,0.21438683139544806,0.05235133384210365,-0.4665894301789863,0.8829233293089996,-1.3610724117725885,-1.8631441534185116,4.158787522034401,-3.3560736120366754,-1.3590617349380534,2.331013857775944,2.0,0.4800308392434858,0.49036367599187897,0.31695356962075333,-0.7553409230496073,0.26943393994169446,-0.2501725900426211,0.5424749922028014
11.700000000000001,-0.24945393476150798,-0.054688275209336265,1.3614268780466967,-0.03414739762130482,-0.12187739780127069,0.21273957520873343,0.05235996014383532,-0.46661914462624793,0.8829067813166875,-1.3611012420492998,-1.863132918068328,4.15878208353958,-3.3560862185444025,-1.3590763250934046,2.3310227394104004,2.0,0.4800317815471805,0.49037511832495884,0.31693442330184146,-0.7553411207402889,0.26944135330381785,-0.2501585430108048,0.5424775127204101
11.8,-0.9393749354736117,-0.1278149455832182,1.7202491569633223,-0.023312179967828774,-0.13949699691914802,0.20537597009953534,0.05248647448835518,-0.4682045631459726,0.882059116955531,-1.361098289489746,-1.863126894036764,4.158772709805447,-3.3560801945128382,-1.359061660940803,2.331004383999783,2.0,0.4800324373037865,0.4903626953888859,0.31694242462880345,-0.7553363602019323,0.2694421860300145,-0.2501700319348941,0.5424784294937062
11.9,-1.216130833716791,-0.34070105394131583,1.9990328804461153,-0.022736084201031723,-0.17343463363968933,0.20025299196891508,0.05246143611201704,-0.46789236847132964,0.8822261962505967,-1.3611256075884033,-1.86317064495066,4.158772478704885,-3.356068273583883,-1.3590696595111802,2.3310174840636697,2.0,0.4800363608822213,0.49036065367634496,0.31695589631261484,-0.7553275618015125,0.26944528537681434,-0.25018003810406697,0.5424845261437757
12.0,-1.6011122844319554,-0.34224053143613686,2.0437758045305703,-0.02818323462795994,-0.21536110986240928,0.19400376071570463,0.052351327721165186,-0.4665077371978208,0.882966433438753,-1.3611493350301407,-1.8631807480454747,4.158796648156593,-3.356053299971976,-1.3590732724104522,2.3310227394104004,2.0,0.4800243340205808,0.4903771623500392,0.3169433080110664,-0.7553324750691487,0.2694355196626554,-0.25015969084776346,0.5424919187646764
12.100000000000001,-1.9078635841382705,-0.35491208359956916,2.3885743207778036,-0.03354348296415315,-0.2514260440883496,0.18175988729868367,0.052292895153054506,-0.46570098895690176,0.883395640475036,-1.361115127588328,-1.8631697643138572,4.15879625176105,-3.3560854847887236,-1.3590483421240178,2.33102206708315,2.641468767469321,0.4800313589861691,0.4903764302963839,0.31692947114037373,-0.7553422347677261,0.26943428051581686,-0.25015872936566064,0.5424793885311952
12.200000000000001,-2.0642478236696276,-0.24280784177716364,2.6728184371748536,-0.04396966141946127,-0.2806432052389352,0.17519462480454745,0.05238762235253213,-0.46678215884963187,0.8828193205277014,-1.3612169037174118,-1.8630728412767958,4.158803408376188,-3.3560355965870485,-1.3590335383876417,2.330978264916212,3.0,0.48002722000486425,0.4903685924099849,0.31694519587402054,-0.7553418231646132,0.2694215267067458,-0.25016930490978734,0.5424814190424573
12.3,-2.0108966710842804,-0.015657183025262696,3.2065488914004345,-0.06393434747422123,-0.2936226050376584,0.1649783161399297,0.052337488975363826,-0.4667554609595137,0.882836409164043,-1.3620397108342681,-1.8621606954821153,4.158875942230225,-3.35606574583361,-1.3589101535996848,2.3310380165215627,3.0,0.48001277318151064,0.49034281582388484,0.316980363562982,-0.7553173155594337,0.26943395595241476,-0.25019083641755524,0.5424994392334498
12.4,-2.080193455705484,0.06114408888543839,3.72618364505257,-0.08583742282770694,-0.31137779855623726,0.14665232252636082,0.05218341281470773,-0.4654333730374341,0.8835413198203381,-1.3631468063983125,-1.8609433652960337,4.15904165442715,-3.356068273583883,-1.3587512479570376,2.331116223970334,3.0,0.47987992022789955,0.49015031542070575,0.31706264458309635,-0.7553069583413518,0.2694600299865396,-0.2502062204945176,0.5424938139247648
12.5,-2.449447793242779,0.2871321708043811,4.347014794323721,-0.08321700562458208,-0.3328034775975201,0.1224069277061617,0.051990887025328655,-0.463506201814554,0.884567022710338,-1.364602502817342,-1.8597239801864371,4.159358708378886,-3.3560891654730347,-1.3585019432623295,2.3311818541825624,3.0,0.47951319117215496,0.4897312028552072,0.3172309443668863,-0.7553082042921524,0.2694667311073321,-0.2502000067940776,0.5424916164841043
12.600000000000001,-2.359702557145376,0.03890361637592076,4.425870032244457,-0.09254287695416138,-0.3518502285573942,0.09466565494573097,0.05212919437900957,-0.4643987050363047,0.8840904410356785,-1.36586581305666,-1.8585750431150518,4.159575054572855,-3.356071363877788,-1.3583131567120146,2.331248407340677,3.0,0.4791410835181848,0.4894081000229526,0.31736642246434976,-0.7553135717625646,0.26944359186122147,-0.25018017216238475,0.5425047839171562
12.700000000000001,-2.3080148550958706,0.003678312047837983,4.805247715887782,-0.11058370692346682,-0.3689586395138825,0.07067290177524234,0.05218627993579817,-0.4648656570936539,0.8838418910912201,-1.3671491798521263,-1.8573666296146396,4.15980238601652,-3.3560925922789515,-1.358064527455791,2.3313044278077744,3.0,0.4787463948456512,0.48902969505286953,0.3174357614767761,-0.7553583246063107,0.2694504954685857,-0.25015403481001974,0.5424510953145442
12.8,-2.3853251860372033,0.4401872203585441,5.2007955674071855,-0.1324990692022205,-0.37734804063656113,0.047188805281653964,0.052183400671730384,-0.46501843118012653,0.8837616935148978,-1.3682020061168314,-1.8560903582872599,4.16008343719298,-3.3561136031527323,-1.3578638483553735,2.3313859460467663,3.0,0.4784686600924499,0.4887331113513222,0.3175006488305378,-0.7553857668415329,0.2694664440198174,-0.2501479163199497,0.5424077790383648
12.9,-2.360207154011666,0.5086241666315094,5.41032660262684,-0.14056214613282952,-0.37827507421725487,0.01959289502068344,0.052167540688721786,-0.464745315354257,0.8839061560411551,-1.369331329273512,-1.8548514664623386,4.160309050682562,-3.356245163264103,-1.3576402405009809,2.331445118920905,3.0,0.47819786030038414,0.4884706313995536,0.3176580612434651,-0.7553795996174661,0.26946007529819316,-0.25014795171202975,0.5424195152797553
13.0,-2.4965524162469537,0.6855407298918924,5.74501939871498,-0.1602083438738499,-0.3815820212445007,0.003484194217083344,0.052136310420820765,-0.4641047523761731,0.8842445752633354,-1.3705433252421015,-1.8536856198994827,4.16047949251107,-3.356209017884219,-1.3574332458413771,2.3315089586344357,3.0,0.4777718849211793,0.4880588551734074,0.31793438429977133,-0.7553449349496744,0.2694435587012033,-0.25015670830621567,0.5424719524636294
13.100000000000001,-2.4431884180253975,0.7521078828221361,5.9840821555109756,-0.16216849230824928,-0.3937409797399781,-0.010160482134943603,0.05202195655321881,-0.4628757502369891,0.8848953347756353,-1.3718401393671145,-1.8526475803817386,4.1607248744530425,-3.3561741636735154,-1.357220992935703,2.3316071407145307,3.0,0.4774086158636144,0.4876971001082626,0.31809937796838217,-0.7553332703673112,0.26944148552142355,-0.2501666337138877,0.5424846467251335
13.200000000000001,-2.4749766761323926,0.9133516770688769,6.06703486842223,-0.1943387683720666,-0.38687547542510076,-0.023386103276447256,0.05201617216166486,-0.46271289387926934,0.8849808355460668,-1.372988483510831,-1.8513689437250012,4.160991300541948,-3.356193790434425,-1.3569666118257013,2.3316637172289596,3.0,0.4770526578872603,0.4873525683872847,0.31812946036055884,-0.7553893614236149,0.26944486758635644,-0.25015010947382976,0.5424124802303366
13.3,-2.3745865025231545,1.0545435930799472,6.020178967088687,-0.22600741699246618,-0.3872106842213621,-0.03590767548010762,0.05195962686358161,-0.4621775223908019,0.8852635989541238,-1.3742122878553709,-1.8500418923560702,4.161205045531449,-3.356248518029684,-1.3567717711078089,2.331750162293258,3.0,0.47679600744736295,0.4870923869239655,0.31827080823812826,-0.7553662983206662,0.26945012377553257,-0.2501630897930469,0.5424360005234539
13.4,-2.4841388466428387,1.350165834698708,5.997110997043109,-0.23105348564266073,-0.38660611454236243,-0.04299914150846454,0.05185706105083643,-0.46128619725677333,0.8857345670906174,-1.3753363571582293,-1.8488220681405398,4.161408684320799,-3.3562228053139718,-1.3565397683055642,2.3317744516655288,3.0,0.47649152948543316,0.48676776202306954,0.3184725862784184,-0.7553278697249735,0.2694485602969829,-0.2501785425507129,0.5424831604923953
13.5,-2.4638056710908085,1.4261405578096424,6.085743793395581,-0.22661321594187403,-0.3748916071243423,-0.04451786360658325,0.05167188085014156,-0.4591463393168932,0.8868564523219717,-1.376538012607164,-1.8477126351634439,4.161637857140773,-3.356289944920084,-1.3563373933539318,2.3318668152706556,3.0,0.47604025541040157,0.48629693293571435,0.3186872470503877,-0.7553114310297409,0.26944723723089914,-0.2501786405256249,0.542506660170353
13.600000000000001,-2.383728364833956,1.194915977190553,6.200170724445198,-0.23560206996938007,-0.37348008082935985,-0.03671667556925858,0.052046094423236273,-0.46305797939478216,0.8847985267419415,-1.3776638981061542,-1.8467043031119086,4.161893082026903,-3.3563573945425724,-1.3561234036877936,2.3319203868684815,3.0,0.4757386852611026,0.4860267432654866,0.31876493043069537,-0.7553416567769462,0.2694367179531338,-0.2501677238031761,0.5424748349216203
13.700000000000001,-2.590509405609198,1.434153750587945,6.363123414911501,-0.2568971486072167,-0.38998903329409323,-0.035568263826719404,0.051969399162122024,-0.46167524111033714,0.8855246173068854,-1.3788379752870408,-1.8453670847014507,4.162111759185791,-3.3563443622984828,-1.355950953578826,2.331986608086844,3.0,0.4753532589611164,0.48566232788337776,0.3189063033348854,-0.7553695043053196,0.2694156647598055,-0.2501538225039185,0.5424529257311144
13.8,-2.5834595232662996,1.724700154871185,6.612718811044187,-0.27768574977247895,-0.3896551700215693,-0.027760311548822927,0.05175734648232141,-0.45901897079514403,0.8869145644662376,-1.3801097091902306,-1.8439764125740314,4.162280559539795,-3.356385672443299,-1.3557124914273029,2.3320468109382735,3.0,0.4750931336051311,0.4854090870126133,0.31903101747864127,-0.7553621215587394,0.26941510393754453,-0.25013882309039526,0.542470401282461
13.9,-2.6895643748261837,1.9885345063556703,6.563823467995512,-0.2673640295392514,-0.38397679058242024,-0.02799764656116872,0.05148233512947186,-0.45616347210210184,0.8884051468601549,-1.3812958642654996,-1.8427927236406154,4.162506580372234,-3.3563943568218284,-1.3555183129948747,2.332135677357097,3.0,0.4747864006562062,0.48505028795496613,0.3192313803130646,-0.7553261027376104,0.26942102748399566,-0.2501602303564398,0.5425077396873653
14.0,-2.5253096695897663,1.9416714017939085,6.671857629539353,-0.27118178966587886,-0.37854638682188946,-0.022731492186374998,0.05141731975598207,-0.45564964544688497,0.8886728022082614,-1.3824178582233282,-1.8417675725976606,4.162776388700695,-3.3564378631233063,-1.3553292857083012,2.3322091102600098,3.0,0.47433699989547184,0.4845634606527181,0.3194185511328138,-0.7553317512024518,0.269421900258801,-0.25017413651734294,0.5424930291756537
14.100000000000001,-2.519021074650452,1.8817424491172026,6.687811929636344,-0.2928928447741457,-0.38601612985778627,-0.02108142217969901,0.05149383221556523,-0.456363462536885,0.8883021550089348,-1.383441838408342,-1.8406467457779416,4.1629499812020025,-3.3564988212933993,-1.355120772961607,2.3322541785652935,3.0,0.47407920134824266,0.48432311710445525,0.31948473753052975,-0.7553506013230773,0.26943006581737095,-0.25014760583293555,0.5424749616439112
14.200000000000001,-2.587088159905634,1.9496883138074736,6.832202249128016,-0.29974128418441853,-0.402288686125037,-0.020335724491916594,0.05143622771377567,-0.45581844413573125,0.888585030405232,-1.38481993044081,-1.839314183272288,4.163148671625819,-3.3565190930774493,-1.3548909911268088,2.3323319319515665,3.0,0.47381944090833,0.48406744640163063,0.3196138705331333,-0.7553409972593657,0.269432326968464,-0.25014860894797275,0.5424867486722417
14.3,-2.614242665324975,2.174278290875425,6.737700537714439,-0.3121414152042083,-0.4079129996006677,-0.0226839494732667,0.05137006697839696,-0.4551931160526224,0.8889095984549169,-1.3861157561389048,-1.8379730076583871,4.1633626019479655,-3.3565385929232843,-1.3546947746945002,2.332407958706597,3.0,0.47336737871899276,0.4835745005911118,0.31983995685528205,-0.7553271629381855,0.26943346582226446,-0.2501607382800505,0.5424998520238823
14.4,-2.665704447946151,2.270660359918704,6.553535198084805,-0.3181462519603335,-0.40824686222785617,-0.021948999389972936,0.0514182992065883,-0.45596415238753435,0.8885112937351363,-1.3872582989595486,-1.8368664360156612,4.163548386275386,-3.356587916285761,-1.3544689276863024,2.3324680050808904,3.0,0.4730918744082996,0.4832403864528203,0.31995885696446386,-0.7553295814691288,0.26944477871775097,-0.2501637703129104,0.5424894677339299
14.5,-2.5196625673199495,1.9325872384379812,6.606022701756703,-0.3381254465089875,-0.40152267253853496,-0.015365209366496189,0.05142282354846426,-0.4561199339656136,0.8884311306344773,-1.3882508871818353,-1.8358091664489387,4.1638260481620595,-3.356609569453378,-1.3542231783129766,2.332542724880884,3.0,0.4728205067267486,0.48297020244359756,0.3200493937524752,-0.7553385555202883,0.26944125800106766,-0.2501645452260939,0.5424783639401188
14.600000000000001,-2.788369613443645,2.3001168323198504,6.664833456743473,-0.3460549595070017,-0.4119014460056796,-0.02071882099469035,0.051353820203132054,-0.4552636523145616,0.8888743833642403,-1.3893550428394719,-1.8345767394704382,4.164064787436901,-3.356651088731225,-1.3540143485180098,2.332603931427002,3.0,0.4724078650500676,0.4825793995344023,0.3202227189402078,-0.7553383375955249,0.26944101189058645,-0.2501656059387647,0.5424783004647249
14.700000000000001,-2.7091431488167537,2.178363235203237,6.534701457184952,-0.3602988043644699,-0.42882835869683156,-0.021772107154980534,0.051292391046782536,-0.4546984330050727,0.8891670551273383,-1.3906566335010742,-1.833293352706433,4.1642752316512786,-3.356715151576479,-1.353742839200183,2.332648881872239,3.0,0.47212397871995,0.4822818191913522,0.32039199710827737,-0.7553178605678786,0.26944567841903544,-0.2501775672663169,0.5424989776259268
14.8,-2.745683495445005,2.274297934837182,6.39670168023445,-0.3670904198630373,-0.4254154888260824,-0.017741333108196162,0.05123173530316408,-0.45416293454371864,0.8894443508235145,-1.3919891446936432,-1.832056607248099,4.1645067170208545,-3.3567449919273495,-1.3535179751535142,2.3327257902648046,3.0,0.47183038623660706,0.4819756262204769,0.3205060600145244,-0.7553212365904877,0.26944487121450583,-0.2501887673898575,0.542489512897308
14.9,-2.7601397394967093,2.5295829581514884,6.502387623252306,-0.3726156611054055,-0.42342605880376283,-0.010264997682925587,0.05130785537952685,-0.4551556386568347,0.8889313904580404,-1.392999469184141,-1.8309661332282527,4.164740468834423,-3.3567669464795964,-1.353272266876443,2.3327822758695436,3.0,0.4713846889400432,0.481510235197393,0.32063065717322636,-0.7553468122645406,0.2694529112738498,-0.25018893658235847,0.5424498297719635
15.0,-2.966888427618412,2.6177621927423327,6.522733583836494,-0.379224031395777,-0.4394296961584325,-0.019410834396614802,0.05140285322783184,-0.4563592649906059,0.8883093591053857,-1.394040403309423,-1.8297659835675115,4.164989948272705,-3.3568598886621857,-1.3530766945732076,2.3328570516300524,3.0,0.4710631750425982,0.481199479605531,0.3207703892861707,-0.7553414098036133,0.26946057801468204,-0.25018244079306434,0.5424565400570892
15.100000000000001,-2.959177612628869,2.391427472506562,6.526400581397607,-0.38335509986535127,-0.4348147027900875,-0.014826662436637132,0.051182628566292,-0.45384659964381385,0.889602003557781,-1.395196084939321,-1.8285940870989108,4.16523796135959,-3.3569255937062485,-1.3528836409198206,2.3329418251638763,3.0,0.47080332006462616,0.4809527741511048,0.32092486401199366,-0.7553235376527536,0.2694566855152933,-0.25018230455549595,0.5424834214850649
15.200000000000001,-2.7489580877031745,2.381094640008918,6.611973472770708,-0.38294386779950096,-0.42914145468990045,-0.008320038747670667,0.05091530958624801,-0.4507787194294511,0.8911807010342437,-1.3964712664038157,-1.8273783551929128,4.165487055435798,-3.3569907757774886,-1.352634262321477,2.333012104034424,3.0,0.47039495662758185,0.48053876772962295,0.32112850044460456,-0.7553138847931348,0.26945723104446795,-0.25017981238942577,0.5424977396721049
15.3,-2.9077829139380102,2.8101906596832773,6.313032090130136,-0.3750945717946425,-0.42141684614168934,-0.014115721492980194,0.05117679271243405,-0.45319997403269097,0.8899341974397162,-1.3971376931386073,-1.826795093330174,4.165609442812994,-3.357009098912952,-1.3525175514780055,2.333081136734646,3.0,0.4700374876213112,0.48019807603966774,0.32121680937570957,-0.7553485919138577,0.2694481014100064,-0.250162522801601,0.5424619226506444
15.4,-3.0177291700060924,2.6460062090123526,6.226007091356072,-0.3764183464949652,-0.4240917367311143,-0.015486572816525317,0.051376800369378,-0.455268138996783,0.8888708065384806,-1.3971158314118803,-1.8267557524029194,4.165602927091546,-3.3569949766836586,-1.3525126616107386,2.333059787750244,3.0,0.46987674044321676,0.4800287045630576,0.3212297617694285,-0.7553819529371909,0.269444889797815,-0.250154739210801,0.5424206513297729
15.5,-2.7349766733988625,2.367006133483573,6.220078169214155,-0.37343182490233445,-0.42483752133315883,-0.010107470746589284,0.05130217822001085,-0.45501604565679926,0.8890041989610356,-1.3971149877665159,-1.8267677330872505,4.165589511016458,-3.356993188470164,-1.3525345347058093,2.3330498355841285,3.0,0.46984644918339397,0.47997443621880703,0.32125099597538437,-0.7553742855512593,0.2694659824998532,-0.25016164396489443,0.5424176664638559
15.600000000000001,-2.656183848466086,2.3418854081908944,6.14217501243606,-0.37970225027030513,-0.4267211865387571,-0.01134235422347622,0.051168241841348334,-0.4533241592996372,0.8898742839490061,-1.397127273289263,-1.8267331644726514,4.165624141693115,-3.357016225854391,-1.352536980305807,2.3330447557154783,3.0,0.469840117406993,0.47998166754164545,0.32126310846801254,-0.7553666422927858,0.2694604256497324,-0.25016183154867533,0.5424309843253792
15.700000000000001,-3.035075920989567,2.863086551756339,6.035790293875011,-0.3703764499546802,-0.4223561005252844,-0.015240069838524708,0.05105568295809167,-0.4518299353972683,0.890641844110103,-1.3971052169799805,-1.8267084560790003,4.165637888492996,-3.356993817953587,-1.3525384142629133,2.33304589866874,3.0,0.46982815340650613,0.4799846304352606,0.32129709430103454,-0.7553527498004873,0.26945142858058563,-0.2501587833436644,0.5424562047951355
15.8,-3.0570014560340324,2.5213591053206756,6.156151054602227,-0.3730514044591093,-0.418125531876829,-0.015937823781606353,0.05101050824630679,-0.45131132815264957,0.8909073634478286,-1.3971182611745219,-1.8267084560790003,4.165646383448281,-3.3569856502307642,-1.352533580087475,2.3330491234287707,3.0,0.46982074176061267,0.47997695955556985,0.3213263012441794,-0.755344955054535,0.26944609373682654,-0.25016510882574117,0.5424667913981767
15.9,-2.8326736154118195,2.666018078242914,6.019303584503281,-0.3721649142234844,-0.42331910333155076,-0.010164596614535337,0.050957583148765064,-0.45073152084781926,0.8912038774426437,-1.39709708246991,-1.8266938593243642,4.1656365394592285,-3.357020119306303,-1.3525222765181435,2.333059787750244,3.0,0.46981954390930536,0.47997582546928563,0.32133726154834674,-0.7553428719400013,0.2694376966335136,-0.2501741190965018,0.5424697075197349
16.0,-2.8306038150738955,2.392619081106202,6.0484467250161,-0.37649965891751586,-0.4211812953251733,-0.00991009880517595,0.05096378842184335,-0.45077669610374704,0.8911806971525766,-1.3970991291748205,-1.8267233038373594,4.165612007152821,-3.3569830301329477,-1.3525157055133186,2.3330443460815506,3.0,0.46981858031390583,0.4799872766504334,0.3213233710883401,-0.7553427272351738,0.2694443136138141,-0.2501665373124997,0.5424701188850719
16.1,-2.995336999552178,2.4422369783870552,6.057109962954325,-0.37015822522433284,-0.41592927724217044,-0.010604096081174779,0.05101353048583439,-0.45129742339738643,0.8909138584978289,-1.3970701838761885,-1.8267084560790003,4.165639198403784,-3.356999912351815,-1.3525250593768519,2.3330349922180176,3.0,0.4698121359153394,0.4799916271523938,0.3213238491236809,-0.7553437369084544,0.2694402489824578,-0.2501579690435448,0.5424746831562299
16.2,-2.8075175544001683,2.488691042501924,5.948190016900808,-0.37082213853905355,-0.42070973819068097,-0.008067518634872909,0.05113107140721162,-0.45257300991305477,0.8902599201951438,-1.3971405029296875,-1.8267166679081435,4.16564727413569,-3.356992383996481,-1.3525250593768519,2.3330711476278565,3.0,0.4698117173125516,0.4799886640902492,0.3213181057018462,-0.7553478127601072,0.26943892181949325,-0.2501537056177328,0.5424716331136472
16.3,-2.895670962770946,2.4262741511107246,6.08043524794147,-0.3734712620523591,-0.4177958032227284,-0.009867866773633478,0.05103523053099684,-0.45165451768741943,0.8907317851289472,-1.3970973504236501,-1.826700317148281,4.165643800895841,-3.3569642833031765,-1.3525211260986867,2.3330827291166774,3.6668650860233174,0.4698172770544188,0.47998914470446896,0.32133391877527595,-0.7553338252857759,0.2694443040958097,-0.2501674898613907,0.5424820793223798
16.400000000000002,-2.806147921009472,2.520981385241269,6.074364893276759,-0.3733912230157038,-0.4199051221181742,-0.0048844552694805345,0.050999289305376616,-0.45125402075709736,0.8909370765944937,-1.3970893347543858,-1.826697900843206,4.165642711081932,-3.3569827279142963,-1.3525126616107386,2.333059787750244,4.0,0.46982085397425266,0.4799853759553831,0.3213500919105587,-0.7553257931975463,0.2694405263888022,-0.2501769798691648,0.5424907626986533
16.5,-2.521426138605606,2.2339947048017814,6.117930517682698,-0.37940824559039715,-0.4234677594897628,-0.00889353302686414,0.05098362795262224,-0.45106128048244093,0.8910355048214916,-1.3971088773610136,-1.826692098558363,4.165640131941119,-3.3569718074700488,-1.3525202956347568,2.3330598556493864,4.0,0.4698246066196998,0.47997938381673017,0.32132956847183275,-0.7553429862474539,0.26943643813161167,-0.25017060200788926,0.5424717954186552
16.6,-2.775852253644649,2.42106173533405,5.939847717127165,-0.37357549814519064,-0.4157635521119372,-0.00826950447917782,0.05093659341194006,-0.450615865471749,0.8912634676431929,-1.397072631596247,-1.8267165705076533,4.165620182932801,-3.356992383996481,-1.3525331738055049,2.3330674007508483,4.0,0.4698208130435189,0.47998323034293155,0.32131981012780864,-0.7553451651700245,0.269446340198631,-0.25015475362893486,0.542471151716549
16.7,-2.6033504039259023,2.4978830462969985,6.092988555136351,-0.3714635200946822,-0.4205349357400443,-0.006568737367549818,0.050957344105850816,-0.45091175126685146,0.8911119745674847,-1.397088228864491,-1.826716032485375,4.165640407144651,-3.357008093128623,-1.3525288475800392,2.3330465083557073,4.0,0.4698320891226246,0.4799823682014055,0.3213243284362702,-0.7553333194138405,0.26945985131245653,-0.25016258681337045,0.5424773223580697
16.8,-2.8630340592651993,2.641229642897953,5.987669519923912,-0.367502059361635,-0.4163913923221989,-0.005295681215192167,0.05120913695932349,-0.4536631606301722,0.8896971885221595,-1.3970735490421118,-1.826689376394168,4.165654855956667,-3.35699476508302,-1.3525250593768519,2.3330330724723765,4.0,0.46982881293445167,0.4799907048938635,0.3213401309838792,-0.7553333879165287,0.269442652717635,-0.25016604592683334,0.5424841743870106
16.900000000000002,-2.894465561985732,2.4332374632719773,5.962408457539679,-0.37359071862448917,-0.416516940403982,-0.005614318492777617,0.05158848298334045,-0.4575990495919712,0.8876572737417004,-1.3971052169799805,-1.8266928287575652,4.165631554478075,-3.357024440390866,-1.3525361785542918,2.333070758671985,4.0,0.4698162405862598,0.4799953902862214,0.3213369871670443,-0.7553413432214284,0.2694305796103349,-0.250154640497248,0.5424843535337956
17.0,-2.7248154746238358,2.3920704677588747,6.102246811952867,-0.37363997836129187,-0.42121614340561836,-0.003471281332628773,0.051779256719652715,-0.45964053621399853,0.8865935168927517,-1.3971086457784538,-1.8266888281372342,4.165647983551025,-3.3570045111949183,-1.3525289128832574,2.3330349922180176,4.0,0.4698042490448001,0.4799938001515937,0.32132703583546174,-0.7553513254557602,0.2694249218751747,-0.25014702666127275,0.5424767752238862
17.1,-2.7874897098666613,2.4446898144470097,5.920403178195239,-0.3723450505915284,-0.41753263945206215,-0.0021651929433482505,0.051927464364285324,-0.46135065536435543,0.8856953376872618,-1.3970949006424285,-1.8266965351500453,4.1656365394592285,-3.3570108060278234,-1.352537953185096,2.333059787750244,4.0,0.4698091634365834,0.47999195315912174,0.32132983858960085,-0.7553476685644578,0.2694287843603471,-0.25015651252653653,0.542475574558804
17.2,-2.7711139030512575,2.3688530362841886,5.8450904372099,-0.37309885837715295,-0.41861438917402455,-0.000833862320935375,0.05214541012325017,-0.4640708324091066,0.8842600642054743,-1.3971249987315895,-1.8266943218210425,4.165606771568506,-3.3569977037574685,-1.3525160269120553,2.333044829252636,4.0,0.4698166219836788,0.4799874254914489,0.32134166892882426,-0.7553378578720753,0.269434732193941,-0.2501652314913434,0.5424822600838544
17.3,-2.932793527551698,2.467860986860185,5.8696183681297684,-0.3690363292853231,-0.4162030484257778,-0.005147653841198889,0.052198453070949495,-0.46446329369533873,0.8840526556719818,-1.3971243471675088,-1.8266844370298394,4.16564422555496,-3.3570083966959214,-1.352548901234762,2.3330349922180176,4.0,0.46981555583958257,0.47998691681266165,0.32136342388769024,-0.7553344418438454,0.2694227906123403,-0.2501625916278509,0.5424941645890238
17.400000000000002,-3.03424488039933,2.6156219636333407,5.886012355827155,-0.36460871581829596,-0.4144707824542148,-0.007816673009613598,0.05231372106624229,-0.46596019442938136,0.8832568692577989,-1.3971052515519489,-1.8267122092105228,4.165647983551025,-3.357004304925436,-1.3525126616107386,2.333034957646049,4.0,0.4698159417780597,0.4799873780612335,0.32137086380967883,-0.7553274130614669,0.26943004302917295,-0.2501599541850175,0.542501565263475
17.5,-2.875601724727206,2.397418604223241,5.83896784460092,-0.3704412113355771,-0.421905687695201,-0.0054672523678668695,0.05222346262015443,-0.4649342780831501,0.8838023467916881,-1.397092683259044,-1.8266696145026022,4.1656357217397355,-3.3570069068778103,-1.352530726782049,2.3330236574076233,4.0,0.4698118856675221,0.4799892103140308,0.3213605833567235,-0.755325808844473,0.2694384139816466,-0.25015795808944163,0.5425005618144731
17.6,-2.884484250235181,2.357182115342141,5.809921341369354,-0.3711404108201403,-0.4224666746804677,-0.009124237868076177,0.05209838144349796,-0.46338643615790537,0.8846231798218565,-1.39711118079795,-1.826708959770815,4.165659427642822,-3.356992383996481,-1.3525191224135389,2.3330409291813305,4.0,0.46981199155044856,0.47998425946512663,0.32133368290732256,-0.7553440268024715,0.26943282287595016,-0.25015608294333813,0.5424788376493316
17.7,-2.93173785310285,2.2889571738224657,5.8815517609421155,-0.3703008742552209,-0.41790593224025124,-0.007219662712630892,0.05203816222112942,-0.46265120681122096,0.8850117723446622,-1.397080421447754,-1.8267000493275936,4.16564698565074,-3.356983809110046,-1.3525404944833552,2.333059787750244,4.0,0.4698052092476855,0.479983658428686,0.3213273167263189,-0.7553504511558536,0.26942739071500676,-0.25015247862197476,0.5424742523940045
17.8,-2.882999429678531,2.1564404747151595,5.809831412139939,-0.3738174147733905,-0.4193882208893004,-0.004259772610086877,0.052064108653930616,-0.4630532585553316,0.884799865197868,-1.3970808121400242,-1.8266685187800373,4.16565596493931,-3.356972079255353,-1.3525126616107386,2.333059592404109,4.0,0.46980308817497357,0.4799921299320201,0.3213255872098447,-0.7553454154022312,0.26943507708413034,-0.25014872192730625,0.5424791789420443
17.900000000000002,-2.772995068062794,2.2000429237293213,5.8707035040002555,-0.37431376640046266,-0.4226705261863059,-0.004395928663258379,0.052071780809612014,-0.4632230046851043,0.8847103961633175,-1.3970979077101964,-1.826695156437125,4.165655011695049,-3.3569887293615888,-1.352509147538727,2.333045674996933,4.0,0.4698085541156254,0.47999261303711205,0.3213266959753944,-0.7553425479383301,0.2694369770007014,-0.25015742379031386,0.5424782152504821
18.0,-2.820419146574758,2.27173769518109,5.928831748513484,-0.37260558739881755,-0.4215700748999137,-0.0019333213539483173,0.05194790028880181,-0.4617204315690966,0.8855023333406049,-1.3971020876689426,-1.826717582980243,4.165633633670407,-3.356973765117946,-1.3525341862780944,2.3330780415527292,4.0,0.4698073211517326,0.4799819688420798,0.32133244341433703,-0.7553506759608596,0.26942456636201295,-0.25017167066984514,0.5424664916475233
