xiamingqian9007/apple-picking-rnn/final_data/grasper_20191127_112723.csv
,/manipulator_wrench.fx,/manipulator_wrench.fy,/manipulator_wrench.fz,/manipulator_wrench.tx,/manipulator_wrench.ty,/manipulator_wrench.tz,/ground_truth.x,/ground_truth.y,/ground_truth.z,/joint_states.elbow_joint,/joint_states.shoulder_lift_joint,/joint_states.shoulder_pan_joint,/joint_states.wrist_1_joint,/joint_states.wrist_2_joint,/joint_states.wrist_3_joint,/mode./mode,/manipulator_pose.x,/manipulator_pose.y,/manipulator_pose.z,/manipulator_pose.rx,/manipulator_pose.ry,/manipulator_pose.rz,/manipulator_pose.rw
0.2,-12.205719982294285,-6.158376362053279,-11.077991757828253,-0.16588777434157626,0.17941936015351737,0.46620202839800545,-0.40157408769416214,0.4455592895874567,0.8001344503107533,-1.8280262252335602,-2.01132569305433,4.161390781402588,0.9219143848836902,1.3437985066215883,-1.5728710333453577,1.0,0.4696720828627673,0.47124735215070235,0.35652726796874296,-0.6256389529316262,0.014855923158375703,-0.5372925547707245,0.5653953596463975
0.30000000000000004,-12.199225787181561,-5.509947404990299,-10.980722751723645,-0.18506720568105725,0.17717880324082882,0.42577777380759774,-0.4019462071594801,0.4458768433924236,0.7997703589338776,-1.8239113542961622,-2.013517055754709,4.160586189134245,0.9199611112523427,1.3443067273171656,-1.5728061853514679,1.0,0.46985833784785774,0.4714597417969258,0.35645261839197584,-0.6257226109879545,0.014844827088640338,-0.5372610501393905,0.5653330073595956
0.4,-12.46566035748482,-5.452851365260246,-11.292338462736126,-0.18252932405060554,0.17207012187619122,0.350618386829268,-0.4022977800073039,0.4461996562683214,0.7994137381188975,-1.8191703386726268,-2.015455571373605,4.159928268421431,0.9172981870021987,1.3450587872480018,-1.5725689837141104,1.0,0.47027754860299265,0.47180618105990346,0.3564433714373778,-0.6257748725721829,0.014860672786898885,-0.5372723499837939,0.5652640013343151
0.5,-12.286042991460883,-5.533080719091357,-11.539941053343327,-0.18299843094294038,0.1674915718735842,0.2916903069393365,-0.4021037647181483,0.44606499586687987,0.7995864562211278,-1.8145008268576968,-2.0177353226682304,4.159315586090088,0.9147212937338935,1.3458890914916992,-1.5724146107013774,1.0,0.4713813075102781,0.4729134030744006,0.35698505947822806,-0.6256672726069447,0.014890827294969315,-0.5373034655037363,0.5653527334405783
0.6000000000000001,-12.485253069923296,-5.680269911248848,-11.525440704024957,-0.18378693949402589,0.16927211079486457,0.2683010770054968,-0.40184437816881136,0.44588189034322717,0.7998189059494445,-1.8099017955605619,-2.0198678929231586,4.158695969084083,0.9124455902289222,1.3466042439012427,-1.5722236241343477,1.0,0.47240959283735906,0.4739961538981512,0.35741678383005987,-0.6256401946393465,0.014851607216540883,-0.5372893489678139,0.5653971454654412
0.7000000000000001,-12.302904060479579,-5.48646444871471,-11.568686068471687,-0.18059362444142826,0.15652931433714,0.26699869215516125,-0.4013857506697938,0.44555113198054447,0.8002334079416218,-1.8055222071051438,-2.0221142903442315,4.158118976458551,0.9100858108739743,1.3471519617384997,-1.5720684367739999,1.0,0.4737263986645183,0.47545201993679226,0.3578346769325379,-0.6256545748976431,0.014791629434321024,-0.5372449122117369,0.5654250303187247
0.8,-12.582628561266723,-5.28922630756589,-11.484366343103154,-0.17420966256351023,0.16285529298063423,0.2750502426594959,-0.40130755174932703,0.44543464887688206,0.8003375649522741,-1.8013192032907785,-2.0241076276607903,4.157382407274407,0.9077854818325114,1.3477082008508279,-1.5719359800775377,1.0,0.4747118283065646,0.47648469111496955,0.3581152662206415,-0.6256627380673849,0.014799868225028798,-0.5372281879390519,0.5654316724222899
0.9,-12.238266494216658,-5.4868357537319605,-11.374318292003622,-0.17701625570351148,0.16880622303210963,0.2801757144718476,-0.40136459410587894,0.4453943400179985,0.8003313952052005,-1.7970943790109426,-2.0261774423142747,4.15674117830294,0.9057495702110093,1.348224129434024,-1.5717895690791472,1.0,0.4754257623419437,0.4771120690344048,0.3583887630063692,-0.6256244831514393,0.014844412517362777,-0.5372772778130555,0.5654261899172182
1.0,-12.346176809396077,-5.592206924574228,-11.506830778531475,-0.1807581266911568,0.1597594161045324,0.2857754692332497,-0.40171712900557643,0.4457458508660712,0.7999583178845727,-1.7930150871984785,-2.0282278590037603,4.156112855472764,0.9035273124842936,1.3489433615846695,-1.5716565291034144,1.0,0.4760603596970322,0.4776647902538514,0.3585393197429892,-0.625657173662585,0.014874283918189209,-0.5372989819700849,0.5653686060406766
1.1,-12.432198883034156,-5.332804805906301,-11.57480508617883,-0.17432848626844108,0.1668865649867217,0.2856556762522271,-0.4021802703079383,0.4462440245294491,0.7994479026589371,-1.7891697269253963,-2.029837312655784,4.155496804991018,0.9015923754747298,1.3495990922834988,-1.5715285094883553,1.0,0.4770547441290403,0.47867781674260673,0.3586472809859439,-0.6257688966886652,0.014849091921133454,-0.5372386990889907,0.5653029034131506
1.2000000000000002,-12.328128559915125,-5.276981920097447,-11.300784775079872,-0.1792974539609245,0.1604330783056435,0.29073518877298465,-0.40214713745523917,0.44621026010036047,0.7994835353062629,-1.7853765963187178,-2.0319191153914096,4.154945094301429,0.899563978500823,1.3500903192979807,-1.5713801545506956,1.0,0.4781442411265542,0.4797359974190072,0.3592552333885461,-0.6256032232309143,0.014838545975277166,-0.5372915570962671,0.5654362981888403
1.3,-12.470578577991327,-5.565703168086439,-11.506041117154876,-0.18380845625190564,0.16456798286429306,0.29153124048417484,-0.4019195954641845,0.44596811563543814,0.7997330753178971,-1.7816289001662764,-2.033710871715427,4.154456266847343,0.897589283704145,1.3505512851929502,-1.5712828455768821,1.0,0.478776029919736,0.4803631428280025,0.35942892038700097,-0.6256299022533224,0.01484190777186204,-0.5372912299750485,0.5654070015237604
1.4000000000000001,-12.58717507914413,-5.615109542051702,-11.615789852691385,-0.17723764903339245,0.16800516219568434,0.28714263310874993,-0.4017246276141365,0.44573822874257246,0.7999590881715737,-1.7780888589521304,-2.035124441186422,4.153910304720206,0.8957799170512605,1.3510383836353805,-1.5711587834380045,1.0,0.4795580527804866,0.4811835958338835,0.3594964589992452,-0.6257091179369406,0.014833608962054256,-0.5372537583348654,0.5653551652994767
1.5,-12.618855720814643,-5.144914920302833,-11.415202059116135,-0.17382810485522276,0.16588440126802853,0.28523123818790924,-0.40154314006690645,0.4455134144557073,0.8001753646759896,-1.7745335780152487,-2.0370127383183414,4.153459269196755,0.8937589112809053,1.351430697487091,-1.5710486476493737,1.0,0.4805486617435878,0.48209068819779755,0.36005007342165474,-0.6255720247854784,0.014893380222211898,-0.5373392255807528,0.5654240759674373
1.6,-12.568944261848339,-5.2883706994884125,-11.388110826197808,-0.1724766838772583,0.16584489215398587,0.28564939725844096,-0.4013616525196763,0.44528860016884214,0.8003916411804055,-1.7712005402016777,-2.0387144281012115,4.153067018890024,0.8921887717819853,1.3519049796848237,-1.5709603468524378,1.0,0.48108015644096686,0.4826387579577879,0.36021241472307663,-0.6255638046190658,0.014901673313304335,-0.5373370109167878,0.5654350565555653
1.7000000000000002,-12.311228179312959,-5.430448547717438,-11.485660166128724,-0.17179798748080677,0.16396552110833806,0.28741263571150605,-0.4013761277223632,0.44537312405821305,0.8003373686551087,-1.767859092513337,-2.040101850648748,4.152620596569232,0.890358891761615,1.3524337793978791,-1.5708612626333736,1.0,0.48183567826298657,0.48349387683344114,0.36030941090717733,-0.6256456720540946,0.014859481555960308,-0.5372902168499516,0.5653900527292646
1.8,-12.607592993524554,-5.424321848173649,-11.600777192639741,-0.1755887149263478,0.16502007754406406,0.29083703194141347,-0.4014761647572197,0.4455927120918155,0.8001649682168094,-1.7648556118112346,-2.041675081504241,4.152120070813195,0.8888484524834728,1.3529221124907669,-1.5707683588093808,1.0,0.48263781018846885,0.48435489150901223,0.3606917186935796,-0.6255857883222014,0.014827122761539179,-0.5372813948614342,0.565465543261175
1.9000000000000001,-12.465066891081072,-5.490740084423319,-11.33736160372744,-0.1779095138337766,0.15664075685922302,0.28978897985193264,-0.4016606094471127,0.4458258145038081,0.7999424637078469,-1.7616085595642494,-2.043203125582724,4.151713868324331,0.8870877459416601,1.353298255465678,-1.570649387762767,1.0,0.4829852150448338,0.4846701834056341,0.3608278427427131,-0.6255661387956578,0.014831082405485899,-0.5372951680495901,0.5654740908101239
2.0,-12.311100320081152,-5.612129345444448,-11.510100808252407,-0.176298763108092,0.15562866158427893,0.2921643435081032,-0.4018847358257945,0.44606527028928583,0.7996964042957393,-1.7587730610492869,-2.044696639817989,4.151268626829128,0.8856315627760497,1.3536791967432111,-1.5705478744116184,1.0,0.48390455818327427,0.48561048467041057,0.36103419979495804,-0.6256255937278008,0.014812402823744575,-0.5372601174496034,0.5654421061376329
2.1,-12.621559963428744,-5.377283121085586,-11.642919225547404,-0.17093951738339666,0.16822001330511735,0.292863359950673,-0.4018060864962878,0.4459400998541346,0.7998056087597812,-1.7557335941921788,-2.0460471656338766,4.150834417750886,0.884061269241097,1.3540780981023068,-1.5704645860661592,1.0,0.48440585622412546,0.48608594226667023,0.36110988578223646,-0.6256689215091189,0.01481037166308194,-0.5372589303102124,0.5653953442952493
2.2,-12.661376523130699,-5.084786225043008,-11.856019392732065,-0.17031692016020727,0.16673654449295255,0.29810587444537556,-0.40157471702415987,0.44563101186248233,0.8000940084114369,-1.7531166307873267,-2.0473755351252043,4.150502400383897,0.8826124142304419,1.3544306109498492,-1.5703662095719664,1.0,0.4852862261405386,0.4869500701573669,0.3614776482440015,-0.6256143341770795,0.014844357144483988,-0.5372885573884739,0.5654267026171912
2.3000000000000003,-12.585975836838294,-5.271223275329888,-11.630569029535005,-0.17461452298435576,0.16504212610693378,0.28929634337130444,-0.40143596987708474,0.4454258104949846,0.8002780301860086,-1.7502486439042402,-2.0487038426952964,4.150127724617575,0.8812877374836425,1.3547599707256996,-1.570275608693258,1.0,0.4856988943869494,0.48733514259229094,0.3615276070915042,-0.6256864256163431,0.01485115624975066,-0.5372635189901251,0.5653705432013924
2.4000000000000004,-12.469436314961815,-5.505467685615416,-11.662844286856151,-0.1798825220041553,0.1612544043005053,0.2958213090006619,-0.40179164860122374,0.44577516478807777,0.7999048739499521,-1.747721922196879,-2.049906921720746,4.149730315949972,0.8797600616428429,1.3550576645767602,-1.5701989077731326,1.0,0.4864484732814974,0.4880492967901993,0.3618241226135797,-0.62560936632417,0.014888735782601328,-0.5373111192233262,0.565409592661146
2.5,-12.564551449856063,-5.5127984760708975,-11.5938592020425,-0.1779233839401717,0.16491467883318067,0.2939189072624665,-0.4021396037358205,0.4461503922441795,0.7995206893823499,-1.745193813704726,-2.051178429680675,4.149380850028632,0.8785891330500099,1.3554302911383154,-1.5701045710943617,1.0,0.4868397358534953,0.4884476163177039,0.36193827156186603,-0.6256337281502318,0.014876447679720675,-0.5373000873535694,0.5653934432190747
2.6,-12.666718569086967,-5.190773383634768,-11.4337586219604,-0.1733232009849054,0.16313026728953067,0.2953629202357331,-0.4024098863546127,0.44646398000027376,0.799209698592789,-1.742714025861114,-2.0525226706172086,4.149042959913359,0.8772119055521097,1.3558107702030027,-1.5700669261147526,1.0,0.48739364636234417,0.4889873225706572,0.36213519197993066,-0.6255881856638447,0.014896301433584041,-0.5373165971160092,0.5654276227998513
2.7,-12.53805257691922,-5.627161294860827,-11.47824158393725,-0.17816967866360972,0.16373673402891892,0.28525214282255107,-0.4021548203148942,0.4462255441797669,0.7994710545510278,-1.7403193524274272,-2.0535418682356803,4.148731708526611,0.875920120302733,1.3561333923477146,-1.5699817911902791,1.0,0.4880624223566646,0.4896694612596712,0.36223005924032586,-0.6256743577384656,0.014852482799427424,-0.5372780020741749,0.5653701002975257
2.8000000000000003,-12.53624737491062,-5.203053817962323,-11.532630271512172,-0.17314543773595337,0.15877318632114873,0.294071600942483,-0.4018997542751757,0.4459871083592601,0.7997324105092668,-1.738018699678131,-2.0546118221678675,4.148449574440728,0.8747981287029266,1.3564473982315894,-1.5699082266677988,1.0,0.4884301920436645,0.49003659501026187,0.3623964486918651,-0.6256475705751658,0.014853701572381486,-0.5372883906129516,0.5653898392220503
2.9000000000000004,-12.50142794197911,-5.573343695911505,-11.49856020945732,-0.17444786797980888,0.16140718711733276,0.2911406147909098,-0.401840899356958,0.44596196155285034,0.799776102421236,-1.7357088758396193,-2.05566733297307,4.1481427208827535,0.8735076966877244,1.3567155219041847,-1.5698431173907679,1.0,0.4889781195999252,0.49061566558454317,0.3626289178956522,-0.62559588238371,0.01485035254500117,-0.5372822703452212,0.5654529343336376
3.0,-12.431042143964607,-5.505218249651127,-11.595103264193703,-0.17537822841700462,0.16061124812183988,0.2891963083706527,-0.4019531526182227,0.4460301519763398,0.7996816611817458,-1.733666144714653,-2.056859170806334,4.1478863764483425,0.8724398549928939,1.3569928905779067,-1.5697830359088343,1.0,0.48938943781512184,0.4910238116576629,0.3628114922352711,-0.6255869170696949,0.014849919351580922,-0.5373045308676978,0.565441712465157
3.1,-12.395358946850251,-5.464069293939864,-11.241163621785583,-0.1782137707092873,0.16086285241570283,0.2939809641904529,-0.40189508597271484,0.445929846567033,0.7997667674900232,-1.7313151692008852,-2.0579963718197583,4.147596952121452,0.8713399026735268,1.3572330474853516,-1.5697149467079283,1.0,0.48985374065944987,0.49146846247292647,0.3628099216005474,-0.6256880168408857,0.014851996065611967,-0.5372780853610101,0.5653549175388799
3.2,-12.450285489735048,-5.504948688048154,-11.498318091511928,-0.17763731350527373,0.15757933199066834,0.29575664424737036,-0.40190475038192297,0.44594750337763456,0.7997520560961765,-1.7294176751220334,-2.0588371694505305,4.147314039097812,0.8702229565021234,1.357489331179155,-1.569674919655209,1.0,0.4903955984528423,0.492077796007751,0.36298276036355903,-0.6256311953358499,0.01484348981450885,-0.5372786668268064,0.5654174673686441
3.3000000000000003,-12.398094866886348,-5.604811728782448,-11.49046163096436,-0.17806495715351803,0.15702018699804823,0.2957328238044737,-0.40203771107028274,0.44609271584133475,0.7996042463861891,-1.7274371389665768,-2.0596928682975912,4.147085525018748,0.8691504660964857,1.3577801842771342,-1.5696033989282805,1.0,0.49075574314123616,0.49241977908402274,0.3630843838273958,-0.6256688452124637,0.014847491621397112,-0.5372720455633531,0.5653819922664901
3.4000000000000004,-12.601648446748634,-5.130840638397105,-11.459112209006472,-0.17029519689231096,0.1646264902677365,0.29387653038302064,-0.4018989960649206,0.44594443181539906,0.7997565828793132,-1.725385665666279,-2.0605399245351417,4.146816479687847,0.8682953299665711,1.35797910918846,-1.5695375275888528,1.0,0.491195922623027,0.49285445554576796,0.36332368275838767,-0.6256421835060715,0.014853807809429968,-0.5372826508298294,0.5654012519694196
3.5,-12.623554987754394,-5.337407423991976,-11.652141785459067,-0.17444654042404745,0.16474590385971666,0.29406815235936096,-0.40176028105955836,0.44579614778946336,0.7999089193724371,-1.723743908744252,-2.0615573717579085,4.146602400915765,0.8672158082338247,1.358215990237446,-1.5694989497493224,1.0,0.49145230225848174,0.4931189579563621,0.36352978399123836,-0.6255291753292784,0.014876818254912546,-0.5373235417463578,0.5654868190998209
3.6,-12.735123803684141,-5.370142093317356,-11.543735617455413,-0.17654372875872423,0.159883725537899,0.2962599269611862,-0.40162156605419613,0.44564786376352766,0.8000612558655611,-1.721853690172767,-2.0626041608175063,4.146338825735775,0.8662087589197622,1.358425608254962,-1.5694253651502048,1.0,0.4919873874146575,0.49365238814965073,0.3635681031981547,-0.6256299341778303,0.014866903942593341,-0.5372816647545494,0.5654153989293051
3.7,-12.262830702929453,-5.301408042099995,-11.46324332416495,-0.17144515457876536,0.15697846197301302,0.2948445400911892,-0.4019813046544568,0.44602900757742564,0.7996678653976903,-1.719994527016647,-2.063416096962841,4.146121196008678,0.8654046156240897,1.3586565450956398,-1.5693792013299255,1.0,0.4922896231268972,0.49395995979455715,0.36353758897480265,-0.6257119845476778,0.014843574725080686,-0.5372491933506947,0.5653560691518359
3.8000000000000003,-12.483715063555666,-5.678846992406244,-11.435681213853751,-0.1789094501095147,0.15926467305053343,0.2931592446839802,-0.40227562898642955,0.4463633481991546,0.7993335198402473,-1.7183903207574949,-2.064166604926203,4.145904937635044,0.8645023482886636,1.3588596912623312,-1.5693457361258927,1.0,0.4926905897236372,0.49435693021725613,0.3637102152954404,-0.6256457160057882,0.014867941338768224,-0.5372858802874741,0.5653939026976379
3.9000000000000004,-12.612943267849943,-5.507703497979817,-11.617661683814603,-0.17509717658756943,0.16132788400585427,0.3009548711206153,-0.40219519281233385,0.4463168252840531,0.7993999499225257,-1.7167151601013775,-2.0649011775130064,4.145722539767486,0.8636118929913318,1.3590630571628277,-1.5692766814582713,1.0,0.4931136243753123,0.49480702875371013,0.36388090840972515,-0.6256463232576346,0.014839493765471109,-0.5372727783459549,0.5654064283923614
4.0,-12.722791209381986,-5.247343123209001,-11.634414805066053,-0.1710582525255573,0.16395749729500939,0.2933097488332937,-0.40177743244902164,0.4458928770876599,0.7998463366099016,-1.715042177746046,-2.0656284137492067,4.145501126085845,0.8626953691542044,1.359328906022793,-1.5692232183911639,1.0,0.49333201324379194,0.4950233303158537,0.36396446085429496,-0.625642272645015,0.014855683223195373,-0.5372630682907135,0.5654197120780289
4.1000000000000005,-12.460501091588716,-5.262354936589836,-11.509688606340845,-0.17130660272559786,0.16073247737877658,0.2927411039936554,-0.4016422710244554,0.4457602961373076,0.799988253995332,-1.7134333965415363,-2.0664207775565484,4.1452487252488455,0.8619106533743994,1.3595571858894013,-1.5692316153182626,1.0,0.4937641183698779,0.49544279099965705,0.36421365037752795,-0.6255873785725958,0.01486207237684412,-0.5372935051496864,0.565451359445971
4.2,-12.702693589128149,-5.379505985950657,-11.39734728191256,-0.17741320887663334,0.1572961655824839,0.299581517683104,-0.4017618245578795,0.4458903332851138,0.7998557440039348,-1.7117099626689938,-2.0673307708432533,4.145092903164262,0.8610794013095772,1.3597703205947336,-1.5691297983563268,1.0,0.49402562163866703,0.4956868253829389,0.36429384429885786,-0.6255734431430483,0.014857196510273073,-0.5373080552540886,0.5654530791366124
4.3,-12.69501794384434,-5.201808924832477,-11.468000945863649,-0.1679511947366533,0.1623787061281982,0.29120440544971926,-0.40154004442600266,0.44562524090912364,0.8001144797063696,-1.7101049423217773,-2.0682290273134294,4.144837113840886,0.8601300343254209,1.3599677085876465,-1.5690971776565832,1.0,0.4944182345007823,0.4961003914792526,0.3643304887373802,-0.6255978022307553,0.01484771446462656,-0.5372790338783849,0.5654539547778713
4.4,-12.520481798991682,-5.292845918215188,-11.580586771137764,-0.1737319103220589,0.15869584368407286,0.29891734195365316,-0.40100321064005484,0.444995468647013,0.8007343231970888,-1.7085153882105477,-2.0690424926205897,4.144650505622855,0.859229250545166,1.3601596921932861,-1.5690321528204763,1.0,0.49484714613907443,0.4965348787241527,0.36440601303613035,-0.6256552838914233,0.01484394972208091,-0.5372691264635203,0.5653998661518383
4.5,-12.567052562336837,-5.629439871443674,-11.431060657681126,-0.17876447219765376,0.15760884753072116,0.29765881874254535,-0.40137887749176615,0.4454405413368599,0.8002981845039692,-1.7066764309171676,-2.0697507572976592,4.144457696654874,0.8584439471288422,1.3603692474263533,-1.569026850647187,1.0,0.49506430520391137,0.4967528535725615,0.3644284311148936,-0.62568225338358,0.014833874624802354,-0.5372588016068144,0.5653800969794311
4.6000000000000005,-12.390504643011425,-5.675613648998466,-11.467729887730252,-0.18100453353329687,0.15466327513841743,0.30185370558113384,-0.4017545443434774,0.44588561402670684,0.7998620458108494,-1.7050399688106255,-2.07044983396711,4.144226819876857,0.8575517374226074,1.3605551719665527,-1.568959131320916,1.0,0.4954411747506646,0.4971416989832498,0.364618675509896,-0.625627468725518,0.014836469771729694,-0.5372697334545271,0.5654302636528356
4.7,-12.596872164937711,-5.506526252521907,-11.591572329235188,-0.17381579171845057,0.16056851425397572,0.2958559789449311,-0.4016067304028568,0.4456598119699823,0.8000620612523315,-1.703541132723393,-2.071197305507021,4.143990096223635,0.8566652330543563,1.3607737351523226,-1.5689094189570405,1.0,0.495866900605003,0.49752807009967476,0.36487869051519656,-0.6255429030723327,0.014862947561281682,-0.5373347068879838,0.5654613885839009
4.800000000000001,-12.531387642716819,-5.360681404084565,-11.4734935993978,-0.1731635589005777,0.15903478249242628,0.29785684867926565,-0.4016132573250834,0.4456325783890654,0.8000739379387457,-1.701800204091447,-2.072122923298763,4.14375866871861,0.8557629805863203,1.3609586569933203,-1.56886904416166,1.0,0.49615873268258265,0.49782978929466976,0.3649282201357922,-0.6255978686812619,0.014853921379910174,-0.5373049177905243,0.5654291229139332
4.9,-12.499003638208055,-5.593673934740338,-11.476379061237262,-0.173210756748728,0.15918749594890103,0.2964237230201661,-0.4018038788636307,0.44584215612859557,0.799861434381096,-1.6999520948057216,-2.072968857106476,4.143572815565176,0.8549634795651461,1.3611187934875488,-1.5688215127104312,1.0,0.4965170518174095,0.49819570514358386,0.36500736391601535,-0.6256209888814193,0.014855100603095485,-0.5372909330364035,0.5654167998335196
5.0,-12.523094810444938,-5.268545077726299,-11.431900967324523,-0.17570452335396025,0.16067260464791497,0.29993313855645776,-0.40186484123439614,0.445909568668007,0.7997932800696759,-1.6985119366683978,-2.0737932830528463,4.143361568450928,0.8541012872625091,1.3613285315055856,-1.5687461825678009,1.0,0.496770036737131,0.4984318917458747,0.3651004134875602,-0.6255888959669318,0.014868476409400179,-0.5373104008512194,0.5654334574370716
5.1000000000000005,-12.386840932587736,-5.4857899847365275,-11.516223820844436,-0.18137922893630143,0.15303272815824148,0.2969384316505788,-0.4017694201444922,0.44580551407276314,0.7998992270968385,-1.6968990263147374,-2.0746031047400164,4.1431286602259645,0.8531800943562011,1.361508104300403,-1.5687616507159632,1.0,0.49713538925232204,0.49879998835279976,0.36518706779246296,-0.6255898939496854,0.014882796001989194,-0.5373048443959276,0.5654372566075324
5.2,-12.560380915190969,-5.462483667484576,-11.526651127306332,-0.17693622204555154,0.16076738843517865,0.29401152890596327,-0.4016574107430975,0.4456477372172503,0.8000433474843662,-1.6949872032649793,-2.075408817180053,4.14295850065081,0.8522973196386444,1.36170008143168,-1.5686857632629643,1.0,0.49750718526584986,0.4991879313432001,0.36518448275597426,-0.6256986180143529,0.014851777363816546,-0.5372649265520977,0.5653556958420365
5.300000000000001,-12.449312176347599,-5.519554504264309,-11.461465925795155,-0.17605934485031163,0.1587935912253895,0.29839903054374,-0.4015441615128942,0.44548594510039013,0.800190320991208,-1.6934614181518555,-2.076167731020938,4.142769805258258,0.851512424530564,1.3618939203702134,-1.5686586621691312,1.0,0.497963676231292,0.49962653525924544,0.36542596840312386,-0.6256272313571746,0.014881256662870894,-0.5373046780860773,0.5653961429752656
5.4,-12.411831625300202,-5.31422330634185,-11.381414153748288,-0.1738957061489029,0.15587968268369737,0.2995324486738795,-0.4015621036841748,0.4455334465852157,0.8001548706762885,-1.6919383577939844,-2.0769575005133634,4.142544860599422,0.8505963209596049,1.3621332074413781,-1.568603657535552,1.0,0.4982869898155184,0.4999517360527359,0.36553156380591206,-0.6256054027496067,0.014883245500001247,-0.5373098667746771,0.565415312951876
5.5,-12.352925864995841,-5.456107101848328,-11.495114989201024,-0.17665528306709677,0.163208509060568,0.29432624178546285,-0.4015913287726559,0.44559894804833017,0.8001037312776865,-1.6901147739630573,-2.077771627623428,4.142366886138916,0.8497306543537597,1.3623428344726562,-1.5685646164633609,1.0,0.49863327185518425,0.5003193199786673,0.36557815495067064,-0.6256646359336063,0.014863841610938342,-0.5372711886157491,0.5653870350813264
5.6000000000000005,-12.581668483223778,-5.615690248041616,-11.56352164708806,-0.1805471412794351,0.1623681323594604,0.30163331923033176,-0.401652922634854,0.4456675663090381,0.8000345803473664,-1.6883646973899302,-2.078590998168652,4.142142250314923,0.8487746523849755,1.362550134558714,-1.5685012115534722,1.0,0.498836466091505,0.50054749996572,0.36568315872686047,-0.6256410527626599,0.014854879286398379,-0.5372776182606298,0.5654072572717848
5.7,-12.43517019716503,-5.305434912586863,-11.43876278266967,-0.17487231951458376,0.1589525813559718,0.29687063619147325,-0.40171773591761795,0.445736494568585,0.7999636379776752,-1.6868187341370222,-2.07939185228601,4.1419358253479,0.8480182172856721,1.3627460051906957,-1.568468639183026,1.0,0.4992108559265618,0.5009273469329871,0.36584573183834446,-0.6256208414322452,0.014833575585124256,-0.5373001927787648,0.5654087288332859
5.800000000000001,-12.470625993031732,-5.604791187207734,-11.475545859211552,-0.18070816432358291,0.15802969508036324,0.3012038403661647,-0.401812699248562,0.4458482622402972,0.7998536309592555,-1.685130801713893,-2.0801739189198423,4.141719341278076,0.847151734926642,1.362988195151286,-1.568428259883204,1.0,0.49951468863463405,0.5012220183887134,0.36589522900035154,-0.6256461200550612,0.01482969238090529,-0.5372898847213132,0.5653906547336044
5.9,-12.561712341305604,-5.524993250558417,-11.502419580919726,-0.1785445040915906,0.1585792205924711,0.30104641759556183,-0.40195253570875095,0.4460237889636495,0.7996854829713482,-1.6834290960908656,-2.0809740356798008,4.141507715219717,0.8461809889082124,1.363182544708252,-1.5683653990374964,1.0,0.4998558209237712,0.5015396006738803,0.366018216774386,-0.6256305547341556,0.01484701297751467,-0.5372891584877937,0.565408113985073
6.0,-12.794206980460348,-5.385842381223781,-11.44783445726215,-0.17435987542258,0.1627660539387458,0.29833177798739846,-0.40193669718386316,0.44602190150008486,0.7996944496080037,-1.6817762246583006,-2.081785341302389,4.141319477151446,0.845255448671338,1.363377595449688,-1.568309043300143,1.0,0.500228582586682,0.5019003318169467,0.36616036230448523,-0.6256209827974575,0.014860004559181164,-0.537288718903833,0.5654187816890439
6.1000000000000005,-12.461356236432342,-5.65454128529822,-11.410244576374742,-0.17854197323415355,0.15872067179530708,0.29525712911145496,-0.4016792689568044,0.44574468758919755,0.7999782778056045,-1.6800468157098902,-2.082693807224443,4.141116399211827,0.8444780733533148,1.3635659217834473,-1.5682658686385922,1.0,0.5006061313559578,0.5022943203404788,0.3662689196659239,-0.6256396970765918,0.014850169675162896,-0.5372828077466405,0.5654039497584147
6.2,-12.214348767669241,-5.6982433965796355,-11.377167985974301,-0.17936593384817345,0.15055029661762032,0.2978277584074951,-0.40146048977871895,0.44549174577974443,0.8002290374200287,-1.6784205350248265,-2.08353390316152,4.1409011361130466,0.8435908062388894,1.3637494922397437,-1.5682209173785608,1.0,0.5009889931834886,0.5026761349088722,0.3663708566627616,-0.625623904296404,0.014849571221671305,-0.5372870125194144,0.5654174447126821
6.300000000000001,-12.78247239582738,-5.408356340727566,-11.500479123883643,-0.17667380232581562,0.16017179687565908,0.29581734477713334,-0.40130510875525566,0.4452786188294044,0.8004255528239211,-1.6768490729387733,-2.084246381153308,4.140708215262173,0.8427121062088594,1.3639217579237233,-1.5681985749534253,1.0,0.5014053926697685,0.5030678111632542,0.366443429282643,-0.6256515214226477,0.014863691448694878,-0.537289141095991,0.5653844915439198
6.4,-12.376831619213108,-5.431458485212841,-11.489957895600291,-0.17714633731916402,0.15600713655697881,0.299125994967398,-0.401183226987144,0.44512219055982677,0.8005736990134373,-1.6748968807524476,-2.0849884677681882,4.14053732376171,0.8417699160413986,1.3641176223754883,-1.5681366756571706,1.0,0.5017026825495856,0.5033964029614332,0.3666064959843238,-0.6256271957887032,0.014855240745713219,-0.5373008321399511,0.5654005213065036
6.5,-12.500698405269102,-5.510130803340947,-11.54426236355724,-0.17606068735228875,0.1614396506441095,0.3022862249817567,-0.4011212920264912,0.4450672243933069,0.800635288652645,-1.6733514288723315,-2.0858246288695277,4.1403326518118435,0.8409878064327836,1.364288400318479,-1.5680888334857386,1.0,0.5021467424962742,0.5038369795419623,0.36685272756957277,-0.6255598076364299,0.014881979347763065,-0.5373378422226858,0.5654392072327791
6.6000000000000005,-12.283138628460316,-5.713704897459138,-11.278607937569442,-0.18200700693418273,0.15628249331434962,0.2972793469904336,-0.4011719104478522,0.4451517754568874,0.8005628497717615,-1.6717969142712654,-2.0866807610957787,4.140173435211182,0.8401447293306212,1.3644811818173155,-1.568048244544686,1.0,0.5023960320455584,0.5041290009745911,0.366852575297121,-0.6256032472637113,0.014855605879210594,-0.5372982175915993,0.5654294945967637
6.7,-12.515899777296797,-5.493353201200962,-11.53239257552327,-0.17551081420065645,0.15597318934860868,0.30052351980246494,-0.4014324071091642,0.44549648423561083,0.8002404879707786,-1.6698834573324877,-2.0875443899181345,4.139964596097159,0.8391565997895737,1.3646817207336426,-1.5679733319319848,1.0,0.5026015951513942,0.5043511410015575,0.3668733969218571,-0.6256329671889171,0.014848291962376775,-0.537272596836173,0.5654211485973146
6.800000000000001,-12.332518949765932,-5.647594954043222,-11.594561976001371,-0.18149891092297882,0.15277707244841443,0.30314927589477814,-0.4015248720869872,0.4456014374689473,0.800135694936071,-1.6682306916812766,-2.0884928502289646,4.139759013983274,0.8382711443899546,1.3648734092712402,-1.5679376263691587,1.0,0.5031529517302907,0.5049072879799538,0.3670699168199582,-0.6256059835635386,0.014871123123472708,-0.5372940892544524,0.565429982118717
6.9,-12.83160313722718,-5.203142758699202,-11.501128563246956,-0.16819095274411505,0.1564206471192438,0.2980067590552412,-0.4015573991110229,0.44562985567321944,0.8001035469543097,-1.6668012627279238,-2.0892553046178532,4.139575303462254,0.8375034179905746,1.3650446692223914,-1.5678893674917047,1.0,0.5034368524462811,0.5052109500787371,0.36706140350489347,-0.6256662694304935,0.01486661740796357,-0.5372552279855178,0.5654003209992046
7.0,-12.179511521186013,-5.686865367680282,-10.576192743838783,-0.17353058399916674,0.1576241021067337,0.3014448811316924,-0.40153632237435993,0.4456005838327264,0.800130426660341,-1.6653206483499745,-2.089769502679342,4.139378835560639,0.8367521005817871,1.3652448654174805,-1.5678576011921985,1.0,0.5037211493825853,0.5054896518290857,0.36709370504173705,-0.6257064070025772,0.014848683828551541,-0.5372405400960283,0.5653703307583556
7.1000000000000005,-12.779042278844935,-5.275527968504972,-11.38693429541587,-0.17783780267476693,0.15176517766861736,0.29837099201657136,-0.4015237836894751,0.4455783712324412,0.8001490899763467,-1.665295108864774,-2.0897913315410985,4.139350401256825,0.8366910654255371,1.3652955700508456,-1.5678639262416623,1.0,0.50398664977306,0.5057346852787888,0.36725950552070624,-0.6256687327909194,0.014847631015107818,-0.5372580640035198,0.5653953991006953
7.2,-12.532952817601446,-5.41009058915163,-11.532849429086504,-0.18042921001518827,0.1562668623209546,0.3002860145279228,-0.40152980453168474,0.44557150360350417,0.8001498929751212,-1.66531941066658,-2.089803272327497,4.139358997344971,0.836676181879229,1.3652712951237804,-1.5678788535559736,1.0,0.5040799231484039,0.5057698821513452,0.36732863149763856,-0.6256427276033305,0.014866576964971769,-0.5372732303837335,0.5654092661068061
7.300000000000001,-12.316225901114937,-5.580848735389425,-11.583391304919054,-0.17829251248809025,0.15159487896930218,0.3003978386107132,-0.40172443544983955,0.44578942024185375,0.799930718906434,-1.665317040594185,-2.08979704451749,4.139340648098903,0.8366877503992678,1.3652806282043457,-1.567851730701084,1.0,0.5040712110172312,0.505779208097849,0.3673239655957053,-0.6256455515282608,0.014855657649496427,-0.5372726885022583,0.5654069432526052
7.4,-12.516408875857548,-5.6666920253075315,-11.549666614233827,-0.17804688855281825,0.15843244333758624,0.30713681698830964,-0.40188630795444824,0.44597770416279037,0.7997445108719844,-1.665274281416536,-2.0897864395137664,4.1393549351138175,0.8366474439408697,1.3652887526666515,-1.5678687640219198,1.0,0.5040516108788823,0.505790493486643,0.367351623230878,-0.6256339755330815,0.01483905078879433,-0.53727842798466,0.5654147345556995
7.5,-12.358944782453808,-5.70066139679248,-11.432064847055964,-0.18214541378701263,0.15365062050427702,0.3026941715960359,-0.40186728604110333,0.44597238538027545,0.799757035441377,-1.6652640094483513,-2.0897895036604717,4.139345108972223,0.8367081637319413,1.3652781839233943,-1.5678562047838265,1.0,0.5040671109227993,0.5057900450694778,0.3673396264293078,-0.6256358042721263,0.014849150516757668,-0.5372697382768088,0.5654207030819348
7.6000000000000005,-12.291913226623528,-5.637512334575904,-11.36261585358872,-0.18012262269272436,0.1510267898258736,0.30523305443378257,-0.4017002295241944,0.44578396997444486,0.7999458910441148,-1.665224789138592,-2.0897791271238195,4.139347553253174,0.8366672235676269,1.3652806282043457,-1.5678489843951624,1.0,0.5040766341123503,0.5057887785147147,0.36731968341668003,-0.6256506399920144,0.014853133551004686,-0.5372683113235593,0.5654055383075319
7.7,-12.425172328902413,-5.53062377575649,-11.527518129909266,-0.17710432687889985,0.15499565882366545,0.31063663907768463,-0.40149351694182567,0.44554650595764866,0.8001819828661729,-1.665241952530586,-2.0897745481548133,4.139351853148057,0.8367249759398323,1.3652806282043457,-1.5678586657955327,1.0,0.5040785669892062,0.5057872397375145,0.3673341233233465,-0.6256436492156683,0.01484173564539515,-0.5372772781248255,0.5654050525861198
7.800000000000001,-12.528528112235334,-5.288178268553856,-11.432660096347396,-0.16997289015230385,0.1578709445451965,0.3037151403504786,-0.40156384408070506,0.4456375752653451,0.8000959823263025,-1.6652469767736404,-2.0897755622829797,4.139352032705601,0.83667009786324,1.3652682304382324,-1.5678517481409442,1.0,0.5040673235012268,0.5057982888578573,0.36734435487820877,-0.6256393386969166,0.0148480671615266,-0.537266157524981,0.565420223156896
7.9,-12.567772296088854,-5.513273575120001,-11.34393782288777,-0.17844817167835275,0.15839687543501116,0.30382367174219943,-0.40164762086450345,0.4457356494942158,0.799999312713211,-1.665268898010254,-2.089768244165883,4.139347553253174,0.8366690283322691,1.3652840989055808,-1.5678335233509477,1.0,0.5040643718131335,0.5057989702472947,0.36734178958015035,-0.6256366377883387,0.014843569591713065,-0.5372718864785289,0.5654178860793867
8.0,-12.600922979242881,-5.575611348562789,-11.523106464631493,-0.17750606764871177,0.16175451373231006,0.3048194249666798,-0.40155644865635953,0.4456022131500124,0.800119396245905,-1.6652423735440633,-2.0898026171947652,4.139355395399212,0.8367051921256143,1.3652903433621786,-1.5678471834222831,1.5291202100763241,0.5040719859455146,0.5057764786628239,0.3673511857923977,-0.6256228839647413,0.014862598923541633,-0.5372887129705126,0.5654166155388148
8.1,-12.631321107219854,-5.594975349453082,-11.423210653741434,-0.177611262527151,0.15716949462918642,0.3047544586805235,-0.4014430430605305,0.445454866376509,0.8002583490190365,-1.6652544636065965,-2.0897823772826136,4.139345435150128,0.8367003675025834,1.3652692894897553,-1.567890953570007,2.0,0.5040766009903795,0.50578628469726,0.36734630117006845,-0.6256268956525036,0.014855200630274956,-0.5372887633912313,0.5654123231624576
8.200000000000001,-12.233218507733758,-5.496623314151695,-11.577102190573216,-0.174454468065344,0.17244634451748533,0.310861381584142,-0.40135850974543064,0.44536792853890284,0.8003491050802385,-1.665221467053703,-2.089781964555334,4.139312520062736,0.8366924000788806,1.3652806282043457,-1.5678485875420092,2.0,0.5040792098956312,0.5057891875409662,0.3673507358622718,-0.6256309558503937,0.014857699357365313,-0.5372829985934137,0.5654132429241456
8.3,-12.556763287442983,-5.2908695320882835,-11.54557307706591,-0.17069567467759142,0.15119720987832877,0.30608474275026004,-0.4015366916078878,0.44556776987424923,0.8001484057125544,-1.665209415866346,-2.0897942982115687,4.139357504063873,0.8366904660875115,1.3653029767811578,-1.5678489843951624,2.0,0.5040791114111852,0.5057780409644713,0.3673437347035029,-0.6256346054043738,0.014854158556134693,-0.5372784272015144,0.5654136416447428
8.4,-12.513688948919993,-5.009416346514653,-11.52306593513005,-0.18892400108226523,0.15271252280369396,0.3086878047565132,-0.401714873470345,0.44576761120959557,0.7999477063448703,-1.6652550886730042,-2.089802093009509,4.139343427122159,0.8366810329048767,1.3652792166332093,-1.5678489843951624,2.0,0.5040804495455101,0.5057771834631829,0.3673364235351168,-0.6256336802501642,0.014850947722961897,-0.5372835994525911,0.5654098347638046
8.5,-12.585856941311528,-5.12465290198254,-11.490063997956364,-0.19380280091476218,0.1442291556853025,0.31034538283421426,-0.40197626491354416,0.4460491434073018,0.7996592895394994,-1.665223637789381,-2.0897942982115687,4.139357930870466,0.8366706007368907,1.3652910058216383,-1.5678489843951624,2.0,0.5040753692548785,0.5057826407779755,0.3673447728244562,-0.625631470541659,0.014865914874609787,-0.537277392846725,0.565417784278712
8.6,-12.784833356681116,-4.563296845921016,-11.601321567864245,-0.20877311136226862,0.1442526217898965,0.31112284697374243,-0.40226607948774595,0.4463585799648411,0.7993409097875499,-1.66524229175327,-2.08977363718051,4.139336097063934,0.8366920190998535,1.3653026593374986,-1.567861810686496,2.0,0.5040874098648896,0.5057781009404793,0.36734139833622476,-0.6256408349678737,0.014866816217230058,-0.5372792419748307,0.5654056415877156
8.700000000000001,-12.768345190885865,-3.8425844708184584,-11.143390445301561,-0.2517392764332219,0.15310023989252164,0.30512551472157906,-0.4027311020021306,0.44686589168494134,0.7988228762718195,-1.6652854226686247,-2.0897929617963094,4.1393351554870605,0.8366727275147487,1.365265399321629,-1.5678556130672696,2.0,0.5040840864629216,0.5057748871679176,0.3673478762146502,-0.625635665834632,0.014846709362150833,-0.5372885623409778,0.5654030329192953
8.8,-12.526799954709954,-3.77156366364841,-11.000524367874347,-0.28134554610724516,0.1640196887289657,0.3014254718733328,-0.4029972807001786,0.4471522706028895,0.7985283163766597,-1.6652323159731046,-2.0898058898971335,4.139299574349818,0.8366802798205207,1.3652453894802288,-1.567849642881943,2.0,0.5040719298272667,0.5057958053729508,0.3673401742208994,-0.6256395880749489,0.014834307868520023,-0.5372889852379482,0.5653986164516555
8.9,-12.4082060578764,-3.233571116385084,-10.783701914045263,-0.3194084884386058,0.17351930999422704,0.2881773149176237,-0.4023724196483569,0.44644472010396724,0.799238510427841,-1.6652247149879262,-2.0898263193294744,4.1393343833966405,0.8366448664989864,1.3652905875068728,-1.5678817776034883,2.0,0.5040919082953264,0.5057790620234522,0.36735179205121904,-0.6256389920065942,0.014869702925205761,-0.5372942961834595,0.5653932993099668
9.0,-11.894821693531918,-3.088469433398941,-10.575738313497277,-0.352059872316234,0.1865743687271065,0.28593075629099396,-0.4018942832411374,0.4458913699014412,0.7997886397558588,-1.665222394670287,-2.089818140069479,4.139301049913207,0.8366564533864099,1.3653016621015062,-1.56786020333393,2.0,0.5040903371408255,0.5057726120779257,0.36733589946847306,-0.625646311959553,0.014866708340311898,-0.5372871388416107,0.5653920796667826
9.1,-11.725862527499158,-2.5273194287562757,-10.39120866846067,-0.3876774188495592,0.19914321055234427,0.279271393255842,-0.40196553757034587,0.4459154020100069,0.7997394282139536,-1.6652441024780273,-2.0898056972222148,4.139300502494696,0.8366785774971225,1.365267729396656,-1.5678375853845161,2.0,0.5040874605082112,0.505781833532064,0.3673571804806917,-0.6256226863619929,0.014867743633508453,-0.5372941838954668,0.5654115001134626
9.200000000000001,-11.904184563032096,-2.272026596068074,-10.07747378538812,-0.40301094826766726,0.2033380440033952,0.27876919434489317,-0.4019884814831873,0.44591408417625156,0.7997286256624451,-1.6652565002441406,-2.089806566610278,4.139298915863037,0.8366677517216538,1.3652804544694686,-1.5678969642638685,2.0,0.5041064411157056,0.5057671074055979,0.36730881907915497,-0.6256670375907624,0.014868647291523793,-0.5372955311954559,0.5653611178331179
9.3,-12.036744608124248,-1.7055938825629573,-10.04449543028667,-0.40514313506706184,0.21111197995037,0.27100558721179874,-0.40181904656822687,0.44581181933033404,0.7998707730771176,-1.6652994524069316,-2.089830060998434,4.139357127204397,0.836701593051076,1.3652692029113311,-1.5678709561124984,2.0,0.504084487409955,0.5057847735644635,0.3673162301208654,-0.6256485389200653,0.014853523665392533,-0.5372736409039433,0.5654027886133297
9.4,-11.667470461303656,-2.0711880451397233,-9.833112547940848,-0.4455125754189068,0.22677948209653634,0.2690201712899769,-0.4022865625323502,0.44634164379401003,0.7993390497758454,-1.6652565002441406,-2.089824709663947,4.13932702145864,0.8366672235676269,1.3652593549869894,-1.5678424148006946,2.0,0.504113253304536,0.5057543090178738,0.3673312603549791,-0.6256496459568663,0.014870574517263254,-0.5372985531850624,0.5653774414254719
9.5,-11.624452814733198,-1.7516292005969138,-9.321296267582007,-0.47851025183867446,0.23097903583095913,0.2686267588380599,-0.4030372098940904,0.4471524386362832,0.7985077838192697,-1.665256645593548,-2.089806079381478,4.139353342383414,0.8366978082300938,1.3652627208260832,-1.5678489843951624,2.0,0.5041060792249296,0.505752522505201,0.36733867106284535,-0.6256376851392764,0.014876040612080223,-0.5373049910633586,0.5653844151793358
9.600000000000001,-11.68102793242608,-0.6719448684144131,-8.79709580470066,-0.49904185142024027,0.237789154939179,0.25979479858763593,-0.4028198567473909,0.4469104508350619,0.7987526668545865,-1.66523296921003,-2.0898063213851947,4.139322757720947,0.8366796213337402,1.3652920722961426,-1.567860594500318,2.0,0.5040900522252428,0.5057760296835029,0.36734460834207716,-0.6256283122105901,0.0148580596789109,-0.5372949566622595,0.5654047953178387
9.700000000000001,-11.723689522932418,-0.5087860447897217,-8.53210390077188,-0.5441960172545874,0.24820094722210478,0.25757455637043575,-0.4021547509537264,0.44618149405893465,0.7994953270661004,-1.6652315430522306,-2.0898311763324338,4.139355737137895,0.83665577947583,1.3652795128703459,-1.567824665700094,2.0,0.5040938435621023,0.5057748738368532,0.36734755829506377,-0.6256245087558822,0.014870687097747788,-0.5372966959405847,0.5654070190937965
9.8,-11.851251775751859,-0.2689754908723817,-8.181928697190841,-0.5782425361234411,0.25486213371738625,0.2560106433586662,-0.4018850037294909,0.44586496590931896,0.7998080146732828,-1.6652214700587948,-2.08984164716754,4.1393351554870605,0.8366804170170808,1.3652802144490086,-1.5678370634662073,2.0,0.5041124938128828,0.5057496703802321,0.3673511904445273,-0.6256211611582569,0.014881145571412995,-0.537309442776426,0.5653983347346924
9.9,-11.552939449181329,-0.4748141213862414,-7.9768558855569145,-0.5821030055656806,0.23590539678168312,0.257094952819223,-0.40188407873922016,0.44584170062947687,0.7998213822352757,-1.6652341974607818,-2.0898295547239103,4.1393351554870605,0.8366687626421783,1.3652687569637367,-1.5678494906696858,2.0,0.5041079564514926,0.5057566310299152,0.3673431975791859,-0.6256296068615805,0.014876242187958636,-0.537307428151544,0.5653910329053362
10.0,-11.736496629935875,-0.5198053127756868,-8.266551114783594,-0.5907563833502002,0.2348204293676485,0.25861833636812925,-0.4022830512384551,0.44630656097696497,0.7993613453173175,-1.6652437739629673,-2.089830416889749,4.139299956160728,0.8367024228939599,1.365293112593833,-1.56786056312093,2.0,0.5041083644152521,0.5057705557139122,0.36732418012601514,-0.6256403206537791,0.01487833255577957,-0.5372932465118364,0.5653925995672098
10.100000000000001,-11.813454135065953,-0.12468361456040047,-8.072996158293424,-0.5801134883385289,0.22898308218100624,0.2545040773358659,-0.402360054021174,0.4464181316144309,0.7992604180111751,-1.6652453992455731,-2.089820035345123,4.139334507103287,0.8367149072834472,1.3652694773301033,-1.5678609053241175,2.0,0.5041040250639758,0.5057764554858521,0.36732624800147284,-0.6256476871817384,0.014870952134752077,-0.5372900602734708,0.5653876700442606
10.200000000000001,-11.774350268275507,-0.294303742717682,-8.315255242579052,-0.5790622144590668,0.22639585490680125,0.2565801275735318,-0.4022602317820314,0.4463356763622136,0.7993567128712881,-1.6652482199417917,-2.089830060998434,4.1393351554870605,0.8366683655354004,1.3652920722961426,-1.5678681865773298,2.0,0.504084575931015,0.5057773711047882,0.36734405248158963,-0.6256252105718969,0.014864183023160558,-0.5372916616775242,0.5654111974941138
10.3,-11.683638413656215,-0.4893248499191163,-8.207028131421632,-0.5786760938330242,0.22381121196575426,0.26045735819031857,-0.40192636087311906,0.44597960528478275,0.7997229119297941,-1.6652540087478174,-2.089808710636847,4.139333859908972,0.8366607624684764,1.3652806282043457,-1.5678464430689127,2.0,0.5040879313548139,0.50577637390957,0.36732837249389316,-0.6256473751130177,0.014857538078558627,-0.5372817042149752,0.5653963087006199
10.4,-11.724728790356892,-0.8818032141011873,-8.171298147216191,-0.5859485309010873,0.2268503170311682,0.25821964456640173,-0.40145953429805803,0.4454681016883554,0.8002424350491842,-1.6652338566050977,-2.089849337189103,4.139312511848018,0.8367034631916503,1.3652604808546092,-1.5678489843951624,2.0,0.5040846442954153,0.505790070066705,0.36732601713923735,-0.6256388989294872,0.014868442075328128,-0.537276529857412,0.5654103183007266
10.5,-11.750544557631839,-0.6609763611614821,-8.244928523336117,-0.5779686877575472,0.22859375789569386,0.25581702108335524,-0.40113927654915155,0.44511090399665526,0.8006019337811751,-1.6652470964468915,-2.089860485413702,4.1393351554870605,0.8366586582920457,1.3652806282043457,-1.5678550901153618,2.0,0.5040914527242739,0.505788731248673,0.36733795525337887,-0.6256320956552625,0.014857686249275878,-0.5372903011252679,0.5654050427455006
10.600000000000001,-11.80648683138135,-0.6216045479592223,-8.299727276344731,-0.5750819687077877,0.2288388116975097,0.2566325143936315,-0.400953035776899,0.4448963173048422,0.8008145360492703,-1.665247064348768,-2.089809067093159,4.1393351554870605,0.8366991343036448,1.3653130662014175,-1.56785040837148,2.0,0.504095741040515,0.5057803500353946,0.3673443426754369,-0.6256394733078802,0.014856358327302976,-0.5372861971583778,0.5654008139358997
10.700000000000001,-11.67619811167015,-0.671377777062863,-8.301652276555826,-0.5741215058528668,0.2270508111538782,0.2615880258802333,-0.40110523017918714,0.445051778259719,0.8006519259251613,-1.6652363675890836,-2.089786086485467,4.1393456244676905,0.8367149072834472,1.3652756488439388,-1.5678552673357806,2.0,0.5040900051423015,0.5057927503547212,0.36731914182034986,-0.6256453649013911,0.014848709691806513,-0.5372879404328468,0.5653928388857816
10.8,-11.584926817773413,-0.8138888146387645,-8.189864245759297,-0.5763338819335323,0.22225896669193276,0.262009499276994,-0.40116869158636564,0.44513432490116367,0.8005742352566566,-1.665209787802136,-2.089840533816415,4.139313090504349,0.8367057267615868,1.3652843300276765,-1.5678220733659325,2.0,0.5040882331179098,0.5057871177706224,0.3673139446470906,-0.6256510844285403,0.014864474851143514,-0.5372798375896646,0.5653937955623629
10.9,-11.87757812964113,-0.6425074806652848,-8.323957803014109,-0.5698246465553116,0.22873613323057723,0.2641058150030216,-0.4010862908586514,0.4450561733913823,0.8006589363664103,-1.6652441024780273,-2.0898081723739166,4.139319126562722,0.836673161397141,1.3652864097751882,-1.567868919786287,2.0,0.5040825958357695,0.5057960812748568,0.36731636736366874,-0.6256456220953062,0.014862167147720958,-0.5372771133491847,0.5654024893930147
11.0,-11.8921635855781,-0.5019161243393953,-8.530026740629522,-0.5655008415130246,0.23249708795253518,0.2616359391157909,-0.40098998985362694,0.4449588288506105,0.8007612024710928,-1.6652518066768394,-2.089820674345404,4.139344917606212,0.8367010302867623,1.3653044700622559,-1.567824665700094,2.0,0.504078354945634,0.5057944588462521,0.3673376356044308,-0.6256308372916435,0.014854355245958299,-0.5372861696622523,0.5654104486562388
11.100000000000001,-11.912675403113745,-0.9090529669554717,-8.28238338009392,-0.5746192455038356,0.23126507845957245,0.2629846702048365,-0.4016495845547557,0.4456577193107946,0.8000415977415614,-1.6652484183013794,-2.08981036897067,4.1393548475148245,0.8366693814793029,1.3653023121505798,-1.5678349055545313,2.0,0.5040859758113062,0.5057855605928645,0.3673337175027167,-0.6256402979427833,0.014862474060070987,-0.537285998996871,0.5653999290208775
11.200000000000001,-11.823792938873945,-0.8831009751011064,-8.442469819148785,-0.5728045963858026,0.22811732450257174,0.266048591893913,-0.40083654229462334,0.44477860381171,0.8009375877386231,-1.6652633707894697,-2.089813089685853,4.13935414897669,0.8367204345042314,1.3653021730633945,-1.5678351058935975,2.0,0.504076028470433,0.5057928276802018,0.3673466488603942,-0.6256237569315863,0.01485737456301825,-0.5372906448310568,0.5654139511551945
11.3,-11.671298571399495,-0.7373713348751119,-8.521065112237437,-0.5714398369799516,0.22550895658118006,0.26701221486695786,-0.40054077527820214,0.44445631129822655,0.8012650363759956,-1.665260766822806,-2.0898247115330078,4.139344771531152,0.8366753547550746,1.3653044700622559,-1.5678450876643466,2.0,0.5040861464496041,0.5057841675657052,0.36733714798220973,-0.6256351889689722,0.014865193218157295,-0.5372831650925399,0.5654082037453012
11.4,-11.683618276855352,-0.7546969123068311,-8.478348372507474,-0.5703769875980538,0.22850596501751325,0.26395542787617715,-0.4006303237499555,0.4445487478382582,0.8011689922890215,-1.665235226926627,-2.089818140069479,4.139361565885367,0.8367034631916503,1.3652752770785197,-1.5678235540453076,2.0,0.5040882380599315,0.505784363029644,0.36735050574042694,-0.6256229216617721,0.014871060218863431,-0.5372901129691556,0.5654150209933828
11.5,-11.656903921087746,-0.9653615431661916,-8.419548253897526,-0.5812935441474348,0.23208212451849783,0.26014834572295664,-0.4006058842676113,0.4445177685778929,0.8011984001949772,-1.6652351738419495,-2.089818140069479,4.1393192792389275,0.8366768962567113,1.3652806282043457,-1.5678635255904916,2.0,0.5040870815487122,0.5057922062846056,0.36732342197121287,-0.6256505034492301,0.01485215342048012,-0.5372751855622229,0.5653991829243994
11.600000000000001,-11.639428912204266,-0.755890516273604,-8.443522462886433,-0.5870105686001107,0.23687489211493568,0.25956748704375665,-0.4005896083757429,0.44449749480357575,0.8012177837975173,-1.6652763919491376,-2.0898228427007006,4.139339434819383,0.8366952337064144,1.3652806282043457,-1.5678572138803983,2.0,0.5040854433241443,0.5057898149078028,0.3673413961060461,-0.6256310146844635,0.014844471919304401,-0.5372936868481991,0.5654033685709657
11.700000000000001,-11.596195543971756,-0.8386015293675019,-8.42723389834956,-0.5864266361961811,0.23575828191954468,0.2610403683511207,-0.4007228404236129,0.4446732812269976,0.8010535823763579,-1.6652623170763095,-2.0898237331773335,4.139338445954033,0.8366829118007124,1.3652806282043457,-1.5678617665937853,2.0,0.5040838314505485,0.5057775780506985,0.367337543964798,-0.6256349444470383,0.014857952184221125,-0.5372953385753759,0.5653970964630212
11.8,-11.553766037691233,-0.7347778840096217,-8.654919993502498,-0.5834487587718831,0.23236180402667564,0.26351614393700235,-0.40074500429845483,0.44469965671036166,0.8010278676553855,-1.6652308733147734,-2.0898267537076203,4.139331715904614,0.8366968486100234,1.3652854577145155,-1.5678380271549806,2.0,0.5040715354294241,0.5057858843051415,0.36736435709804127,-0.6256206655804936,0.014857794323951175,-0.5372835362088921,0.5654241155675228
11.9,-11.71801579137173,-0.8934482604558472,-8.567380882446026,-0.5867851637545104,0.23491041889741363,0.2641774024917161,-0.4006830849929575,0.4446114998344513,0.8011077773126463,-1.6652388350363188,-2.08982697267339,4.139353482837259,0.8366972865415621,1.3652744070883207,-1.5678489843951624,2.0,0.5040824216416885,0.5057898463764879,0.3673435843623499,-0.6256369141172878,0.014842874063968043,-0.537287286962776,0.5654029643108519
12.0,-11.744585669246458,-0.7693963514865789,-8.502775144610778,-0.5822130505244384,0.23776415257817465,0.25852202343291125,-0.40087382118592224,0.4448238416828125,0.8008943757880977,-1.665242379266511,-2.0898117447535047,4.139350623004841,0.8367034631916503,1.3652759560998882,-1.567882547133353,2.551703591224601,0.5040801180939787,0.5057952200363327,0.3673446583564431,-0.625625111939393,0.01484350458514596,-0.5372948784242318,0.5654087930882779
12.100000000000001,-12.140795486463135,-0.7621925005373354,-8.28615654217547,-0.5788390152442682,0.2362506137879944,0.2613778379281664,-0.40105038477857646,0.4450204581841552,0.8006967938544981,-1.6656149245628238,-2.089621708889996,4.139367841979944,0.8369173066738596,1.3652597259815276,-1.5678574888518673,3.0,0.5040713233270367,0.5057832067576875,0.3673420101979295,-0.6256259959217643,0.01485236517961992,-0.5372896341023323,0.5654125657974478
12.200000000000001,-11.886226426539183,-1.0678384062970858,-7.892216674877299,-0.5538074071627496,0.22758584521622327,0.2688514929918173,-0.4006674682060366,0.44459629800691136,0.80112370899014,-1.667180895084335,-2.088801269700125,4.139511480158375,0.8376180368610839,1.365151345369316,-1.5678728262530726,3.0,0.5040276338154742,0.5057437943157677,0.3673224654855268,-0.625642635232556,0.014851461359108434,-0.5372665230713851,0.5654161390175793
12.3,-12.054637890893042,-1.2575174331181114,-7.858461943676247,-0.5402883281566815,0.23005370017651397,0.2859982173156468,-0.40027165029817835,0.444158038387762,0.8015647403558329,-1.6687334751686196,-2.087951444228252,4.139695644378662,0.838585569246383,1.3649629245624084,-1.5679376974364574,3.0,0.5038253093139421,0.5054887569622054,0.3672882656456411,-0.6256375365468221,0.014861694549423694,-0.5372835087557494,0.5654053714971714
12.4,-11.764045327303586,-1.405303099505595,-7.771993219411142,-0.5175043604826618,0.2400170628775446,0.2900830460413162,-0.3988922304231591,0.4426448327686976,0.8030819976550868,-1.6704581220576973,-2.087118015897769,4.13993501663208,0.8395070133197479,1.3646964401137347,-1.5680049101458948,3.0,0.5033216061570832,0.5049701983264167,0.36724738775078114,-0.6255336768083174,0.014881352091018585,-0.5373132756230095,0.5654914750709182
12.5,-12.10236259690891,-1.1581657224367825,-7.935781249858399,-0.515091322405955,0.2501499845277867,0.30171302513489306,-0.39751281054813975,0.4411316271496331,0.8045992549543406,-1.6723893361302542,-2.086420351316979,4.140127658843994,0.8403168632532875,1.364483272450138,-1.5680014882600952,3.0,0.5031209902272509,0.5047492893741529,0.36722085281231054,-0.6255013107528574,0.014905706963993551,-0.5373533364909424,0.5654885692110962
12.600000000000001,-12.358899917621132,-0.8513917675672484,-7.823896646594324,-0.57730081870645,0.18996802376756858,0.3298357141228746,-0.39529778222809675,0.4386998898895175,0.807000995980753,-1.6739106713380867,-2.0856734648640534,4.140306040449405,0.8411833260388468,1.3642728073031996,-1.5680914617784205,3.0,0.5027275985441593,0.5044157309285161,0.3669139168813797,-0.6256453628513965,0.014857180353951761,-0.5372678710412325,0.565411689728198
12.700000000000001,-12.244799396595866,-1.1087341954399224,-7.887162844444292,-0.5670560056060415,0.19815841883433935,0.34561501391799765,-0.39225852053105864,0.43536212488292675,0.8102751803311585,-1.675459642307276,-2.0848804912962855,4.14055871963501,0.842169924373291,1.3640870771884865,-1.5681038901034916,3.0,0.5023272547251105,0.5039993506541426,0.3667634510955645,-0.6256374381318256,0.014864259295868935,-0.5372873096827346,0.5654018010736437
12.8,-12.23637848954367,-0.9904066853746196,-7.80711967964604,-0.5939607446591482,0.18630189081229898,0.3626319727119343,-0.3892192588340205,0.432024359876336,0.813549364681564,-1.6773696781915788,-2.0840433093574418,4.140814977220166,0.8430114167370112,1.3638863041442317,-1.5681423762317421,3.0,0.5020676369151766,0.5037851810511057,0.36666874998666693,-0.6256301300933524,0.014839379558027783,-0.537280951266026,0.5654165831848069
12.9,-12.782767809191794,-0.29543119709541876,-7.8062322835952624,-0.5973638496771474,0.17147297292310792,0.3835321935879053,-0.38371849989313395,0.4259526705662112,0.8192818704324897,-1.6790532457773246,-2.0832220212589223,4.141016806406437,0.8438993840769045,1.3636699330862008,-1.5682142720594785,3.0,0.5016120353386994,0.503324849563309,0.36647836261851363,-0.6256888115134553,0.014856828510396372,-0.5372592427485022,0.5653718173687107
13.0,-12.40411297810163,-0.935560936798267,-7.786097685612331,-0.5799192299807446,0.1828277596106139,0.39720420914540644,-0.3781937243561915,0.4198543066149471,0.8250383617930678,-1.6806546797521615,-2.0823583680764752,4.141210878872106,0.8447141743680561,1.363444136042428,-1.5682553261946548,3.0,0.5013763270141864,0.5030956897396139,0.36638566114172194,-0.6257034022887699,0.014849290813876963,-0.5372444063709383,0.5653699662607847
13.100000000000001,-12.297195514271225,-1.5729197399174777,-7.6258790732970105,-0.5665594577487629,0.1931735414858345,0.4051384207587825,-0.3790192372633051,0.42079698018083356,0.8241791747102503,-1.6823315473003901,-2.081457330274698,4.141426809052442,0.8456895846113386,1.3632429778539934,-1.5683030585431221,3.0,0.5010231064626269,0.5027647906585203,0.3663703787553787,-0.625641523118833,0.01486081424763949,-0.5372743728953628,0.5654096647381776
13.200000000000001,-12.036130557109372,-1.8240139688109918,-7.747240662336974,-0.5475317959146173,0.21047099490995388,0.42100673027906677,-0.37995972611657475,0.42186713613710064,0.8232002066292633,-1.6840250197384485,-2.0807442847831656,4.141613483428955,0.8465188002589696,1.363051718556052,-1.5683687715150438,3.0,0.5005299355205624,0.5022739708180841,0.3663034599632791,-0.6255911620439838,0.014868512390827891,-0.5372841907750056,0.5654558547357955
13.3,-11.862966800651549,-1.7289578364203373,-7.72429683130334,-0.5331892480371219,0.21639008843876323,0.4289837219652646,-0.3805999823072943,0.42255790395771115,0.8225499563120615,-1.6857009059708394,-2.0799902120204194,4.141841084803343,0.8473496430292351,1.3628449440002441,-1.5684080009381929,3.0,0.5003023907354345,0.5020498409309068,0.36620234235907895,-0.6256094646990227,0.01485713901683151,-0.5372803108568154,0.5654395906415122
13.4,-11.511883701264088,-1.531953156959565,-7.571979501165182,-0.534750270940198,0.23934626268011225,0.4395336126969704,-0.3805070586472955,0.4223903727201979,0.8226789845643745,-1.6874327167702,-2.0791906565012734,4.141991808302031,0.8482420037494524,1.3626549839915496,-1.5684378782855433,3.0,0.5000211858199962,0.501734175895864,0.3660643550179499,-0.6256418468639736,0.014869141161883778,-0.5372784228878038,0.5654052390922272
13.5,-11.565313800052401,-1.5436438611990262,-7.551762694323655,-0.5322864562991666,0.2558909153181961,0.43346607738141824,-0.3801050438457368,0.42193037174838693,0.82310030624347,-1.689018404317408,-2.078348299066061,4.142248830922109,0.8491827118086966,1.3625032279973293,-1.5685159793802748,3.0,0.4995119313441537,0.5012260098067042,0.3658444172362464,-0.6256859440095661,0.01483752430565504,-0.5372661394621163,0.5653689439019542
13.600000000000001,-11.266896144050245,-2.1407692942170953,-7.6858687445540745,-0.5189462588437881,0.2716422842195328,0.4320591297913877,-0.37937168225980433,0.421163212316478,0.8238316354010774,-1.6907303628423458,-2.077539240374929,4.14242738542981,0.8499983085845527,1.362322420031697,-1.568521801625387,3.0,0.49927913788277734,0.5009956348023737,0.36581594665969075,-0.6256445403315175,0.014851447656692291,-0.5372730246548336,0.5654078533537641
13.700000000000001,-11.253956298316792,-1.9247554732649017,-7.662266733145216,-0.4982696673730483,0.28619103463756607,0.4275318730785619,-0.37912761645269993,0.42088058162226677,0.8240883523924346,-1.692475266137858,-2.076723029837846,4.142638347837376,0.85087697088208,1.362124714891587,-1.5685815724143766,3.0,0.4988580197633575,0.5005642501380037,0.36568414784452,-0.6256433890170496,0.014835833799557335,-0.5372755687386694,0.5654071197387526
13.8,-10.89410050741857,-1.5874516988437803,-7.790488727904945,-0.5340059886091646,0.30750205844045997,0.41826014655969823,-0.37890716121509893,0.4206213314678697,0.8243221673600606,-1.694024038026216,-2.0759388409056605,4.142811858197066,0.8516923624226074,1.3619085937678292,-1.5686459132466561,3.0,0.4985873061189251,0.500287115252428,0.3656052130861512,-0.6256450335599663,0.014829599324704587,-0.5372841162097277,0.5653973411985144
13.9,-10.224644841485999,-1.47956251565378,-7.883862282010853,-0.533507123743734,0.33944614675579,0.4188779167912503,-0.37831637137665325,0.419923253671928,0.8249491422111513,-1.695579119775227,-2.075099607507223,4.143004984753756,0.8526572990075001,1.3616861844572283,-1.568690942241821,3.0,0.4982159528109398,0.4998707368331819,0.3654802026867498,-0.6256390375538388,0.014856508958237043,-0.5372965615822899,0.5653914429332378
14.0,-10.346155291278384,-1.6132217620005163,-8.0532516214273,-0.5359159767103743,0.3486331715166759,0.41809434400047224,-0.3762046073462434,0.4176373081080817,0.8270630436330659,-1.6974256994803705,-2.07427099237945,4.143275502614535,0.8535085101084442,1.3615022214066848,-1.5687291721418393,3.0,0.4979514197698232,0.499619845083154,0.3654481619903639,-0.6255929243431101,0.014854130090956794,-0.5373087405805643,0.5654309552251312
14.100000000000001,-10.865394763941545,-1.0267703030305504,-8.313178832888973,-0.5930084727726609,0.296140937945684,0.4157587428718303,-0.3739676939428066,0.4152210348905292,0.8292990986774578,-1.6991147994995117,-2.0734695785037442,4.143459282007734,0.8543083093416103,1.361285247716388,-1.5687622890892357,3.0,0.4975604915095951,0.49925431835805895,0.3653265364716885,-0.6256024513125089,0.014855582314878045,-0.5372876861679159,0.5654403831335303
14.200000000000001,-11.59378289852921,-0.8384258476732851,-8.256578128679758,-0.6062427490600597,0.2502881947428489,0.420680253911662,-0.3703326427377755,0.411226585406945,0.8328749675360014,-1.7006263190101236,-2.0726470853911447,4.143685165129463,0.8551630843452825,1.3610811233520508,-1.5688058460290397,3.0,0.4971439589675769,0.49881836501853394,0.3651530110345518,-0.6256604239586624,0.014854252113960856,-0.5372744287033409,0.565388869140082
14.3,-11.921488804179923,-0.9453666570010784,-8.11184390620646,-0.5961896240321343,0.23367793739427206,0.41505034696250165,-0.36656375392295454,0.40708106401969596,0.8365790909043974,-1.702406883239746,-2.071840394819359,4.143933996103578,0.8561483518275568,1.3608518492289596,-1.5688717155495036,3.0,0.4969396247825545,0.49866837304702866,0.3651347788893522,-0.6256350162547928,0.014840467181121112,-0.5372628732760081,0.5654283261112052
14.4,-11.772586869736584,-1.1207012141358297,-7.968111597201641,-0.574177665474638,0.24627408632093278,0.40825266383809294,-0.3638718847926921,0.40410180199884393,0.8392246524942724,-1.704130103686068,-2.0710674310040904,4.144110175239249,0.8569761880010013,1.360644775858928,-1.5689166297640342,3.0,0.4965651463081549,0.49829129682570283,0.3649852196114121,-0.6256419221874956,0.014848694303633194,-0.5372725855379982,0.5654112399911482
14.5,-11.740031079274814,-1.5280156069911213,-7.888511142273227,-0.5748974522339828,0.2272422557290093,0.4086081936519223,-0.3631139078295883,0.40323382146565534,0.8399706512502567,-1.705611241218108,-2.070358409505591,4.144310474395752,0.8578118693335354,1.3604332921434112,-1.5689352133039307,3.0,0.4960505427208722,0.4977553974162449,0.36478472372718707,-0.6256583372531174,0.014857939648823528,-0.5372674294325259,0.5653977325087381
14.600000000000001,-12.022502129580367,-0.979469994041319,-7.494426385278612,-0.5671649678885664,0.23805761403780837,0.40008674140387684,-0.36288119609448277,0.4029608762177366,0.8402022023924626,-1.7072688290571931,-2.0695998181077027,4.144509691561492,0.8586409476443512,1.3602201669795033,-1.569043436284864,3.0,0.4957932162445164,0.49749752576205997,0.36471936277595524,-0.625636531254726,0.014849570038214053,-0.5372856481948274,0.5654047694113473
14.700000000000001,-11.376936334525753,-1.4327195996888629,-7.729409952385156,-0.546526393820291,0.2618213254592754,0.39769437079967934,-0.3624135852268959,0.40239672236160734,0.8406740131776133,-1.7091430424477851,-2.068620438454114,4.144699404510694,0.859583440726774,1.3599949328779648,-1.5690744558917444,3.0,0.4956572227878462,0.49733993004558463,0.3646500514727799,-0.6256587663220644,0.014861341106112999,-0.537284310929702,0.565381126226969
14.8,-11.307662512509461,-1.482326090899422,-7.820877027409,-0.5336504503258246,0.2687356660849079,0.409275155592929,-0.36192600097548183,0.4018362073183746,0.8411520827961604,-1.7106986255798742,-2.0677561695310094,4.144876294745152,0.8604232507893066,1.3597994725718179,-1.569122616444723,3.0,0.4950472574567974,0.49667085580642156,0.3644729091854441,-0.6256554418611354,0.014880451251475307,-0.5372921931244846,0.565376811911827
14.9,-11.400124035849075,-1.9912977629474709,-7.898184270723619,-0.5182715805343219,0.26840904737366317,0.4051793891681019,-0.3614549586213285,0.40134276024348764,0.8415900014253732,-1.7122820228021456,-2.0668725302209343,4.145146682214798,0.8611967561651628,1.3595840914507584,-1.5691826979266565,3.0,0.4947093320091042,0.49636095091202287,0.3644810308186504,-0.6255923488952807,0.014883894370565203,-0.5373129797456414,0.5654267808380774
15.0,-11.27438993410147,-2.423343038970199,-7.9564953894741,-0.4950745140153532,0.2824619946966205,0.4081747395491992,-0.3610183929745082,0.40088219778676776,0.8419968898397285,-1.714036432560811,-2.0662274081501337,4.145400760141099,0.8621318211661537,1.3593808892374601,-1.56921893755068,3.0,0.4944261902903463,0.4961039768417634,0.36441414598453575,-0.6255920771322141,0.014879924039602465,-0.5373098020812057,0.5654302056641769
15.100000000000001,-11.15456165221953,-2.298233327704603,-7.845807033406394,-0.5020656706494395,0.2833677779917001,0.4035149916218904,-0.36064062482099213,0.40047771763216006,0.8423508585006778,-1.7156629923141002,-2.0656315288939417,4.14559599129796,0.8631976627939683,1.359174732127166,-1.5692549819847026,3.0,0.4940300678260253,0.49572911118032437,0.36419037566988743,-0.6256451300001329,0.014869595405932851,-0.5372830410468398,0.5653972057262402
15.200000000000001,-10.970859698018373,-2.0681019451746554,-8.218731774771696,-0.5125744209430866,0.2875285707008581,0.40650931738880436,-0.360262856667476,0.40007323747755236,0.8427048271616272,-1.715591747179596,-2.065610548058981,4.145588985491272,0.8631622034260253,1.3591342448184969,-1.5692993647726494,3.0,0.4938379076849429,0.49555504188309524,0.3640778358918248,-0.6256475452567004,0.014853098776390562,-0.5372811293618721,0.565396783332409
15.3,-11.189086011478627,-2.3355788096088284,-8.154624533628333,-0.5101832758220766,0.2756498163458995,0.40400313609927063,-0.36000565360048686,0.3997914439623155,0.8429488273634037,-1.7156384480392917,-2.0656152445971316,4.145642729777004,0.863159370041844,1.3591438500063662,-1.5693194783576296,3.0,0.4936774752904893,0.49542152945708834,0.36397709679568274,-0.6256502650547172,0.014839928371543474,-0.5372775385771176,0.5653975317450575
15.4,-11.139691573447598,-2.32295956052414,-8.06025741086046,-0.5112165532204994,0.2745092960957261,0.4020593788547321,-0.35996141178132945,0.39972635911925974,0.842998583767393,-1.7156616323476817,-2.0655743084349574,4.1456170082092285,0.8631692493620351,1.3591465987040334,-1.5692739607831772,3.0,0.4936891170885341,0.49540291371124456,0.36401091229930616,-0.6256304920814714,0.014856029136633088,-0.5373044731680406,0.565393393036921
15.5,-11.139710893268512,-2.1671724380694157,-8.062810745980991,-0.5079560008201772,0.2709458605076407,0.40341102797502326,-0.3599087099488078,0.3996585582481811,0.8430532288304359,-1.7156973653400318,-2.0655583338350505,4.145612717785019,0.8631613243581281,1.3591508085985817,-1.5692942767114615,3.0,0.4936686147889486,0.49538962632203504,0.3640236215673543,-0.625626759529311,0.01485798256116691,-0.5372913791795971,0.565409914994734
15.600000000000001,-11.185940068347392,-2.263168120429879,-8.141196198004158,-0.5121923454887947,0.2774058368677469,0.4047440344755938,-0.35984059722039846,0.3995858098169407,0.8431167791531349,-1.7157049179077148,-2.065536720381402,4.145613106894383,0.8631722990882901,1.3591513633728027,-1.5692925633150137,3.0,0.4936549873918561,0.49538651426287533,0.36403122518486664,-0.6256229599174955,0.014845559500237006,-0.5372889880876569,0.5654167177108745
15.700000000000001,-11.163876798012106,-2.1883550619680303,-8.114718179022766,-0.5113432005621504,0.27360640943462755,0.4034598325102829,-0.3597724844919892,0.3995130613857003,0.8431803294758338,-1.715710075241804,-2.0655408400093327,4.145635275640319,0.8631786533330338,1.3591701994155014,-1.5692475926924474,3.0,0.4936624846292695,0.4953805492623806,0.36400821017246615,-0.6256332888593288,0.01486550224166715,-0.5372928469720296,0.5654010977234247
15.8,-11.384206981875952,-1.9281728539718666,-8.039779253529773,-0.5063309024092317,0.28031534271094105,0.3969959408515449,-0.3597309112177513,0.39943556722112017,0.8432347795253671,-1.7157102538415385,-2.0655623875060023,4.145614776130681,0.8631687679877906,1.3591376872024583,-1.5692683765078896,3.0,0.49364222867773105,0.49540051907819943,0.3640127491574917,-0.625636416057783,0.014838834802123047,-0.5372783320565745,0.5654121309156652
15.9,-11.410777356428717,-2.0610360566621075,-8.051963565532356,-0.5075682521634459,0.2810598639197981,0.4023627976256793,-0.3597034813501474,0.39940432568862055,0.8432612811641942,-1.7156969591513769,-2.065550466577047,4.145624966965566,0.8631656887614843,1.3591500025023096,-1.5692978694622608,3.0,0.49366680886106873,0.4953773874876214,0.3640180020791272,-0.6256325565701766,0.014858967282340284,-0.5373003858175005,0.5653949156573059
16.0,-11.35434250771792,-1.9934704637454579,-8.097527192225522,-0.5058960557248934,0.2839597972794413,0.3980320668703477,-0.35969427689642014,0.39946652339406225,0.8432357456706273,-1.7156810760498047,-2.0655498426908903,4.145652898457004,0.8631736475178222,1.3591513633728027,-1.569313209626363,3.0,0.49364850782560327,0.4953996272290858,0.36400682793444783,-0.6256354997535155,0.014844005051856523,-0.5372824177563477,0.5654091266791534
16.1,-11.291004132646725,-2.048125238715311,-8.160249240054116,-0.5099791543803879,0.2816160646241905,0.3963614400914041,-0.35944753910116234,0.39920951400582305,0.8434624852162994,-1.7157102990560227,-2.0655317989002024,4.145634929179,0.8631833547097816,1.3591486727986488,-1.5692827018528126,3.518697932515043,0.4936466309970103,0.49539493210151586,0.3640184744264982,-0.6256405511732835,0.01485511575073847,-0.5372720044174729,0.5654131405732032
16.2,-11.202397086503892,-1.7239615874818042,-8.211455907177204,-0.5031553830528205,0.27586254309932845,0.3947283564625224,-0.359150270860119,0.3988845997220536,0.8437428912077476,-1.7156885624464664,-2.065550736629376,4.145644246053429,0.8631944040794851,1.3591590791840793,-1.5692824258209974,4.0,0.4936452752103465,0.4953920607576844,0.3640278850539185,-0.6256313390382539,0.014854627479308422,-0.5372791981333871,0.5654165109976863
16.3,-11.310723799790125,-1.8800060842091924,-8.254570803302016,-0.508046675535301,0.279195541893583,0.3990913691281802,-0.3594190667818169,0.39917325708519663,0.8434917738581793,-1.7156937068794385,-2.0655497566763685,4.14563451509925,0.8631846254825779,1.3591401523445263,-1.5693040564713159,4.0,0.4936462110950092,0.49539447125877045,0.36403443471746294,-0.6256278080240365,0.014847297295819399,-0.5372798985691294,0.5654199449821298
16.400000000000002,-11.292774028384475,-2.0191796702740215,-8.284666031638105,-0.5087031195031575,0.283004965999196,0.395362821497815,-0.35976216715677983,0.3995417502792172,0.8431711103698405,-1.7157138042421582,-2.065518700286047,4.145631223204825,0.8631736475178222,1.3591376867280127,-1.5692904631244105,4.0,0.49365223583699214,0.49538004142712666,0.3640317066558504,-0.625627745362697,0.014856148523039271,-0.5372857653172871,0.5654142069941887
16.5,-11.386063561114888,-1.9524462183498814,-8.081236297380997,-0.506534084003854,0.282636606205356,0.40119444771657226,-0.3599790674917953,0.39977184031156593,0.8429694592934546,-1.7157029849812049,-2.065535605381286,4.145623696718382,0.8631425597749959,1.3591612708366434,-1.569276528730341,4.0,0.4936467000612893,0.4953762720071894,0.36403108099448056,-0.6256279589654961,0.014855197737797924,-0.5372899486436707,0.5654100203810687
16.6,-11.416562086792537,-2.158989044817428,-8.204390088819249,-0.5135137578445319,0.2829047052335472,0.3970475473431674,-0.35982777956468825,0.39960212305444476,0.8431144227778395,-1.7157349325026123,-2.065517746873549,4.145643248331583,0.8631831199014309,1.3591542364631686,-1.5693146118264776,4.0,0.49364879994844235,0.49538719903468725,0.36402207407860454,-0.6256271888699126,0.014856511508377274,-0.5372768526378574,0.5654232823576426
16.7,-11.11988479871111,-2.4802776840560803,-8.1604150300538,-0.5194896692624328,0.28160964420119217,0.39455255190031374,-0.35958232681992947,0.39933015435592323,0.84334803356652,-1.7157023526995536,-2.06553246608995,4.145625648443035,0.8631434829194442,1.3591389656066895,-1.569293982006888,4.0,0.4936507179121316,0.4953860173693953,0.36402589265561874,-0.6256314939296863,0.014841501929584989,-0.5372890184876266,0.5654073524781809
16.8,-11.26514618460778,-2.220560054471088,-8.285407272693543,-0.5141457324849933,0.27936450715623096,0.3969356878076255,-0.3597939823355064,0.3995664605991833,0.8431457357739534,-1.715697176135231,-2.0655466099944295,4.145639896392822,0.8631699165912609,1.3591473811341286,-1.5692866065417928,4.0,0.49365899191161416,0.49538196001573975,0.3640259587596425,-0.6256268765696663,0.014843974394413645,-0.5372935049713529,0.5654081333456926
16.900000000000002,-11.157229825403325,-2.038285712754899,-8.22452527415715,-0.5082467270669466,0.2756414342353746,0.40240697774719575,-0.3599714069604428,0.3997642976804506,0.8429762799886771,-1.7157230681392701,-2.065507154769563,4.14563779787682,0.8631419546784687,1.3591628074645996,-1.5692590722458817,4.0,0.4936563913748697,0.4953894655333778,0.364026939541849,-0.6256261656329307,0.014847035997659394,-0.5372904624090943,0.5654117308667576
17.0,-11.091366229888534,-2.1378916344229806,-8.031291598699786,-0.5102938380408948,0.2757761964776766,0.40292595196154274,-0.3597360458135059,0.3995020824533073,0.8432009843321672,-1.7157049179077148,-2.0655114559727865,4.145662099558415,0.8631894230140269,1.35915214873626,-1.5692896777609533,4.0,0.49366176696049957,0.49538062013696754,0.3640203559118053,-0.625634248933488,0.014854746734151238,-0.5372862035580633,0.5654066311311338
17.1,-11.286749380328482,-2.268049826681415,-8.208920330382123,-0.5150460847324742,0.28353593281672407,0.39657067698759396,-0.35956129177449864,0.399307043439977,0.8433679875138875,-1.7157297134399414,-2.06554303424859,4.145639896392822,0.8631671583116632,1.3591554742338554,-1.5692953294643541,4.0,0.4936579705817085,0.4953852194331946,0.36400578881922807,-0.6256445087782436,0.014850154251549072,-0.5372795473739149,0.565401724022855
17.2,-10.97000937516572,-1.9913064497167214,-8.16815507946449,-0.5065653041316944,0.27369221290033313,0.39598846321738124,-0.35955292661566185,0.399296427926996,0.843376579710175,-1.7157297134399414,-2.0655676158380825,4.145646466001752,0.8631938028495488,1.3591513633728027,-1.5692904631244105,4.0,0.49364110419454044,0.4953947332570466,0.36402900998357,-0.6256318958070177,0.01484645902695481,-0.537280471867227,0.5654148991257728
17.3,-11.362617673193972,-2.247177388104874,-8.396807956949099,-0.5110286999433578,0.28519865255267335,0.391523841571912,-0.359544561456825,0.399285812414015,0.8433851719064624,-1.7157242547118166,-2.065538545648092,4.145647789105127,0.8631762975551412,1.3591588509734296,-1.5692574010017815,4.0,0.49365795480219093,0.4953918034513406,0.3640141917112883,-0.6256435464002469,0.014850240818683332,-0.537286498007215,0.5653961816766122
17.400000000000002,-11.355744940737756,-2.464985086190759,-8.445390829502731,-0.5169347510994536,0.28474214350422644,0.38981210546786116,-0.3593627042005698,0.39911794991186755,0.8435421038203964,-1.7156896058690925,-2.065525861329102,4.145631884927789,0.8631911424764602,1.359142833553515,-1.5692952737640582,4.0,0.4936510342568955,0.4953907633722738,0.36402949256021655,-0.6256279269554246,0.014855099300881098,-0.5372790610147191,0.5654204043305837
17.5,-11.43261228143958,-2.110277421950046,-8.54876435819373,-0.5089304318523101,0.2841282452138442,0.396954434432675,-0.35939003614469955,0.3991596401105162,0.8435107439613686,-1.7157250793886856,-2.06550888029709,4.145631622967674,0.8631736475178222,1.359170571179457,-1.5692785421954554,4.0,0.4936420655888201,0.49540139231328467,0.36401559478096585,-0.6256407588245846,0.014830492539057386,-0.5372749390845541,0.5654107685746144
17.6,-11.169791383047242,-2.2962716338044933,-8.313437572715053,-0.5131731630180677,0.2804236017128495,0.3976563458486643,-0.35941041341768537,0.39918435715198264,0.8434903693884903,-1.715708351738909,-2.065530201626631,4.145621298486038,0.8631736475178222,1.3591593736334056,-1.5692904631244105,4.0,0.4936414307318324,0.4953964065473335,0.3640307606405412,-0.6256381906590345,0.014836250686486873,-0.5372732461674367,0.5654150678989394
17.7,-11.306500044007448,-2.2476689372572816,-8.286207999694739,-0.5122239246116543,0.28179403427006977,0.39884295569346573,-0.3593962219875072,0.3991715109016481,0.8435024957069684,-1.7157125430034692,-2.0655420496964236,4.145635856290123,0.8631696074151228,1.359162411572165,-1.5692904631244105,4.0,0.4936323382109805,0.4954082173012823,0.3640501876745195,-0.6256177505388639,0.014834354521535222,-0.537282036087285,0.5654293818281133
