xiamingqian9007/apple-picking-rnn/training_data/grasper_20191127_134534_noimg.csv
,/manipulator_wrench.fx,/manipulator_wrench.fy,/manipulator_wrench.fz,/manipulator_wrench.tx,/manipulator_wrench.ty,/manipulator_wrench.tz,/ground_truth.x,/ground_truth.y,/ground_truth.z,/joint_states.elbow_joint,/joint_states.shoulder_lift_joint,/joint_states.shoulder_pan_joint,/joint_states.wrist_1_joint,/joint_states.wrist_2_joint,/joint_states.wrist_3_joint,/mode./mode,/manipulator_pose.x,/manipulator_pose.y,/manipulator_pose.z,/manipulator_pose.rx,/manipulator_pose.ry,/manipulator_pose.rz,/manipulator_pose.rw
0.30000000000000004,0.31709270824681113,-0.21671872053873098,0.08497967888178296,-0.009203681326956687,0.018150075907834295,0.01107456091773338,-0.40015430416965375,-0.45780293509137127,0.7939099372802155,-1.3166283966136205,-1.8246372393242423,4.170029491212803,-3.548541163680207,-1.356794480424146,3.182762935809934,1.0,0.4583936242195418,0.46830800346090573,0.33785982864370084,-0.6063614251717334,0.5705874246374543,-0.01090575758517738,0.5537480269588284
0.4,0.13256998164999148,-0.13018924987257452,0.23477566150665657,0.00011305682748389591,0.010282372835270677,0.08471578438920153,-0.3998638733277758,-0.4574622066647061,0.7942523132149408,-1.3142611063748673,-1.827558729319617,4.169389762894276,-3.548110093222372,-1.3573353101069212,3.182562054334931,1.0,0.4584084662062795,0.4683320032027578,0.33782835162699343,-0.606369966920746,0.5705969552057211,-0.010912749094000343,0.5537287150163923
0.5,-0.24332311969047576,-0.00804967818471436,-0.13276794933091676,0.010659644803922941,0.008070035398508943,0.19139156032064805,-0.39936648737095315,-0.4568623630563362,0.7948478742531961,-1.3114295235763131,-1.8306862861810251,4.168803238023335,-3.5474429029358756,-1.3578793403085831,3.182281755555683,1.0,0.4593005966471222,0.4692335200712642,0.33733100370223157,-0.6063496279259277,0.5706277132364566,-0.010881797272225909,0.5537199003907551
0.6000000000000001,0.043848674988269325,0.07198143362060624,-0.062129307210373685,-0.005868401217451028,0.010930521963481822,0.25673309744320555,-0.39883586481649214,-0.4562101429018563,0.79548866098136,-1.3086123211571328,-1.834136686355199,4.168142866630091,-3.5468263342591544,-1.358448417073799,3.1819502901797616,1.0,0.4603346472577983,0.470266005686621,0.33674722921174427,-0.6063077381553643,0.5706092697456165,-0.010916607098970552,0.5537840875492427
0.7000000000000001,-0.1602482457383463,0.25641686695113575,-0.05258628806967253,0.00840110148060097,0.010809936824839455,0.24556574935175965,-0.3996670559054816,-0.45718031318827507,0.7945129383633683,-1.3057681967686632,-1.837463344831473,4.167459694226982,-3.546303980244582,-1.3591338386213723,3.1816825164750946,1.0,0.4609297132712627,0.4708832534939013,0.33638967584019336,-0.6063109027824087,0.570591451539772,-0.010921834093659991,0.5537988787790632
0.8,0.17345673737048561,0.2110375898573632,0.03652233758605218,-7.687043061252452e-05,0.013894661782942533,0.24352639324260844,-0.3996578090568035,-0.4572045429202999,0.7945032887670619,-1.3031645556124916,-1.840887135482378,4.166728267740517,-3.545832465938374,-1.3598086325629062,3.181457233096896,1.0,0.4619966824031454,0.4719886637019119,0.33569997414865216,-0.6063548784584183,0.5705841526530957,-0.010911569553207785,0.5537584525410975
0.9,0.3099906153966809,-0.02799009239243222,0.06396683416424587,0.0019361424235549974,0.005622886802909119,0.23677658901570434,-0.39851283652586905,-0.45594516273143776,0.7958021694450951,-1.3003497216530007,-1.8436448876736733,4.166161060333252,-3.5453562835175307,-1.360380168094845,3.1812250410159764,1.0,0.4633372857678991,0.47328190229158645,0.33478240924674757,-0.6063953421262215,0.5706456310748477,-0.0109176649351157,0.5536506636636288
1.0,0.3692158903795925,-0.058452169451485625,0.12809620810653088,0.0038925520112759,0.009043281777163905,0.23575785803253219,-0.3990229201989322,-0.4565547213531604,0.7951970781054039,-1.2980022055324647,-1.8468918080222052,4.165632724761963,-3.5449310929367917,-1.3608045734836187,3.180962942643126,1.0,0.4639420127744864,0.47393296355744985,0.3345055709999737,-0.6063643055769828,0.5706062868602553,-0.01088683847503211,0.5537258085602603
1.1,0.3303667400835081,-0.2549172640919558,0.1053736010167758,0.006293085098439266,0.0052471077330904945,0.2353893275365572,-0.39971348732505885,-0.4572729078125728,0.7944367585200897,-1.295231874348035,-1.849435624247776,4.165143875108755,-3.5444848323691986,-1.3612559753411526,3.1807452188957224,1.0,0.4645377162280904,0.47455302125280535,0.33415983265384724,-0.6063602278386088,0.5705980936621067,-0.010892421030867587,0.5537386068974844
1.2000000000000002,0.19872715540127162,0.4635452505888745,-0.004453953791013765,0.013869536165178529,0.01200904177722038,0.23178567330551106,-0.40038066710552705,-0.45799205615676264,0.7936864870850671,-1.2930400159612327,-1.8524516723902842,4.164638312425308,-3.5440506854605975,-1.3617368082503916,3.180556089545659,1.0,0.4654477134205817,0.47548233702792303,0.33363020539536525,-0.6063390682909235,0.5706066984448988,-0.010923536776980812,0.5537522968784772
1.3,0.4168784732114028,0.027212740619350667,-0.15159720728817455,-0.003488576100177763,0.0019669565133245827,0.2327684015831572,-0.4005330207140002,-0.4582086909030017,0.7934845324586598,-1.2903672787850027,-1.8550402613883874,4.164137515753997,-3.5436716198476077,-1.3623030362222142,3.1803317687403574,1.0,0.4663168151469159,0.4764171780846544,0.33306913392397125,-0.6063643855137979,0.5705890399165213,-0.010923182485718476,0.5537427774626054
1.4000000000000001,0.6037710137691449,0.08935151537886388,0.16440865008232178,0.0008781443296000592,0.004181012072722215,0.23049647323344477,-0.39999949978740706,-0.45769400053324577,0.7940506779849553,-1.2882219825684498,-1.857878067291086,4.163596567071588,-3.5432732502440385,-1.3627979760883322,3.1801156997680664,1.0,0.4669301882719441,0.4770725005986161,0.3326749348291032,-0.6063807120561023,0.5705802197451988,-0.01090166865628529,0.553734411520869
1.5,0.49099846300274536,0.18153369458976093,0.20974845255279279,0.008719226605127448,0.002733356593733455,0.2278470616532341,-0.4002890031411806,-0.4580432816818157,0.7937030420963938,-1.2858620680594,-1.8603916570320516,4.1631117430870015,-3.5429437776023573,-1.363266647007033,3.179913041350829,1.0,0.46769179948375544,0.4778576309890512,0.3322971713105932,-0.6063470974451849,0.5705524636649977,-0.010853382547159427,0.5538007653596065
1.6,0.43471696784107805,-0.0042506509273265575,0.2732132644721573,0.00037482497346399187,0.004220666513730056,0.23376460444774694,-0.4006701459289865,-0.4584887615244559,0.7932536614432069,-1.283617025070863,-1.862847402101273,4.162650514279477,-3.5426455963915315,-1.3636820952044886,3.179701739753962,1.0,0.4683794384478481,0.4785566200919708,0.3317659977606042,-0.6063946906664712,0.5705777244276252,-0.010866730304976603,0.5537223615594611
1.7000000000000002,0.5159474805531166,0.0448185771682594,0.12460799031622301,0.005638114399491352,0.0036286158350576085,0.22691531370666318,-0.40070326527490185,-0.4584970129768525,0.7932322370454088,-1.2815248925438492,-1.8653607589525836,4.162167117859374,-3.542327880183419,-1.3640690754178408,3.1795144666967534,1.0,0.4693448141983785,0.4795161874726925,0.3312897551031321,-0.6063572390377111,0.5705645999199987,-0.01086693064771836,0.5537768917199357
1.8,0.4209315927117523,0.02349470622995438,0.023842959771662398,0.004088484652043893,0.007631287965118943,0.2308449176734862,-0.40058640747276203,-0.45828377779133467,0.7934144223225887,-1.2794102933188003,-1.8677207069119022,4.161609031282211,-3.5420715180512743,-1.364436451588766,3.1793039450789804,1.0,0.46972589054542907,0.4799121086346981,0.33100112985747204,-0.6063876172632767,0.5705766397100973,-0.010890026363347325,0.5537307677677891
1.9000000000000001,0.3206879281177141,-0.018091743751478997,0.036064618524126416,0.007753204956589404,0.009924017656790142,0.23059615528534202,-0.4003254013539286,-0.4579169261429906,0.7937576933435244,-1.2774308564187484,-1.8698524556035125,4.16119490308359,-3.541773935357565,-1.3647915404904245,3.1791675090789795,1.0,0.47071532442599195,0.48079788198502316,0.3304282774984829,-0.6063599409584788,0.5706155108109396,-0.010940444193543437,0.5537200262801126
2.0,0.05139951315831714,0.17143768787060645,0.11510416664308881,0.007238951063977518,0.01352735263367334,0.2299442931069785,-0.39984257886381513,-0.4573268963702951,0.7943411397662133,-1.2754363761558982,-1.872330121122775,4.160891233685784,-3.5415492562435547,-1.3651267048893765,3.1790210232084917,1.0,0.4710989793600439,0.4811593940801669,0.33023334266806137,-0.6063364098288971,0.5706198081498908,-0.010950493717948935,0.5537411663856306
2.1,0.2741713243779901,0.2615697896578145,-0.12317825933538837,0.005606271868963319,0.011337196653119986,0.22908667350781547,-0.40012431777311286,-0.4576685784243618,0.7940024693543308,-1.2735325744613428,-1.8741225491030273,4.160467624664307,-3.5412937603392542,-1.3655208841874702,3.1788432471340786,1.0,0.471698516317308,0.4818360681002182,0.32975245316974977,-0.6063938063760898,0.5706363762604278,-0.010973115471008973,0.5536607882214026
2.2,0.21875943431581696,0.22319171052186754,0.19265208663959119,0.004580838350233285,0.008123086702628811,0.22321309282429103,-0.3998114910378278,-0.4573769582204108,0.7943278669050344,-1.2716264828907544,-1.8763415258749832,4.160119533538818,-3.541050336272193,-1.365867442504936,3.1787254412669927,1.0,0.4725214528449432,0.4826584405320857,0.32939109645040593,-0.606344227504434,0.5705989754417553,-0.010935129997759852,0.5537543768935849
2.3000000000000003,0.535937994122569,-0.13832187079052155,0.11023207810654778,-0.003425672110372386,0.003943234961290721,0.23210516439755996,-0.3994832565711438,-0.4570559235022894,0.7946779171538582,-1.2697691147163566,-1.8783767143943981,4.159779429092773,-3.5408670785239784,-1.3662289646999028,3.17855402144207,1.0,0.47293338755311365,0.4831213532436161,0.3291410075765454,-0.6063566023657452,0.5705820297212507,-0.010913890173181747,0.5537587065933461
2.4000000000000004,0.47293758442162587,0.2787881503456667,0.056139476852044776,0.00670336705394452,0.006487415675908351,0.22734894143411938,-0.39936134791934896,-0.45693601267834477,0.7948081427405295,-1.2681734638072433,-1.8800358382986462,4.159420914503857,-3.5406306215529666,-1.366554703946277,3.178438521781893,1.0,0.4736065570850766,0.4838469717426843,0.32870704823758257,-0.6063638433302022,0.570591067903983,-0.010906466286418667,0.5537416109731701
2.5,0.5720895042158776,0.09675460236445728,0.0516135429091926,0.006445305156939794,0.006943164216025849,0.22346914801455944,-0.4005028184752648,-0.4582348729776897,0.7934842471274145,-1.266435859408615,-1.882085192119163,4.159136471772053,-3.54039519278664,-1.3668807188617151,3.1782801792716033,1.0,0.4739638270156557,0.4842066145564264,0.32854193764837536,-0.6063462715470378,0.5705657454977514,-0.010888712897936479,0.553787292177265
2.6,0.266817376233301,0.09014260594784294,0.05009244707770027,0.00988155360202927,0.008452732303349725,0.2232904513344222,-0.40080406359959375,-0.45860748966517567,0.793117423467676,-1.264578429241298,-1.8839576988999753,4.158818158130528,-3.540211058169777,-1.3671878887951519,3.1781586876771915,1.0,0.47448157617291015,0.484751121514458,0.32816563604002197,-0.6063895893934284,0.5705631540806223,-0.010881267473233846,0.5537426758874715
2.7,0.1715359113817053,-0.041100918538387585,0.030594006530267594,0.006732252363928092,0.0101832016398021,0.2258749582232171,-0.40086959286568663,-0.4587191355900997,0.7930197446048822,-1.2632237648053457,-1.8855019104105504,4.158501148223877,-3.5400293390637363,-1.367458377895364,3.1780207128263065,1.0,0.4751406454306722,0.4854790045799513,0.3278206816822829,-0.6063628725551177,0.5705470295008606,-0.010861048589333566,0.5537889413287258
2.8000000000000003,0.1777442606646094,-0.09182886482820715,-0.025661430502529087,0.007173055724998158,0.01257116892451368,0.22582304150280888,-0.4010203702628292,-0.4588586199792617,0.7928627575307594,-1.2617157838527082,-1.8873686259655003,4.158197827229088,-3.5398829915452836,-1.3677313963519495,3.17788606177848,1.0,0.4755214715199232,0.48586235459496563,0.3275926081179082,-0.6063622577989329,0.5705439798182139,-0.010871129569893966,0.5537925585921578
2.9000000000000004,0.3370746280724446,-0.05783559726554873,-0.023841259431393147,0.006615735760213609,0.0021088555413769487,0.22768688355541578,-0.40119038676539426,-0.45900438705335395,0.7926923855657759,-1.2599723763405377,-1.889050622979635,4.157890931002283,-3.539723517083727,-1.367975848650593,3.1778264107360545,1.0,0.47604889812583734,0.4863697952584089,0.32717657912955567,-0.6063866864767794,0.570586902550235,-0.010892129051123765,0.5537211704699166
3.0,0.3266267490098121,-0.1034297078924732,-0.007928400174514252,0.003693393295327677,0.00632086925161462,0.2217281672835992,-0.4005805524563751,-0.45830538569423684,0.7934040962240069,-1.2585184416865063,-1.8905664524911205,4.157618045347725,-3.539587748792546,-1.3682274546162654,3.177674072547549,1.0,0.4764166318574644,0.48672818172694726,0.3270025681308584,-0.6063655688557041,0.570586668623078,-0.010905435637631853,0.5537442748864045
3.1,0.2795320835572223,-0.022322132442184464,-0.041544116422645445,0.0033590356881388578,0.007874084932015598,0.2218277648174098,-0.40001905145200994,-0.4576598607154785,0.79406058325112,-1.2572752698867442,-1.8921082291265254,4.157311274150121,-3.5394515925708503,-1.368445513371718,3.177585820687446,1.0,0.4769200255945244,0.48726400570178047,0.3267865045466701,-0.6063322087530312,0.5705643309310922,-0.010896236313927578,0.5538039986601911
3.2,0.16460348641761574,0.16873153454512763,0.08148174667654601,0.011063653749430545,0.007907568657760985,0.2214027411419944,-0.39979842656831693,-0.4573942003255017,0.7943238590430931,-1.255814021329386,-1.8936317720731466,4.1570515632629395,-3.539275200089945,-1.3686818413668838,3.177474094607755,1.0,0.4773883665177219,0.48770419421191313,0.326383594466808,-0.6063712810880829,0.5706153900993526,-0.01091391269024548,0.5537082558199315
3.3000000000000003,0.6256138129385695,-0.08933717622742757,0.06364671594899787,0.004045123091923514,-0.0033755226127924255,0.22690089521244158,-0.3988854398794638,-0.45639916721427004,0.7953536978464044,-1.254372341152013,-1.895090843088852,4.156777850797937,-3.539159437219137,-1.3689660374886434,3.1773479564283083,1.0,0.4776950260449931,0.48799349136166953,0.32619402833959077,-0.606374285269957,0.5706245275425517,-0.010920724031423114,0.553695414932089
3.4000000000000004,0.6583456902508523,-0.3209844485704211,0.07835297992593837,-0.001137915747416422,-0.0007109389757915963,0.2272435674942517,-0.3985640758257444,-0.4560435913886508,0.7957196372240625,-1.2530478805250131,-1.8966264894759202,4.156497406432248,-3.53903927425527,-1.3692028437693051,3.177267190730294,1.0,0.4780966067432623,0.4884106089224967,0.32603179461397946,-0.6063621692770543,0.5705839352562156,-0.010912713849487448,0.5537506705852328
3.5,0.21738111436810192,0.07862089993427901,0.045154323384008196,0.007122692733838311,0.009059468614591518,0.2245288292423006,-0.3995988754528497,-0.4571608641998628,0.7945594024135665,-1.2518900136536142,-1.8979670094061596,4.156308855583947,-3.5389193835150734,-1.3694045821680998,3.1771658311095945,1.0,0.478680389324916,0.4889914138540627,0.32566614633014207,-0.606352518913273,0.5706050037001786,-0.010912144019545947,0.5537395395605633
3.6,0.4747657588580632,0.09548396051823596,0.1589500808586368,0.006319423069827343,0.008453640899232066,0.22416442980307685,-0.399778557863928,-0.4573748512416259,0.7943458381165925,-1.2506084175206928,-1.8991820221197382,4.156040695180723,-3.5388194389787513,-1.3696565677745438,3.17707441902646,1.0,0.47902931405994015,0.4893417447593144,0.3254441789415421,-0.6063549293487068,0.5706090255058329,-0.010909047106114369,0.5537328167600732
3.7,0.42167480402445073,0.3337536435135968,0.17221591945408263,0.010663384418594752,0.007536534012732035,0.2292862863419733,-0.3994239056893194,-0.4569599644493038,0.7947628002474598,-1.2493687341117408,-1.9004020517217395,4.155836702847312,-3.5387312707056715,-1.3698637123596313,3.1769857122204828,1.0,0.47936675504281107,0.4896942415839493,0.325282744424753,-0.6063431207560535,0.570595415327465,-0.01089993333742763,0.5537599510368436
3.8000000000000003,0.44546146430780376,0.09151630965120991,0.190929708328191,0.006461397046580874,0.007097427825154272,0.22575972691569743,-0.39807178499581447,-0.45549110845342633,0.7962796916616799,-1.2482369487380092,-1.9019290785056733,4.15560836116897,-3.538639831143319,-1.370067274859161,3.176889823331612,1.0,0.47961749240495744,0.4899413138518107,0.32516276546731576,-0.6063300795324131,0.5705914921299753,-0.01089566933363157,0.553778356522606
3.9000000000000004,0.39156931008775653,0.4151428712772245,0.1673720901203261,0.01318615303519554,0.01113381500397993,0.22151177302262207,-0.3968220550442353,-0.4541486257852084,0.7976723664765422,-1.247178158656192,-1.903090616265768,4.155377141349795,-3.5385357342162074,-1.3702513315050269,3.1768224467435915,1.0,0.48005241623167993,0.49040876609412903,0.3248175713361931,-0.6063761260134237,0.5705992973545136,-0.010898707863143686,0.5537198333330688
4.0,0.46210130887100553,0.17512837640649517,0.04081072523098997,0.0029095430133668186,0.005270642918844836,0.22067661724620646,-0.397106558753769,-0.454462857278654,0.7973517362325137,-1.2459936175713486,-1.9041069062138045,4.155208767930403,-3.5384349682373495,-1.3704269568072718,3.176737485411544,1.0,0.48041306475137635,0.4907821753809132,0.3245360486945678,-0.6064007353229313,0.5706166096743157,-0.010906641674359577,0.5536748848656446
4.1000000000000005,0.3228342761294945,0.008024261847871271,0.09063136538266733,0.003808346177227048,0.013754382039213774,0.22532357468065878,-0.39703665278856876,-0.45436718734386716,0.7974410627817777,-1.2448218832818074,-1.9051829954302562,4.155003900202643,-3.538358226490384,-1.3706048524958676,3.176651309738665,1.0,0.48063880362443856,0.49100338956260625,0.3244984509248896,-0.6063523278045817,0.5705989700484664,-0.01089470030917401,0.5537463096497957
4.2,0.39067798292887734,0.05426462734078846,-0.07067496431508347,0.00262922489646058,0.010904061424407691,0.22425186223670224,-0.3972620301746027,-0.4545988196869647,0.7971952897210731,-1.2438068194558716,-1.9064633050191249,4.154821872711182,-3.538265357780813,-1.370774714801983,3.1765708253641405,1.0,0.4810345487344991,0.4913989638615187,0.32436936263485644,-0.6063188353784257,0.5705675199760247,-0.010894698844225224,0.5538153848990222
4.3,0.24539128902836388,0.15738160271708243,-0.06458320617108072,0.008102477439649855,0.01145725404940643,0.22585714194951143,-0.3987288753525318,-0.4562255969173048,0.7955327246883451,-1.2427098657660056,-1.9078305787919008,4.154586067395645,-3.538179151909726,-1.3709700283865378,3.1764770083337908,1.0,0.4813736058064756,0.4917493850594925,0.32408650430804276,-0.606351497346753,0.5705907588737439,-0.010902341790172236,0.5537555295405417
4.4,0.2999535682932002,0.1943870967766092,0.03606027379683772,0.0072501984386463296,0.006699165695801414,0.22262719121919963,-0.39763292451419163,-0.45497343681570945,0.7967978714437673,-1.2416538422821946,-1.9089304409422816,4.154404563259978,-3.538093762002752,-1.3711217085467737,3.176411122722465,1.0,0.48160648394037736,0.4919809052101356,0.3238515245479181,-0.6063746279886049,0.5706293776774853,-0.010914531980288342,0.553690163227358
4.5,0.40801324990134025,0.30923137315618093,0.09598141545824146,0.006150570989178469,0.011554247327876188,0.22535902882473402,-0.398312092265334,-0.45575227330425166,0.7960129816738796,-1.2405819492020318,-1.9097380854174508,4.154223510690196,-3.537991602400393,-1.3712892361464282,3.1763540303487137,1.0,0.4818558524654972,0.4922559550574613,0.323646367133352,-0.6063991950545173,0.5706402849568826,-0.01090775666944826,0.5536521491568527
4.6000000000000005,0.5192396460815851,0.22111723852150572,0.23559965258196225,0.00943442179460064,0.001787467432611456,0.22979213024896436,-0.3978967784464689,-0.45525459816294594,0.7965044519850678,-1.239364957903314,-1.9108185463093939,4.154018878936768,-3.537986035331176,-1.37145861687878,3.1762777304203493,1.0,0.48240072875192574,0.49278048741535396,0.32359988724286276,-0.6063026325034248,0.5705539615947216,-0.010912191103005247,0.5538467466847825
4.7,0.47909065066510914,0.26187825576612295,0.10118684575829776,0.010679746060063288,0.008730578222248436,0.22693781710840624,-0.3969746006409531,-0.45418138506922573,0.7975777437978105,-1.2384502570532598,-1.9121979358495453,4.153839588165283,-3.537895276934266,-1.3716337940534444,3.1761700081228006,1.0,0.4826382201782546,0.492992539254333,0.32350881184715724,-0.6062703698112846,0.5705668959261113,-0.01091223298749473,0.5538687381802271
4.800000000000001,0.42479203004210614,0.35088486097283383,0.055987677933109485,0.010230259995188512,0.009213306252717794,0.22544370971964925,-0.3964364221276087,-0.4536478700088662,0.798148732004575,-1.2374236776310097,-1.913360645377855,4.153663001464681,-3.5377918682494105,-1.37181311130091,3.176086097761379,1.0,0.48284913793746004,0.4932443122638357,0.32326452647000264,-0.6063236087101838,0.5705859267525422,-0.01091754009515166,0.5537907448042747
4.9,0.5801982362900049,0.4536444888347281,0.08386217990591757,0.01372854958572962,0.008499371910905901,0.22625699680131275,-0.3968412565552348,-0.45412570625770765,0.7976741880599452,-1.236349725325239,-1.9145922382667664,4.153463612016732,-3.5376689170220534,-1.3719962278949183,3.1760300140747044,1.0,0.48320005650031844,0.49363812231904364,0.32292253259817794,-0.6063782348608888,0.5706014821439098,-0.010935247405737317,0.5537145521171906
5.0,0.21977291641930252,0.5007527733521683,0.11078174196879,0.018379111847911966,0.008511249802917713,0.22070718344626594,-0.39778463720875706,-0.4551811161611216,0.7966025500885812,-1.2350245542757081,-1.9156700573363246,4.153302771591382,-3.537616341142074,-1.3721843223884203,3.175970945643428,1.0,0.48356608114108923,0.4940051811307536,0.3226656644214991,-0.6063935386548612,0.5706101057319172,-0.010935201602094428,0.553688906228188
5.1000000000000005,0.28197024848306,0.38156044730173944,0.09245640368192871,0.019236159437056664,0.009871488175059522,0.22427804414734975,-0.3964689699255383,-0.4537400492329055,0.7980767835782713,-1.2338643033980423,-1.916755416343515,4.153115194886852,-3.537524639839798,-1.3723480339171628,3.175889492034912,1.0,0.48373161640970824,0.4941912491795994,0.32261316784222993,-0.6063670898753865,0.5706021223552704,-0.010917803153541421,0.5537264413535052
5.2,0.38681836569647193,0.07200945371501928,0.10495915373646911,0.007875776144619824,0.014140132104480185,0.22461426684348995,-0.3957050709904201,-0.4529189703006443,0.7989251802657216,-1.2328587152067383,-1.9180780276154261,4.152899600297396,-3.537472358668502,-1.3725434951234672,3.1758020203035477,1.0,0.48407934196827085,0.49457544234891454,0.3226101168161201,-0.6062857461600013,0.5705466107725676,-0.010862909832321951,0.5538737727398924
5.300000000000001,0.4467489116301886,0.010353235191983341,0.1655074160011228,0.001421090647300046,0.008188972134701255,0.22638215411301724,-0.39608071752895324,-0.4533634005001307,0.7984869167415418,-1.2318731299030978,-1.9193090990155963,4.15273318203682,-3.5373989827776993,-1.3727090427531352,3.17573627502259,1.0,0.484563794651369,0.4950760952594835,0.32211786434169504,-0.6063793297842657,0.5705856139194705,-0.010899405616287623,0.5537304114420096
5.4,0.3141203583288903,0.1552752584748264,0.20348817896731447,0.0056224297736436534,0.012653989375379591,0.2229716789082628,-0.3964194724909131,-0.4537425145054814,0.7981035341669744,-1.230688017597075,-1.9204217154668282,4.1525249601956125,-3.5373360119261683,-1.3728981593419118,3.1756395810089004,1.0,0.4847279394829054,0.49522566871158674,0.32200018483669346,-0.6063844271603251,0.5705941323386239,-0.010908513571434873,0.5537158720588015
5.5,0.6385201690310716,0.06359993610757503,0.0706605042948494,0.008656603404175126,0.010469541467337017,0.22436833094899095,-0.39702424830960564,-0.4543928198511784,0.7974323713156304,-1.2293478505093498,-1.9215836842545404,4.15227309724369,-3.53726816162619,-1.3730871237950677,3.1755491697274687,1.0,0.48516714808866274,0.49569451604461695,0.32171075244251995,-0.6063837597044404,0.5706028055858727,-0.010894267338204328,0.5537079457289754
5.6000000000000005,0.3077112160758832,0.5658085128471613,0.2835564846999482,0.012268551816600953,0.010498860348962389,0.22725849017221705,-0.3975329536905507,-0.4549464842442477,0.796863327638987,-1.2282630803872459,-1.9228014146575543,4.15213229192206,-3.5372195065811503,-1.373322401572428,3.17546581121851,1.0,0.48549429534895083,0.4959934431464375,0.3216563042094496,-0.6063375918298033,0.5705685579829577,-0.01089068567407311,0.5537938590674618
5.7,0.38177598705514726,0.5014279242290526,0.19044974650905175,0.01695576344165837,0.0090489940219592,0.22257877282993188,-0.39757414604794405,-0.4550118455531921,0.7968054875924232,-1.2272137030967507,-1.9238894558936266,4.151901209503195,-3.5371319256224574,-1.3735026347083592,3.1753852367401123,1.0,0.4858302928649545,0.4963531948567059,0.3214413045393277,-0.6063512685685928,0.5705684292381821,-0.010885490697035323,0.5537791191027491
5.800000000000001,0.45629292526093546,0.48083232437979495,0.19268268840126507,0.014643967711387162,0.00883201799289506,0.22391128205990518,-0.3973894223683664,-0.45483777927609637,0.7969969239786101,-1.2262122118131298,-1.9250878747600924,4.15170011009778,-3.537109140465412,-1.3736809838362039,3.1753334547777703,1.0,0.48605941883653775,0.4965880176345524,0.3212757238108913,-0.6063676702746573,0.5705722883107242,-0.010885389973347792,0.5537571855449614
5.9,0.19340736033716305,0.47360403017913,0.12543956415339658,0.011299363056704911,0.018044904781558457,0.22265738299709242,-0.3967764196066168,-0.4541560042487342,0.7976905313201609,-1.224957852536311,-1.9263279350856581,4.151509703265801,-3.5370167118828433,-1.3738337650972219,3.1752332528663936,1.0,0.48635672065270996,0.49688024924555674,0.3210829713707769,-0.6063678821878687,0.570576333151875,-0.010883164789518323,0.5537528295387067
6.0,0.4531742018060413,0.17562295930263966,0.1727912239709429,0.006012819780516727,0.012578537542023132,0.22714457826647252,-0.3963092639174468,-0.4536277244557407,0.7982233218782631,-1.2237450712284306,-1.9276148281493128,4.151292868235404,-3.536956257395858,-1.3740334522431927,3.1751645908780968,1.0,0.48665602245910283,0.49718511707941354,0.32087380887667166,-0.6063758972869209,0.5705880326879074,-0.010891350614930677,0.553731836383468
6.1000000000000005,0.5064750525628523,0.03251335996980719,0.31953022098670786,0.005578874328178494,0.01057966508864241,0.2234234283834455,-0.39595247435987924,-0.45321559834987324,0.7986344183497303,-1.22257345811534,-1.9287337706044216,4.1511061797935955,-3.5368755815865383,-1.3742214657057117,3.175048529068709,1.0,0.48715386529438043,0.4977023005159314,0.3205751490117921,-0.6063691990418545,0.5706015223426646,-0.010886706878020451,0.5537253622211334
6.2,0.4436315550210276,-0.07434251004010972,0.3250290655133406,-0.0007851471656605893,0.014522217327250377,0.22306351414680334,-0.3958232691362781,-0.453087265138921,0.7987714688872718,-1.2215202354920067,-1.9298728144529227,4.150911179058635,-3.5368925533690394,-1.3743928114520472,3.175014548648457,1.0,0.48740353276102294,0.4979615049887895,0.3204388445227341,-0.606364529974437,0.570592011253036,-0.010876797538219886,0.5537404705802238
6.300000000000001,0.5416098940411072,0.057750695240159744,0.11804065429437621,0.007593698804075131,0.006760200920187872,0.22403917981925275,-0.39592090375475936,-0.4532318871762921,0.798640830753938,-1.2203952388272041,-1.9309598408141078,4.150731317852337,-3.5367886537055173,-1.3745496696931396,3.1749376751699203,1.0,0.4877742052779286,0.4983317315176916,0.32023181718901633,-0.6063778310177452,0.5705739689868545,-0.010892140700906522,0.5537441947648342
6.4,0.37034294437917853,0.45668840479054273,0.15612920302384198,0.012018829553280366,0.011889993433663466,0.2217852040879866,-0.3969410288563655,-0.4543218424861349,0.7975123417162687,-1.2191948868633802,-1.9323055341709858,4.150523129038775,-3.536767502272995,-1.3747267150181612,3.1748538028299067,1.0,0.48799862578516917,0.49856148826084995,0.3201244526933402,-0.6063689343175456,0.5705682199691429,-0.010891127651868948,0.5537598804484833
6.5,0.6513499824312541,0.3516807365677662,0.17844401881034627,0.009761262945220311,0.005804563813426486,0.2249287891220628,-0.3979693479568439,-0.4554218309666301,0.7963737672440327,-1.2180187590393374,-1.9336923398112982,4.150313003844555,-3.536727199335819,-1.3748794780023315,3.1747592227279524,1.0,0.48830221503263904,0.4988456972050138,0.3199696601037971,-0.606349271076301,0.5705745985576887,-0.010899292485895069,0.5537746783388325
6.6000000000000005,0.3873494082744281,0.03209442863611592,-0.008493841578808312,0.009213898636435729,0.013113634290886245,0.22281405514060038,-0.3991940766486316,-0.4567684822987157,0.7949883259809171,-1.2168577813324906,-1.9346288074070852,4.150134563446045,-3.536683929621262,-1.3750634259942434,3.1746824964743654,1.0,0.4887944891762796,0.4993638097401853,0.31951151442167736,-0.6064102529928576,0.5706170997952885,-0.010928594449777052,0.5536635226468369
6.7,0.2721057221711019,0.11391274560205403,0.09771441108868135,0.011980200163595594,0.0148344495388462,0.22036199677169302,-0.39783104259888685,-0.455238355694542,0.7965457860714571,-1.2156627722095616,-1.9357178139927742,4.14995127834005,-3.5366765461363734,-1.3752518923738848,3.1746385384173945,1.0,0.4890028355195081,0.49955765991404677,0.3194301742294305,-0.6063880945781768,0.570622920915278,-0.010926220288106647,0.5536818387758267
6.800000000000001,0.387429963851449,-0.03315337288123252,0.013145634746459162,0.006944120553408145,0.013014226528552443,0.22254556016603755,-0.39708136472734357,-0.4543460154177694,0.7974309040754882,-1.2143093289716702,-1.9369103786212398,4.149742370732213,-3.5366545607628774,-1.3754143031381532,3.1745465686492196,1.0,0.4892879141394446,0.4998483732979542,0.3194100373248819,-0.606338265598257,0.5705851579936274,-0.010906402663164382,0.5537757086850544
6.9,0.3703420292723844,0.25769974819184827,0.09137566880498246,0.007189365587329771,0.016445239892535688,0.2232732963314007,-0.39686032298324014,-0.4540663586033571,0.79770017121373,-1.213192200666505,-1.9383652329767527,4.149546082969189,-3.536693342728171,-1.3756025473224085,3.1744725704193115,1.0,0.48977893593505584,0.5003004009555627,0.31922805534105314,-0.6062893945449439,0.5705882430348401,-0.01091022568921601,0.5538259599803446
7.0,0.47625502602266234,0.015547736656078427,0.13847780906707985,0.0038973451936574277,0.008959668392694667,0.2261575564949664,-0.3964030775161895,-0.4536139035761276,0.7981846119229583,-1.2122271606132846,-1.9395655234797091,4.1493916511535645,-3.5365489748213395,-1.3757566190467923,3.1744136064556607,1.0,0.49000495221611107,0.5005727081688488,0.3189889735998471,-0.6063406725692334,0.5706034643556921,-0.010912765093734797,0.5537540851421153
7.1000000000000005,0.39552558834647256,0.5554885828828426,0.14976314841979085,0.011165453430673955,0.016547238266350094,0.22305163657992402,-0.39618816880383334,-0.453406197977193,0.7984094079271715,-1.211223889684806,-1.9404848650075632,4.149215163141623,-3.5364039972402295,-1.3758966393222076,3.174348238794574,1.0,0.4902710260309662,0.500874656888625,0.3186828084956843,-0.6064100620388984,0.5706228621694568,-0.01093157430690663,0.5536577340836931
7.2,0.08394431023743454,0.30389086099500107,0.11312166293677411,-0.005073224153025933,0.012021611970857137,0.21956110306262275,-0.3965275382874543,-0.453752052177859,0.7980444518451728,-1.2108346093298539,-1.9408383547758643,4.149153232574463,-3.53634037593984,-1.375952424351792,3.17432147376253,1.0,0.49067869868184505,0.501277976653974,0.3184599416595308,-0.6063536491480899,0.570612178745449,-0.010924163379428715,0.5537306712532971
7.300000000000001,0.43272168275797057,0.023343518625641536,0.0840283687460612,0.001070487961840646,0.008881623636718006,0.22216744260727725,-0.39715827510031904,-0.45446398934833193,0.7973248768055893,-1.2108279253613163,-1.9408786668697868,4.14913325436767,-3.536294375870712,-1.3759849707232874,3.174280881881714,1.0,0.49076440236163704,0.5013990279207158,0.31846039332195336,-0.6063336844520192,0.5705784317830632,-0.010892908728872303,0.553787920437277
7.4,0.5298059307971106,0.1536614321081058,0.1704871670970202,0.011030975645729559,0.014344160396353415,0.22048435380748188,-0.3973548228400669,-0.45468249549148343,0.7971025647352767,-1.2107431124781893,-1.9409526023401487,4.1491417296057636,-3.536297064777812,-1.3759849707232874,3.1742866260700784,1.0,0.4907768893893888,0.5013893907715121,0.3184623593223248,-0.6063247858400442,0.5705870333388517,-0.01089745706180493,0.5537887114154447
7.5,0.45682197380365674,0.13355956932305413,0.24449446176917758,-0.0038836490731533496,0.016564958006122378,0.22171161232475523,-0.39691473576435027,-0.45417358015756937,0.7976117180456883,-1.2107434066250444,-1.941034878868802,4.149153232574463,-3.5363197634200785,-1.3759448621410189,3.174332271772841,1.0,0.4908025085425455,0.5013980763093224,0.31845462528113005,-0.6063188263007215,0.5705919656000853,-0.010907197225735419,0.5537899626344136
7.6000000000000005,0.22958604136260097,0.028926890199010485,0.11966119871506845,0.00036439741855624156,0.01683240651082007,0.21628266575932759,-0.39693678691368534,-0.45419796864374057,0.7975867333088509,-1.210767656028658,-1.9410182797890603,4.149162079580532,-3.536322484105234,-1.3759597792852292,3.174312609532642,1.0,0.49082033137094583,0.50142704623246,0.3183934092444217,-0.6063345978131324,0.5706014527081231,-0.010917033108813014,0.5537627254070715
7.7,0.410844444531735,0.1933713889407972,0.22908255564278365,0.005482486843624658,0.015534269232005932,0.22231502742576434,-0.3976325323778195,-0.4549997949876262,0.7967830945974168,-1.210753638090305,-1.941014905969137,4.149159398490369,-3.5363491565268252,-1.3759492079364222,3.174308106775315,1.0,0.4907995136053389,0.5014339090605442,0.31839777573438344,-0.6063518367203861,0.5705931607853796,-0.010917317768685738,0.5537523879348077
7.800000000000001,0.19007811472023717,0.32450897358966807,0.15136547954223348,0.012205684396751074,0.01719558686998296,0.21838930924148872,-0.39768538512106455,-0.4550947894037731,0.7967026214678946,-1.210759162902832,-1.9410088162243366,4.149128437042236,-3.5363312237067146,-1.375957330979248,3.174317899736171,1.0,0.49078961783505526,0.5014498050078976,0.31837315533359073,-0.6063660083096936,0.5705933067481346,-0.01091002843854049,0.55373686308595
7.9,0.37212417668526926,0.2872684064139379,0.3131736352548136,0.01471370609247503,0.013806840815535366,0.21828981668737713,-0.3985299868246363,-0.45602185411291934,0.7957496958981242,-1.2107562351536614,-1.9410195189880597,4.149172461413451,-3.53631653408193,-1.3759566932702594,3.1743200825325544,1.0,0.49078995372285555,0.5014406861364087,0.31837465014588245,-0.6063683839695504,0.5705932239172826,-0.010909433586841419,0.5537343586961644
8.0,0.8626336057677172,-0.09629295493821052,0.32613402556866256,0.0024794824580455987,0.006315998550341765,0.22161936533807522,-0.3984957075242999,-0.45597584644049793,0.7957934318368619,-1.2107229232788086,-1.941010295966035,4.14914083480835,-3.5363184431622816,-1.3759584279426267,3.1743096643613673,1.0,0.49079410238980803,0.5014409105879695,0.318393831889887,-0.6063564291660553,0.5705922683624585,-0.010904548862098289,0.5537485303891005
8.1,0.4169970665581312,0.09472037279572165,0.21909069830457684,0.007000574209730513,0.013804615896396245,0.2150840399627046,-0.39707419339709865,-0.4544366450488649,0.797379765985876,-1.2107446816368703,-1.9410244835020973,4.149155835866604,-3.536356450876461,-1.375957343224364,3.1743143555078372,1.1626532304542223,0.490791288295663,0.5014542053407154,0.3184090622082862,-0.6063535593182008,0.5705788041380851,-0.010902294215494978,0.5537655906169513
8.200000000000001,0.5538192852280787,0.27829023717527024,0.19696573951751495,0.010711110967846748,0.009405057746405612,0.21836461925629227,-0.3960902569504582,-0.4533580564985803,0.7984854177626832,-1.2107426285555898,-1.941014905969137,4.149187099882646,-3.536328455010885,-1.375966791239554,3.1743067667394667,2.0,0.4907921449024679,0.5014496470967077,0.31838630596903605,-0.606369538623406,0.5705780005241359,-0.010905571366221185,0.5537488568482046
8.3,0.29545826207760806,0.3879838665518974,0.16856064475000349,0.01644396664778902,0.01718021246183359,0.21465755272786857,-0.39622427437671964,-0.4534633799451849,0.7983591161651328,-1.2107436657996755,-1.9410112872089946,4.149145705553367,-3.5363275351127634,-1.37596943103419,3.174297652262715,2.0,0.4908011827149133,0.5014366764716193,0.3183782367651563,-0.6063607525937575,0.5706018450809288,-0.010913666032941607,0.5537337482923477
8.4,0.2638213237425706,0.3990258114581756,0.2494590953991321,0.02292802987701636,0.011191159130620191,0.2221567006849155,-0.39611998210842064,-0.45334104428593647,0.7984803363639806,-1.2107443720644944,-1.9410343592568575,4.149169736689902,-3.5363138587888416,-1.3759470178221629,3.1743023306673996,2.0,0.49080414882012025,0.5014332649026111,0.3184050544047979,-0.6063490222925758,0.5705914896309874,-0.010913349705217392,0.5537572698608477
8.5,0.5752915036575131,0.079279126433006,0.2409504897365999,0.005546257497084866,0.010258132115452595,0.21706764323066474,-0.3966006098793498,-0.453875788108706,0.7979376880912372,-1.2107404527143077,-1.9410248179653173,4.149169808335646,-3.536333330944215,-1.3759849707232874,3.17430985540901,2.0,0.4907967320962962,0.5014348640541552,0.3184046310253365,-0.6063461003893368,0.5705909190822783,-0.01090398977467269,0.5537612415206388
8.6,0.5721340953966352,0.21440556500620694,0.2516150260354987,0.004135237807360355,0.014381652862191986,0.22377379023614985,-0.396497612518323,-0.45377186657428964,0.7980480620157283,-1.2107161119299652,-1.9410199247740032,4.149179434588754,-3.5363258986181108,-1.3759801449493776,3.174300378008309,2.0,0.4907969153063776,0.5014345110341867,0.31839526045010175,-0.6063586835123697,0.5705907957229961,-0.010915660197897031,0.5537473603799736
8.700000000000001,0.47319744476614484,0.23084108231960143,0.05601794573034018,0.00993042690997684,0.009907694947296217,0.21647616380517795,-0.39710968654002304,-0.454452123836876,0.7973555669335678,-1.2107424171285956,-1.9410077186852173,4.1491721357284685,-3.5363070667918595,-1.3759611288653772,3.1743000058076567,2.0,0.4907977105951023,0.5014448480080703,0.31837733959816206,-0.6063612869429891,0.5705950742966281,-0.010915747482923616,0.5537400990917641
8.8,0.12827083557088795,0.04388240357949877,0.17221856601906183,0.025590676204409288,0.006332677009055836,0.2172232172657581,-0.3977564356371438,-0.4551432226409579,0.7966394470694672,-1.2107477188110352,-1.9410179168937605,4.149164323813512,-3.536328455010885,-1.3759393843485415,3.1743121114759183,2.0,0.4907979618188078,0.5014530344413534,0.3183765197467967,-0.6063629061545052,0.5705899749183047,-0.01090649581359453,0.5537437628647924
8.9,-0.5553377567895259,-1.0567161677101358,-0.11219404434380614,0.06914542328457961,-0.059641293058704324,0.22086901218493893,-0.3981363410730346,-0.45551362141684304,0.7962377587976182,-1.2107477188110352,-1.940983786700891,4.149157690352337,-3.536316972606,-1.3759611288653772,3.1743297193773414,2.0,0.49082436715795585,0.5014255802673063,0.31838457016941485,-0.6063393769086491,0.5706046957916862,-0.010925816086133779,0.5537539775869431
9.0,-1.326244704976789,-1.491657588098498,-0.29126121156676427,0.13581385049736808,-0.1630675682501422,0.21968284078590736,-0.3984383575860581,-0.4558881054224556,0.7958723846771908,-1.2106919460986034,-1.941014905969137,4.1491868409765775,-3.53629269222402,-1.3759708954095815,3.1743072572960913,2.0,0.4908090663195979,0.501442553538717,0.31841378483930816,-0.6063359472180536,0.5705830509893053,-0.010903399106670916,0.5537804771954701
9.1,-1.9492598930238083,-2.2075841986083655,-0.34241644686372685,0.18498962143786105,-0.23048012740728765,0.21083128166995624,-0.39848569966784453,-0.4559579868792793,0.7958082480746486,-1.2106813349333523,-1.940994111796409,4.149185748094625,-3.5363256845813393,-1.3759661184034229,3.1743139740297943,2.0,0.4907972688638457,0.5014482701698119,0.3184242132928086,-0.6063370297005654,0.5705808220413391,-0.01089850978217323,0.553781684797406
9.200000000000001,-2.5907400272243595,-2.407029106698801,-0.48684840446923044,0.2155113860382394,-0.2797299899473965,0.20492966542643548,-0.39939741636250214,-0.4569149004285179,0.7948019328894063,-1.2107063757351466,-1.9409889575127817,4.149181287629264,-3.536312103753833,-1.375975850361142,3.174331149033138,2.0,0.4908071491473123,0.50144553930622,0.31842655571320927,-0.6063217539124703,0.5705873123236149,-0.010895596078176497,0.5537917801249133
9.3,-2.8750535543167555,-2.4290118297237204,-0.5618586209284226,0.24185250268311673,-0.31553120019053865,0.20431071383114685,-0.39999182664529864,-0.45756154824013584,0.794130687859628,-1.21068741607666,-1.9410109005370082,4.1491853065490725,-3.536392637292379,-1.375953213368551,3.1742889556884766,2.0,0.49080225220839485,0.5014519550543706,0.31845400419279285,-0.6063061653756414,0.5705789957391487,-0.010890703010436256,0.5538175114933876
9.4,-2.791650603306843,-2.6046129500986597,-0.5450833901417356,0.23927419946125328,-0.3381213205939249,0.19725929958805602,-0.4007964456598156,-0.4584753898918064,0.7931966225193482,-1.2106965836668937,-1.9409934220458898,4.149186447041817,-3.5363546548034583,-1.3759611288653772,3.174312266692107,2.0,0.49081187486275274,0.501425912058842,0.318432502240279,-0.6063395016640082,0.5705953305860335,-0.010916075053068505,0.5537636831182529
9.5,-2.4127384010702504,-2.4112655995042918,-0.5557041408481455,0.23567981201508265,-0.325763233304281,0.20787274812151563,-0.40147931616884996,-0.4592663912631534,0.7923943075799392,-1.2107042560632202,-1.941002985040182,4.149199025384311,-3.536261627242318,-1.3759511776301432,3.174312046375768,2.0,0.49079433468349326,0.501447081819145,0.3184171169157797,-0.6063531696888674,0.570577654058774,-0.010909446723026274,0.5537670613798253
9.600000000000001,-2.130029523062438,-1.0099596040592758,0.17688405276396307,0.14914519035641294,-0.2991129600586205,0.18989563470140317,-0.40142230114183236,-0.4592303145682126,0.7924441016884344,-1.210763848757262,-1.941036502298067,4.149189472198486,-3.536304613152975,-1.3759616924992897,3.174309940878535,2.0,0.49078459558144283,0.5014738300551502,0.3184354484623331,-0.6063333464366039,0.5705579097073326,-0.010883900487616824,0.5538096111296416
9.700000000000001,-2.5419476014840456,-1.0948803504085876,0.7985718787926537,0.11851185884275228,-0.322279991788315,0.18078383479459512,-0.4014152062039079,-0.4592374095732714,0.7924435840106188,-1.2107352527780217,-1.9410280942775864,4.149201675210926,-3.5363901808208777,-1.3759404491768112,3.1743274455391735,2.0,0.49078181195531195,0.5014677753253066,0.3184062046388727,-0.606354674808499,0.5705700535492928,-0.010882064915087208,0.5537737832308609
9.8,-2.667352596573134,-0.7935390466743575,1.1587653813665661,0.09861356655724159,-0.31038793880534277,0.18852069876966543,-0.40100487254153,-0.4588047051948325,0.7929016826220181,-1.2107180990956046,-1.941034199473368,4.14919429638169,-3.536391691136376,-1.3759611288653772,3.1742910327672056,2.0,0.49077406123634554,0.5014626158380283,0.3183839151705103,-0.6063848218760656,0.5705813021855527,-0.010905555970073665,0.5537287189983511
9.9,-2.439476597211446,-0.7275062265317479,1.4153965086279823,0.07805790751181384,-0.301894425183894,0.18565133315504775,-0.40071844819683533,-0.45849816054740766,0.7932238936193537,-1.2107114791870117,-1.9410648346795256,4.149217639823283,-3.536270449700552,-1.3759712816369223,3.174311943592249,2.0,0.49076897925834406,0.5014712867972658,0.3183577685869103,-0.6063940998663505,0.5705881110965794,-0.010890206990940088,0.5537118442964811
10.0,-2.318839192348841,-0.41319940417695333,1.7588236575559386,0.08228079128134441,-0.3030710370391391,0.1904404471616342,-0.40072897849755806,-0.45848943120352664,0.7932236275550321,-1.2107089278979022,-1.9410519199277598,4.149192667428072,-3.5362786968431137,-1.3759681265558303,3.1743141742544165,2.0,0.49077947792844256,0.5014733927518777,0.31836764583167915,-0.6063740460920407,0.5705838188391839,-0.010888445915581434,0.5537382627653655
10.100000000000001,-2.6923724581031867,-0.4945102525729353,2.2691104947091727,0.0745689204535951,-0.3129072594825122,0.19120815326565316,-0.40064541839151663,-0.4583770744980889,0.7933307521705737,-1.2107043817557182,-1.941025302779745,4.149184171863666,-3.5362964211569037,-1.3759645848201345,3.1742843523096393,2.0,0.4907889103432641,0.5014822067418053,0.3183915410384057,-0.6063478946653111,0.5705743761325345,-0.010883549705987056,0.5537767242144718
10.200000000000001,-2.661938192097928,-0.3803066115179625,2.5203761636442468,0.06479767190085156,-0.32993070475326486,0.1850841251439666,-0.4008805013677597,-0.4586134661987509,0.7930751274087239,-1.210741966461467,-1.941052794469315,4.149200916290283,-3.536393672519219,-1.3759644266176863,3.1743135316349633,2.0,0.49079358127546163,0.5014783465709997,0.3183873371762995,-0.6063524980557687,0.5705769840716103,-0.010890008882401311,0.5537688697063203
10.3,-2.721994533193414,-0.25139148847088083,2.5858976948222216,0.05475085245901912,-0.33810893150062227,0.19078781328391747,-0.4012168765563391,-0.458968749204324,0.7926996158520927,-1.2107229232788086,-1.9410630665221156,4.149214821536739,-3.5363723688239337,-1.3759780181000596,3.174318081490114,2.0,0.4907902510160451,0.5014528783141877,0.3183445580720345,-0.6063761220169468,0.5706118977908246,-0.010907852689634671,0.5537066727943087
10.4,-2.836805377068819,-0.3218958167347825,2.8430391535669277,0.047942925410584154,-0.33514271745764623,0.1906639852276125,-0.40101551478554875,-0.4587915488814219,0.792904045577386,-1.2107552951765537,-1.9410564862151656,4.14919722156142,-3.5363234182286236,-1.3759680130120706,3.1743100996761098,2.0,0.4907717360033771,0.5014609865764134,0.31837841140803436,-0.6063826948051916,0.5705911468665966,-0.010888922773211036,0.553721231233818
10.5,-2.981068806475675,-0.13270722231264265,3.0591360590517693,0.05054488677319182,-0.33454855124081684,0.19367680947974114,-0.4011805769437611,-0.45898084733501227,0.7927107489419803,-1.2107264970083473,-1.9410299237904727,4.149205658760178,-3.5363144932985904,-1.375975090577672,3.1743000220853954,2.0,0.49078134920804206,0.501462415749686,0.3183777281792425,-0.6063735228194128,0.570583078108263,-0.010893493935686817,0.5537394997559304
10.600000000000001,-3.114411259770362,-0.1464731514934813,3.118109316710013,0.05397996529070632,-0.3367338868539832,0.1880755596248955,-0.4015428652349918,-0.45936741220796645,0.792303377771831,-1.2107258327133752,-1.9410406391371728,4.149189472198486,-3.5363419682181667,-1.3759611288653772,3.174326011773686,2.0,0.49079132148056415,0.5014744964791151,0.31839003401608057,-0.6063528398052236,0.570580316775939,-0.01088904773188068,0.5537650805237748
10.700000000000001,-2.9395784120719233,-0.22491753698134553,3.088059370085533,0.05361227879275751,-0.3467578079641442,0.18642129322769402,-0.4013527359784128,-0.45915513384497564,0.7925225872408178,-1.2106936296018134,-1.9410341851151138,4.1492026844478245,-3.536331854311168,-1.3759542474855138,3.1743171215057373,2.0,0.4907861750135965,0.5014680557264124,0.31837500505493127,-0.606369375725615,0.5705787851978983,-0.010896127259713647,0.5537484126161979
10.8,-3.023127428049817,-0.4278326964114953,3.029359706951002,0.05454422462139899,-0.33881080139453046,0.18391146389602778,-0.4009594059650233,-0.45872149354173947,0.7929729487957231,-1.2107499931613908,-1.941014905969137,4.149220173277473,-3.5363374484111447,-1.3759642327352544,3.1743082162760685,2.0,0.4907768845509373,0.5014538778386508,0.3183968128442609,-0.6063601338690068,0.5705841035823205,-0.010883789759072577,0.5537532951721373
10.9,-3.1130814525677564,-0.1356992616827722,2.960036517701718,0.06194684732998486,-0.33612309604599167,0.18697095975413103,-0.401308487899789,-0.45908603355941746,0.7925853151255978,-1.2107313276836649,-1.9410415199178483,4.149173781438187,-3.5363141121746646,-1.375970627887067,3.174302603577749,2.0,0.49078903108261873,0.5014569658512174,0.3184135489793593,-0.6063509695814883,0.5705741242985111,-0.01090086328236977,0.553773276303828
11.0,-2.8555102825392034,-0.2587076437982459,2.915373142761974,0.054514933449369876,-0.3408233788886877,0.18814971909059267,-0.401541055246654,-0.45933179698094395,0.7923250586305101,-1.2107343673706055,-1.9410392246642054,4.149197838658789,-3.536329780977409,-1.3759774073257398,3.1743126768237016,2.0,0.49077660730268186,0.5014595197190531,0.31834959701594256,-0.6063816563054315,0.5705969377153609,-0.010897197226790662,0.5537162383917729
11.100000000000001,-2.912046353943066,-0.3684714369432398,2.8620559861694943,0.05379237685346582,-0.34077042430543747,0.18824682515603336,-0.40131408948594505,-0.45910942509621533,0.7925688017033844,-1.2107260476469597,-1.9410435578536043,4.149200916290283,-3.5363372947172587,-1.375937287007467,3.1743235439422643,2.0,0.49078501237871536,0.5014586488231513,0.31835963184031796,-0.6063778642789097,0.5705918685353996,-0.010910090224489138,0.5537253608108654
11.200000000000001,-2.9324991048159466,-0.2571639320465032,3.1183304359620454,0.05578035159879189,-0.3373617872829983,0.1869054690607129,-0.4012157578210838,-0.459026819969768,0.7926665446089332,-1.2107591431800564,-1.9410392246642054,4.149189472198486,-3.536352752339613,-1.3759610877762611,3.174304962158203,2.0,0.49077758743220384,0.5014753060386217,0.3183665276970913,-0.6063840306869349,0.5705730733018818,-0.010904282164917047,0.553738089696907
11.3,-2.822417662458383,-0.23655735761124483,2.840259392706983,0.0576317260371274,-0.33851953628746706,0.1923842163412053,-0.40099045001978595,-0.45875080757114356,0.7929401340797008,-1.2107097477040603,-1.9410237474732446,4.149205076998099,-3.536348266272487,-1.3759427023610757,3.174309382910257,2.0,0.49079024719685094,0.5014595184443158,0.31840353019086476,-0.6063585802092709,0.5705773817566125,-0.010899133646757191,0.5537616206637257
11.4,-2.8534046103854873,-0.3993232151751863,2.771337758001951,0.05580394116727599,-0.3368520114683313,0.19291984810216728,-0.4006710957543988,-0.4583536586752829,0.7933313147529614,-1.2107312490500337,-1.9410482391248491,4.149174956995031,-3.5363235125451298,-1.375970143326021,3.174304962158203,2.0,0.4907993619087341,0.5014408416515995,0.3184187782596917,-0.6063425080956751,0.5705884895686786,-0.010900341740452398,0.5537677500522414
11.5,-2.703206600111959,-0.3919814176296489,2.8296658759424744,0.054859245020269495,-0.33919686865344234,0.18815052591734222,-0.4009828547818876,-0.4586944270564015,0.7929765172018409,-1.2107489755687577,-1.941014905969137,4.149200916290283,-3.5363333527676515,-1.3759394124228892,3.1743389359033607,2.0,0.49080071565847844,0.5014497786288645,0.3183679234348727,-0.6063559064887967,0.570608491737018,-0.010907249434041724,0.5537323322089281
11.600000000000001,-2.6798496343883134,-0.5622253311687145,2.8047274040290193,0.04709276014781649,-0.34001337468817083,0.18716430908032033,-0.40112750150053167,-0.45888225201233596,0.7927948897010659,-1.2107513533726362,-1.94105549451878,4.149172551549729,-3.5363527737059535,-1.3759367240835154,3.174328555230774,2.0,0.4907801282933308,0.501473187616265,0.3183953408164571,-0.6063636494183886,0.5705763289418129,-0.010884988776911996,0.5537574329384884
11.700000000000001,-2.906509056124084,-0.2896367453919875,2.8869728315280847,0.05408683036262812,-0.33384608677109534,0.18650120476631002,-0.40123180105993805,-0.4589932979439388,0.7926777567371754,-1.2107276162006384,-1.941014905969137,4.149205609212113,-3.5363214225421693,-1.375953495953375,3.1743029159189313,2.0,0.4907900346052986,0.5014483962574922,0.3183900082531482,-0.6063565574982683,0.5705956043481408,-0.01089145261077724,0.5537452101259714
11.8,-2.7643967157548275,-0.7259135853678391,2.808909834269139,0.04484521227908936,-0.3346184808487477,0.188672437726757,-0.4013801158330687,-0.4591567968814396,0.7925080613804124,-1.2107179907123848,-1.9410168220316,4.149184128584861,-3.536345719553466,-1.3759543460264467,3.174277695145703,2.0,0.49080815177171866,0.50142769658901,0.3183924065157717,-0.6063610322167207,0.5705872965998612,-0.010921949024174,0.553748270062714
11.9,-2.6681268493377917,-0.2530884236154251,2.829309523066949,0.05861303540019071,-0.3411824088720194,0.19163540988717895,-0.40148435016252465,-0.4592860130400671,0.7923802661123386,-1.2107182911863967,-1.9410273037352503,4.149180764265373,-3.5363598695386464,-1.3759611288653772,3.174294247450837,2.0,0.4907905524171591,0.5014521346991987,0.31839098446868225,-0.6063664570211144,0.570583444116232,-0.010898677913454682,0.5537467579316908
12.0,-2.731753848997551,-0.5212841337028814,2.849955501824012,0.0517322629755794,-0.3363267117796745,0.18722211146769233,-0.4018072195174764,-0.4596410196028569,0.7920107891170645,-1.2107229232788086,-1.9410579247607178,4.1491852853356335,-3.5363268592285086,-1.3759611288653772,3.174308269718645,2.0,0.4907933304970144,0.5014536324111571,0.3183918620730186,-0.6063661692468331,0.5705810485466596,-0.010913316497462262,0.5537492531420174
12.100000000000001,-2.8414493056946712,-0.09529857543653991,2.9294676014825978,0.06006361802737577,-0.34432664047092126,0.18706478940969484,-0.4010913091683333,-0.45882819775468087,0.7928439243119633,-1.2107208079859781,-1.9410434371742902,4.149160012266776,-3.5363068165830067,-1.3759562701159156,3.174280881881714,2.1582337029319096,0.4907942625305248,0.5014399773932887,0.31838099495382277,-0.6063765341303862,0.5705837118975378,-0.010927488988160296,0.5537348793038611
12.200000000000001,-2.809806900290627,-0.3480788829851442,3.163458757771759,0.05610336280947095,-0.3460521625490605,0.1898257783976793,-0.40072628126638155,-0.4584269698993931,0.7932610919867582,-1.2108057946682858,-1.9409646292419367,4.1491691033192355,-3.53631801373143,-1.3759663495051049,3.174304962158203,3.0,0.4907889259986138,0.5014529050807611,0.3183845947071781,-0.6063540229307856,0.5705944800100317,-0.01088849318714654,0.5537492022331479
12.3,-3.1227345630076773,-0.4233944432371237,3.881768232643271,0.045393931738418505,-0.34535118387036007,0.17286583786378193,-0.40073035959544373,-0.45845858256215705,0.7932407622763492,-1.2115617496592581,-1.940211614082946,4.14921236038208,-3.5363321998889803,-1.3758461191275135,3.1743292808532715,3.0,0.4907538009375265,0.5014244912552956,0.3184134135632054,-0.6063596099442089,0.5705799246746428,-0.010901493409015825,0.5537578265162842
12.4,-3.129048035432697,-0.3829937679195463,4.646904815074894,0.04793195004445219,-0.3487422194837314,0.13447125473097152,-0.4010493886875111,-0.4587596939142204,0.7929051733605771,-1.212593424740896,-1.9391688962659255,4.149387115892752,-3.5363557760540654,-1.3757056112185158,3.1744389198646905,3.0,0.49063162270487265,0.5012021313609009,0.31849019702115117,-0.6063600633692436,0.5705964778867312,-0.010928303005379274,0.5537397449773018
12.5,-3.254196824042929,-0.6304795189436186,5.112810750143313,0.049980448800382445,-0.3305983358853745,0.1258201273571001,-0.4013739651901635,-0.4590655521031144,0.7925640316014457,-1.2137121687283863,-1.9377959329270953,4.149644909084164,-3.536447509687448,-1.375557779735332,3.1744866593161776,3.0,0.4904494286699967,0.5009924166704176,0.3185969887470621,-0.6063511627947527,0.5706068855028681,-0.010933174608429307,0.5537386705722749
12.600000000000001,-3.685088642410023,-0.9055879485572713,5.143891802949117,0.06503457910408442,-0.35736297711282894,0.0884958860737465,-0.40153541962271516,-0.45932723818536825,0.7923305613224284,-1.2149961631335513,-1.93648579928975,4.149831855434398,-3.5364694240526395,-1.3753677487112619,3.1745764653470503,3.0,0.4900842595469981,0.5006775878008217,0.3189026552121094,-0.6063061567805323,0.5705803286241309,-0.010895168793110577,0.5538160598377125
12.700000000000001,-3.3448653481614308,-0.9094028238109356,4.9296954691911825,0.0805055430265505,-0.38122217302951056,0.06889992301632104,-0.40133036210413625,-0.45916848441240327,0.7925262893035107,-1.2162023640805109,-1.9355039201222946,4.150059594995417,-3.5365449390807093,-1.3751644347351346,3.174645462913347,3.0,0.4895714967241465,0.5002133342957175,0.319245277857163,-0.606323024164908,0.5705384738628524,-0.01086386862713145,0.5538413279705843
12.8,-3.193914112789221,-0.9147681634295411,5.176302968168826,0.07184284737638948,-0.37852417910340647,0.045817174007214245,-0.40065247106214724,-0.4584435544013487,0.7932887622622239,-1.2173408948928681,-1.934421988453086,4.150256633758545,-3.5365687809386195,-1.3749900270929347,3.1747269159384084,3.0,0.48936928092749166,0.4999958524331497,0.319304498970017,-0.6063559659653145,0.570549794337469,-0.010885447670495534,0.5537931759680279
12.9,-2.839593923663273,-0.7048936571167368,5.458041654931105,0.05257083867048798,-0.3718540454699317,0.03017727809698907,-0.40085327664080994,-0.45862493658573567,0.7930824163788737,-1.2184552617686417,-1.9332067910620074,4.150423187307868,-3.536640783349508,-1.3748171029644014,3.174830947456518,3.0,0.48908543613749894,0.49969979749484184,0.3193441923980361,-0.6063971979871794,0.5705941383470952,-0.010905808037153537,0.5537019332712239
13.0,-2.9806571633393992,-0.18029478769369112,5.763019657979155,0.03701961725521198,-0.35405501109986043,0.003252135557576325,-0.40063608744579987,-0.45836226306863653,0.7933436736161318,-1.2195825576782227,-1.9318120689655305,4.150615760129935,-3.5367063824543927,-1.3746201267939837,3.1748763071442188,3.0,0.4886846363804957,0.49928110976336104,0.3195744847944992,-0.6063948413187024,0.5706044311500347,-0.010925532290646536,0.5536935184000057
13.100000000000001,-3.2518667848700686,-0.1583273071261729,5.8259157362561504,0.039808170951278254,-0.35550027710262017,-0.015341977722246065,-0.3996231990759681,-0.4572192136127677,0.7945126729901922,-1.2207224499303677,-1.9306084170936366,4.150808811187744,-3.5367595052716516,-1.374421426946664,3.1749577076115747,3.0,0.4884067585491171,0.4989710483216801,0.31988041879376083,-0.6063474071911188,0.5705664674525137,-0.010914068474440274,0.5537848057871418
13.200000000000001,-3.0846937256722917,-0.1659503222516248,5.901960566688772,0.03497685801294923,-0.33983786990187725,-0.026690429472243718,-0.39897871721743305,-0.45647262282483675,0.795266380198857,-1.2218180195785733,-1.929588221701365,4.15101338027427,-3.5368196465865287,-1.374246899281637,3.1750446449606065,3.0,0.4881019372631336,0.4986402734144658,0.3201440205880667,-0.6062931299200914,0.5705760170199243,-0.010887599579595427,0.5538349118544011
13.3,-3.0027053521658953,-0.012283837570730234,6.10045442951724,0.013317893733372166,-0.3278496575502817,-0.030143600111990604,-0.39919641013677354,-0.45671101626996163,0.7950202084507804,-1.2228608167303279,-1.9284731486515876,4.151215076446533,-3.536860118414231,-1.3740735671799007,3.1751350223527353,3.0,0.48767486998893084,0.4982277754591031,0.3202830623013396,-0.6063474650260979,0.5705999731581056,-0.010911937240148072,0.5537502613218899
13.4,-2.8846059632516643,0.0418333725781644,6.155578155640915,-0.006953456043316233,-0.3124379490809078,-0.0201344872886324,-0.3993163302638675,-0.45684545625149486,0.7948828193413761,-1.2241357349582167,-1.9272255861703071,4.151399978642242,-3.5369446714771953,-1.373894627243399,3.1751890026599487,3.0,0.48749862886705064,0.49806366551729186,0.32038941744803145,-0.6063491603624769,0.5705949323302106,-0.010909662969614022,0.5537536439434884
13.5,-2.5572692263236596,0.18398995765043766,6.503843016951498,-0.016316326903262346,-0.3110232830429509,-0.009671077908680232,-0.39928697369267596,-0.4568211830627916,0.794911516448379,-1.2253002948720586,-1.9259232338537706,4.15159258491209,-3.5370071177888422,-1.3737134478951694,3.175290107727051,3.0,0.48705119755820553,0.4975962731293056,0.3206643576874844,-0.6063502343496161,0.5705858720884583,-0.010924518072595814,0.5537615107445629
13.600000000000001,-2.9393877690024746,0.26134380945161817,6.60411892327279,-0.011411670511773995,-0.32932961923229725,-0.013785203628341972,-0.4001056534504088,-0.45772572626044955,0.7939787727673333,-1.2264118716372698,-1.9248031429896795,4.151764005153357,-3.5370468511356377,-1.3735512235803957,3.1753520556116976,3.0,0.4867396084366435,0.497280972894921,0.32085953758081626,-0.6063434580605218,0.5705831121697902,-0.010914727540647252,0.5537719672361164
13.700000000000001,-2.9666593003208592,0.3462117345891771,6.715124829676905,-0.019231011453891077,-0.32969193000707203,-0.010832639672280616,-0.4001076595835006,-0.4577327730519809,0.7939738898317416,-1.227406104692093,-1.92370684296755,4.15194584225605,-3.537156721154684,-1.3733789300121322,3.175434238511879,3.0,0.486418684996857,0.49695718120042587,0.3210410594935918,-0.6063492848699208,0.5705850895760844,-0.010912173106876087,0.5537636000761275
13.8,-2.995238891374158,0.20596186756012866,6.639565170451558,-0.024257393768475757,-0.34042112367064703,-0.007770746725864367,-0.3994489929975923,-0.4570210640822292,0.7947129482666382,-1.2285138266506501,-1.9224921120590952,4.152154554647476,-3.537151049647509,-1.373176705823883,3.175506353378296,3.0,0.48617530719336527,0.4967050497502277,0.3212081101605879,-0.6063466099936126,0.5705762911571675,-0.010912108180998869,0.5537755957187274
13.9,-2.8098656744844095,0.39390722698865105,6.859126517333134,-0.04292152977782907,-0.32863627261635253,-0.004774412704306313,-0.39787566391462503,-0.4553166983686795,0.7964797111036314,-1.229785823363083,-1.921289318897141,4.1523724041958054,-3.537247055866135,-1.373018354273555,3.1755957862754873,3.0,0.4858253231943976,0.49636355810780186,0.3214193522136743,-0.6063473186133645,0.5705725959920778,-0.0108978177610448,0.5537789084836033
14.0,-3.046582433864708,0.4569914121621491,6.820847774296995,-0.0365925302141849,-0.34454998993005626,-0.0028733870386596634,-0.3979739668489966,-0.45541906332778487,0.7963729710437274,-1.2310337973146874,-1.9201566061644568,4.152569501330932,-3.537355205801232,-1.372863238237267,3.175670272048657,3.0,0.48561552681324405,0.49614596232926883,0.3214904785576304,-0.6063656124350482,0.5705909108954278,-0.010897562395257819,0.553740010829664
14.100000000000001,-3.4887443363184283,0.3704638361899524,7.04313002152583,-0.04443650328214308,-0.35208476316174464,-0.004171586125195638,-0.39774885495495776,-0.45516016307636864,0.7966325918657362,-1.2320565897141589,-1.9189561611943962,4.152756680166291,-3.537384649316305,-1.3726597554055304,3.175751915909798,3.0,0.48510162681793534,0.49559423085725274,0.32173410217736287,-0.6063880761354883,0.5706115350974958,-0.010922161831275243,0.5536936729955583
14.200000000000001,-3.1602293746236674,0.3800208625166914,7.2394347877718515,-0.059470374852258714,-0.3568238021198035,-0.003930909080745927,-0.39694053930672024,-0.4542609556483257,0.7975493107521046,-1.2330044923071208,-1.9176976683946048,4.152923784198129,-3.537468572656149,-1.3725336233722132,3.1758178669995814,3.0,0.4847780683017981,0.4952604479146025,0.3219864037035184,-0.6063668141806711,0.5706018591577203,-0.010914533032135191,0.5537270789430717
14.3,-3.3936973054253934,0.4148030697845454,7.201979365060081,-0.046265094363677296,-0.38790864485910664,-0.007469186742220586,-0.3973301430514627,-0.4546814879591767,0.7971154483087846,-1.2341098308061358,-1.916541516852043,4.153127924448816,-3.5375703811981,-1.3723359705614633,3.1758853522731108,3.0,0.4845744429862082,0.49504113184888543,0.32222381544459094,-0.6063166959352783,0.5705761724156183,-0.010893329315176276,0.5538088398338376
14.4,-3.3959729928284075,0.2073247509203222,7.188988031899509,-0.04865812003244777,-0.403655063582593,0.001094518115843272,-0.39755269710801,-0.45493486459202565,0.7968601561418241,-1.2353981394153684,-1.9154502434686642,4.15334939956665,-3.537637057361401,-1.3721563662678866,3.1759804084257377,3.0,0.4841519063105676,0.49462548451129734,0.32250213330205973,-0.6063127607135439,0.5705658862905414,-0.010887138832249347,0.5538238671323741
14.5,-3.8611269970098,0.716865510953296,7.320026602457656,-0.04074853509157912,-0.3996552195675898,-0.004068012825891705,-0.3974320885738525,-0.45484486090412163,0.7969716927868207,-1.2366191916457208,-1.914370003263846,4.153517764753306,-3.537683499665964,-1.3719590345965784,3.1760533913123843,3.0,0.4838371943847978,0.49431651318311703,0.32254849641043526,-0.6063715881384899,0.5705914000362347,-0.010904882342618941,0.553732819005871
14.600000000000001,-3.8554535986144165,0.711744223864992,7.34749189627446,-0.05414395685306818,-0.41485734326639206,-0.0016027867747285375,-0.3970509991492591,-0.45442864127966776,0.7973985552470834,-1.2376049740294204,-1.913033745568867,4.153715868397246,-3.537792284646445,-1.3717842543035808,3.1761490355055533,3.0,0.48352853856422184,0.4940002736108779,0.3226232563415663,-0.6064208286097708,0.5706148566170226,-0.010918045350476918,0.5536544593172703
14.700000000000001,-3.975474406794337,0.6364973711884565,7.4595589389722265,-0.05945547780436373,-0.4376521735487563,-0.00010431283321476831,-0.3966127822188072,-0.45394087743254485,0.7978945735572389,-1.2385183129608137,-1.911839205006824,4.153930509357673,-3.5379050508544148,-1.3715985457049769,3.176209392368563,3.0,0.48328648004088665,0.49375232598894353,0.32283163706792106,-0.6063937221776775,0.5706065086218767,-0.010904740069750438,0.5536930130188257
14.8,-4.218480999811949,0.8913060819450362,7.576106432107897,-0.05768157163118715,-0.4536976527934867,0.00010840414215537912,-0.39606687992678474,-0.4533413666787085,0.7985061031591527,-1.239552380834843,-1.9106972515021612,4.15414589159506,-3.5380282624509527,-1.3714068571673792,3.176282239400887,3.0,0.4829714565948524,0.49343048995745165,0.32317934885081306,-0.6063350132412751,0.5705689721628794,-0.010894575601713995,0.5537961790633414
14.9,-4.318937608988824,0.6864483078371127,7.608087678486667,-0.04339995039098212,-0.47292581596705063,-0.002761842326140803,-0.3956148940456658,-0.4528471256541093,0.7990108121146413,-1.2408325472732449,-1.9096163620911544,4.1543803215026855,-3.5381477820986196,-1.3712211525066118,3.1763654667641346,3.0,0.4825782105267105,0.4930464238623632,0.3234594056670332,-0.6063316720376613,0.5705550408521708,-0.010882316135901664,0.5538144310486226
15.0,-4.376792545187037,0.6749370319417735,7.710639949640175,-0.050443047622335875,-0.47661653227542256,0.006288310598188438,-0.3954337172056052,-0.45265172693511435,0.799211163510138,-1.2421004144040029,-1.908554768627626,4.154572010040283,-3.5381705523190323,-1.371023806197325,3.176471835459229,3.0,0.48219400860551037,0.4926754182830279,0.32354506975697,-0.6063888874462167,0.5705883083462686,-0.010899429417700975,0.5537171678742235
15.100000000000001,-4.257343423822605,0.9512102112744916,7.961443604569496,-0.08270367575484769,-0.4647789139522327,0.004623615613784292,-0.3950823646610801,-0.45226847153817984,0.799601211638901,-1.2430582956409377,-1.907202598449349,4.154722434561551,-3.5382746889222747,-1.3708702867487008,3.1765148639678955,3.0,0.48199799625286877,0.49244149410568533,0.32358674007067467,-0.6064097725374278,0.5706095507571813,-0.010924141149781238,0.5536719168387836
15.200000000000001,-4.421035595607858,1.1213674479221407,7.909806919220488,-0.09746510905984078,-0.4793863207253392,0.0018742933844453778,-0.39427639253149116,-0.4513833623352329,0.8004980292294792,-1.2440506798880442,-1.9058743643475202,4.154884215763637,-3.538404154408381,-1.3707129228630055,3.176586866378784,3.0,0.48169450789004553,0.4921270972204236,0.3237997763713434,-0.6064072711883509,0.5705976527923837,-0.01091812719794973,0.553687036669823
15.3,-3.640872445990539,2.2176145487338674,7.061128282065468,-0.1347531143038159,-0.44800805928774207,0.02191983559782633,-0.39375790995733884,-0.4508082574186525,0.8010783622251059,-1.2447805404663086,-1.9050336084562713,4.155046990993522,-3.538568240093927,-1.370540686744732,3.1766536278561617,3.0,0.4812348677041231,0.4916371456943345,0.32431410956132806,-0.6063192024147872,0.5705487671576963,-0.010884384899048086,0.5538345052841137
15.4,-4.009586324387487,1.4341374486874339,7.171820164676233,-0.10130878249074056,-0.4826746288131964,0.009289790347804642,-0.3940359444301508,-0.4510920487438781,0.8007818446701181,-1.2447701145702763,-1.905088501918785,4.15510472896498,-3.5385779032847813,-1.3705158559173496,3.1766703694305067,3.0,0.4810598661778214,0.49145431758127367,0.324429334066197,-0.6063162865230621,0.5705587535083935,-0.010884003304659506,0.5538274171291061
15.5,-4.323435312706026,1.1684674333613794,6.968856611316123,-0.0869858429801884,-0.47809798090787614,0.006784422043784062,-0.3937274053343008,-0.45075952788718826,0.8011203421051379,-1.2448004972739297,-1.9050826767785607,4.1550566993775915,-3.538589781949264,-1.3705638794246995,3.1766823256602055,3.0,0.4810068313384709,0.49141647741675293,0.3244346859807037,-0.60633869631822,0.5705637699379343,-0.01090042221971595,0.5537973912693748
15.600000000000001,-3.9596398883217687,1.051509011472509,6.845417974674754,-0.08558198843977513,-0.4869199440774791,0.013137878675594936,-0.39323141286216245,-0.4502300499810847,0.8016617735116666,-1.2448839066124695,-1.905076643029684,4.155098368522073,-3.538601904158159,-1.37055168604751,3.1766764754411585,3.0,0.48099876261427416,0.49141420411785414,0.3244101159230221,-0.6063537226956086,0.5705649447122745,-0.010904098758679568,0.5537796560626953
15.700000000000001,-4.046545155960187,1.007100621300979,6.827468495021146,-0.08754379469628916,-0.48560242994990316,0.014637506277696503,-0.39357032265395214,-0.4506051068255553,0.8012844044278862,-1.2448722551234273,-1.905094355753592,4.155079805695573,-3.5385774282961346,-1.3705514810546173,3.176676680434051,3.0,0.48099321969646186,0.49139844060910476,0.3243954784065067,-0.6063572226856646,0.5705719339229919,-0.01090515395646168,0.5537686017945492
15.8,-4.057867271674482,0.9900967816396716,6.692908163089443,-0.08942999325198989,-0.478698105367153,0.015177864564582432,-0.3940572561922911,-0.45113376861128357,0.8007478983628531,-1.2448977571758386,-1.9050523243346156,4.155062198638916,-3.538584629493881,-1.3705821867712251,3.1766633621919915,3.0,0.4809943412875579,0.49139369627406604,0.32439052108964317,-0.6063541843054072,0.5705779381110238,-0.010896138235781385,0.5537659197601854
15.9,-3.9761008583450184,1.1505774462395928,6.648056025333175,-0.08502913770579928,-0.4772851071535799,0.018354566926451748,-0.3941361568878538,-0.45119897594820296,0.8006723228475258,-1.2449033409827743,-1.905100484887594,4.155076303048871,-3.538546242067734,-1.3705576101886194,3.17670129857973,3.0,0.4809986102452835,0.4913891960770276,0.3243719416799964,-0.60635628303413,0.5705937703644103,-0.010895880963882582,0.5537473133337817
16.0,-4.167018622989904,1.1788096086524078,6.529142830023377,-0.08732169396771848,-0.4684186747322525,0.011468951211542542,-0.3946054879349701,-0.45172343439872875,0.8001447940074765,-1.2448773949685759,-1.9050702164960407,4.155068169871386,-3.538560698827668,-1.3705819288836878,3.1766583919525146,3.0,0.48100948746419286,0.4913974525320169,0.3243732852054369,-0.6063540160065788,0.5705838080333785,-0.010897590805968861,0.5537600272658253
16.1,-3.975279513379368,1.2647627480753703,6.39417652547922,-0.08714724840185956,-0.47452094850607707,0.021057317872498517,-0.39492135775472803,-0.4520864255056244,0.7997839118309455,-1.2449077836982005,-1.9050643418838125,4.155038501359702,-3.538583894769186,-1.3705693497018612,3.1766587905879393,3.0,0.4809913644589926,0.4913956034465002,0.3244117972016843,-0.6063483507228322,0.5705722880572037,-0.010896068788405145,0.5537781300862528
16.2,-3.925874828276657,1.0832887074488053,6.602189638477059,-0.08814812152561184,-0.46565117019040037,0.021260392475680477,-0.3942196546103032,-0.4513180020682948,0.8005631136462743,-1.2449060279190893,-1.9050947968487821,4.155063220327405,-3.5385543648724638,-1.3705695311175745,3.1766521590623715,3.0,0.4810026119940176,0.49138802209328347,0.3243880822222731,-0.6063547905046403,0.5705813876846743,-0.010902508275387525,0.5537615762882168
16.3,-3.7893268513246223,1.0623551347172253,6.557121234144064,-0.08959535593282983,-0.4738188636241037,0.017074956138186614,-0.3936924783751755,-0.45074159038704853,0.8011480726068552,-1.2448841517313862,-1.9050703958000674,4.155086424359831,-3.5385600529112757,-1.3705636677509623,3.1766825652031576,3.1572331105339067,0.48099254966018207,0.4913881024241568,0.3243612374339677,-0.6063728417544207,0.5705937943481338,-0.010896660803958316,0.553729140841794
16.400000000000002,-3.944937853925195,1.2660260804155539,6.411498447610575,-0.08562415912513253,-0.4650000880490719,0.0230390219691175,-0.39380358589936193,-0.45086740844217305,0.8010226422065758,-1.2448954626784778,-1.905082607779779,4.1550626840473095,-3.5385540881611806,-1.3705755044389045,3.176694521024196,4.0,0.4809940212150854,0.49138755741815604,0.32437526540197026,-0.6063640244662969,0.5705916876961349,-0.010895128535978718,0.5537409971632019
16.5,-3.7079922789588777,1.1431360810744418,6.278473954892122,-0.08930789172379484,-0.4727879854504227,0.019715595493057056,-0.3937415519844522,-0.45079967891991735,0.8010910872949836,-1.2448845180936348,-1.9050882234424256,4.155056994177662,-3.5385533364435746,-1.3705643266563208,3.176663957446799,4.0,0.48097716541727936,0.4913993604254476,0.3243749279691328,-0.6063701886077344,0.5705855333057844,-0.010888225077162469,0.5537407246217702
16.6,-3.7210721067069534,1.1266846086233238,6.351410322985175,-0.08756783124596298,-0.4727647868733461,0.0240881957275514,-0.3931668754528961,-0.45016089248253544,0.801732481098515,-1.2448832294764554,-1.9050879226752533,4.155049636426575,-3.5385726151236168,-1.3705628343209297,3.176682472229004,4.0,0.4809884823662121,0.491388456695424,0.3243639431778947,-0.606368594519519,0.5705885137998732,-0.010899790058421711,0.5537391715209947
16.7,-3.6964674585291424,1.1673738807353953,6.382717130247,-0.08555618431751107,-0.47011871490992113,0.01844558464890975,-0.3932391037521646,-0.45025338927063935,0.8016451034347262,-1.24488990855484,-1.905094296079725,4.155080874447128,-3.538583742540258,-1.370563577683706,3.176676162689556,4.0,0.48098770098398463,0.4913870563352523,0.324384767701066,-0.6063577653232808,0.5705856875611239,-0.010888207433578496,0.5537541697553527
16.8,-3.7550905239369583,0.9505005251092626,6.3645899869288725,-0.09428709638196311,-0.4678242426172084,0.015861352939763033,-0.3932403687208594,-0.4502662112139654,0.8016372445496196,-1.2448953018134097,-1.9050946748154491,4.155056332216378,-3.5385661637680856,-1.3705576101886194,3.1766582073692926,4.0,0.48098970590457635,0.49139063239637576,0.32439456965651886,-0.6063635287309233,0.5705675419036815,-0.01089360769449237,0.5537664493831058
16.900000000000002,-3.8239258934947116,1.266266489421034,6.257140967946488,-0.08621452939319708,-0.4659916041044939,0.019015745025754774,-0.3929311771208024,-0.44993046469629,0.8019772713539454,-1.2449016571044922,-1.905068885945615,4.155050754547119,-3.5385729989724757,-1.3705630580869745,3.1766845429961386,4.0,0.4809896713255591,0.4914019540684553,0.324396378681238,-0.6063628026515713,0.570561774898585,-0.010887425877657746,0.5537733079003239
17.0,-3.6750216651910166,1.191987675925029,6.17888293091352,-0.08938062901297321,-0.46888532313070563,0.01914401421125703,-0.3930638406784442,-0.4500661999806587,0.8018359492701905,-1.2449189646143308,-1.9050820205439456,4.155056585392482,-3.5385481319823207,-1.370569538337292,3.1766587400940103,4.0,0.48099241343419646,0.49140014432909407,0.3243944495224483,-0.6063539866955736,0.5705740611749888,-0.010888039124652193,0.5537702900451456
17.1,-3.8249349548536067,1.4199176276424983,6.173007814806087,-0.08327135403340044,-0.46532700997660964,0.02154619233638872,-0.3934051035411686,-0.45042452127438337,0.8014673829372594,-1.2448956914961584,-1.9050711260265867,4.1550507263151975,-3.5385605015165122,-1.3705761644899068,3.1766335291887895,4.0,0.48099438659365934,0.4913927243447324,0.32438951887249656,-0.6063573658118143,0.5705763546366178,-0.010891451827757158,0.5537641598482425
17.2,-3.561493677582009,1.1956954746356097,6.175482813229953,-0.0859056700577378,-0.46902313388448597,0.018883770519341862,-0.39333577589440394,-0.45033462499243215,0.8015519065819928,-1.2449072067061209,-1.9050642452635707,4.15503847476919,-3.5385778775796197,-1.3705756710065389,3.1766822430596453,4.0,0.4810079784767664,0.4913914932887057,0.32437375257264756,-0.6063507292333497,0.5705869096710361,-0.010891702139286818,0.5537605461702299
17.3,-3.651636596427438,1.3154634335702244,6.373750877394077,-0.08773239891801086,-0.4684537618310918,0.021733514841281446,-0.3930666961724257,-0.4500266710865971,0.8018568582717136,-1.244919328719171,-1.9050644639438916,4.155050317186477,-3.5385719544889973,-1.3705456699084309,3.1766644617571527,4.0,0.48101712283247594,0.49138532742074953,0.32438599841545274,-0.6063386243245307,0.5705886707103323,-0.010898206904925847,0.5537718578941235
17.400000000000002,-3.825687731958819,1.4238073558997002,6.142772085591662,-0.08459811986932012,-0.46070710384046093,0.017504355457533677,-0.3928641346628827,-0.449798292334569,0.8020843130702865,-1.2449013202836452,-1.9051006532980177,4.155044468090642,-3.5385659291705416,-1.3705576101886194,3.176646811212615,4.0,0.48099816759945097,0.4913876498006389,0.3243446446608632,-0.6063753029963042,0.570594578148844,-0.010905581784094898,0.553725462290866
17.5,-3.9081385965314186,1.3347148245316989,6.30026581355744,-0.08354663462198778,-0.46127872529182096,0.021594950294010113,-0.39295358872889913,-0.44991969593403514,0.8019723369483673,-1.2449254989624023,-1.9051067262042092,4.155086994171143,-3.5385594912070006,-1.3705632898009594,3.176677240728692,4.0,0.48100891058006,0.4913815250919972,0.3243594322723305,-0.6063608362200036,0.5705906339647235,-0.010903530570614026,0.5537454087858504
17.6,-3.862511243805219,1.3217891206852537,6.238180399053227,-0.08652327783678398,-0.46023930778708677,0.022529695349695004,-0.39310509121603776,-0.4501180615530408,0.8017868041146378,-1.2449140548706055,-1.9050701344243386,4.155050754547119,-3.5385725694600167,-1.3705695311175745,3.1766768095744196,4.0,0.4809963456355715,0.49139108590823105,0.3243773660826778,-0.6063682973368327,0.5705756690107775,-0.010894745551534416,0.5537528315386764
17.7,-3.63176072287491,1.2426913967070032,6.256017533745884,-0.08880736624575132,-0.4656616197100864,0.02544068141930881,-0.39284802228001725,-0.4498350873007753,0.8020715823130716,-1.2448907316318607,-1.9050895594149626,4.155039392055582,-3.53856828350711,-1.3705687541707035,3.176682472229004,4.0,0.48100018049493953,0.4913892963222895,0.3243851167942482,-0.6063668838456262,0.5705716988129391,-0.010897966740595767,0.5537584067172096
17.8,-3.779121718644306,1.3105615932348191,6.108671658029862,-0.08487040441269399,-0.45940847179595257,0.023159137231833028,-0.3928927698052074,-0.4498578167845583,0.802036892580713,-1.2449140761158255,-1.9051009723473622,4.155057217531866,-3.538565769645869,-1.3705580976483875,3.1766935325731147,4.0,0.480996000652649,0.491384455217216,0.3243690908572849,-0.6063649668419554,0.570585707216027,-0.010896106281817506,0.5537461084065838
17.900000000000002,-3.6559055555008237,1.1792658214743292,5.937628327316149,-0.09245772617840202,-0.46257802018107846,0.027042138498501945,-0.39256448821990936,-0.4494536359418984,0.8024241126304893,-1.2449061607604477,-1.905088563958639,4.155050754547119,-3.5385481319823207,-1.3705753131830192,3.176670551300049,4.0,0.4809923155905802,0.49137820434059115,0.32436685544299587,-0.6063547667381679,0.5706002371810042,-0.010890850395721761,0.5537424090319807
18.0,-3.64434852205675,1.1064650095964064,6.151069492398799,-0.09053160719342836,-0.46502136319282694,0.02857929339450741,-0.3920823360882661,-0.44893187836010856,0.8029518102613142,-1.2449016571044922,-1.9050763394135308,4.155044588902041,-3.5385599436094606,-1.3705575462694293,3.176682472229004,4.0,0.4809962331730214,0.49137953825411235,0.32437859517899514,-0.6063574408858113,0.5705880858011491,-0.01090694662985065,0.5537516850894486
