xiamingqian9007/apple-picking-rnn/training_data/grasper_20191127_133526_noimg.csv
,/manipulator_wrench.fx,/manipulator_wrench.fy,/manipulator_wrench.fz,/manipulator_wrench.tx,/manipulator_wrench.ty,/manipulator_wrench.tz,/ground_truth.x,/ground_truth.y,/ground_truth.z,/joint_states.elbow_joint,/joint_states.shoulder_lift_joint,/joint_states.shoulder_pan_joint,/joint_states.wrist_1_joint,/joint_states.wrist_2_joint,/joint_states.wrist_3_joint,/mode./mode,/manipulator_pose.x,/manipulator_pose.y,/manipulator_pose.z,/manipulator_pose.rx,/manipulator_pose.ry,/manipulator_pose.rz,/manipulator_pose.rw
0.2,0.3456183193630949,0.07185350631165702,-0.0732072409944954,-0.016383663861133532,-0.006273758483742306,0.005274345966440007,0.04033253280445196,-0.034930805349123364,0.9985754808795115,-1.296900928477954,-1.7900137854002018,4.1748236617977454,-3.4735062442423255,-1.3454593183284012,1.8197379112243652,1.0,0.4604712026831039,0.47341838285957805,0.3819486429762734,0.7929281532740133,-0.06819994215863569,0.3834181957734649,-0.46861946052724135
0.30000000000000004,0.08998102229701158,0.3323425026130945,0.0682056875048113,-0.012686276887496812,-0.009593777889580712,0.06522572399746913,0.04011155368752781,-0.034565284597562355,0.9985970969284425,-1.2941509264747568,-1.7927821631614915,4.174266637984829,-3.473353525201315,-1.3461542153068176,1.819617590016894,1.0,0.4605793397517578,0.47355205773403825,0.3819375177956213,0.7929151927963998,-0.06819454673445935,0.3834191152138497,-0.4686414225364189
0.4,0.18147322568011606,0.07746334050767915,-0.10092662244522253,-0.009833853405133482,0.00048602670507959613,0.14907261377263253,0.03986302500373522,-0.03414357749574981,0.9986215506949285,-1.2906575426446885,-1.7967087810577556,4.173502019709261,-3.473052083816885,-1.346868383631548,1.8193941050088265,1.0,0.46129875314257124,0.4743592135387095,0.3815641712061094,0.7929608898602016,-0.06815534926034136,0.3833479923394627,-0.46862798922879245
0.5,0.4049814373779385,0.08487948804791365,-0.15162979371708482,-0.014014215269754764,0.001328118842270078,0.22320578678381722,0.03958404800968864,-0.033659772160862786,0.9986491407613407,-1.2873635826317955,-1.800157390250419,4.1727501162183485,-3.4729071881458373,-1.347395262704302,1.8191725874700293,1.0,0.46223305362572853,0.47530190822964286,0.3811848574569861,0.7929636749618927,-0.068170018982389,0.3833444079205647,-0.4686240749459023
0.6000000000000001,0.33690181727582746,-0.18250474458963095,-0.04561557570306748,-0.01881974027241934,-0.00025775768813422273,0.2717726479188771,0.039549941310266304,-0.033832469741567346,0.9986446446347103,-1.283974604615816,-1.8036618839027525,4.171959041768186,-3.4727015489246305,-1.347991020412358,1.8189793817340065,1.0,0.46306670871013467,0.47608829795819657,0.38091655187381274,0.7929312818007384,-0.0682250186282633,0.3834013773833821,-0.4686242770018821
0.7000000000000001,0.3951511885415092,0.12948361343053133,-0.07771398031766896,-0.019027401284084637,0.013291098002116159,0.26953790143545375,0.03952494240175401,-0.03402958552006198,0.9986389550830554,-1.2808179202827763,-1.8069399290253778,4.171314716339111,-3.472543530660434,-1.348772032764162,1.8187858338061582,1.0,0.4642227737464771,0.4772012584673362,0.38042684097241586,0.7929480422519499,-0.06826041088558137,0.38342783283697907,-0.46856911507318666
0.8,0.34024501943870655,-0.049260336666504395,0.1205200470006883,-0.00969455978496121,-0.007431948706718273,0.2546485367534282,0.039175526311926744,-0.03339842726515599,0.9986738764089186,-1.277714044285718,-1.8104034478984492,4.170797344465711,-3.472419878045553,-1.3494626050548266,1.8186359441085076,1.0,0.46528167298463924,0.47830163254396163,0.3799515375524882,0.7929722524213967,-0.06823109357276287,0.38340304812232306,-0.4685526944219973
0.9,0.31736795572414145,-0.237625456880085,-0.05759619304172601,-0.01005439515386931,0.0070626980805452,0.2514469367252872,0.03909929574798888,-0.03317308298387339,0.9986844617857442,-1.2746242606296392,-1.8131094300015047,4.170212268829346,-3.4722751529416453,-1.3500030642961869,1.8184541751864254,1.0,0.4661821537450819,0.4793294440460569,0.37963729093347975,0.7929441888115978,-0.06817478794186566,0.38337813430489853,-0.468628763368078
1.0,-0.0007005732124253045,0.34355857036342446,-0.058704725849204435,-0.014365099985474987,-0.002721825370958962,0.2452401684180463,0.03938806261426075,-0.03351138398530253,0.9986618072817717,-1.2717713181629975,-1.816388482692573,4.169596722325557,-3.4721903060313135,-1.350520385752605,1.818257382115596,1.0,0.4669858875405634,0.4801858196120011,0.3793308898607551,0.7929400684758197,-0.068154673869298,0.3833780977406268,-0.4686386906862371
1.1,0.11230824760613692,0.20383889539358926,-0.031661608967021436,-0.007039244024183357,0.0025876460043247895,0.2388699287679207,0.039613156801628996,-0.033851983931482185,0.9986414505443779,-1.2688838846927888,-1.818948941934136,4.168931018991506,-3.4720694104717755,-1.3510370011822401,1.818113811601027,1.0,0.46765055175354164,0.48084114593735633,0.3790906931163813,0.792925442073645,-0.06817411413956004,0.38341167899213846,-0.46863313784455163
1.2000000000000002,0.4450679966620908,0.16436077945115418,0.1921470212072916,-0.01882633870112928,-0.012887466341496408,0.24041951790074545,0.039754666058442314,-0.03419560176760507,0.9986241101503083,-1.2661789495441464,-1.821997601403076,4.16848611831665,-3.472014141348061,-1.3515198031378128,1.817922314130429,1.0,0.4685757125078875,0.48175674149052655,0.3787276047641248,0.7929175621451661,-0.06819446039865423,0.38343928745037215,-0.46862092148372364
1.3,0.37542931116026057,-0.06882886507529924,-0.19718303747602609,-0.011340736181947619,-0.001493897679165644,0.23939898257074238,0.03943366663653922,-0.03377974059513526,0.9986503589303102,-1.2633651547832312,-1.824543183621764,4.167879443759656,-3.4719219223606284,-1.3521041736256352,1.8178101725177942,1.0,0.46950343949955087,0.48267868550536663,0.3783706100497948,0.792915047763094,-0.06820632461522898,0.3834467533703241,-0.46861734031413127
1.4000000000000001,0.19057545214431398,0.2026718080566458,-0.17284777360368878,-0.015203080720130829,-0.010324331250019416,0.23843608877575553,0.038487123313542135,-0.03233668256410578,0.9987355621543018,-1.2609079637332838,-1.8272966931018673,4.16734943506669,-3.4718929729857386,-1.3526391735153966,1.8176606415729133,1.0,0.4701799502400704,0.4833699989843932,0.3781360747906927,0.7929001411563388,-0.06820466869561354,0.38344509777685776,-0.4686441574513388
1.5,0.518546802203744,0.10353785079483686,-0.20299704482662748,-0.013778039453203588,-0.004164239106584601,0.2435940299620118,0.0396952398471993,-0.03405462565306593,0.9986297105448134,-1.25821690435047,-1.829766524031567,4.166791129953662,-3.471825949126304,-1.3531793912149166,1.8175053596496582,1.0,0.4709079836137274,0.484075082477058,0.3777761519406482,0.7929375767595386,-0.06820904077017093,0.38342330267218483,-0.46859801225344294
1.6,0.4612546416979816,0.1343399664458147,-0.09772478153944561,-0.020219351628683803,-0.01234707504993841,0.2436825605250869,0.040486575982952674,-0.035200795044637204,0.9985598284114473,-1.2559188268150723,-1.832311121510135,4.166331555050038,-3.4717426164512015,-1.3535869665541458,1.817385196685791,1.0,0.4717163712259145,0.48488158409095977,0.3774906965953901,0.7929247059214413,-0.06820479755458238,0.38341975413063833,-0.46862331191729595
1.7000000000000002,0.2953350691222843,0.11856808549833334,-0.12242498708824283,-0.018256763076451372,-0.001640880822308278,0.23658591812750504,0.04038251066617906,-0.035091184267831976,0.9985679037085582,-1.2533356776412825,-1.8348750443678936,4.165909290313721,-3.4716909636698627,-1.353967014943258,1.817275767331333,1.0,0.4723599112259724,0.4855447693363486,0.37722100991342006,0.7929307919352001,-0.06820071413679717,0.38342960222910116,-0.46860555046508023
1.8,0.43745841728705553,0.10872308326134966,-0.035791452786219285,-0.014959329416574591,-0.005779657011622045,0.23448612927531104,0.040364370725925865,-0.035137850451711056,0.9985669966007192,-1.251120677583929,-1.837141531664581,4.16550510823286,-3.471669435446941,-1.3543246316381583,1.8171230241634269,1.0,0.47313579249997023,0.48636781623248054,0.37688268267051855,0.792937049676857,-0.06821704653758229,0.38342960527754694,-0.46859258168280404
1.9000000000000001,0.46983236764565256,-0.13883498951657725,-0.05864109049375001,-0.01800676806474205,-0.007693231264756938,0.23235530345462463,0.04044439305756497,-0.035287134679802684,0.9985584672925085,-1.248768232560217,-1.8394131154336575,4.16514253616333,-3.471701761285299,-1.3547223250018519,1.8169952752448837,1.0,0.47361147251351515,0.48685974271623433,0.3766812403938265,0.7929387601673596,-0.06822982095672207,0.38343258231017097,-0.46858539134230187
2.0,0.2632918807977541,0.2719683203100743,0.15239359513465814,-0.015248728722134324,-0.00717177009639468,0.2328558319018296,0.04066621704336547,-0.035572483675789836,0.9985393504814831,-1.24659663608185,-1.8417794014323028,4.164742799635836,-3.471675461747138,-1.3551592114643602,1.8169054985046387,1.0,0.47426945930438075,0.4875665090591877,0.37642781237283846,0.7929250356339158,-0.06821249410940061,0.38344416666158765,-0.46860165873109
2.1,0.42096312558133836,0.3508453681416361,0.07210413396266002,-0.004346896311489708,-0.0023773966253216707,0.2353453776174416,0.040885759478493974,-0.035767501783623104,0.9985234074877694,-1.2443590407314733,-1.843575157137951,4.164332890981718,-3.4716555665919495,-1.3555610230521353,1.8168091773986816,1.0,0.47504131200794353,0.4884181661748179,0.37601274720813216,0.7929810356110557,-0.06817629318797698,0.38339831388624346,-0.4685496805223007
2.2,0.14589213135579981,0.3925321869811078,0.09645820723122113,-0.014979554960469165,-0.008023393831889006,0.2355175781967573,0.04070122159209284,-0.03543325749358296,0.9985424030307134,-1.242373098353146,-1.8459748162932157,4.163941952233613,-3.4716571615405405,-1.3559123486943196,1.8167235783843814,1.0,0.475562118798454,0.48896200166906434,0.3759032577566816,0.792931152250688,-0.06817489396967766,0.3834163548100438,-0.4686195370306262
2.3000000000000003,0.28310778838540007,0.259522757660996,-0.06084464619385177,-0.011568018445368686,-0.007621043941515919,0.23396392737493504,0.03981607958302932,-0.03420309992866492,0.9986212351533292,-1.2402632931785225,-1.84777953138776,4.163575326398831,-3.4716847132725257,-1.3563302706625189,1.8166025529346645,1.0,0.47613908771330044,0.48953140553703545,0.37559487697667476,0.7929746612862355,-0.06818910407439208,0.3833856281881992,-0.4685689839738131
2.4000000000000004,0.3309412916464689,0.17922776648983918,-0.16007981731833532,-0.00777815249809833,-0.0008093040668093457,0.2278726309957292,0.03986450280838474,-0.03418293928278643,0.9986201838939142,-1.2382570042175982,-1.8495375118651332,4.1632986737296624,-3.4716521033637426,-1.356676535753529,1.8165033274826554,1.0,0.4765796259988559,0.4900037071485299,0.37543411822426315,0.7929690628281292,-0.06817014290808504,0.3833779582016052,-0.46858749255452625
2.5,0.4036566216649387,0.07144650654697532,-0.12012419688140105,-0.020540956929309264,-0.014994079451418126,0.2375889403217097,0.04007143082650384,-0.03436821721133859,0.9986055696841586,-1.236509524624456,-1.8516801391653197,4.1629114265017435,-3.471712317685573,-1.3570084916883036,1.8163922897568254,1.0,0.47720239167825346,0.49068797018377525,0.37534968513977957,0.792879811235272,-0.06815590832060614,0.3834130163034174,-0.46871189021148985
2.6,0.5031163250457013,0.053869405023771244,-0.08891147047732004,-0.01823287379716126,-0.008403669643069905,0.23386344732471562,0.03977790218219188,-0.03405740374910631,0.9986278769592821,-1.2344320819154186,-1.8534253276888724,4.162536551821967,-3.4716872395400076,-1.3572996839995761,1.8163071069145835,1.0,0.477799202686671,0.49125464906892236,0.3749501869011937,0.7929662556176191,-0.06817426508940944,0.38337482261561434,-0.46859420868779217
2.7,0.5454537559809303,-0.1193390589058391,-0.10257383800890657,-0.01589457466267001,-0.008634423615355947,0.232874228018326,0.039157292025091155,-0.033302389424741737,0.9986770217210468,-1.2326902112346825,-1.8550764182160928,4.16217190882518,-3.471745640728455,-1.357586730314507,1.8162217140197754,1.0,0.4782028106948739,0.4916147308375651,0.37483862190856876,0.7929424619964847,-0.06820549221579868,0.38340383938198963,-0.4686061872635739
2.8000000000000003,0.5403111069496467,-0.04198829864857273,-0.13906966355718875,-0.01987290512250514,-0.012134139995324915,0.23389192239043938,0.03806686383423182,-0.031841933374733,0.9987662362650762,-1.231078410285927,-1.8570460041976145,4.161814343997944,-3.471782363505414,-1.3578401819900097,1.8161385131744547,1.0,0.4787482185251389,0.4921326841861187,0.374765919496821,0.7928732898750964,-0.06823601367222276,0.3834567460628321,-0.4686754917207323
2.9000000000000004,0.3819154324870628,0.18408429604075222,-0.10135003020540088,-0.015268166003147014,-0.008553241803538046,0.23138797953655793,0.03743054345424098,-0.0310127738614101,0.9988178435000857,-1.2292099514548727,-1.8586073004338377,4.161564453233232,-3.4718185208803205,-1.3581328276069957,1.816028614291034,1.0,0.479347726914951,0.4927028955159122,0.3743068881166187,0.7929989794198772,-0.06824343963881242,0.383405469249277,-0.4685036795320169
3.0,0.29220242880958897,-0.0928926334128797,-0.04376955345471724,-0.012219699071931978,-0.006013499230118555,0.2317833072397,0.037699829197286365,-0.03140227115072466,0.9987955757445959,-1.2274702957936736,-1.8601834293369488,4.1612845105913445,-3.4718124003032655,-1.3583954080301222,1.8159741972541588,1.0,0.47980456404118804,0.4931931749776983,0.37423265414521006,0.7929413909297618,-0.06824177420422978,0.3834406046847477,-0.4685726341591332
3.1,0.26516053885624624,-0.10167612663963901,-0.08964708153827791,-0.019312741721558543,-0.005012451574273782,0.23216400332683484,0.037859792389803124,-0.03155217806408883,0.9987848036091874,-1.2261007884993365,-1.8617594343700712,4.160988573275621,-3.471867645964837,-1.35868590476387,1.815885066986084,1.0,0.48021796429569324,0.49363703311321727,0.3741514182647333,0.7928915727480458,-0.06823577283896955,0.3834654842951556,-0.46863744571308036
3.2,0.4104610615446967,-0.00011090566882355959,-0.1429792236593601,-0.02142708298085829,-0.007481678116827595,0.22841824652952109,0.03766200332637237,-0.031226203623914362,0.9988024540232558,-1.2244066976399004,-1.8632494290483352,4.160726820719895,-3.4718384007614533,-1.3589699297166906,1.8158135414123535,1.0,0.4805554325823899,0.4939934045748988,0.3739389408461308,0.7929321498708863,-0.06821646770287877,0.3834414229508126,-0.46859128715836407
3.3000000000000003,0.5898482778699098,0.29629555034411903,-0.14266133365495706,-0.011152438494170566,-0.013604057053527846,0.22890444599772086,0.037640257544353156,-0.031173914796763257,0.9988047867518307,-1.2228417356338392,-1.8647263481259373,4.160479556616309,-3.4719507469236848,-1.3591992834614648,1.8157507301449831,1.0,0.4809804521644272,0.494429652744453,0.3737251593917655,0.7929625047944987,-0.0682028891161339,0.38342270242222,-0.46855721440768444
3.4000000000000004,0.2079190277588497,0.10980271806911113,-0.1642607988291619,-0.02078490059353416,-0.00349889945230126,0.23517825924186256,0.0382352288956299,-0.03203503683669554,0.9987549871320947,-1.221459223139329,-1.866272896944763,4.1602425636621225,-3.471985307664361,-1.35948744458881,1.815673685543248,1.0,0.4814181744706809,0.49486062710611517,0.37362888667237654,0.7929255472991785,-0.06821943145855748,0.3834408322384214,-0.4686025114999662
3.5,0.2785254516278435,0.23625231345895453,-0.1906182904333373,-0.010005958292202157,-0.008334486827691175,0.23569503414262244,0.03866793572042478,-0.03260623828039867,0.9987198016859993,-1.2200643992319076,-1.8675586185851039,4.1600348863062475,-3.4720082968139043,-1.3597100889244869,1.8155796676655545,1.0,0.48192454115272554,0.4954227143963454,0.37332009396492716,0.7929770728476628,-0.06820857867261944,0.3833904872805391,-0.46855809244554114
3.6,0.4888090458534958,0.08139969010180355,-0.07034203438725178,-0.015308043275898487,-0.0037659968567610013,0.23091385020626676,0.03905749838844904,-0.03310035337672851,0.9986885019702745,-1.2185783835409125,-1.8687790205244768,4.159794240761193,-3.472037454644674,-1.3599541823016565,1.815559607776428,1.0,0.48222180513853463,0.49575154321354187,0.37324179484584935,0.7929575376890079,-0.06820083859322068,0.3833897895669286,-0.4685928491699304
3.7,0.36772090628053317,0.20612919620432046,-0.07184271017101256,-0.012691015498618459,-0.003437545595147354,0.2302736535655708,0.0391734799357614,-0.03326432953323311,0.998678586419209,-1.2172393593756388,-1.8702608320757144,4.1596013515592185,-3.472108036797675,-1.3601692904853095,1.8155007362365723,1.0,0.482499201927268,0.49604098001017194,0.37318205408558536,0.7929329159905232,-0.0681975633093578,0.38340261845964874,-0.46862449280390506
3.8000000000000003,0.40682279985843206,0.30074376877034514,-0.0022198224819338364,-0.011699211353313928,-0.00791272318370841,0.22953433164936624,0.039162821211770074,-0.03326898141039233,0.9986788427730723,-1.215956687927246,-1.871702929961578,4.159363091204595,-3.4721209011473597,-1.3603743651386904,1.8154301643371582,1.0,0.4829102209997276,0.4964618966026801,0.37297631746711357,0.7929530992932832,-0.06819057927857401,0.3834051912569981,-0.4685892514089647
3.9000000000000004,0.29263934182383744,0.16877267179865127,0.07684373537078375,-0.016291656715986428,-0.008243713574148954,0.2295145450229301,0.03901862186033782,-0.03309533306351059,0.9986902577536051,-1.2145166346066438,-1.872665227508492,4.15914101031016,-3.472189091412397,-1.3605667582537566,1.8153231348785617,1.0,0.4833393414357284,0.4969197438738121,0.3726824119034822,0.7930144401066119,-0.06818276812852779,0.38337301144306196,-0.46851290484874175
4.0,0.41300916199824433,0.2948564416405001,0.08873993698017887,-0.01109043099086637,-0.01005240723681911,0.23454190552659862,0.039732482647886924,-0.034096688806131564,0.9986276322419573,-1.2133117785133836,-1.8737836765581215,4.158952330334102,-3.472209439476813,-1.3607759220591709,1.8153159279284858,1.0,0.48365653647095247,0.4972373850453741,0.3726997085637606,0.7929451188611079,-0.06819121055603208,0.38341122630237523,-0.4685977260108668
4.1000000000000005,0.32176872563450204,0.24677571491625777,-0.02345916251706632,-0.013377177405556002,-0.006887491218799413,0.22712264169536348,0.04046040753176327,-0.035125732822837256,0.998563536519285,-1.2120471469075915,-1.8750247662905561,4.158717632293701,-3.472288794577552,-1.3609498182879847,1.8152174951444957,1.0,0.48395928820276496,0.4975526113588592,0.372681027115076,0.7928962215257431,-0.0681916076222447,0.3834350425230576,-0.4686609165542127
4.2,0.3851386376330306,0.5636021726207096,-0.009754299432329562,-0.00831863538962909,-0.010776106913890623,0.23198356129844155,0.040473506401663396,-0.03520040873415327,0.9985603760715406,-1.2108860096281564,-1.8765022339107185,4.158554816495992,-3.472319388619128,-1.361147425754278,1.8151736098635602,1.0,0.4842192722442547,0.4978112684963019,0.3725210921961923,0.7929242487838144,-0.06819509197881737,0.3834267970477927,-0.46861973542126384
4.3,0.41769178798793644,-0.16560437867162095,-0.0994449454384473,-0.02115845847564809,-0.01478754946370324,0.2294904589242937,0.03984277748602508,-0.034284464311941536,0.9986165219666283,-1.2094414661162018,-1.877708673227896,4.158367120537349,-3.472359539922504,-1.361308143189838,1.8151276413503594,1.0,0.48461575773446325,0.4982286401335593,0.37225078916830867,0.7929779878560408,-0.06819466688584656,0.383399748423846,-0.4685509909205665
4.4,0.32011249292942395,0.1075759312933393,-0.05969641890799263,-0.01606607337531076,-0.012424261914055497,0.23884281766487087,0.03899165462122951,-0.03302941255027401,0.9986929695004468,-1.2081015773073456,-1.8786964285642436,4.158104184957651,-3.4724317227934236,-1.3615487257586878,1.8150584661043607,1.0,0.4849914111526832,0.49866662765262143,0.3721093734137278,0.7929695583139824,-0.0681894945025548,0.38339024111506914,-0.46857378868705735
4.5,0.4546683924464692,-0.04031161146828176,0.09741603617472237,-0.015770419711508832,-0.008696065660320577,0.23001541625059674,0.03821773450978881,-0.031919177343925104,0.9987593469045466,-1.2069740670526128,-1.8798338790314213,4.157903314537913,-3.4725011807665753,-1.3617419236187702,1.81502103805542,1.0,0.48525088689386875,0.4989017770309815,0.3721519028820137,0.7929034982027043,-0.06819803289574175,0.3834441304350614,-0.4686402348091393
4.6000000000000005,0.2723644696182746,-0.01307882074298038,-0.10414549941979777,-0.014030186677604691,-0.004679203925639991,0.22800556867730046,0.038683506092041665,-0.03260798752689459,0.9987180858171207,-1.2057897240740238,-1.8812367742203566,4.157667952939308,-3.4725711171768996,-1.3619683424579065,1.8149288477146983,1.0,0.48557812814367796,0.4992083690590769,0.3720133702287119,0.79291484188492,-0.06819706901585647,0.3834400016301316,-0.46862456022507354
4.7,0.26704200576905746,0.39396914502363084,0.07726000920339979,-0.008004313490112616,-0.005997233353972231,0.22152976675783162,0.039604506249320805,-0.03395301434455825,0.9986377519299658,-1.2043886941078312,-1.8824732502181842,4.157465974620691,-3.472597459598738,-1.3621942050078342,1.8148873653880624,1.0,0.48600529540540743,0.499656247009943,0.3717288818844341,0.792967213346329,-0.06819310987348755,0.3834010982589169,-0.46856834739170805
4.800000000000001,0.3066895673565165,0.27784650146016876,0.030509910437898267,-0.009938500219691296,-0.009973906511398302,0.22651763911312386,0.039761564637706,-0.03414932090452136,0.9986254500046033,-1.2029191496422813,-1.8837180303376106,4.157252394889278,-3.472684522668356,-1.362397901090135,1.814818579090395,1.0,0.4863038722009395,0.49995597273183123,0.37162486344349727,0.7929623645198469,-0.06819390694402983,0.3834059217491559,-0.4685724903133801
4.9,0.585290650179091,0.17545254420857892,0.09478561925102108,-0.008588594534264339,-0.00974625736173854,0.22364266477136438,0.0396038629893266,-0.03388305361498328,0.9986407977421023,-1.2017932284537356,-1.8847790692006363,4.156980293426087,-3.472727508286846,-1.3626006869247174,1.8147703844154524,1.0,0.48667871513171274,0.5003678917694083,0.3715743861137117,0.7929092948966723,-0.06818621963154758,0.3834286149494248,-0.468644840744872
5.0,0.6159751444994988,0.08974997688733341,-0.050331583703788124,-0.013706469151953718,-0.013824092323604709,0.22966619911908662,0.03941267596789156,-0.033608459750289074,0.998657634565986,-1.2006265791853776,-1.886022171677541,4.156818185438811,-3.4727787431642336,-1.362804328310502,1.8147295417271463,1.0,0.48691356186445245,0.5006020227984288,0.37148272421794915,0.7929111663794843,-0.0681825851706624,0.3834258303780189,-0.4686444813599089
5.1000000000000005,0.349751205754979,0.2582353825884112,-0.09203854265176938,-0.011496356978421801,-0.008217670637429248,0.22994181922114337,0.038933257664395995,-0.03296158805754199,0.9986977285392673,-1.199286216085897,-1.887380683050667,4.156559467315674,-3.472826501994209,-1.3629884152865945,1.8146598922330182,1.0,0.48729364705940653,0.5009329286921088,0.37128806621196764,0.7929382352513281,-0.06820434553754445,0.38342057468686563,-0.4685998135222612
5.2,0.2975776465817524,0.23221394412097307,-0.0625667936916838,-0.008232767899303809,-0.00196842628213181,0.2343939701323358,0.03832586491329586,-0.03213317433426881,0.99874836443093,-1.1977856992363973,-1.8885822109051895,4.156400898147577,-3.4728646409566357,-1.3632023970233362,1.8145897874517452,1.0,0.48772305635036206,0.5013692122846063,0.3710516850973659,0.792966964721084,-0.0682150910224798,0.3833978262390576,-0.4685682458863293
5.300000000000001,0.49634751170084457,-0.03400163287732521,-0.07003039460793495,-0.015061563477624853,-0.014527454786322658,0.2289271240370626,0.03771459411203164,-0.031227729739284706,0.9988002694719073,-1.1964963073055623,-1.8897769922943555,4.156132074899147,-3.472937271554891,-1.363416471714682,1.8145305945204686,1.0,0.488063127015778,0.5017252040625907,0.37101260258586966,0.7929176831167357,-0.06821473058645487,0.38343096025070933,-0.4686245800777251
5.4,0.45323100873184397,0.23296068515946022,-0.0675000207812019,-0.016992235130446065,-0.014650768826493323,0.22841540124534654,0.03845678752377599,-0.03230585375782157,0.9987361863437761,-1.1954064630930998,-1.8909428680714755,4.155989791066824,-3.4730418289479403,-1.3635857740985315,1.8144997738645954,1.0,0.48836651900167455,0.5020396592396134,0.37094192631029893,0.792895815673226,-0.06822221857319438,0.3834434934083991,-0.4686502339096865
5.5,0.4277791525965352,0.07752513194481787,-0.024155409795005377,-0.0186617688328309,-0.014280683344975433,0.22963361521925568,0.039577580305849194,-0.03393614773171043,0.9986400232966919,-1.1940923860794437,-1.8921572435046898,4.155788845589295,-3.4731292729303127,-1.3637873692025904,1.814430687214203,1.0,0.4885968256717474,0.5022728191418547,0.37079885412583435,0.7929224786980327,-0.0682176451940227,0.3834283141678507,-0.4686182065967456
5.6000000000000005,0.33665507552447177,0.28114446773603713,-0.06809849893068341,-0.013571388013778296,-0.008031747655043208,0.2262669713646687,0.03930378322363568,-0.033508847485462456,0.9986652417588876,-1.1926912781509074,-1.8933951175611,4.1555517730372795,-3.4731736805324296,-1.3639691511737269,1.8143741073948496,1.0,0.48898247624019736,0.5026726104378992,0.3705629581405629,0.7929589714393852,-0.0682028856643251,0.38340695525728785,-0.46857607990718797
5.7,0.4256587077833331,0.2648700777963492,0.03847324834054342,-0.010774802668910781,-0.011006799327014882,0.22670126415324846,0.038136154507438916,-0.031802027653288455,0.9987640084688115,-1.1913247385022736,-1.8946600165169227,4.155328450599829,-3.4732091189624854,-1.3641720011778833,1.814302532871326,1.0,0.4893788800265859,0.5031132101892737,0.3705130033690459,0.7929024786444661,-0.06819778587114791,0.3834359207773774,-0.4686487128109279
5.800000000000001,0.4207266425202695,0.1497927074477313,-0.02747559874137115,-0.017952440399851124,-0.00974413308544269,0.23071902630586397,0.03689428666763732,-0.030009163723297753,0.9988680296826405,-1.1901740627607382,-1.8959061529904786,4.15514612197876,-3.473282581748054,-1.3643414230805488,1.8142985340343647,1.0,0.48973036652492835,0.503444926232914,0.37034587843602695,0.7929217254484467,-0.06820621558457482,0.3834338928731255,-0.4686165802270008
5.9,0.5253846239558322,0.04552596063238498,-0.006962108045324045,-0.015914254795026783,-0.014561429775497988,0.23287754854582887,0.03808972480519949,-0.03182740277168665,0.9987663431839481,-1.1888590799519585,-1.8972479868517003,4.154955434141018,-3.473345853592737,-1.3644974726736672,1.814213332194819,1.0,0.4900610492166933,0.5037654716724896,0.37016586648741195,0.7929463554422267,-0.06821065208187829,0.3834358636795103,-0.46857264407752464
6.0,0.4550709808658172,0.13291805837183446,-0.1461841332833637,-0.012577222570862493,-0.0029743430489959956,0.22796973626197795,0.03867084215633537,-0.03269215191291971,0.9987170295178397,-1.1874978154576041,-1.8983495956514223,4.154804400985996,-3.4734061300824624,-1.364685684628761,1.8141143993680078,1.0,0.49031658958689744,0.5040484324056259,0.3700238787400601,0.7929624037431129,-0.06821605830269399,0.38341883447003267,-0.468558633484892
6.1000000000000005,0.4211920251198407,0.07379998803922104,-0.0031749228764957702,-0.013417968362551744,-0.00836184507017208,0.22399169338755415,0.039071528775646965,-0.03325961827258608,0.9986820413180661,-1.186111294040503,-1.8995117345793142,4.154581546783447,-3.473541976742968,-1.3648799101458948,1.8141083717346191,1.0,0.49070986872226857,0.5044778694792648,0.36990470975472284,0.7929379650241404,-0.06822012441148659,0.38342665372294144,-0.46859299980205016
6.2,0.5323626679533163,0.044236726185804966,-0.05655239732292808,-0.015497028061755593,-0.010980079433970754,0.2311219377336219,0.04068656478227402,-0.0355912215883898,0.9985361273414756,-1.1848602521575295,-1.9007679585948591,4.154387863725081,-3.4735948048033656,-1.365062149112465,1.8140015602111816,1.0,0.4910412902134362,0.5048253316211494,0.3698362231127487,0.7929147660036087,-0.06821246062350772,0.3834451976106774,-0.46861819693481543
6.300000000000001,0.6143403900541557,0.19177774050628038,0.006369695878460271,-0.014769808659646699,-0.013390679763942958,0.23030777363377747,0.04085045839472437,-0.03583013862160565,0.9985219141658233,-1.1834118065980164,-1.902299327794011,4.15417686181692,-3.473680374280982,-1.3652871290790003,1.81399074273733,1.0,0.49138696008386384,0.5051737506002572,0.3696425125472354,0.7929416094036721,-0.06821929435206298,0.3834332320921452,-0.46858157078761886
6.4,0.14166183139909,0.3241510717487683,-0.10929999307704434,-0.017338043117800767,-0.004510028931102086,0.2258180429511265,0.040115501872923134,-0.03477282769428581,0.9985892776039335,-1.1821456354384423,-1.9033294502639113,4.153971711946011,-3.473798352851802,-1.3654798941271469,1.813917636871338,1.0,0.4917346155283015,0.5055482654178027,0.3694124517881152,0.7929869526063409,-0.06821273056023004,0.383402555250808,-0.4685308922715524
6.5,0.6384016738322303,-0.24972464704905972,-0.09529995384385065,-0.02222228892680473,-0.013811162252599417,0.2303468682386565,0.039764911170868916,-0.03424608380291941,0.9986220030313411,-1.1807821623392347,-1.9044088392315142,4.153767108917236,-3.4739160505557822,-1.3656705061541956,1.813890314661108,1.0,0.4919964089200679,0.5058037472000428,0.36935965013453176,0.7929659437740725,-0.06821723015894836,0.38341432417138366,-0.4685561626359606
6.6000000000000005,0.5566425304133329,-0.03246738082803381,0.02199834274239622,-0.019462419745756184,-0.0094623616278898,0.227896476869361,0.03966113949857914,-0.03406004148882961,0.9986324857936747,-1.1794892919978763,-1.9056221669372684,4.15358797440144,-3.474025310629379,-1.3658394405652883,1.8138327598571777,1.0,0.49239650599967405,0.506201376165236,0.36930774227954843,0.7929171608695613,-0.06821979754120402,0.3834438124693136,-0.4686142100928963
6.7,0.5059867354441249,-0.01990573901437201,0.015975453339704272,-0.02131412950760348,-0.007130917909158233,0.2302525165500511,0.03949876030161319,-0.03378961086741153,0.9986480320482751,-1.1779448383524254,-1.9070611075206156,4.153442488416474,-3.4741081519933656,-1.366053883229391,1.8137610540115983,1.0,0.4926759709359975,0.5065185421555124,0.3692028790247496,0.7929159448940049,-0.06821030342142495,0.3834285775446937,-0.46863011508230845
6.800000000000001,0.6420918962185089,0.08688832547811948,-0.018928955049194427,-0.020260253089703778,-0.010832724348640759,0.2311252679218293,0.038806313519093895,-0.03275594196624043,0.9987093743527028,-1.176774024963379,-1.908405686662949,4.1532558582751244,-3.474138703557299,-1.3662455717669886,1.8137107098191352,1.0,0.4930811347751328,0.5069824359438811,0.36896914061021097,0.7929454045366663,-0.0681968195901359,0.3834066359540894,-0.4686001821684894
6.9,0.18192807643617998,0.1972576020611719,-0.16778521329435545,-0.013902303578526912,-0.005166878995325816,0.22897414900610294,0.038687054726039616,-0.03257717061677432,0.9987201307903582,-1.175483333113717,-1.909445768569228,4.152987003326416,-3.4742660384529973,-1.3665202445209736,1.8136419928132326,1.0,0.49338678076657044,0.5073085309232468,0.368770573586733,0.7929817466486702,-0.06818909753472793,0.3833888173387993,-0.4685543844624446
7.0,0.3183180684808002,0.08587839256742762,-0.12764854940332057,-0.016408954029332786,-0.00766918920243682,0.22939717882377397,0.038936941495662396,-0.0329470248939737,0.998698352407156,-1.1746502306101456,-1.910172582564699,4.1528234800077835,-3.4744068917724173,-1.3666523355680236,1.8135819485727347,1.0,0.49361622008126144,0.507527029499098,0.36870101177354014,0.7929740351904258,-0.06818920985916006,0.3833878573480269,-0.4685682042250475
7.1000000000000005,0.19008482970361812,0.055734858734410066,-0.060014122505388554,-0.0220991828808351,-0.011669370562959545,0.22987572130043504,0.03879048213194217,-0.032702613216432974,0.9987120705585167,-1.1745548593277824,-1.9101720706401017,4.152831559441081,-3.4743844298880098,-1.3666756788836878,1.8135705339188468,1.0,0.4939030097324829,0.5077853252625822,0.3686835780162767,0.7929388930833065,-0.06817844694846155,0.38340438529526244,-0.46861571521223944
7.2,0.3199060279476213,-0.04253061358832722,-0.06032467406939861,-0.012735837420936386,-0.001034850450382211,0.22431064515154825,0.03874515076024029,-0.03262113144628144,0.9987165131490743,-1.1745220242411991,-1.9102455578246058,4.152807153745643,-3.474372526208395,-1.3666371466479454,1.8135956802154787,1.0,0.49395688040039193,0.5078320352334668,0.36868882196680636,0.7929300295650534,-0.06817799242532396,0.38341358173801543,-0.4686232547597724
7.300000000000001,0.5036291514667603,0.09561621571250863,0.001088806306328495,-0.019768786514992063,-0.014480221766493382,0.22900311027962958,0.03875206484360592,-0.03263124684450845,0.9987159040864044,-1.1744413309852226,-1.9103528461852015,4.15282839360527,-3.474364746921552,-1.3666445074158693,1.8135848012347988,1.0,0.49397218806900806,0.5078511710987221,0.36868093880390296,0.7929276115022924,-0.06818480616773544,0.38341657299287835,-0.46862390749889676
7.4,0.4117458803553586,0.16996235543833563,0.1111827045531561,-0.01730839372788441,-0.006423023007272843,0.22421474901418725,0.03843321348227397,-0.03222435551264219,0.9987413130200232,-1.1744515916268303,-1.9103460670138164,4.1528038683839075,-3.4743505327515996,-1.3666193973621403,1.8135910921322596,1.0,0.49400359604160826,0.5078655233173053,0.3686489343630616,0.7929382531090935,-0.06819591743712952,0.38341489427817876,-0.4686056577196447
7.5,0.31077853594587435,0.14344629426034822,-0.08617704367844671,-0.013264010194628023,-0.009676922675293664,0.22462966409059834,0.03958458271539246,-0.033890428814774616,0.998640253812956,-1.1744585037231445,-1.9103217014743061,4.152807876906968,-3.474338849178623,-1.3666313470843992,1.8135588909763327,1.0,0.4940065759453399,0.5078813120132158,0.3686409314284471,0.7929360801978873,-0.0681992533557606,0.3834102566497288,-0.4686126435105177
7.6000000000000005,0.36580677899670716,0.12559966523885147,-0.1240464486007259,-0.015893401792626383,-0.008221119436352755,0.22435314343302548,0.03896678572374937,-0.03299962552547563,0.9986932097993954,-1.174443800646185,-1.9103580285132213,4.152775508258784,-3.4743393682379304,-1.3666205075290014,1.8136003984054676,1.0,0.4940116946672191,0.5078839911011804,0.3686266683428554,0.7929421396427199,-0.06819402208515964,0.3834141590390572,-0.4685999585777263
7.7,0.3311821974539777,0.08359626006810718,-0.17045808238381718,-0.01581006255365907,-0.004342353068080621,0.22785952337044046,0.0377764436207027,-0.031310117624273326,0.9987955803995017,-1.174422264099121,-1.9103448625454527,4.152786871761725,-3.4743605749638875,-1.3666279951678675,1.8135913402133725,1.0,0.4940120233090407,0.5078744689086406,0.36862198703328697,0.7929496954551396,-0.06819089374243038,0.38341933147892404,-0.46858339571144086
7.800000000000001,0.40434094241782687,0.23964728282186687,-0.13685246023356867,-0.01163645899861037,-0.008780817552984517,0.22494554059866492,0.03828650225772913,-0.03206105943152301,0.9987515859017381,-1.1744456041454543,-1.9103883580662784,4.152797723949028,-3.474360821174578,-1.3666049060273227,1.8135928857921828,1.0,0.4940199288580199,0.5078730259852617,0.368638175541112,0.7929340420337638,-0.06820340928018359,0.3834219651840171,-0.4686059075182294
7.9,0.5491898021935118,-0.04474848999250188,-0.12373719409983344,-0.01818183460588357,-0.010484887972283493,0.22258341849695876,0.03929228475166438,-0.0334775632308553,0.9986667200170277,-1.1744461059570312,-1.910353790697346,4.152782935347049,-3.474349666643115,-1.366628939680012,1.8135800831059878,1.0,0.4940094721024554,0.5078813212253059,0.3686353444848153,0.7929369666037864,-0.06821157776787834,0.38340597284919,-0.4686128547481049
8.0,0.20645776128332685,0.3269626908115628,-0.19890757437490317,-0.009947006493658296,-0.004806369683353278,0.2216299278979847,0.0397388003697151,-0.034155354545694135,0.9986260167084645,-1.1743883959491728,-1.9103409252562464,4.152807700138837,-3.4743734735761236,-1.3666513664952071,1.8136048316955566,1.3090942370044973,0.4940173752476261,0.5078734579576978,0.36861986994377505,0.7929450238167106,-0.06821503331526486,0.383414102058022,-0.4685920664897711
8.1,0.20614116006433175,-0.04124943719943483,-0.16447746585081202,-0.013507865795424238,-0.004906485761546225,0.22665592394408288,0.03946049139131366,-0.03374494757960721,0.9986501931564793,-1.174454917146547,-1.910359743447889,4.152781513685248,-3.474355719558426,-1.3666298687642873,1.8135745290817087,2.0,0.4940172422950547,0.50787778727406,0.368629915422925,0.7929391096644114,-0.06820168091953233,0.38342141393534873,-0.4685980350152771
8.200000000000001,0.14544422306858212,0.21726622187803674,-0.020913345536425664,0.0001565763609053589,-0.00901264783344478,0.22799844593753474,0.0383508377194307,-0.03208225621834755,0.998749027447282,-1.1744229029293565,-1.9103538044305546,4.152808316689884,-3.474336588651848,-1.3666511981955423,1.8136289628443385,2.0,0.4940175513723609,0.50788220897344,0.3686429223683135,0.7929328587561295,-0.06819677520548935,0.3834136328940705,-0.468615692724192
8.3,0.33285157180141167,0.0193344880783774,-0.1639300344112043,-0.009264811497990012,-0.006339330745060808,0.2234894878346845,0.041149573186317255,-0.03615143101818412,0.9984978784720567,-1.174422264099121,-1.9103672640550395,4.152780300857064,-3.4743582968183184,-1.3666352041027865,1.813600308181282,2.0,0.49401125754344205,0.5078889516108006,0.3686509461724589,0.792928282538844,-0.06818587311856722,0.383424973194465,-0.4686157438540471
8.4,0.44937175140539365,0.26281122778090205,-0.12529320760992294,-0.013708462196939799,-0.011471225142792465,0.22625933960057049,0.041586701797577695,-0.03679616496866417,0.9984570966267882,-1.1744230711391206,-1.910388205452067,4.152796802476652,-3.4743717924855537,-1.3666403196168224,1.8135583746805357,2.0,0.49401197423096577,0.507888312315384,0.3686341187725643,0.7929383628661026,-0.06818540689669374,0.3834217138698066,-0.46860142158842977
8.5,0.3287903457895983,-0.09541546738139828,-0.0038098707474410465,-0.02031456210008669,-0.009783446332760085,0.21906125169097276,0.040576027790991655,-0.035325816344568835,0.998551638724358,-1.1744034805577317,-1.9103517257052125,4.15277931192419,-3.4743486843504847,-1.3666279951678675,1.8135750581929972,2.0,0.4940117022271996,0.5078777042295919,0.3686144073597662,0.792950886648478,-0.06819416029379241,0.38340337704771443,-0.4685939589171261
8.6,0.2752352453158091,0.14082633368194653,0.13762374703908875,-0.018553198833008315,-0.014262093067030579,0.2212118158684631,0.03976428995519739,-0.034176901136914455,0.9986239236769965,-1.174402187481963,-1.910373481097305,4.152774066852318,-3.4743456056825104,-1.3666344090594806,1.813596466271734,2.0,0.49402009586291074,0.5078723054794724,0.3686128833956807,0.7929527274419139,-0.06819554799608735,0.38341036035801185,-0.4685849281038418
8.700000000000001,0.36656872777500016,0.026200655145949388,-0.18640227331549025,-0.0204764788878686,-0.009450991521917074,0.22430030763730738,0.03939885582602759,-0.033669983029805735,0.9986560858791217,-1.1744460730740673,-1.910316702680611,4.152797189254487,-3.4743611137348327,-1.3666399160968226,1.8135457974779137,2.0,0.49402383103161607,0.507866370287986,0.36863795404485805,0.7929416252507924,-0.0682048144927323,0.38342153821929104,-0.46859322045266194
8.8,0.15471083038866373,0.3653363955170586,-0.1124855097760695,-0.022810814723089733,-0.006304199047611381,0.22037944405460133,0.0396394278823464,-0.034029854694879444,0.9986343965985165,-1.1743982996842817,-1.9103647671141566,4.152741652435619,-3.474339466465975,-1.3666168163080081,1.8135926158519002,2.0,0.49401924628786187,0.5078616865739313,0.3686524418246077,0.7929322804053884,-0.06821517164311039,0.3834236202886706,-0.4686058220440085
8.9,0.521299799043442,0.12470456091753208,-0.13018857349382815,-0.022973893977257263,-0.015409894635490792,0.2222234627172386,0.04113601179449774,-0.03617013996026981,0.9984982411097003,-1.1744165062676133,-1.9103648416675094,4.152797144601965,-3.474379000786707,-1.366634067462374,1.813575154470652,2.0,0.4940148873789033,0.5078750464627605,0.3686307366211888,0.7929415524657892,-0.068205621489151,0.38341179209689635,-0.46860120065090444
9.0,0.3172245709237269,0.3671712504192674,-0.11001670820520058,-0.0212485923100904,-0.012612170542246413,0.22812635163806477,0.040281246314385975,-0.03494660783260468,0.9985759224232773,-1.174433613002604,-1.91036486626865,4.152809318473904,-3.4743729038910596,-1.366639816942329,1.8136171263409966,2.0,0.4940152303113942,0.5078779319554436,0.36864560902436516,0.7929359595035319,-0.06819900931587954,0.38341986820682594,-0.46860501909263164
9.1,0.4394316224483286,0.1783380221722624,-0.047406132835576265,-0.030759847624982514,-0.01663231588787569,0.22772988744893846,0.03938810402974196,-0.03366669524679103,0.998656527801024,-1.174422258209662,-1.9103766757734049,4.152784818481878,-3.4743486843504847,-1.3666399160968226,1.813580996217894,2.0,0.4940222718116976,0.507868033846235,0.3686430611239203,0.7929372159998549,-0.06820762785420506,0.38342404690102205,-0.46859821941930646
9.200000000000001,0.45784695846190526,0.3510145325331491,-0.04713893885106894,-0.032765938371886585,-0.015768783790312914,0.22767172919397263,0.03893646068743782,-0.03301560453887108,0.9986960545952185,-1.1744335363585294,-1.9103766880431117,4.152820519859464,-3.4743611716126335,-1.366640095088894,1.8136047457793625,2.0,0.4940249622649672,0.5078710769364977,0.36862150376371955,0.7929468345330557,-0.06821586125810174,0.38341203442435784,-0.46859057367321977
9.3,0.5230498634840876,0.34153810533735174,0.032915462750172216,-0.018637400255739258,-0.026305075064041995,0.22276925770897057,0.040240111420630005,-0.03488075248440693,0.9985805780137704,-1.1743975239818536,-1.9103648660694406,4.152797123182167,-3.4743610306598502,-1.3666279951678675,1.8136047841970202,2.0,0.4940187164816751,0.5078719127485588,0.36860557513844355,0.7929574745462996,-0.06820471568790284,0.3834069960683506,-0.46857831328917754
9.4,0.03630186777086934,0.1459357452820504,0.19435898797419612,-0.0270722400103139,-0.03730212382660292,0.2284499912635672,0.03971282935331505,-0.034095934034743286,0.9986290909070888,-1.1744108200073242,-1.9103525625445898,4.152761405193555,-3.4743373737366228,-1.3666401941758537,1.8135463935239364,2.0,0.49401341976551005,0.5078761358345535,0.3686062861035509,0.7929560071464947,-0.06819207078290837,0.38340686264464907,-0.4685827460434436
9.5,0.20008060400275543,0.6353432411428807,0.6533820399917557,-0.07065842584481817,-0.03785736062441573,0.22784907789794548,0.0396296943844204,-0.033989067852241824,0.9986361798318933,-1.1744583203242376,-1.9103765998705602,4.152784739725688,-3.4743488642224896,-1.3666516606806747,1.813629182838124,2.0,0.4940137844031657,0.5078751728475281,0.3686050195818227,0.7929601343179873,-0.0681927884177221,0.3834085244194434,-0.4685742976228214
9.600000000000001,-0.04801039217103045,0.8278571172167126,1.5393696976631872,-0.08187010638968581,-0.061822115174801004,0.22630178293932612,0.03968005477570027,-0.03408134394458302,0.9986310390054065,-1.1744782276502497,-1.910377325998049,4.152798498047326,-3.4743493478236194,-1.3666286331228048,1.813627687844774,2.0,0.4940166828225783,0.507871948154359,0.368627462532531,0.7929456566682991,-0.0681974091536838,0.38342153686262126,-0.4685874774527278
9.700000000000001,-0.2407175110732696,1.2159887623875933,2.3036531569907654,-0.07845906426470985,-0.08731592912928166,0.22204983786461385,0.03992413660391927,-0.034412718013833166,0.9986098861947895,-1.174422264099121,-1.9104005299010218,4.1528096199035645,-3.4743612704847116,-1.3666401044649363,1.8136166568226042,2.0,0.49401116033082276,0.5078789231557206,0.3686059348942081,0.7929582129172985,-0.06819459122380409,0.38341051105552637,-0.46857566124049044
9.8,-0.3145119473105989,1.0574033687002042,2.9695444726109024,-0.0791013836275168,-0.0943582582759363,0.21950197545611003,0.04036569780384247,-0.03503084276774575,0.998570501543656,-1.174387717932558,-1.910399857894093,4.152796872693848,-3.474336890815085,-1.3666283311713319,1.813639055298794,2.0,0.49400952052764074,0.5078879781183017,0.36859961353436926,0.792954942057966,-0.06819444481991338,0.383405951963775,-0.4685849480727088
9.9,-0.4211967653041827,0.7473705290796507,3.077083429511967,-0.0737236979502161,-0.10823764976532586,0.21984196750204535,0.04077704550140181,-0.03560861086598477,0.9985335175580178,-1.1743862408693595,-1.9104003875363758,4.152797296167067,-3.4743486843504847,-1.3666161454212353,1.8135572903443824,2.0,0.4940014796626147,0.507894210916699,0.36860684995616816,0.792951938787106,-0.06819282009527124,0.3833997738025823,-0.46859532168957085
10.0,-0.5039957591669596,0.5308852309980163,3.2160649825487915,-0.06871828809184956,-0.11642731502777832,0.22362447594818366,0.04064209476407863,-0.035401713558692954,0.9985463757308357,-1.1743998305510945,-1.9104241641574868,4.152797222137451,-3.4743842529562694,-1.3666515015166583,1.8136041606773181,2.0,0.49400730407647225,0.5078921007322726,0.3686014474649946,0.7929549003136581,-0.06819390924739291,0.3833973442925592,-0.468592139498229
10.100000000000001,-0.4984614487482627,0.5764279443956408,3.235626678558552,-0.06865540857372433,-0.11393475229790315,0.21943819972940842,0.04086427572266167,-0.03578213477072108,0.9985237615415095,-1.1744226838559217,-1.9103536856988026,4.152797003863915,-3.4743254805229116,-1.3666518370257776,1.8135467448848048,2.0,0.494028690121998,0.5078776310088788,0.36861256518272045,0.792942029470133,-0.06821196384045684,0.3834119078919428,-0.46859937556026987
10.200000000000001,-0.37277652842467374,0.5345552504999035,3.238602457355306,-0.07815770884399138,-0.11548836246118678,0.22463631255134672,0.04023282632806848,-0.03487255347595343,0.9985810000863387,-1.1743876815784229,-1.9103882801817245,4.152808936019652,-3.474372016674526,-1.3666276663775252,1.8136058312181973,2.0,0.49402591693197234,0.5078791394283763,0.3686155819146681,0.7929430205396164,-0.06820115686971859,0.3834185000563246,-0.4685938776741537
10.3,-0.6029964111155142,0.5923955890873941,3.306118864490384,-0.07988658987542667,-0.13385905914445623,0.21777642352596902,0.0396309346803974,-0.03399460478568355,0.9986359429763502,-1.1744350338131624,-1.9103647671141566,4.152819738373117,-3.4743721134832577,-1.3666518370257776,1.813603959575659,2.0,0.49402413105902704,0.5078825476602609,0.3686134258318373,0.7929458792591118,-0.06819733808180006,0.38341708437570987,-0.4685907543404807
10.4,-0.9767182764142732,0.5142908866274977,3.3602105730916962,-0.07709112636446938,-0.15042663806800477,0.21446958110754613,0.039542492468452435,-0.03386249419195521,0.998643938495688,-1.174433708190918,-1.9103441375779449,4.152775821644032,-3.474371364761487,-1.3666304044091413,1.8135834312021373,2.0,0.4940181284292352,0.5078794493314671,0.3686194734900646,0.7929458931397639,-0.06820924955686626,0.3834067761508442,-0.4685974315222907
10.5,-0.7622584221970806,0.5938340771512515,3.412399770086096,-0.0805397743120233,-0.15307667590037732,0.2171200931992375,0.04000306623535283,-0.034545469034646115,0.9986018700885251,-1.1744178274197488,-1.910383874233942,4.15277565295384,-3.4743295772306992,-1.366642283465885,1.8135834519014713,2.0,0.4940170045596426,0.5078755418750263,0.3686325577504155,0.7929392074689346,-0.0682065380795926,0.38341969824327554,-0.4685985663878735
10.600000000000001,-0.8877695046992498,0.3201677802887181,3.3445205796520265,-0.07952057769726112,-0.14296778279829347,0.2181445706135095,0.04032340103882539,-0.03502540359438264,0.9985724746585154,-1.1744379985138291,-1.9103579724875304,4.152816142745126,-3.4743474928633455,-1.3666331214701963,1.8135843264862412,2.0,0.4940227955784773,0.5078672161038962,0.3686057201225684,0.7929557098120148,-0.06819936877414559,0.3834110573830796,-0.468578754801923
10.700000000000001,-0.6783245186715268,0.44002939174101835,3.3511498918505698,-0.07148317820366804,-0.1437653354758485,0.2193759277015082,0.03990894179028205,-0.034427755489776134,0.9986097868754955,-1.1744359915717006,-1.9103528461852015,4.152784824371338,-3.474346022492467,-1.3666377205383777,1.813600062101432,2.0,0.49401843931050204,0.5078637501817516,0.36863783477117595,0.7929433967321937,-0.06820714892280808,0.38341769757683364,-0.46859302555577187
10.8,-0.7531090744524704,0.5309367439538187,3.3573194021185677,-0.07330348378665198,-0.13722864173389063,0.22296289219590135,0.03981331598190831,-0.03428542284539129,0.9986184351155637,-1.1743908177732336,-1.9103528461852015,4.152783310698243,-3.4743192916045635,-1.366632725396291,1.813574212904561,2.0,0.49401687471101663,0.5078693224290013,0.36864728224195525,0.792938030008667,-0.06820760183703706,0.3834206249587393,-0.46859964572528734
10.9,-0.6381690670634592,0.6108450064329912,3.519984616781224,-0.07486992527209795,-0.14204057213472865,0.22374756064151122,0.040607710106710965,-0.03541409814567221,0.9985470681890858,-1.1743721055300165,-1.910368383742589,4.1528077392567795,-3.4743267231393595,-1.366643532725255,1.8136042374890573,2.0,0.4940099427251745,0.5078831052819825,0.36862663460601086,0.7929450818361077,-0.06819624356153581,0.3834131371030174,-0.4685954927790567
11.0,-0.6651592617048653,0.6811010994279868,3.2630075333815656,-0.0701413003035057,-0.1571916703065935,0.22455170202709815,0.04003139238669885,-0.03457453508028142,0.9985984551648805,-1.1744461059570312,-1.9103732853701867,4.1528096199035645,-3.4743522231303268,-1.3666586423716278,1.8135877951834967,2.0,0.4940192160688044,0.5078792732023402,0.36862966607826775,0.7929346186951303,-0.06821174223803256,0.3834175841507941,-0.46860730346381646
11.100000000000001,-0.7843474854459241,0.6328891080396241,3.3589454218338033,-0.0662832346639349,-0.17233708848617876,0.22326933698357834,0.03899343041221703,-0.033072085839086114,0.9986911846255401,-1.174402258637131,-1.9103424371171656,4.152816458158596,-3.474368305092052,-1.3666472311890119,1.8136026208939091,2.0,0.4940198619650865,0.5078778233967461,0.36863166284774146,0.7929346849767754,-0.06821164297309253,0.3834176039431214,-0.46860718956308056
11.200000000000001,-1.0032020765859744,0.6801153662615921,3.202590142933702,-0.06180082513501936,-0.16792849062367493,0.2203414602563873,0.03934913917477349,-0.03356512214977466,0.9986609073520215,-1.1744412591905902,-1.9103836967087817,4.152762685431367,-3.4743471124262335,-1.3666485621835878,1.8135859675977752,2.0,0.4940134451881884,0.5078748865770504,0.36863618468052206,0.7929403936668844,-0.06820321749743612,0.3834160090114142,-0.4686000610842498
11.3,-1.130833696647326,0.5041458562353605,3.236935963110758,-0.06132217245266213,-0.17043118650552233,0.21910849233868582,0.04010115123397442,-0.03462712097670214,0.9985954367776539,-1.174449616264825,-1.9103562214811571,4.152816100471799,-3.4743763783415087,-1.3666450864338664,1.8135809898376465,2.0,0.49400382788821057,0.5078811190479586,0.3686345133651976,0.792943972516456,-0.06819563277309432,0.3834031862847969,-0.4686056005503612
11.4,-0.8931136083177921,0.4167096493478534,3.23074757999395,-0.05951478750780501,-0.18290894479169184,0.22037110243443744,0.04023505910204247,-0.03481000770788201,0.9985836892915859,-1.174422264099121,-1.91038251021541,4.1527940507839896,-3.4743641314949265,-1.3666457382691208,1.8135987329388998,2.0,0.4939938454648424,0.507886655853947,0.368654093809122,0.7929345472363196,-0.0681877569533002,0.38340956479086474,-0.468617476442877
11.5,-0.92961395367227,0.21067335922209873,3.142183157058081,-0.060650129416826286,-0.19283050514938654,0.2180259223042185,0.04035793677899686,-0.03500016946303456,0.9985720693994913,-1.1744437766797615,-1.910378927732794,4.1528028112469295,-3.4743587528393283,-1.3666473576464127,1.8136296272277832,2.0,0.4940082680949585,0.5078744468239563,0.3686537671125743,0.7929335258639583,-0.06818955961457662,0.38342382092977334,-0.4686072780742261
11.600000000000001,-1.0306262499622052,0.16712588864148953,3.305665346555535,-0.05383224307536422,-0.20621909743835676,0.2155095262595524,0.04047600326141928,-0.03519350446833271,0.9985605051618655,-1.1744602853638761,-1.9103647671141566,4.1528126712039,-3.4743551683636995,-1.3666518370257776,1.813610302325653,2.0,0.4940122224133488,0.5078723533857509,0.3686427374715643,0.7929375560702521,-0.06818791207017927,0.3834273232952828,-0.46859783244426134
11.700000000000001,-1.1166548296371344,0.4489920615630081,3.298250089264897,-0.061419457581277745,-0.1874930314136558,0.21938958637343012,0.041853770807344017,-0.037205493063774464,0.9984293989432818,-1.1744317743531487,-1.9103647671141566,4.152814184825497,-3.474353629682579,-1.366637505421895,1.813602773875548,2.0,0.49401110355347505,0.5078836465991136,0.36859961538424146,0.7929622521161301,-0.06818310905971017,0.38340743484988715,-0.46857301379795185
11.8,-1.1048813847772534,0.23838192450351134,3.2876026949563752,-0.061918614727986446,-0.20296486335511615,0.21781548171651569,0.04181484620743032,-0.037167822339724294,0.9984328815029445,-1.1744152828049312,-1.9103554696191423,4.1528140827011715,-3.474361082116598,-1.3666518370257776,1.8135978504013668,2.0,0.4940214730114599,0.5078752500824756,0.36861120001400427,0.7929510604870047,-0.0681998665312423,0.38341598260139276,-0.468582520121551
11.9,-1.6119031462672497,0.610626326683113,3.3140537700414496,-0.04747528027690749,-0.2190347359621238,0.21372665873556138,0.04098797758029351,-0.03598241433415353,0.998511481163379,-1.174433708190918,-1.9103809263898581,4.152813381413153,-3.474364129296418,-1.366611835892166,1.8135934614738878,2.0,0.4940091425046037,0.5078762818604264,0.36862596280398496,0.7929455819239928,-0.06819175326214194,0.3834223430843333,-0.46858776735844826
12.0,-1.740511970968698,0.1158475875537398,3.4021858856148683,-0.051545588649899866,-0.23324759349084162,0.2171760489865899,0.04128680569564918,-0.03638026612225402,0.9984846675156283,-1.1744289018257645,-1.9103466599666687,4.1528096199035645,-3.4743574011103266,-1.3666461023153553,1.8136048316955566,2.3109709861515744,0.4940016095180701,0.5078825544251058,0.36863874145209913,0.7929419680376143,-0.06818752957514777,0.3834168743717694,-0.4685989720241139
12.100000000000001,-1.6957705925812523,0.17569322056907447,3.634929627349335,-0.0472884304955263,-0.24251866158060056,0.21550007852538766,0.04145179680229127,-0.03660702131358176,0.9984695746176446,-1.174576306471092,-1.910133555804794,4.152798644658969,-3.4743248424925746,-1.3665908485919367,1.8135919650822423,3.0,0.4940021231174023,0.507885686755512,0.36865851771716307,0.7929282199281789,-0.06819447781580047,0.38341618210341194,-0.4686217905072311
12.200000000000001,-1.694831797878736,0.3148493508338337,4.538036401383806,-0.03936851506509259,-0.24156688583865152,0.21248841642664285,0.04086269459611245,-0.03586974719259236,0.9985205212935099,-1.1756253751633485,-1.9091249905028285,4.152865955793788,-3.4742776295500875,-1.366469662806216,1.8136281458022276,3.0,0.4939375638634113,0.5077757804861591,0.3687134399435261,0.7929152524294347,-0.06820613550552151,0.3834367033150631,-0.46862524483327284
12.3,-1.6265432899382362,0.21504285943882148,4.974575464639992,-0.04319440021528082,-0.2541174834510099,0.1884609383724414,0.04052684512795545,-0.03543904028234327,0.9985497440111223,-1.1770025991315218,-1.9080152773801917,4.153041438132783,-3.474178635375836,-1.3662916053953382,1.8137482632671442,3.0,0.4937699867081162,0.5075123681571672,0.3688086517479523,0.7929058205984447,-0.06823619074509901,0.38347250536192046,-0.4686075325527295
12.4,-1.7710807492302267,0.21087189132621267,4.967725472585446,-0.05046210446759914,-0.2502139773366582,0.16500714663167781,0.040359204408835364,-0.03520208659925856,0.9985649433061363,-1.1785120162771183,-1.9065197059246257,4.153328943444152,-3.4740626299308675,-1.3660765857579615,1.8137167506480159,3.0,0.49352714919295165,0.5072705970431769,0.36889444045814646,0.7929058682769561,-0.06824105636911723,0.3834601409110408,-0.46861686120975027
12.5,-1.5961286714459506,0.03510883301155743,4.9453629942830695,-0.060825119504618504,-0.2569648782667748,0.1579340535199735,0.040360520095973254,-0.0351049910079085,0.9985683071345444,-1.1799645173142648,-1.9051910839476527,4.153541724759591,-3.4739891491331996,-1.3658736282093114,1.8137736320495605,3.0,0.49311289409030873,0.506883912763212,0.36905763797563695,0.7929117058274839,-0.06822830712765143,0.38343690435894767,-0.4686278536790912
12.600000000000001,-1.7659409761896767,0.2317752125185906,5.109569567414585,-0.03527245650358469,-0.24905470580551314,0.12213982431391059,0.040273599259353546,-0.0349704151619695,0.998576535203882,-1.181188997607187,-1.9041961056091514,4.153780368456905,-3.47386680610927,-1.3656674643205777,1.8138568714356644,3.0,0.49266239518103333,0.506432637697784,0.36921105598959714,0.7929286753326275,-0.06820556314735768,0.38343535282982993,-0.468603720846581
12.700000000000001,-1.81533057856395,0.6315851415242615,5.15959812346097,-0.036199409794022745,-0.25640718960651326,0.1094016676078873,0.04073715788027795,-0.035634370696606625,0.9985333688959357,-1.1824681738988259,-1.9030812740041827,4.1540207862854,-3.4738077565315035,-1.365468433806696,1.8138734435494392,3.0,0.4923623182390254,0.5061477003676939,0.3692596905221364,0.7929609979468806,-0.06819674588979321,0.3834215127937553,-0.46856163213826874
12.8,-2.0087000426289507,0.7016384566511433,5.258088172058447,-0.07441211207611213,-0.2922767990017617,0.08510622687047291,0.04157462650103998,-0.036807052608646446,0.9984565482729957,-1.1838131172843114,-1.9017268170484203,4.154227755803598,-3.473707905099633,-1.3653061348670927,1.8139957027688118,3.0,0.4920375608023966,0.5058626201745068,0.3693496037512802,0.792976634382225,-0.06817867993913242,0.3834039030798225,-0.4685522084344015
12.9,-2.082830099259454,0.9384761113361301,5.459526385522387,-0.12109889746578315,-0.3124842108198911,0.0807899812891239,0.040688128738860505,-0.03549410967518763,0.9985397556059432,-1.1852585952864183,-1.900296452808139,4.1544428916481,-3.4736420116820277,-1.3650705099741625,1.8140345252779937,3.0,0.4917690204724993,0.5055830214963923,0.3694769160324679,0.7929644221371721,-0.06818211181974956,0.38340359222129083,-0.4685726307887286
13.0,-2.181271897211377,1.0975130386533534,5.625480467164953,-0.1303874092193909,-0.3219170839321422,0.053371222113905256,0.040153318571808004,-0.03470155552807032,0.9985906186730527,-1.1864334382452977,-1.899182763730441,4.154632091522217,-3.4735456905760707,-1.3649006968844906,1.8141450352926443,3.0,0.4914075261468664,0.5052054778667452,0.36967027366751737,0.7929364628658045,-0.06818882494160411,0.3834155004092528,-0.4686092231880121
13.100000000000001,-1.991891663275547,1.0817257254448016,5.618440795800088,-0.12990521257113086,-0.3195105149132382,0.04665646766331519,0.040498645373521366,-0.035188368395449275,0.9985597544027113,-1.1877936029570573,-1.898112917716921,4.154869877348864,-3.473462244073385,-1.3646965200294532,1.814143153664268,3.0,0.4909716627011427,0.5047695699931594,0.36983668294259625,0.7929382314783918,-0.06818141306619155,0.38341790513109164,-0.46860534140906146
13.200000000000001,-1.9156626009424254,1.0859142300346183,5.86558426074807,-0.1443963371159751,-0.3265463446418079,0.03148797230021855,0.04013222061424187,-0.03466432603771156,0.9985928112963951,-1.1890892510167184,-1.8968428826856496,4.155049691384591,-3.4733915685288412,-1.3645060167392098,1.8141921855862517,3.0,0.4906389229345116,0.5044394635869375,0.3699081023134296,0.7929617362502734,-0.06818692561392548,0.3834001585506297,-0.46857928511792424
13.3,-1.9182830304140222,1.353701925721926,5.89358585111746,-0.16111323625671672,-0.3392245683304854,0.020162672299783913,0.03973775973517095,-0.034095943824363754,0.9986281816400798,-1.190402722250822,-1.8954884010559974,4.15524386385768,-3.473330160180563,-1.3642547762349524,1.8142654851055298,3.0,0.4903119980335337,0.5041024755064814,0.3700600081074475,0.7929555218093898,-0.06818456710025078,0.3834035061246015,-0.46858740564884166
13.4,-2.2157774488587467,1.4884154705635138,6.033336128906709,-0.16663643063128536,-0.3389231752194155,0.007188370946273009,0.03942133747208931,-0.03362516576263926,0.9986566967676078,-1.1916110782152054,-1.8942743653569152,4.155494051261583,-3.4732700786986292,-1.3640637490840553,1.8142929610263583,3.0,0.4899883731603345,0.5037593742598666,0.3702404440062523,0.7929290396889481,-0.06819592872710167,0.3834106907698362,-0.4686246851441009
13.5,-2.1166621480116325,1.3610491283794468,5.934568786015967,-0.1611818471004915,-0.3360633937885685,-0.0023782429618164564,0.03921370111134337,-0.03330619634948256,0.9986755994033292,-1.1930034515423305,-1.8931022720029644,4.1557230949401855,-3.4731847803898868,-1.3638594690110135,1.814395519556356,3.0,0.4897183634782617,0.5034923605744879,0.3703692149223547,0.7929171193895599,-0.06819544795842257,0.3834175345878037,-0.4686393248835644
13.600000000000001,-1.9825192193328982,1.1581908937658665,5.961488337526027,-0.1644126993133289,-0.33907075461526787,0.006513603573646968,0.03951376603848213,-0.03377251189973688,0.9986480531556989,-1.1943626403808594,-1.891878380219453,4.155879401122337,-3.4731154540817637,-1.3636899186654312,1.8144335746765137,3.0,0.48929689147238964,0.5030702955708682,0.3704913052204122,0.7929411445355398,-0.06818577656286023,0.38341212877717484,-0.4686045034821401
13.700000000000001,-2.224653106379603,1.4993222158348778,6.121429699564378,-0.1743732068617006,-0.3486483628101718,0.010035500301305893,0.0390232899155748,-0.033096011531779754,0.9986890617837318,-1.195667777881678,-1.8906763874538643,4.156092809727171,-3.473098730880338,-1.3634767601574034,1.814469814300537,3.0,0.4889933506675501,0.5027338692570436,0.3705687068547662,0.7929658099671476,-0.06819212481724193,0.3834075288411707,-0.468565603906179
13.8,-2.388588237181041,1.7779094826124648,6.180377433639227,-0.18442496425671112,-0.3599764922740163,0.014396314791893041,0.03803806275589287,-0.031700649054410474,0.9987731657835571,-1.1968154921733585,-1.8894514367917938,4.156275353413839,-3.472972654603942,-1.3632953390216078,1.8145670905315128,3.0,0.4887386525386481,0.5024706040330921,0.37068758164530374,0.7929581898707357,-0.06819521291069916,0.38341496128482355,-0.46857196834205517
13.9,-2.312253751802477,1.7367056072458933,6.198668193517259,-0.17828256095314587,-0.3660761883680926,0.02154429992673369,0.03950434008547344,-0.03378398888299161,0.9986481066785522,-1.1981667166880328,-1.8882930618870408,4.156466336195913,-3.4729472599425257,-1.3631282914523581,1.8146260184661518,3.0,0.4883334050512008,0.5020782569047182,0.37089151458258013,0.7929319360652132,-0.06819872354707139,0.38341916449899693,-0.46861244453099415
14.0,-2.4675780678881476,1.605205105145535,6.156932991891086,-0.1929268510617569,-0.3681587412719632,0.015203758293931469,0.03969083890398129,-0.03409652106433854,0.9986300617493499,-1.1995907396048864,-1.8869353883201239,4.156717097794343,-3.472887178460592,-1.3629232446650912,1.8146722674720772,3.0,0.48798844261172125,0.5017125478100343,0.3710114388977684,0.7929405172379038,-0.06821294007582634,0.3834118940328949,-0.46860180371271
14.100000000000001,-2.5794412381329095,1.817131197760731,6.238991414205113,-0.19880189873816684,-0.37661466990319,0.025733161291728344,0.03956234903692811,-0.03391709476816343,0.9986411642278046,-1.2008958963648282,-1.8856520944736936,4.1569107129224045,-3.472803878687053,-1.3626968029064945,1.814735877727748,3.0,0.487742926301599,0.5014347665878846,0.3710820725331833,0.7929582473232618,-0.0682113945589264,0.3834091465147956,-0.4685742737529912
14.200000000000001,-2.422413062820132,1.9159811080636524,6.4716231782962845,-0.2069535209887444,-0.3856543731798192,0.02634924526332366,0.03916998562701685,-0.03332444963776456,0.9986767208466313,-1.2020086011768176,-1.884550620784314,4.157101154327393,-3.472768579425211,-1.3624926429476123,1.8147806221943272,3.0,0.48733027100582077,0.5009976515458718,0.3712905686452489,0.7929345736516056,-0.06819751043130555,0.3834251916529848,-0.46860322649848474
14.3,-2.4122014905831795,1.700548296673043,6.435097249341176,-0.20057648413583318,-0.38269464363703665,0.02444277864796464,0.03911770564129759,-0.03322446076853397,0.9986820985818111,-1.2032673718961606,-1.8834956398993938,4.157306055847054,-3.472716196334939,-1.362314833259095,1.814826214071857,3.0,0.48695297536413884,0.5006491819977674,0.37148298472303287,0.7929093372437594,-0.06820322337216193,0.3834280015125407,-0.46864279668998254
14.4,-2.439233494682452,1.7629596671034595,6.509157600308173,-0.19396231844595693,-0.38206186154666255,0.026949847880776846,0.03893188085863545,-0.032952125718779916,0.9986983131081293,-1.2047301259458127,-1.8821228180979237,4.1575093269348145,-3.4726362343099813,-1.3621227429265252,1.8149133676283051,3.0,0.48673606448581347,0.5004228485476132,0.37153035685633484,0.7929294257613289,-0.068204183204782,0.3834174194177601,-0.46861732537562406
14.5,-2.4038019103711536,1.6841883475279018,6.605351691076291,-0.21697139021714806,-0.39162156922212993,0.0287407146972686,0.03862064202550898,-0.0325174428066474,0.9987247106211806,-1.2061227749937746,-1.880772958975841,4.157677421389048,-3.4725400646768447,-1.3619545141803187,1.8149383062534568,3.0,0.48634177257583955,0.49999116746474637,0.37159315223827144,0.7929844476508724,-0.06818673739592147,0.38339269802971565,-0.4685469813419313
14.600000000000001,-2.476096483929429,2.027733206477101,6.861421995145219,-0.2244612424297016,-0.3927079615244195,0.025605403709853536,0.0380167189046145,-0.03164724982358447,0.998775557399543,-1.2072584173610768,-1.8796087453941221,4.157882020718757,-3.472528120080465,-1.3617359682722021,1.8150211675291466,3.0,0.48596030692561826,0.49956584135699283,0.37178448511088613,0.7929591990465987,-0.06820401700289788,0.3834047443781333,-0.46857733908116317
14.700000000000001,-2.44794757765478,1.8128778951959041,6.798998977416136,-0.22551090944910054,-0.38817758046707235,0.029489735022985058,0.037875488716603053,-0.03141903355691075,0.9987883769024047,-1.208418846130371,-1.878555531482704,4.158133029937744,-3.4725160716574974,-1.3615229816519054,1.8150695428517833,3.0,0.4858182511737862,0.49941737208429543,0.3718771321171592,0.7929368875907854,-0.06820243299963469,0.38341889467062923,-0.46860374693371976
14.8,-2.5143451061696083,1.8328989259325743,6.932952028671055,-0.20596051527904138,-0.3762962784165324,0.03114839211606023,0.03866356752624476,-0.032568601988230785,0.9987200650346079,-1.2097863363491976,-1.8774043829396163,4.158360004425049,-3.472478975141236,-1.3612642075349117,1.8151347182341935,3.0,0.48527956866245997,0.49891789954206767,0.37206631187786526,0.7929627649588125,-0.06819910850600915,0.38339004171212243,-0.4685840489216825
14.9,-2.578495832403958,2.2817308212290324,6.696834978553566,-0.22016342250682033,-0.38568557689634697,0.03130382919395789,0.039937435882226924,-0.034484071076951214,0.9986068855433169,-1.2111839203997652,-1.8759646477878769,4.158528194882705,-3.4724553871413937,-1.3610919157611292,1.8152018637494047,3.0,0.4849613813081175,0.49856645420712853,0.3721206152099955,0.7929979390475745,-0.06821608109749107,0.38337704167739683,-0.46853268707816675
15.0,-2.623386197897159,2.32289562832591,6.816910873863127,-0.2555048290450541,-0.396727440172205,0.032870547469797375,0.03941370149048035,-0.03368164531237375,0.9986548801546256,-1.212224006652832,-1.8746334066784391,4.158803340906306,-3.47246851543569,-1.3608743111181922,1.8152839183691551,3.0,0.48462847965762446,0.4982303451046241,0.3723031817356516,0.7929800845571142,-0.06820592146705613,0.38338019857186845,-0.4685618007430997
15.100000000000001,-2.5761225059440793,2.2417542948369484,6.677378964673953,-0.2568131990283384,-0.39453748425668334,0.028330066123270197,0.03935874926928764,-0.03355994529923498,0.9986612317841047,-1.2130920779821261,-1.8737972396154194,4.158951366515996,-3.4725296392381892,-1.3606657073564707,1.8153617535536453,3.0,0.48425489881454575,0.4978526682977918,0.37262739991510696,0.7928961453216792,-0.0682067477809328,0.3834304607022977,-0.4686625908868709
15.200000000000001,-2.5833157098689528,2.241100037392372,6.415237920237953,-0.2415756697633673,-0.3982157671280001,0.029046357543188128,0.03986440425059085,-0.034254454231821545,0.9986177537471379,-1.2130202962055825,-1.8737889408516755,4.158970818573983,-3.4725171029915303,-1.36068423424159,1.8153457499094319,3.0,0.48408125159298826,0.49770164250682003,0.37273972381758846,0.7928742058933487,-0.06820221698868334,0.3834458578608002,-0.4686877695398243
15.3,-2.7881432738808645,1.9160856506234563,6.372076236188716,-0.22910881324762383,-0.4029415312982099,0.030111817546720016,0.039825341898100886,-0.03424751544795103,0.9986195695313745,-1.2130722826504388,-1.8737885921869384,4.158966410546699,-3.4725643597044886,-1.3606640793934737,1.8153297612634354,3.0,0.4839804577907512,0.49758191221911086,0.37277849549376985,0.7928878309910039,-0.06822421888595315,0.3834465693240578,-0.46866093489578686
15.4,-2.9040096869317393,1.8270992196618219,6.309465091409121,-0.21088666544367735,-0.40900420336153376,0.03369245560798105,0.03976359428585945,-0.034211364221841706,0.9986232716189016,-1.213151490358366,-1.873800527337065,4.158970355987549,-3.4725403720626673,-1.3606965074058965,1.8153216661672524,3.0,0.483983454562251,0.4975762986465472,0.3727500543334268,0.7929106669297585,-0.06821686493702764,0.38343952969968076,-0.4686291291318291
15.5,-2.7858890223615145,1.6482441183653516,6.334685450900503,-0.20141253673810214,-0.40955873604759985,0.0341294648519369,0.038744258644882165,-0.03272820629819923,0.9987129424769384,-1.213139533996582,-1.8737826697989917,4.158973326236744,-3.472561389455294,-1.3606788705699877,1.815343290804552,3.0,0.48397237920758385,0.49757449289233163,0.372713244753391,0.7929326266692656,-0.06821639961839435,0.3834189485825511,-0.4686088798287262
15.600000000000001,-2.577280042561012,1.8613241857267389,6.31596169774953,-0.19660621468441009,-0.4111555008818348,0.032491113794281365,0.03906200823939385,-0.0331801966981346,0.99868561789551,-1.2131735548757283,-1.8738004169859828,4.158979596309029,-3.4725530713108137,-1.3606846968280237,1.8153090476989746,3.0,0.48397137096767484,0.497568669143905,0.3726836771785546,0.7929491674882604,-0.06821552759238128,0.38341144360063373,-0.4685871578383747
15.700000000000001,-2.7369394327128904,1.5648213774159516,6.165103657466299,-0.20802224384189374,-0.4092958901917973,0.03538983790705335,0.039639595469081315,-0.0340030249037707,0.9986348616123191,-1.2131527365871022,-1.8737760982909144,4.158999320758887,-3.4725519619383753,-1.3606722990619105,1.8153301313799037,3.0,0.4839593745407853,0.4975830397390771,0.37269245651692456,0.7929432033803331,-0.06819697313966025,0.3834141304434329,-0.46859775249549646
15.8,-2.6249686546126827,1.5423142438415383,6.160079287335568,-0.20512638289744617,-0.41177098732390616,0.03658898236395798,0.04044448083536241,-0.035147590040454,0.9985633003985778,-1.2131469300101647,-1.8737760982909144,4.158995151519775,-3.4725400410094203,-1.3606759970687017,1.8152976036071777,3.0,0.48396224728222764,0.49757617368907786,0.3727200194838543,0.7929309887345051,-0.06819846970311219,0.3834186992379257,-0.4686144651089752
15.9,-2.561654960545118,1.4751134637914127,6.068958027612026,-0.20388992794903676,-0.41169650269783614,0.03687567340023574,0.04001425763602503,-0.03459454165656615,0.9985998454945662,-1.213164982511797,-1.8737781660703778,4.158971063385787,-3.4725315482411543,-1.3606743668413739,1.8152886340017538,3.0,0.4839712056940898,0.4975678568250793,0.3727115250894788,0.7929344328359519,-0.06821848902575195,0.3834202163296668,-0.468604482146599
16.0,-2.7025066655962218,1.5787293365955573,6.105042288058635,-0.20181051560659793,-0.4078849368063028,0.03218541252117799,0.040085922012508664,-0.03470652370562746,0.9985927221098401,-1.2131643295288086,-1.8737892511628667,4.158973436819372,-3.472565084606094,-1.3606958626511398,1.8153561144689663,3.3335673296294606,0.48397308038735104,0.4975681637090421,0.3727048567766552,0.7929374131197542,-0.06821733067810756,0.3834268551856236,-0.46859417558540883
16.1,-2.743730663170121,1.5870130113366518,6.065404842079272,-0.20150373686489778,-0.4129747539835939,0.027245556999768755,0.0410348237354117,-0.03598858442115954,0.9985091908243118,-1.2131469983372414,-1.8737926416311292,4.1589860335640285,-3.4725633670739806,-1.3606959361406652,1.8152976036071777,4.0,0.48395601895934,0.497588761526797,0.372693871671644,0.7929471719192338,-0.06818041976685266,0.383415480059366,-0.46859234154705437
16.2,-2.7044063072182425,1.5640804784970157,5.923209127207734,-0.1990538685259414,-0.4094070599117345,0.037563280472044644,0.041577537733118994,-0.036785119527058714,0.9984573109773798,-1.2131166458129883,-1.8737643823932653,4.15898296698622,-3.472551756907069,-1.3606846968280237,1.8153320694316608,4.0,0.4839536413556826,0.4975847952437445,0.3727021555389174,0.7929474671494297,-0.06819098158413747,0.3834059082271257,-0.4685981369024306
16.3,-2.607669272175317,1.5956994896658505,5.824620205589508,-0.19758500091704256,-0.41159449930909364,0.03871173300452671,0.04207496361126732,-0.03752752069317083,0.99840896012467,-1.2131643295288086,-1.8737884960570277,4.158984014897894,-3.472553223082607,-1.3606978303956632,1.8153177590434875,4.0,0.4839618385884653,0.49756535548154296,0.37269427376248615,0.792955073851541,-0.06819276629045899,0.38341183387683886,-0.4685801565601675
16.400000000000002,-2.579084737780901,1.3891090900591203,5.893825676757807,-0.20440632583913076,-0.4123922326705696,0.037215475346680925,0.042211665325615995,-0.0377399092850513,0.9983954679763227,-1.213139944100358,-1.87376590321535,4.159007039890663,-3.4725753936925097,-1.360685124019457,1.815308193316108,4.0,0.48396499558076556,0.49756890777369933,0.3727044948256561,0.7929448811075648,-0.0681963678108329,0.38341974005193724,-0.46859041164029847
16.5,-2.5875301427707074,1.3394847204470348,5.880171590815926,-0.20632571046696377,-0.41321361507663074,0.03901952982785634,0.04177970159439302,-0.037116756854369715,0.9984369290100401,-1.213173987458199,-1.8737986651728533,4.1589729665326045,-3.472530730625521,-1.3606931484799971,1.8152967105259745,4.0,0.48396610979131555,0.4975701807660381,0.3727257291462725,0.7929289974978473,-0.06820249202792888,0.3834293516081234,-0.468608533142124
16.6,-2.7588441069452814,1.5729169181780231,5.799956268768662,-0.19802212070982292,-0.40941532757947585,0.03757366760466385,0.041521224474062604,-0.03672449824438657,0.9984624673363662,-1.213195699395797,-1.8738004169859828,4.1589923996778655,-3.472586825641444,-1.3606657230566657,1.8153426413211613,4.0,0.4839581096883729,0.49756719325710613,0.372725578523193,0.792931939077701,-0.06819636514124444,0.3834241910124486,-0.4686086699138726
16.7,-2.566041427411967,1.287867418643492,5.959097356819236,-0.2031363486237731,-0.41321278480136675,0.036103260048184004,0.041554075607866496,-0.03671996923110494,0.9984612673771177,-1.213187148773901,-1.8738122689764365,4.159031322205298,-3.4725400636865587,-1.3606966177569788,1.8153214218808638,4.0,0.4839481161905234,0.49758931381243615,0.3726995356956177,0.7929446815794793,-0.06818723708854271,0.3834057411116386,-0.4686035321417078
16.8,-2.5326851147341882,1.3760103431373194,5.992245518822435,-0.20059394643553588,-0.4120455154732781,0.036065416573533064,0.04191908287678946,-0.037245644320093446,0.9984262668433097,-1.2131512427384123,-1.8737880140158951,4.158995151519775,-3.472564113958029,-1.3606722990619105,1.815332662713999,4.0,0.4839474344552121,0.4975951206984799,0.3727082035573548,0.7929374046010116,-0.06819121936396816,0.3834044250172554,-0.46861634293252596
16.900000000000002,-2.8024118530278166,1.420193553047285,5.939962938588571,-0.19946370359080848,-0.40860643336146735,0.033557027222147484,0.04233698458535248,-0.037855752137908094,0.9983858837130001,-1.2131733155214448,-1.8737896778354703,4.159004232054687,-3.4725304836373505,-1.3606966177569788,1.815321445465088,4.0,0.48394567214266304,0.4975928861707997,0.3727002579131608,0.7929406886684864,-0.06819539833489534,0.3834032067057188,-0.46861117462952495
17.0,-2.60328802981816,1.4347835160817615,5.901432417563289,-0.19617839896394831,-0.4112214987905124,0.0350014870592971,0.04160407061366865,-0.03679057930763321,0.9984558236788167,-1.2131710889130587,-1.8737884960570277,4.158981058345945,-3.472568762771025,-1.360667559978721,1.815326791082631,4.0,0.4839457577328525,0.4975898195704473,0.37268774383322156,0.7929499307947978,-0.06818314829134385,0.3834048440813914,-0.4685959785108381
17.1,-2.531568756581721,1.436425317054655,5.835929696082473,-0.19982070598561888,-0.4156283608590341,0.03979352872895421,0.04091937352936772,-0.03580184932979664,0.9985207872871115,-1.2131515391992682,-1.8737884960570277,4.158948546863358,-3.4725405913297154,-1.3606955279069823,1.8153323500271836,4.0,0.48394371832446054,0.4975874714975901,0.3726865211103709,0.7929521325169588,-0.06817591932928942,0.38341087024625065,-0.46858837388205277
17.2,-2.6301597744226517,1.7209587640156851,5.872936458278955,-0.1916140563521114,-0.4150135238416937,0.03702298549123288,0.040711606488980596,-0.03551958943167276,0.9985393397896788,-1.213150978088379,-1.8737979830023515,4.158985285096638,-3.47258326835083,-1.3606797636164554,1.8153044939652192,4.0,0.4839612827011905,0.4975765891010599,0.3726980694902562,0.7929474824423711,-0.0681939508130902,0.3834199899006463,-0.46858615697158146
17.3,-2.792879734317019,1.3024703786464336,5.734079676234099,-0.20183451310891182,-0.4098724563112457,0.03818096132275428,0.04055718128856875,-0.03532856478421782,0.998552455680902,-1.2131527478781092,-1.8737824821752984,4.158971999363727,-3.4725742868336598,-1.3606603781329554,1.8153229624277138,4.0,0.48395366805583184,0.49758380308330774,0.3726812127484721,0.7929522324423216,-0.06817828524043895,0.3834092545244187,-0.4685891825804788
17.400000000000002,-2.6588786111527924,1.2578375122714116,5.977911526447367,-0.20095084555988205,-0.41169204614159527,0.040985774028808264,0.04051177505490307,-0.035324004884948634,0.9985544603365242,-1.2131615038219399,-1.8737884960570277,4.158996455692177,-3.4725643597044886,-1.360680566948754,1.8153315853844838,4.0,0.4839732618137252,0.4975595430795111,0.3727214889513727,0.7929328124686457,-0.0682166246514163,0.3834307784661433,-0.46859885313195004
17.5,-2.645039124363212,1.2629890185477937,5.792353814635217,-0.200035784852887,-0.4128708507128854,0.0402600697727874,0.040286558919697575,-0.034983522754423256,0.9985754898754965,-1.2131331531775793,-1.873790161607289,4.1590189933776855,-3.4725831382896044,-1.360686362378285,1.8153279595281113,4.0,0.48397625418356605,0.497557724040001,0.3727247109617305,0.7929284339716676,-0.06821016966517522,0.38343574139732994,-0.46860314080527343
17.6,-2.4682878769021364,1.144608528654771,5.620998966344795,-0.20172310186000494,-0.41316168949064036,0.04009014877557168,0.03973283731363572,-0.03415338285198817,0.9986249373185767,-1.2131517663738707,-1.8737997131596507,4.158985625365097,-3.4725743961436213,-1.3606839648486384,1.8153562211303407,4.0,0.4839556029972858,0.4975718083245375,0.3727085422942851,0.7929405178294545,-0.06818946001956387,0.3834265521002664,-0.46859322644602824
17.7,-2.660574381078537,1.482809608306443,5.914669110233874,-0.19397100923911684,-0.41138838545536055,0.042885628565175055,0.03853597755189208,-0.03239812900170642,0.998728307331533,-1.213150978088379,-1.8737884960570277,4.158955433624588,-3.4725833192852362,-1.360670693049686,1.8152884178655135,4.0,0.4839556642066655,0.49758266164282833,0.3727020367150839,0.7929381321919343,-0.0681929953955577,0.38341805857367606,-0.46860369850710837
17.8,-2.4953853716971266,1.4646331968567938,5.904269268530205,-0.1951412271722185,-0.415548567200587,0.04262851779366643,0.0373391177901484,-0.03064287515142461,0.9988316773444891,-1.2131504558534565,-1.8737658311058802,4.159017339633765,-3.4725394970147097,-1.360696073762268,1.8153101356883963,4.0,0.4839563167195578,0.4975775428542368,0.3726886756818147,0.7929454078736097,-0.06820038081389918,0.38340809091927053,-0.4685984677809287
