xiamingqian9007/apple-picking-rnn/training_data/grasper_20191127_133705_noimg.csv
,/manipulator_wrench.fx,/manipulator_wrench.fy,/manipulator_wrench.fz,/manipulator_wrench.tx,/manipulator_wrench.ty,/manipulator_wrench.tz,/ground_truth.x,/ground_truth.y,/ground_truth.z,/joint_states.elbow_joint,/joint_states.shoulder_lift_joint,/joint_states.shoulder_pan_joint,/joint_states.wrist_1_joint,/joint_states.wrist_2_joint,/joint_states.wrist_3_joint,/mode./mode,/manipulator_pose.x,/manipulator_pose.y,/manipulator_pose.z,/manipulator_pose.rx,/manipulator_pose.ry,/manipulator_pose.rz,/manipulator_pose.rw
0.2,0.285799028790325,0.05335492944577957,0.1789160126232427,0.005227771939207386,-0.007511912066885811,-0.004002249584681504,-0.16491061417071504,0.2172522640679821,0.962084158968003,-1.627238289591228,-1.7044949548446264,4.179721026169626,-2.8823191208025927,-1.3324718122718604,1.6408572157033894,1.0,0.45856876487358894,0.47142331639177143,0.35498572452019916,-0.6825101592085766,0.024798026431588717,-0.4899820861076395,0.5417402474948555
0.30000000000000004,-0.4160675908137181,0.039137591161563276,0.22160858651386486,0.019316946930867,-0.007652575524945732,0.002938436293253037,-0.1650500806523783,0.21747354582489672,0.9620100775519946,-1.6255046522234136,-1.7058604066851404,4.179508816628512,-2.882618799731113,-1.3328775263916695,1.640861370187432,1.0,0.4585795478629699,0.4714819641904114,0.3549943088323287,-0.6825128781193486,0.024767875544853803,-0.48996770225017866,0.5417512106990793
0.4,0.06256331791247635,0.09022906320358004,0.19701531382823206,0.005265253472567845,-0.013135829447316583,-0.02716568555005334,-0.16540281281027974,0.2180169126442266,0.9618264846027225,-1.6213184370978493,-1.709333923362983,4.178680315004602,-2.8834094030097472,-1.3334747984774697,1.6408920792369959,1.0,0.45887178371051635,0.4718563372905315,0.3550386140928736,-0.6825128290345897,0.02472159364662199,-0.48994613075503585,0.5417728951958947
0.5,-0.20966174250980218,0.41440948868110594,0.28687835061163336,0.012570714606949859,-0.013124650988765927,-0.05684202696891489,-0.1656318427049357,0.21827108663102135,0.9617295961316324,-1.6169160245441367,-1.7129625286535946,4.177812806562728,-2.8842359365511645,-1.3342387617902935,1.64097261428833,1.0,0.4595819132428229,0.4725765906580513,0.3551127099588639,-0.682495245213673,0.02472203809402452,-0.4899597450999446,0.5417827140789965
0.6000000000000001,0.025247315180123717,0.50451019972864,0.21436569963624946,-7.364469911168292e-05,-0.012695173141652525,-0.07202205438345696,-0.16572925539786942,0.21821756413451998,0.9617249598190378,-1.6127654062513,-1.7165851155240106,4.177157606326137,-2.8849608642442073,-1.3351205243362319,1.6409897751175768,1.0,0.4610406771079167,0.4739739104433562,0.355193631904359,-0.6825255012381695,0.024791840337574762,-0.4900078533364878,0.5416978941078034
0.7000000000000001,0.0004779078296383993,0.5827066451370468,0.2883420178297618,0.008743891562801425,-0.017706953702896766,-0.09058972762192412,-0.1656330733865498,0.2180942258205288,0.9617694495306199,-1.608791470145611,-1.7195867519553218,4.176415352414739,-2.885772067799551,-1.3359324521466855,1.6410625730220108,1.0,0.46196286293365074,0.4750084410939502,0.3552975926857433,-0.682500301235669,0.024725846942139834,-0.4899829787579762,0.5417551585667418
0.8,-0.01546336098556056,0.3623185605335636,0.361233488676097,0.00011476996001109018,-0.020809772406637634,-0.10121159163852839,-0.1652914958052164,0.21788239080723495,0.9618762101020994,-1.6048399114250405,-1.7229229809929367,4.175718475968169,-2.886599679986471,-1.3365479747537379,1.6410939740906596,1.0,0.46288997873725624,0.47601861086244657,0.35536413603428774,-0.6825170660095472,0.024683526719414265,-0.48993834719249085,0.5417763321378126
0.9,-0.07812109421573087,0.3451177839354447,0.2416359571593587,0.0007858311449423694,-0.026558222493940964,-0.12290806940704611,-0.16506907546819682,0.21763816046873227,0.9619697438455115,-1.6008248279339417,-1.7257088446482372,4.175036508282343,-2.887363116463935,-1.3371495656654613,1.6411392288348685,1.0,0.4636653605086385,0.4767548844472169,0.3554289814838752,-0.6825403767634215,0.024716430475073384,-0.48993780245418045,0.5417459569563823
1.0,0.10276908946926815,0.41717072644810493,0.3122427116922986,-0.004295874741237621,-0.025494965939778493,-0.13272419907512334,-0.165003517288708,0.21735128395596262,0.9620458653971606,-1.5971529311948947,-1.7289457607757426,4.174344284212423,-2.88807415203468,-1.3377422453532835,1.6412211380027988,1.0,0.46481654038563075,0.4778881043721113,0.35551213494299533,-0.6825553953308536,0.02476529052422306,-0.4899621706427405,0.5417027635420062
1.1,-0.1395150210235182,0.5236777746197956,0.46093468430191087,0.007521580752944956,-0.022227517262087385,-0.14822711370060881,-0.16370246959362092,0.2157699991219919,0.9626223788183732,-1.5935573203962285,-1.7317450341311744,4.1737236976623535,-2.888777047571005,-1.3384699361716466,1.6412432005545874,1.0,0.4656873334927812,0.4787765833019031,0.35564022621886493,-0.6825132695365723,0.024786889723211657,-0.48999247507408134,0.5417274419623984
1.2000000000000002,-0.19985865453993432,0.7187365102547506,0.3777178432422498,0.009406553914628349,-0.025238847963529647,-0.161363461754821,-0.16321822139664052,0.21520047902836323,0.9628324676221738,-1.590036515730374,-1.7346299862096037,4.17312479019165,-2.8895148926669445,-1.3392015848641727,1.6413207054138184,1.0,0.4665859528220808,0.47968657118397323,0.3557533679793214,-0.6824949697441414,0.024762960397712693,-0.4899906923662172,0.5417532034614654
1.3,-0.1272107949732205,0.6711599959349976,0.2825166213625073,0.009325541262890818,-0.02394375195278917,-0.17077439581939963,-0.16420626997122392,0.2164192297219466,0.9623901611871173,-1.5865360143850977,-1.737329343164824,4.172505499304493,-2.8902562454434775,-1.339688444515948,1.6413653787520628,1.0,0.46739551197743623,0.4805274432673877,0.35579508102262425,-0.6825269717273182,0.024719085140587564,-0.4899645546836259,0.5417385299646178
1.4000000000000001,-0.20435309717576305,0.5160956768963331,0.28133768400749326,0.006128272961078435,-0.02405156547911172,-0.17451143555284843,-0.16519431854580732,0.21763798041552995,0.9619478547520608,-1.5833666327463685,-1.7399282793537598,4.171909108026637,-2.8909455807888365,-1.3401934612193631,1.6413893769071017,1.0,0.4680455298148504,0.48115865362454796,0.3558602700210355,-0.6825248975273877,0.02473197618074282,-0.4899711831620642,0.5417345597986074
1.5,-0.06713753365093929,0.4756784380539398,0.49186036823797274,0.013717303144270908,-0.029051610351677522,-0.1835887931469275,-0.16519038285138365,0.2175452419641311,0.9619698954520871,-1.5799834845595127,-1.7426183560846817,4.171403047578136,-2.891536785027887,-1.340632413158956,1.6413960291947687,1.0,0.4690340615507429,0.4821273195093426,0.3559373261135691,-0.6825237783404206,0.0247766399330362,-0.48998910438365517,0.5417177195725171
1.6,-0.03876465491258392,0.4318024166793133,0.3404063662447321,0.0038073484963879597,-0.025615059703844735,-0.1950285330212676,-0.16502857262327272,0.21724377970161043,0.96206583710973,-1.5769553613252798,-1.745018157522123,4.170954532660241,-2.892190238953641,-1.3411728770271134,1.6414767641639547,1.0,0.46982205774898017,0.4829431649665653,0.35597050492692034,-0.6825408276487166,0.0248016914345047,-0.4899938953293589,0.5416907579371775
1.7000000000000002,-0.14457255508552025,0.4395334463501936,0.37098318923757156,0.003624099839717114,-0.025578561084574764,-0.20616875834909748,-0.1647071914019413,0.21692814015421386,0.9621920166080439,-1.5739364420931359,-1.7476580634528092,4.170473765988041,-2.8928865875213794,-1.3417514006244105,1.6415073492932797,1.0,0.470480070775444,0.48366982689618804,0.3560634170401208,-0.6825195293088211,0.02478305113743822,-0.4899988351247991,0.5417139780961212
1.8,-0.05027521958472157,0.4723962355137002,0.2707349011823654,0.011145585498057461,-0.024917891493489174,-0.211123283872361,-0.16435747611579624,0.2166099832313191,0.962323565258483,-1.5709092210844537,-1.7496863987574476,4.170005274030796,-2.8935387538314514,-1.342255538687916,1.641527623600112,1.0,0.471237383695379,0.48450386724289485,0.3560476370445285,-0.6825784815649543,0.02474520915778888,-0.4899461634166628,0.5416890695606765
1.9000000000000001,-0.06680276007947729,0.4222628312580837,0.10462169092239407,0.012287700732719044,-0.024575900040678722,-0.21890346295008578,-0.1647269412015201,0.21711002003481833,0.962147482551274,-1.5681584424932342,-1.7521118007173724,4.169478503496514,-2.8941849755264326,-1.342756673831329,1.6415779215969428,1.0,0.4717844160761675,0.48507035133536264,0.3561239949445612,-0.6825759088595116,0.02473401680555204,-0.4899387272904998,0.5416995482352183
2.0,-0.19605438853209414,0.45935477181148565,0.33712786296875913,0.0072990454756973935,-0.027419627672374023,-0.2257622871054287,-0.164527200683639,0.21691356962372518,0.9622250441405216,-1.5652945592668321,-1.754232212636041,4.169079890780979,-2.894751577840746,-1.3431790510760706,1.6416056818432279,1.0,0.4725541750603271,0.48585176960966625,0.3563015723307393,-0.6825193102498213,0.02472807698631959,-0.4899619010146611,0.5417501720339057
2.1,-0.13193882806154694,0.5206475617544144,0.420139007563187,0.007972825597872749,-0.02193478412347731,-0.23574985223348416,-0.16360279891232274,0.2158069564117361,0.9626301270450172,-1.5626367280274782,-1.7560322156554882,4.168616032232527,-2.8953160054100153,-1.3435514608966272,1.6416273562370374,1.0,0.4732675825152744,0.4865821729293648,0.3563044061420184,-0.682555649059825,0.024724422649665626,-0.4899493389296836,0.5417159164576277
2.2,-0.5273995607997279,0.38151799361323496,0.4046945108503442,-0.007831715132631256,-0.027014047543612942,-0.2406476611690238,-0.16556649382803462,0.2180746899284619,0.9617807105318262,-1.5599889770736843,-1.7584073179849093,4.16820489149394,-2.8959535511020205,-1.3439508705652794,1.6416416703716037,1.0,0.4737103648663284,0.48701775699522665,0.35651260895410664,-0.6824573862944701,0.024759664481797332,-0.4900093349992716,0.5417838374485167
2.3000000000000003,-0.2107383918645902,0.6416285511491407,0.5072655481934799,0.009308224146900395,-0.025282074528777676,-0.24268388568671945,-0.16656915464326025,0.21920255734808797,0.961354669904753,-1.5574304686246405,-1.7603056819453924,4.16776704788208,-2.896484890467852,-1.3443637532286599,1.641693115234375,1.0,0.474418264543721,0.48771658473470625,0.35655944093728287,-0.682470154394776,0.02478125164323262,-0.4900100674430783,0.5417661042662184
2.4000000000000004,-0.015639320830479243,0.3363518083431771,0.4687334402108675,0.012338718797493873,-0.023006312311194037,-0.24511624612809035,-0.16503869024596296,0.2173259283112383,0.9620445773288013,-1.5549269694044252,-1.7622264843521633,4.167348115118291,-2.8970656439024283,-1.3447534657445555,1.6416998587065244,1.0,0.47514457115367026,0.4884372374502921,0.3565641098482465,-0.6825054359784063,0.02479818541633126,-0.48999914335215633,0.5417307628094754
2.5,-0.36168948250121946,0.7162478755116937,0.3113454111599571,0.0045038769748491836,-0.022023630143097335,-0.24906188899524703,-0.16476164467382085,0.21699486469918877,0.9621677655048103,-1.5526259760779433,-1.7641561013780163,4.166934706591729,-2.8975853743871682,-1.3451608593453765,1.6417441124636982,1.0,0.4756528002099267,0.4889605971625527,0.3566181034785458,-0.6825060590631975,0.024790949660717806,-0.48999123174265524,0.5417374649885849
2.6,-0.1091671146490325,0.5183996061617987,0.4158101687790497,0.013081624108195671,-0.024569472652626073,-0.25121463822887585,-0.16498835022101122,0.21727581554608535,0.9620653222524086,-1.550125666855041,-1.7659044148784275,4.166580677032471,-2.8980843029417933,-1.345498833495713,1.6417532877813559,1.0,0.47622639019954893,0.48952153773036056,0.3566022011072368,-0.6825552436685343,0.024778875038562884,-0.48997844052135453,0.5416876170974122
2.7,-0.027066591103695768,0.6629857163919679,0.43351016632620515,0.011673150514570152,-0.021809189127878232,-0.24937912876674692,-0.16555833044290252,0.21795340347928055,0.9618138855240405,-1.5480994282245195,-1.7676319308557562,4.166291252316202,-2.898564939358501,-1.3459143888372005,1.6417908514130457,1.0,0.476644319025611,0.4899382955982578,0.3566979292211501,-0.6825145456813548,0.024787852391755683,-0.4900061605985667,0.541713411208021
2.8000000000000003,-0.021680069211933203,0.8454030333142675,0.2641085133485158,0.013982567601056275,-0.025313927310899927,-0.24322852116938057,-0.1658026061975991,0.21825860589669088,0.9617026980406719,-1.54579186080469,-1.7693637239036377,4.165929136167062,-2.899081606661358,-1.346263084853584,1.641816525404698,1.0,0.477253636847599,0.4906176438759159,0.35678284664276494,-0.6824888621227599,0.024775687236092664,-0.48999828081051916,0.5417534524145603
2.9000000000000004,-0.21740159342647447,0.6781482877228711,0.23801893459676332,0.013766298219075103,-0.018766613059964445,-0.2456747813752979,-0.16504529551067323,0.21741867116913333,0.9620227964510748,-1.5435787768987872,-1.7709900280051227,4.165622920498963,-2.8996006389670366,-1.3465451906114294,1.6418541401582447,1.0,0.4777789909877016,0.4911728234083647,0.3568257102393501,-0.6824949713119306,0.024764968725653064,-0.4899804475128752,0.5417623755051906
3.0,-0.3086006244792838,0.9086837880814075,0.3103836258523577,0.013418792006472578,-0.02405175486273999,-0.24347001715799832,-0.16453527194565626,0.21685909570931175,0.9622370751692859,-1.5418076655770383,-1.7727845238547888,4.165325124472773,-2.9000752092406477,-1.346826525915464,1.641883939065334,1.0,0.4782880455862019,0.49170223694139464,0.3568357433744573,-0.6825232824557246,0.024756773456760948,-0.48996900962042456,0.5417374278056245
3.1,-0.08934002448527195,0.5474408393455934,0.28153920956944795,0.010452026157884615,-0.0228004140397509,-0.24015952951103997,-0.16481689364037858,0.21719704003788015,0.9621125911688239,-1.539536837820404,-1.7741819045685192,4.165062238071624,-2.900565556850848,-1.347087222423472,1.6419054972189036,1.0,0.47871179024116106,0.49218407150296756,0.35675886302993476,-0.6826025631263819,0.024737076345004112,-0.4899228098567031,0.541680217701651
3.2,-0.15392283296730008,0.6212415444278917,0.27689233129185153,0.007478484976960659,-0.019700872890401726,-0.23730722302306298,-0.1650446172848904,0.2174585052105559,0.9620145902498841,-1.5377103344695073,-1.7755613690671137,4.1647773318729415,-2.901021348822256,-1.347380772011633,1.6419108617131504,1.0,0.4790687806137146,0.4925589925246274,0.3568887337319479,-0.6825531026147573,0.024749290045072564,-0.4899540891580351,0.5417136930801674
3.3000000000000003,-0.031954710270292334,0.717793781267534,0.40883516868201464,0.0075342316542350955,-0.028947710445149998,-0.23316491991478733,-0.1650917557553034,0.21746372731640706,0.9620053207761212,-1.535897022117599,-1.7772261087772285,4.164459705352783,-2.9014290807728362,-1.3476670424090784,1.6419026887502324,1.0,0.47961049518867166,0.4930842009145897,0.3569875117762321,-0.6825279232511116,0.024768427743153774,-0.4899806134194895,0.5417205529077866
3.4000000000000004,-0.12083307828502093,0.7254503435582892,0.36223847602791787,0.010399631242665528,-0.02858745892633716,-0.2333175970925627,-0.1652556724245424,0.2176262393788182,0.9619402230660734,-1.5339120948138842,-1.778684140146493,4.164200529419215,-2.901841081371888,-1.3479547434728816,1.6419520416934934,1.0,0.48006910626490495,0.49356138869843613,0.35688365537235706,-0.6826073121646858,0.02475608190543753,-0.48993994825185483,0.5416578633186862
3.5,-0.12614444971701178,0.631356695468845,0.3619784728725105,0.014525452676422796,-0.0264594241973646,-0.23850533168537152,-0.16587099122946797,0.2183967503916073,0.9616593232170648,-1.5322156485950034,-1.7798052693370243,4.163961463872103,-2.902205997251196,-1.3482387615639457,1.6419501717969276,1.0,0.48040100285013027,0.4939247616655359,0.3569544378554857,-0.6825778254531459,0.024752651937864918,-0.48994958004673106,0.5416864659872254
3.6,-0.2389282477984624,0.7693863169827223,0.191502019263187,0.010633311557365315,-0.024953189386966376,-0.23014309314291717,-0.1662281889717166,0.2188599320489374,0.9614926321787285,-1.5304996767286048,-1.7810068481493662,4.163682549865375,-2.902643705608887,-1.348494831715719,1.6419815076027884,1.0,0.48087510056022315,0.49441764493768775,0.3571212614801481,-0.6825138447882734,0.02474955543400454,-0.48997094458863844,0.5417478976766457
3.7,-0.12075218449838711,0.5232667183744911,0.16285526927750896,0.009516386233311646,-0.021774748835258106,-0.23201515517567145,-0.16552190212312576,0.2180568860282405,0.9617964928614658,-1.5288070076546438,-1.7825164861733667,4.163437468527264,-2.9030772418362996,-1.3487785728138886,1.641987754620067,1.0,0.4812182718253871,0.4947755997538466,0.35722479061326123,-0.682478369654024,0.0247411453354211,-0.4899795945665724,0.5417851489199887
3.8000000000000003,-0.21035973046108306,0.4332847515648169,0.1913592334134492,0.0031657102475314536,-0.02523898168920266,-0.23486539750203386,-0.16502077809928814,0.21748729999906882,0.9620121227400651,-1.5272164228098133,-1.7838904430074616,4.163190477610585,-2.903471819380517,-1.3490197229780017,1.6420329462892984,1.0,0.4815958937160215,0.4951482882935839,0.35718519667515913,-0.6825161202695413,0.024744518923877842,-0.48997266214385615,0.5417437075842244
3.9000000000000004,-0.05628424894832228,0.19838434426483303,0.2087038118510825,0.0028552497291229537,-0.0262354803504147,-0.2303157985503844,-0.16540968173348095,0.21793049905779446,0.9618449939192376,-1.5255582358630342,-1.7848789536950183,4.1629702182421395,-2.9038005088860057,-1.3492481608596485,1.6419958675270585,1.0,0.48203912608342614,0.49560238477029117,0.3570935991368947,-0.6825891355028199,0.02473357470630108,-0.489940908777932,0.5416809284824555
4.0,-0.1613300070394276,0.6595046047730616,0.32464141500670757,0.009306629245904821,-0.02713660162019743,-0.23168764419453441,-0.16521722907816214,0.2177062908380227,0.9619287558367164,-1.524075461377747,-1.785873946055975,4.162696117954812,-2.904215316925287,-1.3494992476179026,1.6420453396976051,1.0,0.48230104133815105,0.4958871678194427,0.3572083869507864,-0.6825350983402805,0.024734290595883193,-0.4899549301909818,0.5417363018885589
4.1000000000000005,-0.2736365736223835,0.707354552334434,0.3234212513133358,0.009030958999055368,-0.02290659517086447,-0.23055595441273444,-0.16490297422539077,0.2173392278051325,0.9620657703454284,-1.522591319154085,-1.787080555158345,4.162438332622003,-2.9045806840209067,-1.3497104059280403,1.6420603398633493,1.0,0.4826744928378026,0.4962407774118877,0.35738996262917705,-0.6824635367467721,0.024752550980073243,-0.4899911926513529,0.5417928232776537
4.2,-0.08782675686182723,0.5560441169975562,0.4431228047826571,0.007883269657611977,-0.022585748032701757,-0.2303865911062176,-0.16530490912055462,0.21778002403019145,0.9618969655389253,-1.5210619552939404,-1.7884402507523498,4.162215449044768,-2.904922451010236,-1.349949574861234,1.6420769691467285,1.0,0.48302100730027275,0.4965676889474482,0.3574221112991332,-0.6824727196555639,0.024753708030072385,-0.48999122806804823,0.5417811710285492
4.3,-0.01622299507605322,0.5993746038187239,0.449972107765181,0.008962848818134648,-0.02259638485561437,-0.22744165719792267,-0.1655773366752685,0.2180603647768285,0.9617867160413344,-1.5193236766826936,-1.789713303541189,4.1619723987125345,-2.9052521191039027,-1.3501563833586911,1.6420857160574112,1.0,0.48332756295013096,0.49686912843632947,0.3573882043979189,-0.682497564918046,0.024762056113214137,-0.4899898652547794,0.5417507234933675
4.4,0.08797500150078129,0.3948567186814329,0.5264327413371386,0.004861544421133176,-0.033277016275936724,-0.2263181036158225,-0.16520456735645805,0.2175413271047754,0.9619681851606728,-1.5179833352599308,-1.7907195975238361,4.161754055216397,-2.905625946824034,-1.3503392504555487,1.6421070351114955,1.0,0.4838095518549283,0.49733558372539377,0.35738826124497913,-0.6825114442765161,0.02478484260452983,-0.4900006696031395,0.5417224231994904
4.5,-0.08124029276734168,0.4710621556356584,0.3379516879407757,0.007857138599642727,-0.023689332490343128,-0.2257855281535829,-0.16504823607870342,0.21729264668245388,0.9620511640245389,-1.5165420798047926,-1.7917990093365228,4.1615444571407485,-2.9059916430348074,-1.3505584855489319,1.6420794038339876,1.0,0.48415236695416386,0.49766452996474453,0.35743251729734526,-0.6825035497202405,0.02480058919597866,-0.4900063283217174,0.5417265302710148
4.6000000000000005,0.06756939530806291,0.6056472594108986,0.48425639009918064,0.009056015606961083,-0.022900098984461874,-0.22510364398044386,-0.16602846387052944,0.21846366578573498,0.9616169510279711,-1.514776185634752,-1.793111285736433,4.161306858062744,-2.906408198176946,-1.3507646528966912,1.6421439521504357,1.0,0.484374904988783,0.4978957034924184,0.3574636374670681,-0.6824999948647859,0.024796354730567495,-0.4900070234102927,0.5417305740035615
4.7,-0.016076176008187365,0.4339833354012854,0.5134174448726733,0.006430782224611144,-0.02465533153382248,-0.22819369767243647,-0.1659280610120881,0.21835983644858337,0.9616578602809485,-1.5131969593282433,-1.794382532649007,4.161139011383057,-2.9067882914346748,-1.350973151419859,1.642177384794151,1.0,0.4847141834552568,0.49826283203129024,0.35751043630533996,-0.6824995815322042,0.02478885510334291,-0.49000631251847543,0.5417320809801448
4.800000000000001,-0.1909273357877387,0.5596511045928135,0.45148106119702097,0.0007844117799742098,-0.025741726032652405,-0.22647414436434907,-0.16525270922459484,0.217577724716472,0.9619515580592906,-1.5119094814062386,-1.7954807627645344,4.160893432756323,-2.9071785412230433,-1.3511856347467612,1.6421847343444824,1.0,0.4852104733312683,0.4987987893555844,0.3575540384904755,-0.6824953017368773,0.0247867734566223,-0.4900017388493125,0.5417417049603521
4.9,-0.13301854815996733,0.3879001181392193,0.28863370633474394,0.006668640499381376,-0.024590431799241735,-0.23135761617200257,-0.1649698055005045,0.21725576959047294,0.9620732222297415,-1.5103155360957516,-1.7965891400407383,4.160680859140957,-2.9075331976127554,-1.351440716886393,1.6421748238237985,1.0,0.48551101802074714,0.4991057214318535,0.35749104424620975,-0.6825559700411832,0.024772887226141398,-0.48997583506066,0.5416893324371727
5.0,-0.17099518574944955,0.27349211043512694,0.26808636692802507,0.004927734503104691,-0.022441686296429987,-0.22720047125727913,-0.1649022308556691,0.21718629398354217,0.962100494703959,-1.5085522531309916,-1.7977741263885045,4.1604403660974905,-2.9079362058380793,-1.3516477195968808,1.6422085762023926,1.0,0.4858228459482487,0.4994444372851743,0.35754914785170644,-0.6825489658475542,0.024769308930855858,-0.4899763678350618,0.5416978396843412
5.1000000000000005,-0.2379426138152974,0.3862025536534912,0.303940039023388,-0.00383230084771714,-0.024934556735112304,-0.2227721412954017,-0.1651045446672038,0.21742793668992483,0.9620111229102037,-1.5071165516827802,-1.7989761950683651,4.160218218473766,-2.9083304571368056,-1.3518927415611177,1.6421985536524255,1.0,0.48605425617601844,0.49969514727007575,0.3576591548392748,-0.682499224117518,0.024777060304869973,-0.48999878981572215,0.541739875162206
5.2,-0.22574712071123423,0.8563287872420677,0.4371928598200441,0.01250197936643236,-0.023258391964829487,-0.23020089013782258,-0.16545069689228428,0.21784443216588176,0.9618574864418759,-1.505702996643514,-1.8001562557616175,4.160000324249268,-2.9086797109969704,-1.3520797177024948,1.6422353440819282,1.0,0.48647062341239694,0.5001118881482762,0.35770817841699815,-0.6824887232879089,0.02477535101994781,-0.49000650905391346,0.5417462004033584
5.300000000000001,-0.11862827377982357,0.5551665649528932,0.3372595122728258,0.006901608271411323,-0.023915258650054772,-0.22365246522202067,-0.1657301668012669,0.21824479216692097,0.9617185722158633,-1.5039600480067854,-1.8012688638613725,4.159821033477783,-2.909016509255365,-1.3523361130499,1.642232894897461,1.0,0.4868336155722931,0.5005099042688357,0.357608904110714,-0.6825567626518633,0.02473851192796639,-0.48996433580058163,0.5417003059158202
5.4,-0.026594577967925435,0.6003057136013079,0.1526831962115139,0.008315013807639236,-0.023403915915224092,-0.22538485250338797,-0.16556142234223198,0.2180648427248631,0.9617882780763151,-1.5023859748724384,-1.8025270743780266,4.159593105316162,-2.9094282589354457,-1.3525690623967934,1.6422643070162972,1.0,0.48731603107230714,0.5010064176829041,0.3577945552760876,-0.682480070360487,0.024753403166558174,-0.49000152930008267,0.5417626084144227
5.5,-0.27150934887603756,0.53951731181244,0.23724141307126823,0.0061701082333588215,-0.01885218820353425,-0.22580240160278592,-0.16511896734708992,0.21753051640399007,0.9619853817173454,-1.5009175017703928,-1.8038261826412203,4.159383976029329,-2.909793140970074,-1.3527843571823113,1.6422733730934447,1.0,0.48752530412276374,0.5012242946800995,0.35779565737852626,-0.6824931178506757,0.024755914989669732,-0.4899938681706001,0.5417529860690211
5.6000000000000005,-0.2959635179886054,0.4613524801257536,0.2548518601749802,0.00466236722587954,-0.015775602200441066,-0.22195258995504102,-0.16506612284044092,0.21748815617847578,0.9620041454986307,-1.4993305735261722,-1.8048523189207009,4.15916339274595,-2.910180401959031,-1.3530467548660645,1.6423004705869653,1.0,0.48785283461169854,0.5015773586370992,0.357757767609386,-0.682527636433837,0.02474616929656795,-0.4899660902828854,0.5417350671519142
5.7,-0.017322919460368694,0.6142179482260473,0.36983595327372515,-0.0004839258673827045,-0.024443141637561755,-0.2242144924056917,-0.16525944418637176,0.217756632690886,0.9619102296038813,-1.4977064309948218,-1.8059770860439546,4.158973800065275,-2.910628634509523,-1.3532359262250038,1.6422974620864776,1.0,0.4882596910638457,0.502008121109116,0.3577989460249216,-0.6825220879566932,0.02473544947454578,-0.4899621643568688,0.5417460978071376
5.800000000000001,-0.12724995603149147,0.24559965165485204,0.18635940858257796,0.0031110921644833104,-0.024172777867369676,-0.22370636155822718,-0.16565172855066687,0.21822872347182404,0.9617355936320685,-1.4961938039156106,-1.8072119138178033,4.158764070547544,-2.911015268204903,-1.3534284807421497,1.6423195858414357,1.0,0.4884923317649644,0.5022557902114998,0.3578944438952341,-0.6824880679813611,0.024739074074897706,-0.48998213360661746,0.5417707301278767
5.9,-0.1240516477974696,0.7489508073197679,0.3410978290096498,0.009062511475737257,-0.025504740617467027,-0.22365605926748358,-0.16614929215696206,0.21880398398104348,0.9615192124957924,-1.4945675827511997,-1.808577837388369,4.158540088295124,-2.9114175755023775,-1.353678051625387,1.6423325855161663,1.0,0.48888146266619664,0.5026657220997083,0.3579112323822263,-0.6825107671504289,0.024735781176050117,-0.489973374043733,0.5417502068126451
6.0,0.05812449261160268,0.2884593051899465,0.2922852537179287,0.005041530278129287,-0.02741456671444855,-0.22246392661970743,-0.16642181570790554,0.2191064954118261,0.9614031119287341,-1.493026790941523,-1.8096888098372097,4.158294644629043,-2.9118204603097335,-1.3538669756872208,1.6423699402562357,1.0,0.48935744046815227,0.5031576110077072,0.3578179147416947,-0.6825734521747204,0.024731464152425713,-0.4899418210805577,0.5416999621777991
6.1000000000000005,-0.1517457162420988,0.7027691889142372,0.2938513008979057,0.014272799797089496,-0.023605526738628178,-0.22540141451643975,-0.16661299571170127,0.219312347708247,0.9613230010447592,-1.4915342585245768,-1.8106808327964619,4.158133042653402,-2.9122044048705042,-1.3540395869096413,1.6423768997192383,1.0,0.4896566541258605,0.5034571713463714,0.3578978390929729,-0.6825424488060321,0.024751465639374196,-0.48995762971936474,0.5417238148783475
6.2,-0.24927854814141534,0.7456140108985083,0.31293482447357523,0.013471820316380148,-0.019935677926853204,-0.2259046574738796,-0.1659654365117882,0.21852154067238627,0.9616139823886217,-1.4898930343233379,-1.8117663817745129,4.157871786431692,-2.912589784179298,-1.3542655150042933,1.6423888206481934,1.0,0.4899875972683636,0.5037821271770937,0.35801593425448086,-0.6825046639455947,0.024757792007735615,-0.4899788670087767,0.5417519222967355
6.300000000000001,-0.22349016082226686,0.41455808610286854,0.3680541596483099,0.0066442991039010095,-0.020279357190247725,-0.22416306841624167,-0.1653178773118751,0.21773073363652556,0.9619049637324841,-1.4881192670255095,-1.8130572423041904,4.157631853361387,-2.9129632100165925,-1.3544741390450517,1.642402578096132,1.0,0.49023651007935676,0.5040141333861192,0.3580947585870201,-0.6824757764340654,0.024765650261213978,-0.48999984207791136,0.5417689838957935
6.4,-0.14621383812208333,0.28546153568236377,0.37115177993741383,-0.00013953709312247708,-0.02405822216373702,-0.21731832234755175,-0.16478915881189463,0.2170831736722079,0.9621430374521471,-1.4867651397787363,-1.8145112451191137,4.157447338104248,-2.913395466788469,-1.354718626259426,1.6423915140790333,1.0,0.49058681802857407,0.5043340164599447,0.3582086799785289,-0.682423370080931,0.024788044901047475,-0.49003352867640493,0.5418035045755235
6.5,-0.2125253313639059,0.6495764863293392,0.41768008664927947,0.009693496727824024,-0.021880801897347348,-0.2194868543884102,-0.1656107693236323,0.21806326043715016,0.9617799475978988,-1.4853552132952983,-1.8155609569945277,4.1572382201715055,-2.913755486412883,-1.3549426935021978,1.6424151905383468,1.0,0.4910168612885093,0.5048436803634624,0.357982621070758,-0.6825737861645536,0.02474077599058053,-0.48995177851243765,0.5416901099123649
6.6000000000000005,-0.20342353854816414,0.6718881370748193,0.34075263631713115,0.0104088894009544,-0.02574061122435841,-0.2209324428612852,-0.165694172214503,0.21816996747173512,0.9617415665187204,-1.4834841333869044,-1.8165434814216959,4.157000657649128,-2.9142511138726657,-1.355141588783066,1.6424156424165504,1.0,0.4914933829494689,0.5053180729213143,0.3580357773895907,-0.6825733563540985,0.024749824948993932,-0.48995144719435985,0.541690537809779
6.7,-0.25848755479472924,0.5514985701820425,0.4552901387662597,0.004883099103907549,-0.023290054288533674,-0.22487217470570997,-0.16522252123302308,0.21761998553743894,0.9619473320155111,-1.481863015461763,-1.8175889056856869,4.156782395038464,-2.9147127209045443,-1.3553531408194759,1.6424779431402619,1.0,0.4917175324681741,0.5055427241466589,0.3582525777925126,-0.6824717783541778,0.02477690374794212,-0.48999981805912163,0.5417735274935267
6.800000000000001,-0.21095804172176957,0.4757118931854793,0.37546101983564945,0.004741683482159802,-0.022236973958742773,-0.22153111830458236,-0.16474350859015055,0.2170258661905738,0.9621637009507709,-1.480513017936209,-1.8189763213730432,4.156524906269732,-2.9150642496672847,-1.3555800127832698,1.642497310749713,1.0,0.4920005842907025,0.5057920702800732,0.35834807412809555,-0.6824496472293573,0.024792490116142502,-0.49001736855931644,0.5417848188539157
6.9,-0.1422554905646543,0.3586065860501225,0.3481561519361001,-0.006061736737432396,-0.028124231943537185,-0.21645766745917056,-0.16433407826142787,0.21648977980150552,0.9623545932912527,-1.4789419944076339,-1.8202560876454832,4.156332492828369,-2.9153833747546223,-1.355795284637583,1.6424981693753962,1.0,0.4924507687305599,0.5062163127035014,0.35824370440030134,-0.6825327743718841,0.024775206006047726,-0.48998939118627904,0.5417061912148284
7.0,-0.2534840324655879,0.6636846263007364,0.34819453811364304,0.006445635632475665,-0.021011357722620253,-0.22365626192709231,-0.16528673403402738,0.21763011723054027,0.9619341881602292,-1.4771867823895555,-1.8214356864547399,4.156150715321626,-2.915754927472167,-1.3559861306149354,1.6424898186530366,1.0,0.4928010868743806,0.5066001908121218,0.35819909744144685,-0.6825429073433347,0.024779834900096526,-0.4899770454374045,0.5417043791239496
7.1000000000000005,-0.10342997800023658,0.7954444832877684,-0.5105020847817355,0.016942051375391443,-0.014312110349209178,-0.21074295326947418,-0.16578276987363802,0.21829631277824305,0.9616976809034367,-1.4757424119623697,-1.8223710350630051,4.156028783495834,-2.9162430718079135,-1.3561251799212855,1.6425089836120605,1.0,0.4930849278442447,0.506955721450034,0.35830304376503647,-0.6824933848692837,0.024769898146777297,-0.4899941319619028,0.5417517719383738
7.2,-0.058387878398991566,0.6893621664147861,0.39418718003133246,-0.009458101982237514,-0.02508865981842548,-0.22363916602036124,-0.16638095607700418,0.21904474344874775,0.9614240123606853,-1.475818343499108,-1.8223220310606898,4.156017011939174,-2.9162236652769984,-1.3561247030841272,1.6425159498663706,1.0,0.4933734320252096,0.5073021114842102,0.35840696530304117,-0.6824722527590089,0.024762916085427855,-0.48999757314136083,0.5417755997796191
7.300000000000001,-0.20541346117241305,0.3471143103793166,0.34487703373413753,0.011119766170587637,-0.02602899512991526,-0.22682160445457633,-0.16704241934894665,0.21983321885609253,0.961129630378803,-1.4758042592832894,-1.8223648490248536,4.156059783864138,-2.916269434707959,-1.3561304459387058,1.642480359510115,1.0,0.49342896155179095,0.5073623220605564,0.35839860861588635,-0.6824886559077681,0.024747952558629847,-0.48998868021955083,0.5417636631023409
7.4,-0.07734661046374244,0.47895758331623045,0.35595190984546704,0.011088920785807588,-0.02069109710110878,-0.22199395524655516,-0.16645881642212915,0.21911010549159154,0.9613959767132849,-1.4757992018778519,-1.8224408816812174,4.156021595001221,-2.916283269921774,-1.3561070081329765,1.6425204277038574,1.0,0.49344679221231263,0.5073560720062832,0.35837534960738404,-0.682503707534346,0.02476388420016114,-0.4899820704788831,0.5417499514078612
7.5,-0.00429830813145618,0.6338081000587508,0.38457117323552903,0.008477065085990854,-0.026980773584724296,-0.22324835531228557,-0.16652742965126155,0.2191778075339034,0.9613686591149523,-1.4757411591281975,-1.8224733235086916,4.156021595001221,-2.9162694479459987,-1.356127208054661,1.6425354306393258,1.0,0.4934637637822054,0.5073680108909382,0.35834762688304955,-0.6825201115758541,0.02478111603366058,-0.4899743934760227,0.5417354403400372
7.6000000000000005,-0.24634275883453685,0.6820155811838405,0.3545272435317503,0.012695820698375333,-0.02256635918054477,-0.22610214593690656,-0.16602710425761835,0.2185604342683701,0.9615948947119589,-1.4757219652165456,-1.8225024690031257,4.155989530522019,-2.9162714717508487,-1.3561127821551722,1.6425286503251493,1.0,0.49346979947891534,0.5073976950837131,0.35831846979016885,-0.6825340603222285,0.024774344836166286,-0.48996894965780236,0.5417230996636764
7.7,-0.2897104318558774,0.6933665007044143,0.27439331685970825,0.011299303193680868,-0.021876196245138556,-0.22262076909524542,-0.16493736029120237,0.21723332520001498,0.9620838105991342,-1.4757498668237654,-1.8224600693345137,4.155989429427356,-2.9162713489928187,-1.356118827050244,1.6425185473730148,1.0,0.49347990100087585,0.5073809023325239,0.35833811964065526,-0.6825266234294999,0.024773402070025555,-0.4899852166719399,0.5417177995070447
7.800000000000001,-0.30656165048218753,0.8700423148278161,0.215053347343841,0.014616724759458827,-0.02236523016639214,-0.21845524026449945,-0.1650694387602271,0.2173949100842212,0.9620246708896771,-1.4757121645033566,-1.8224763501858752,4.156023761802434,-2.916241836594069,-1.3561190325432877,1.6425201580167232,1.0,0.4934774324858757,0.5073816113833655,0.3583502300690699,-0.6825175868856924,0.024769878636917604,-0.4899936929426344,0.5417216790755959
7.9,-0.3171480201371136,0.625125142376361,0.21447867628634393,0.006366646477911179,-0.020799649549903914,-0.21779637592497278,-0.16522536016173053,0.2175855456949183,0.9619548362934623,-1.4757184982299805,-1.8224640246500388,4.156011879612469,-2.9162541237555186,-1.3561151517799614,1.6425277734678199,1.0,0.4934762641968927,0.5073916088070092,0.35834665035177327,-0.6825179584096666,0.02477208639398554,-0.48998783382394673,0.5417264096280575
8.0,-0.1295210088592685,0.6202734644774289,0.26595438586599074,0.008326295388194436,-0.022798382262021005,-0.21760178991358087,-0.16551001534854728,0.21792264383196422,0.96182952941301,-1.4756735974513242,-1.8224601853133988,4.155986052005174,-2.916273345821729,-1.3561247030841272,1.642484188079834,1.0,0.49347131683835255,0.5073856859258212,0.35834210723649745,-0.6825293656607944,0.024767969021632863,-0.48998078741436335,0.5417185991693634
8.1,-0.1369110665303116,0.18527909989035754,0.30337674438949225,-8.78441933733127e-05,-0.02385773674361926,-0.2166639086312431,-0.16560708953569747,0.21804803715014687,0.9617844504778946,-1.475691666166543,-1.8224707554929815,4.156001995916666,-2.9162551852905074,-1.3561345026264042,1.6425328254699707,1.3372175771179842,0.4934604200021732,0.5073904364951655,0.3583342573711946,-0.6825366083560555,0.024755119529789482,-0.48997605556025314,0.5417143410400854
8.200000000000001,-0.10234933997417416,0.39797222745276994,0.2738051639889387,0.003150308987072009,-0.021373320873729146,-0.2133115996944546,-0.16548297097215398,0.21792375261627212,0.9618339887671825,-1.4757089021931942,-1.822511186112078,4.155985355377197,-2.9162698577659047,-1.3561213500451599,1.6424690203639307,2.0,0.4934663787445643,0.5073921116896173,0.35833667649804657,-0.6825309987559651,0.02475567314920199,-0.4899765756896711,0.5417209130719789
8.3,-0.09697662988769834,0.4393036646231116,0.26951751231289967,0.004877437750251486,-0.02337238992226294,-0.21803438675816048,-0.1651794092673176,0.2175535826166067,0.9619698856987061,-1.4757396288011646,-1.8224646086395149,4.156042582373226,-2.9162324159049904,-1.3560926019897819,1.6425167660113376,2.0,0.493479600516018,0.5073890036200579,0.35832076599372376,-0.682537465468604,0.024760826942887587,-0.4899784430270935,0.5417108408085848
8.4,-0.028223122731950885,0.5250596417248579,0.30820602381873985,0.006882924485963605,-0.03058363448205263,-0.21601155498432786,-0.16571207901403687,0.21818999742775363,0.9617325099659755,-1.4757121126551644,-1.8224784336485804,4.156001236076118,-2.916266126011569,-1.3561264431325701,1.6425191644925727,2.0,0.49346987184302,0.507398829333273,0.35832937283385347,-0.6825275949776843,0.02475936371777049,-0.48997521812004086,0.5417262607908977
8.5,-0.04939521834888803,0.7401970609661387,0.26880545524009236,0.010459525164829508,-0.025258584688734837,-0.21026309333281906,-0.16731703211298368,0.22011911265510384,0.9610160800220823,-1.4757229188866199,-1.8224734437411623,4.1560047765784685,-2.916273659333331,-1.356119989989482,1.6425328254699707,2.0,0.49345918348731754,0.5074088781849357,0.3583691423943771,-0.6825003925472314,0.02475862763949257,-0.48998488745837354,0.5417518201101764
8.6,-0.17650246998596375,0.5808358587335668,0.37680543724302756,0.0016983428874713757,-0.027844225515282747,-0.2159249568302255,-0.16636916354905612,0.2189634832936682,0.9614439282092123,-1.4757200321663537,-1.8224754692007326,4.156010150909424,-2.9162713489928187,-1.356131727507555,1.642518776623115,2.0,0.4934769974001046,0.5073891896036398,0.3583482878463183,-0.6825186640227033,0.02477040804028828,-0.4899861161550082,0.5417271509916343
8.700000000000001,-0.14455513563328937,0.5101769973084058,0.36286995648375103,0.005185670049836428,-0.025368216512442494,-0.21217686505234776,-0.16613771523882076,0.21868259456202305,0.961548198357986,-1.4756911268107555,-1.822471879150872,4.156019019114222,-2.9162594280638636,-1.3561192293242554,1.642526008792354,2.0,0.4934724502829367,0.5073922850013061,0.3583272632584807,-0.6825328527144139,0.024759705522839882,-0.489977706716045,0.5417173699164828
8.8,-0.10226153336831936,0.6789921435714454,0.4249111349301964,-0.003881223534762057,-0.026836688705709856,-0.21462247315830923,-0.1671420491234327,0.21990730705550363,0.9610952026299662,-1.4757108087588597,-1.8224784336485804,4.156017544631656,-2.9162466767893007,-1.356107925985735,1.642516377334292,2.0,0.49346795333080057,0.5073985721995148,0.3583562473228967,-0.682510936789193,0.024774108493956216,-0.4899744376229165,0.5417472798155747
8.9,-0.11296386760142184,0.6880484109658339,0.3986581364921104,0.0009080139821399959,-0.033651179275132496,-0.21402635460388464,-0.16684239129931827,0.21952369372642075,0.9612348671937369,-1.4757337379227142,-1.822486341150532,4.156001486681179,-2.916251142198765,-1.356116735906148,1.642504493347899,2.0,0.49347707656109896,0.5073873357170456,0.35835777652981665,-0.6825085375628981,0.024777854775250817,-0.48998324557755857,0.5417421647977688
9.0,-0.18282211827533376,0.6457695895990413,0.46743803840782616,0.000712757393195378,-0.02983493513418549,-0.21565562803268615,-0.16642365109656998,0.2189932057943113,0.9614286543388062,-1.475712810905671,-1.8224866699063238,4.1560180577168575,-2.9162704820774987,-1.356108950097112,1.6425030535964376,2.0,0.4934844692322843,0.5073804510801716,0.3583524197798448,-0.6825139177441253,0.024781197477216858,-0.4899896068410534,0.5417294800220035
9.1,-0.020895308353916415,0.9049479631139781,0.41960694052311526,0.00848347430517369,-0.034841303402718404,-0.21281229924488276,-0.16596551594219677,0.21846070674877957,0.961628990974155,-1.4756888170375795,-1.822461219921103,4.156041097734925,-2.9162457646646502,-1.3561178713845206,1.6425244548692797,2.0,0.4934777844133625,0.5073884600670907,0.3583322954968342,-0.6825268983094934,0.024770388287165622,-0.48998311836789665,0.5417194889078636
9.200000000000001,0.09265245129064113,1.0930578439630116,0.3758469001832342,-0.010100409022469496,-0.019026866092415197,-0.20602862547173234,-0.1656615331434193,0.2181123649828452,0.9617603909200119,-1.4757139706481164,-1.822488865241396,4.1559977531433105,-2.916268310747094,-1.3561157608274512,1.6425174490315784,2.0,0.4934763854910216,0.5073929014016574,0.3583315023605131,-0.6825266361745095,0.02476529620300716,-0.4899789329811496,0.5417238376247996
9.3,0.10763344564064833,1.3569913074709319,0.3112914817377289,-0.03989579219099893,-0.023012116678359278,-0.2044375522919965,-0.16537592199588358,0.21778544287846957,0.9618837047894447,-1.4757182915395268,-1.822513449451583,4.156021595001221,-2.916289816056031,-1.3561171060860853,1.6424965858459473,2.0,0.4934800070590795,0.5073936969101205,0.35833750409291665,-0.6825201198780796,0.024775259291987446,-0.4899760555199721,0.5417341945139845
9.4,-0.45166857819230627,1.253387688864811,0.13221787011058567,-0.038851488367520226,-0.048562876304595826,-0.21065159924348956,-0.16576584811436063,0.21824888262166722,0.9617111111434232,-1.4757268383738509,-1.8224586514927892,4.155989891916474,-2.9162728412754757,-1.356101936363022,1.6425026743591875,2.0,0.49347917433146454,0.50738901936068,0.35833135769115276,-0.6825324401525777,0.024775010951186442,-0.4899806043966036,0.5417145690184784
9.5,-0.31423179932121925,1.2472232693999337,0.05670223487627339,-0.052629636499680915,-0.04583757886591691,-0.2101137914584548,-0.1662421095362659,0.21881333252871724,0.9615006997981885,-1.4757184982299805,-1.8224665127196253,4.156017114482013,-2.916283269921774,-1.3561247030841272,1.642523491054954,2.0,0.4934729921389279,0.5073807115597798,0.3583393442973945,-0.6825314198054063,0.02476682916726638,-0.48997948784389644,0.5417172386436013
9.600000000000001,0.18378198244862604,1.5678965416754482,-0.17321640993014895,-0.10404195586102867,-0.0032871445316249234,-0.22406733565116976,-0.1665649666447415,0.2191937574220346,0.9613585184477994,-1.4757101215815285,-1.8224752908149462,4.156002906535775,-2.916245496576078,-1.3560927632075208,1.6425204277038574,2.0,0.49347127185937273,0.5073898241415976,0.3583448807502973,-0.6825248334509242,0.02476257457513033,-0.4899811463028877,0.5417242314046027
9.700000000000001,0.40675417697239424,2.3349768481099558,0.023409438440316066,-0.12797260663993812,0.021879478001290097,-0.23864765734500779,-0.16663656224267576,0.21927276704289908,0.9613280912664153,-1.4757345505392456,-1.8224844568897376,4.156019466534386,-2.916283269921774,-1.3561056614527467,1.642478290392036,2.0,0.4934694322079251,0.5074052566232357,0.35833626267732976,-0.6825222933152282,0.024767736143922275,-0.489978395013035,0.5417296842471132
9.8,0.5376802589051727,2.226787327486135,0.10666421386005717,-0.13718768739746015,0.028976369143411486,-0.23693565458594915,-0.16633961975681413,0.21890782012532997,0.9614621812994535,-1.4757037915717353,-1.8225208909932518,4.156008682756791,-2.916283269921774,-1.3560737191606995,1.6424689292680892,2.0,0.49347338600311785,0.5073999623271986,0.3583338871453403,-0.6825263133253883,0.02477590741454424,-0.48998538972987515,0.5417179191068929
9.9,0.17176998925585232,1.2404147559290042,0.012660945847129464,-0.0887256157078881,-0.03259438467163043,-0.21330651295833575,-0.16541233409460787,0.2177835351992901,0.9618776596287412,-1.4756969317522917,-1.8224919070076018,4.156030887907201,-2.9162501972550854,-1.3561474072519268,1.6424874171343717,2.0,0.4934826897762573,0.5073870985088391,0.35833364180878263,-0.6825271194542695,0.02478376180262981,-0.48998848874322026,0.5417137410657986
10.0,0.06389456803806023,1.8182184561435817,0.392295714275955,-0.10264753988061878,-0.029640251574200638,-0.21554895734560287,-0.16576401671733237,0.21822231304529138,0.9617174360393145,-1.475706596181688,-1.8224877663772905,4.156031404567089,-2.916281975821651,-1.356135278148955,1.6425178395036124,2.0,0.49348396013965334,0.5073960134109131,0.3583323986346965,-0.6825264422518964,0.02477120987487773,-0.4899768010639508,0.541725739842073
10.100000000000001,-0.2514923927564305,2.4129076491033294,0.8315030788734694,-0.1411207846506983,-0.0262554608031114,-0.21880296817764447,-0.16633459688598828,0.21892861168048494,0.9614586801104393,-1.4757242906624297,-1.822502364353649,4.156009527433618,-2.916265461847665,-1.3561130754324675,1.642526880533328,2.0,0.4934760836381456,0.5074032605717771,0.3583368719685218,-0.6825292347572034,0.024748207951753722,-0.4899829850131051,0.541717679518188
10.200000000000001,-0.1838624610567327,2.603265193789687,1.1029920365448664,-0.16431111055392247,-0.028586056227038116,-0.22167341136434668,-0.16684550885341232,0.219543197255278,0.9612299367750534,-1.4757197666227118,-1.8225119779380499,4.156020326608489,-2.9162620705487208,-1.3561017584811845,1.64252444428084,2.0,0.4934696143592485,0.5074067946618023,0.3583382677856374,-0.6825259376358713,0.024742622103606015,-0.489983603074289,0.5417215297771083
10.3,-0.001249667609165915,2.621418963425758,1.152394614090356,-0.17941815926647084,-0.029601711519268624,-0.21960131578398745,-0.16731264822682584,0.22008544541705452,0.9610248336422974,-1.4757038768769688,-1.8224943759673784,4.1560525433228195,-2.9163004447386287,-1.3561030829532956,1.6425328254699707,2.0,0.4934832386165729,0.5073979570189827,0.3583307778598406,-0.6825246423732105,0.024768392785062848,-0.48998416319292415,0.5417214774146359
10.4,0.06250275598756014,2.7773537725747275,1.3468720629727873,-0.1981679939783707,-0.02692016174158232,-0.2172710828184147,-0.16771323664123267,0.22051490186255412,0.9608565749135898,-1.4757299423217773,-1.8225050537751575,4.155980775243283,-2.9162805461289634,-1.3560916640900726,1.6425314090977092,2.0,0.4934923088015735,0.5073854374714932,0.35833599240175856,-0.6825256620969632,0.024783591679723684,-0.4899864010333356,0.5417174733797626
10.5,-0.046350212624923365,3.29676680907722,1.6162140897378428,-0.2188071773384041,-0.02219467761737006,-0.21991862217718566,-0.16803819769443581,0.22091549828744889,0.9607077352567632,-1.4757551886376505,-1.8224982241854433,4.156018894120523,-2.9162726994331676,-1.3560929916183093,1.6425204277038574,2.0,0.4934820865566702,0.5073984702934071,0.358324484657981,-0.682532341877621,0.024767981590382585,-0.48997596497052953,0.5417192105973236
10.600000000000001,-0.12566735549068758,3.740078986155327,1.838627088737961,-0.2559424286283443,-0.019863447260698865,-0.22354838278228267,-0.16796295439342154,0.22083276606516106,0.9607395196721077,-1.4757184982299805,-1.8224676628263183,4.155988851701544,-2.916283269921774,-1.3561247030841272,1.6425328254699707,2.0,0.49348145837081403,0.5073978643282917,0.3583064375424595,-0.6825422972552655,0.024767102899929307,-0.489971838836182,0.5417104394590709
10.700000000000001,0.10782432616833709,4.236256559621402,2.2486675095208977,-0.29866675146788063,-0.024409353591568414,-0.21751640817916726,-0.1670079609692696,0.21965531675586,0.9611759540195768,-1.47572196639353,-1.82249274479836,4.156010150909424,-2.9162290936912894,-1.3560900651070618,1.6425340440139204,2.0,0.4934895953411171,0.5073870135216416,0.3583080638367978,-0.682537945476604,0.024776632119232825,-0.4899834335251436,0.5417049993827968
10.8,0.3182281999692582,3.6612993353585686,2.6818306651317685,-0.3270760984107874,-0.03404460658184265,-0.21561005705086891,-0.1665808005264992,0.2191804111700404,0.9613587674294676,-1.4757379535534512,-1.822513498873088,4.156001186003434,-2.916260557294167,-1.356104248917128,1.6425112420726677,2.0,0.4934928048666964,0.5073813319929489,0.35830723044686197,-0.6825423581831108,0.02477446599030515,-0.48998825732625184,0.5416951751706085
10.9,0.25839044731332533,3.957814850541812,2.961952133567155,-0.34674763428369004,-0.03334421435046015,-0.21912441758163823,-0.16642628521027314,0.21903097392495352,0.9614196240187584,-1.4757184982299805,-1.8225204918993194,4.1560017678158365,-2.91625313259999,-1.3561044793550354,1.642537033304131,2.0,0.4934732942891834,0.5073976811751931,0.35829606203298103,-0.6825472484659818,0.024762203018235455,-0.4899667460559627,0.5417090313743468
11.0,0.1260039059265034,4.739081424424296,3.389185050431871,-0.3850862701698132,-0.026512863503976247,-0.21768237798196638,-0.1666159611002905,0.21924475056970397,0.9613380442613223,-1.4757194399890963,-1.8224923558156567,4.155998773382353,-2.916261390062022,-1.356101404628101,1.6425089836120605,2.0,0.4934865280785,0.507394036155384,0.3582956547311363,-0.6825480677735098,0.024774860423162907,-0.4899629441390312,0.5417108590754606
11.100000000000001,0.06818805915464066,5.358456388673314,3.6531122203803914,-0.41891406049257673,-0.02040045316846231,-0.21937027696933403,-0.16665722071688005,0.21928053697370312,0.9613227432723096,-1.4757195446024112,-1.8224784336485804,4.156007883769157,-2.916295190850729,-1.3560809460151275,1.6425407761532538,2.0,0.49347981527945395,0.5073876398862797,0.35830734466866826,-0.682547652925221,0.024774133267742592,-0.4899711475946986,0.5417039951226486
11.200000000000001,0.4439759049098477,5.343361468383983,3.6325723894232578,-0.45006688956989943,-0.030914529177612674,-0.22011158095861152,-0.1667500118943911,0.21938550506511828,0.9612826435120838,-1.47572876055145,-1.822524082939613,4.156000215164826,-2.916250772570454,-1.356121010051854,1.642500328118651,2.0,0.4934638807381696,0.5073950967828897,0.3583183212730871,-0.6825422993667614,0.024765881653583722,-0.48996870096784084,0.5417133307875499
11.3,0.20280076835504363,5.561334148768919,3.7271183676976545,-0.45512297524748097,-0.026051783917810607,-0.22145442604451396,-0.16710220140948714,0.21982179020350362,0.961121808330108,-1.4757111787594337,-1.8224903545775355,4.155996527899428,-2.916280913683538,-1.3561319115366113,1.6425089836120605,2.0,0.49347049374741614,0.5073950102149603,0.35833305500642737,-0.6825324627465353,0.024751806552543935,-0.48997962048263755,0.5417164912398599
11.4,0.2521568933953003,5.5316554771913475,3.7786987282857196,-0.46019963906707856,-0.024213019533722065,-0.22118746614505064,-0.16685261152337683,0.21948735115992946,0.9612415915026437,-1.475706354981304,-1.8224881970922617,4.156023838785905,-2.916282191179137,-1.356113860897809,1.6425078617197182,2.0,0.49348742543499624,0.5073863219301423,0.3583267503173287,-0.6825325408007762,0.024759641527683195,-0.48999037829660125,0.5417063042610923
11.5,0.24036603377765653,5.435260192006615,3.6270682673932066,-0.4661631092471347,-0.0215174334136241,-0.2211008623599829,-0.1666995441035242,0.2193240147037479,0.9613054855343884,-1.475739527009224,-1.8225136660952475,4.156055897745713,-2.916270380553053,-1.3561108452756407,1.6425079764347041,2.0,0.493486521068306,0.5073953682902602,0.35833401517792596,-0.6825177151099262,0.024774269858446187,-0.4899912289933987,0.5417235453842166
11.600000000000001,0.24023841662605022,5.146320082032992,3.463092098788763,-0.4650465056702673,-0.02199367434711194,-0.21785172945252157,-0.1665533959814913,0.21918757723123292,0.9613618204918424,-1.4757277944172738,-1.8225343432390742,4.156010150909424,-2.91625120218919,-1.3561045562804988,1.6424873273248777,2.0,0.4934760122004563,0.5074019821459868,0.358344618658082,-0.682510570478665,0.024770376008184956,-0.48998347347457016,0.5417397395235978
11.700000000000001,0.2749273123153244,5.48503568023329,3.5427516509441843,-0.46355975689763723,-0.022450437319132342,-0.21177654743535948,-0.16608216106925647,0.2186410058099942,0.961567617862906,-1.475728912312707,-1.8224784336485804,4.156021595001221,-2.91624600028868,-1.356127921862472,1.6424462894501817,2.0,0.493470952366075,0.5073981022703034,0.35834758949041856,-0.6825121381753313,0.024767717087887886,-0.48997899963653435,0.5417419324261072
11.8,0.44828080893053696,5.415626900541198,3.5967200866190403,-0.47340932522057305,-0.01846978084917893,-0.21971939772788499,-0.16593644258461984,0.21847711593800562,0.961629881277104,-1.4757195283356261,-1.8224882085241068,4.156002131092305,-2.9162513653256763,-1.3560993542834132,1.6425089836120605,2.0,0.49347380973688004,0.5073932380509181,0.3583432816053118,-0.6825194759863865,0.024768915008867465,-0.48997738750497144,0.5417340911206853
11.9,0.5163122299454287,5.440243629448659,3.523473119652023,-0.4913038644188062,-0.014277641961645092,-0.22093151066978614,-0.16701056954814722,0.21974729300203444,0.9611542632540081,-1.4756972438416747,-1.8224999458065427,4.155990107965091,-2.916280940221826,-1.3561235382341534,1.642459227965949,2.0,0.4934769930713681,0.5073961775418333,0.35831903489852346,-0.6825332590098635,0.024767035098378576,-0.48996869482330874,0.5417246739912756
12.0,0.6026794075364761,6.065435321016908,3.6382591872901804,-0.48988556924262133,-0.012853560071552576,-0.21754974048595663,-0.16778290174796365,0.22066610434528433,0.9608092210019251,-1.4757085957126241,-1.8224722306710366,4.156023954790692,-2.9162844044359426,-1.3561026987979634,1.642513620618844,2.0,0.49346993058013444,0.5074088143252824,0.3583170898856708,-0.6825344022982496,0.02475883884758618,-0.4899642609740178,0.5417276184084348
12.100000000000001,0.4931712662188178,5.790463723470852,3.3481842519463703,-0.4926296368428555,-0.009945918346418666,-0.21703338435456254,-0.1684272557209121,0.22143591654297407,0.9605195503389337,-1.4757155972954998,-1.8224874536430549,4.156065461697987,-2.9162470302977503,-1.3561237488293638,1.6425289321105363,2.3671456594578277,0.493461881580849,0.5074198557846864,0.3583329797945014,-0.6825292130793643,0.024754051115454093,-0.4899661881267119,0.5417326321528146
12.200000000000001,0.631129525041966,5.436287154443785,3.674227242906182,-0.5099406546786678,-0.01515773101146505,-0.2024624039677584,-0.1683549675485963,0.2213492798370419,0.9605523717893424,-1.4757784865958383,-1.8223688873582269,4.156009568258543,-2.9162466839491743,-1.3561007554124946,1.6425087226348964,3.0,0.4934655176657634,0.5074051061012514,0.3583287646562694,-0.6825255608127782,0.024765464674175994,-0.4899755510835407,0.5417282436213343
12.3,0.21123455244913436,5.490090555900102,4.245430988076814,-0.5034507738999981,-0.03206159367275883,-0.21817738826249553,-0.16792925852602575,0.22084242529509218,0.960743542905562,-1.476663360290287,-1.821507206530175,4.156142711639404,-2.916004029650893,-1.356013600026266,1.642525877679078,3.0,0.49340605521498365,0.5073474144134476,0.3583918519236587,-0.6824901657723106,0.024758200412679343,-0.48998772369139354,0.5417621579329214
12.4,0.6011238859861676,5.001174548099595,4.016784048209321,-0.4746026992006691,-0.017190958423090576,-0.21099090308622243,-0.167400306758887,0.22022234149772654,0.9609779094200211,-1.4783986879867574,-1.820447689459392,4.156346704706099,-2.915597366299895,-1.3557735857658146,1.642493042839341,3.0,0.49325907462632984,0.5071985088860558,0.3584420386715106,-0.6824570628765064,0.02475858276514495,-0.49000271726857114,0.5417902795167615
12.5,0.899988907120583,4.584245505796289,4.028126149197198,-0.449215761265103,0.0005963926460748684,-0.210283261930225,-0.16701754417763293,0.21977135804162348,0.9611480266417489,-1.4802823381997197,-1.8191134977892756,4.15659587761092,-2.9151202640929164,-1.3555275007622565,1.6424630365736497,3.0,0.4930149318964421,0.5069239207968204,0.35841390706846477,-0.6824613155784798,0.02478117177975108,-0.49000671891239567,0.5417802706677515
12.600000000000001,0.515653741413966,4.848798703444902,3.775032965777989,-0.4606073286607898,-0.006685564216850137,-0.21108019433999206,-0.16744089937791437,0.22025282927517884,0.9609638598101904,-1.4816905605945716,-1.8178657032241925,4.1568348847786645,-2.9146866834600704,-1.3553059352346786,1.6424950581272473,3.0,0.4925209091413338,0.5063857285904501,0.35824076569075564,-0.6825321670410629,0.02478764346227485,-0.4899714319182563,0.5417226316019955
12.700000000000001,0.4288822713129934,5.228367976710448,4.0310775917026005,-0.4554499798472526,0.013349325731808692,-0.20857472903044863,-0.1678642545781958,0.22073430050873422,0.9607796929786319,-1.4831733703613281,-1.8168407284658479,4.157018382857401,-2.9142500211205853,-1.3550698145414088,1.6424540074314837,3.0,0.49215664352812805,0.5060161999146796,0.3582892563206736,-0.6824777376019504,0.02477594472874123,-0.49000216775019445,0.5417639392213478
12.8,0.6993446471021664,5.002193411971367,3.929089036608138,-0.4390501483901918,0.022123915998652217,-0.19838072594870554,-0.168077258384289,0.22099214935918077,0.9606833397561675,-1.484940568639675,-1.8158295777795597,4.157212956137371,-2.913878224195788,-1.3549255785312375,1.6424791174582742,3.0,0.4918986520687387,0.5057556313188005,0.358274655924552,-0.6824654756562039,0.02477356617357251,-0.4900088670233138,0.541773435298302
12.9,0.7985578089355607,4.981844033207279,3.8027151793492426,-0.437632844384793,0.022685034934683917,-0.17580825549093737,-0.16817342745124614,0.22112579241153252,0.9606357605394599,-1.4866094574694202,-1.8145958407672038,4.157466027969049,-2.913478131589615,-1.3547289999951069,1.6423741333658393,3.0,0.4917163927355607,0.5055834146305815,0.3582115465928682,-0.6824931160658121,0.024766230853918075,-0.4899889438067054,0.5417569706789731
13.0,0.6707407919379622,4.985505862866253,3.7438040958252965,-0.47246111893411136,-0.00274853461364246,-0.17218800404034038,-0.16819402317543694,0.22115535487160343,0.9606253578439,-1.4879713667223997,-1.8132103152632402,4.157649490518177,-2.913072165769107,-1.3545049699870382,1.6423878451197818,3.0,0.4911300796863349,0.5049870349882518,0.35795013361092376,-0.6826140732985733,0.02472422686383992,-0.48993355700015706,0.5416565787156004
13.100000000000001,0.599011488044389,5.01876352796295,3.7591048560202056,-0.45932116418205765,0.01203052366973106,-0.1794548075218735,-0.1681704415930283,0.22112407576945234,0.9606366871309802,-1.4896357711748531,-1.811910888125615,4.1578450202941895,-2.912713590308391,-1.3542538761596603,1.6424105160032065,3.0,0.49095207675932034,0.5047837129873844,0.35808839388620534,-0.6825232043271834,0.024749588882399684,-0.4899787483387096,0.5417290462782456
13.200000000000001,1.1787203186325534,4.1380526002605675,3.901911393936619,-0.44935904842980184,0.03106471595107474,-0.1811053133515869,-0.16790034570304369,0.2207875491512785,0.9607611107209731,-1.4913964212997206,-1.8109493504970657,4.158108234405518,-2.912285715343598,-1.3540488830206359,1.6423772957892704,3.0,0.4905202848223272,0.5043093218396282,0.35818695118424604,-0.6824503362733303,0.02478130727958781,-0.49001129652811326,0.5417899543224944
13.3,1.1012082129695948,4.315941213357691,4.04016133515924,-0.43493002033774825,0.029345315539674503,-0.17585026168359294,-0.16747989592551688,0.22026484611540326,0.9609545127336349,-1.4928358498113605,-1.809879982223712,4.158272989993954,-2.9118629038734514,-1.3538082913015927,1.6423992479336575,3.0,0.490047199196971,0.5038528649681366,0.3578978439251952,-0.6825853287857515,0.024752640814223573,-0.48995323312887873,0.5416737071759422
13.4,0.6937663475262188,4.659604154354801,3.9432732948254388,-0.43991527641243083,0.025463224350995604,-0.18337081463083846,-0.16744466349367465,0.2201987919975228,0.9609759211970448,-1.4943265914916992,-1.8085527039486655,4.158524580903269,-2.9114937221893933,-1.3535816001211365,1.64233209775155,3.0,0.48977169828798195,0.5035537585309461,0.3578678855181539,-0.6825766948683403,0.02476041616586305,-0.4899584232161535,0.5416795371189931
13.5,1.0488960669062437,4.636601018789134,3.7255994402636126,-0.44312200691186215,0.023950006976597302,-0.17340628026555494,-0.16767411913562277,0.22045242404639268,0.9608777371783174,-1.495966612057144,-1.807253977543154,4.1587421428824936,-2.911086207419178,-1.3533394972430628,1.6423416684177736,3.0,0.4894841240749737,0.5032281272978245,0.35792314408704473,-0.6825280399725737,0.024799092265677815,-0.48998225743247265,0.5417175159392331
13.600000000000001,1.1442337116950483,4.543644398747685,4.131204800641838,-0.44106126356592923,0.02915499758232632,-0.16015715607145792,-0.16808300932612616,0.22097032770342237,0.9606871203751169,-1.4975614592150008,-1.8060463856478086,4.1589715206251485,-2.910692354241842,-1.3531342199569694,1.6423051631822247,3.0,0.4890646722508392,0.5027971677913202,0.35794769834658774,-0.6825026374870868,0.02480008831375607,-0.4899962391617346,0.5417368282202681
13.700000000000001,0.8713438566750881,4.5486423316686855,3.8603351906268824,-0.4231359334025376,0.05256293026844885,-0.14118615829782094,-0.16845696691426376,0.22143941303857653,0.9605138398179823,-1.4990736986654656,-1.8050512265893972,4.159171056217164,-2.9103498664628398,-1.352919880543844,1.6422451034787375,3.0,0.4887651093860451,0.502529822398896,0.35794273815558303,-0.6824897702085719,0.024781985915127473,-0.4899917786722833,0.5417579012514031
13.8,1.1069942417450043,4.201262554424063,4.116614183604763,-0.4241782435558304,0.0344301675871275,-0.13533180946129145,-0.16848168677472714,0.22142043854863835,0.9605138779022433,-1.5007168126999408,-1.8038749722266876,4.159403324127197,-2.9099039607183204,-1.3526702756221458,1.6422463597730246,3.0,0.48840189012029245,0.5021408334837735,0.3578685510705066,-0.6825067736617153,0.024791128091141264,-0.4899972853618597,0.5417310810834592
13.9,0.4004581358033045,4.044124020318278,4.238237545991527,-0.4010066564404887,0.01488347600418352,-0.14220770725697707,-0.1684480081653365,0.22134579692368864,0.9605369261926672,-1.5021910172249058,-1.8027516804137171,4.159665296553409,-2.9095577946498214,-1.3524761139886594,1.6422912578571196,3.0,0.4880166085515569,0.5017392158755896,0.3577488124050935,-0.6825542976749143,0.024774331517262025,-0.4899789462452832,0.5416885594691281
14.0,0.19652165931106969,3.3373182860838555,3.590222130777469,-0.34220439092488153,-0.008867698349067999,-0.13506081660464597,-0.16776761041346439,0.2206546836358849,0.960814795214443,-1.503751591938298,-1.8013360329143486,4.159870624542236,-2.9091750596286685,-1.3523085765312566,1.6422572135925293,3.0,0.48767411699701674,0.5014286575521613,0.35777491838495,-0.6825171609684042,0.024761682423280015,-0.48997912974559266,0.5417357626010579
14.100000000000001,0.6599120078796132,4.224960801858494,3.854700932809652,-0.3766880362509675,0.018399268536424086,-0.13625781147905774,-0.16754280389709197,0.2204021843538738,0.9609122073347725,-1.5053464919904025,-1.8003241291138081,4.1600767379561905,-2.9087679592329447,-1.3520682493792933,1.6422357787957063,3.0,0.4872896781645348,0.5010310789949988,0.3578383193273716,-0.6824668294804366,0.024774061096098116,-0.490001944158983,0.5417779686145837
14.200000000000001,0.9572891337618066,4.381842315250704,3.9973736796592925,-0.3633350397967707,0.009505627624521172,-0.13323497384305535,-0.16765523538835816,0.22047435618471597,0.9608760415432228,-1.5068941740472632,-1.799183031121725,4.160301685333252,-2.9083600014082664,-1.3518641630755823,1.6422424128888602,3.0,0.48702752794773435,0.5007406407777897,0.3577549159364014,-0.6825046148548566,0.024773210555054027,-0.4899963691706431,0.5417354492187179
14.3,0.4440548421870768,4.383905968150735,4.0548092657413015,-0.37898697297795403,0.016357350396631977,-0.13143762470745246,-0.16681214363764466,0.21947379019250934,0.9612499865351811,-1.5082617562797673,-1.797970800164373,4.160519123077393,-2.9079409307761805,-1.351647679005758,1.6422098958126676,3.0,0.48662997548711795,0.5003350026929377,0.3576562703069833,-0.6825298555528315,0.024766151956190526,-0.4899796479589129,0.5417190956412498
14.4,0.6716700914102605,3.939388196617373,4.275490077629655,-0.3472872629073611,0.02537900478324539,-0.12594047138838896,-0.1653139622905601,0.21774251684998747,0.9619040611445661,-1.5100132256255838,-1.7968148814381963,4.1607689837633925,-2.907512631684848,-1.3514091111784725,1.642207471294994,3.0,0.4862741198415628,0.4999938473285955,0.35768429943023144,-0.682486446997424,0.02477080455326788,-0.48999371363254823,0.5417608489981539
14.5,0.9502261349789455,3.696583788562491,3.841799147333555,-0.33278454090147486,0.04991140368229391,-0.12286565632981726,-0.1658951685612282,0.21847154364297722,0.9616382007612981,-1.5117618632427399,-1.7956386333207701,4.160976720595985,-2.907186206076386,-1.3512086528000558,1.6421935190254233,3.0,0.48595516571405867,0.49968162588887594,0.3576253228749915,-0.6824975691008118,0.024763953827921376,-0.4899797051046816,0.5417598207211574
14.600000000000001,1.1171391244471947,3.4985910503977116,4.274663121631956,-0.3431417011290258,0.031856856294050204,-0.1121464138009887,-0.16645096571132048,0.21916936533266249,0.9613838204343513,-1.5130678982814616,-1.7945076427855433,4.161201249908259,-2.9068413406477975,-1.3510115511605736,1.6421829037002456,3.0,0.48559479982359355,0.499309140505689,0.3575087152640698,-0.6825509610998741,0.02474356287271153,-0.4899435725796886,0.5417261644833614
14.700000000000001,0.7634028158397576,3.657295380481138,4.323912455247531,-0.33180036056662765,0.026928442943976935,-0.1142290778516943,-0.16606529021333855,0.2187109584486813,0.9615548054400023,-1.5144996444185148,-1.793235307173273,4.161441326141357,-2.9064574790177042,-1.3507708598939585,1.6421250800476583,3.0,0.48532525486916017,0.4990306750306424,0.3574778623819403,-0.6825585614446315,0.024735479609125716,-0.4899498118761755,0.541711314345235
14.8,0.7126167170372344,3.205705309382118,3.874219986014562,-0.3087431471016876,0.03571052658293692,-0.10485469056312686,-0.16657835875730312,0.21930193909197243,0.9613309164098863,-1.5162761866653705,-1.7919952478590926,4.161667692739816,-2.9061004115288043,-1.3505456064319818,1.6421234252738701,3.0,0.4848739327909533,0.49856320888074757,0.3575760224387791,-0.6824752600044883,0.024763702553987393,-0.4899851945463356,0.5417829709791675
14.9,0.8413516981359928,3.490499511974399,4.407808970625063,-0.2840211348227778,0.04554530196805776,-0.10425211292204795,-0.16715512684616068,0.21998295522221056,0.961075766978589,-1.5177944561646088,-1.7909057677976923,4.1618606939899445,-2.9057382650187433,-1.3503174291309836,1.642111604489957,3.0,0.4846018185459069,0.4982754977382949,0.3575288874636462,-0.6824899680956001,0.02475585722974634,-0.4899744810127983,0.5417744908519835
15.0,1.0062490460524163,3.33419365851078,4.314178887923555,-0.2869941298856937,0.04680344623620607,-0.09563631797994386,-0.16698507789831135,0.21980702333683183,0.9611455956458393,-1.5191761411260813,-1.7898578556920306,4.1620643911883235,-2.905307922206344,-1.3501351054394704,1.6421000052941963,3.0,0.4841633936385269,0.4978323455744487,0.35740769018863694,-0.6825401653729368,0.024741918451758372,-0.48994919575575113,0.5417347558559475
15.100000000000001,1.0191175017885055,2.901614615707574,4.4354873647602115,-0.2885870066328422,0.04752520545367823,-0.09712040014709024,-0.16715648787035675,0.21998733237126447,0.9610745104398344,-1.520770940446017,-1.7886078766711624,4.16233859362903,-2.9049607985396184,-1.3498609135707549,1.6420884132385254,3.0,0.48387649889325574,0.4975163802008495,0.357365272478709,-0.6825340040078332,0.02476149814058328,-0.48996615639681623,0.5417262843619459
15.200000000000001,0.7516282771038283,2.7589995506849387,4.31876854507782,-0.2778507365750539,0.04929756055685473,-0.0878610132221451,-0.16732789784240215,0.2201676414056971,0.9610034252338294,-1.522521211341533,-1.7872732759000702,4.162508487701416,-2.904625348599239,-1.3496450141433753,1.642076827268366,3.0,0.48360340591124773,0.4972329317015256,0.3573463865979393,-0.6825322244525156,0.024753908276130488,-0.48996071291884913,0.5417337966243299
15.3,0.6274692989663443,2.8259503954396727,4.291477644883238,-0.2679168996500521,0.04381809218805412,-0.08911364558415825,-0.16775530246227388,0.2206439518559772,0.9608195334689071,-1.5238299831862214,-1.7861345067565568,4.162686289814393,-2.904290769187945,-1.3494747261048199,1.6420516244843102,3.0,0.4831239488109935,0.4967081179088857,0.3573373925170908,-0.6825243932727262,0.02474066410603102,-0.48997448595004356,0.5417318111808465
15.4,1.0642843650350922,2.864195108431786,3.9248309535695602,-0.2647911882747247,0.05599431893331566,-0.08965006967594566,-0.16741888681989983,0.22024143597347587,0.9609693668091939,-1.5238221766184556,-1.786173329796051,4.16275805391322,-2.9042804930010857,-1.3494407234991759,1.6420540413710272,3.0,0.4829156391690327,0.49646105600926244,0.3573630742709954,-0.6824997498028094,0.024765376095323303,-0.48999527334473625,0.5417429277487406
15.5,0.9379808213564884,2.8352537923876917,3.9879939754607183,-0.27105413800230027,0.051806586789835504,-0.0840194059973284,-0.16626645022292047,0.21890002199958267,0.9614757400101849,-1.5238351821899414,-1.7861620388426722,4.162674984536922,-2.904269148914674,-1.3494771162616175,1.6420525697843664,3.0,0.4827823633436336,0.49633883449258626,0.3573653769316054,-0.6824904091760797,0.024775245379943873,-0.4899901275356772,0.54175889795794
15.600000000000001,0.6867204631777665,2.9904963889208407,3.9639479166276077,-0.26840473736172604,0.04808411377095464,-0.08652573264718967,-0.16568064943061345,0.21823453273506827,0.9617294854444614,-1.5238807859531045,-1.7861517210292162,4.162725144375265,-2.90429072278712,-1.3494647184955042,1.642040729522705,3.0,0.4827746166183192,0.4963491850507854,0.3573662188715582,-0.6824885321170522,0.02476202523122678,-0.489980877844288,0.5417702326467376
15.700000000000001,0.8698573774887818,3.1379685621442417,4.106955483641477,-0.2612255286472522,0.051924291456834214,-0.09042584070134631,-0.16572751747659448,0.21832373722115472,0.9617011630772175,-1.5239286034423725,-1.7861623632058738,4.1627110039942234,-2.904293695831203,-1.3494767789238877,1.642052452613359,3.0,0.48277619120798754,0.49635104268845226,0.35736952535308003,-0.6824848967071356,0.024767969105565047,-0.4899753773602748,0.5417795151661722
15.8,0.7203998955743927,3.2211189570052317,4.274507888192745,-0.2551892783437216,0.05070114804547125,-0.09473588236642552,-0.16629644007601466,0.21898018892491908,0.9614528310673671,-1.523883254552198,-1.7861858807005824,4.162699837921555,-2.9042573647947707,-1.3494771162616175,1.6420289471134493,3.0,0.4827684809514248,0.49635117351628016,0.35735930901501745,-0.6824873758534229,0.024762135772017937,-0.4899776836642328,0.5417745729948484
15.9,1.2235057828887168,2.8914265044081486,4.160362268496257,-0.28447076784863784,0.04391515099397576,-0.09056449180119314,-0.167469273314277,0.22029282996244673,0.96094999277471,-1.5239300569056047,-1.7861143520550564,4.162674673390459,-2.9043151433034198,-1.3494296663566832,1.6420762490233771,3.0,0.48277023307541866,0.4963350058488784,0.3573508921414564,-0.6824972809833718,0.02476250991219795,-0.4899903030095558,0.5417506645217488
16.0,0.718162002389101,3.2188291720510036,4.327038741450879,-0.2821640005562771,0.057351158817745426,-0.09788329862211954,-0.16746299034692003,0.2202308002157849,0.9609654210019195,-1.5239191055297852,-1.7861613138354397,4.162688219043262,-2.904292722741598,-1.3494654435027367,1.641995109289008,3.0,0.4827828777200002,0.49631952340381513,0.3573479152937555,-0.6825059569416724,0.02478131338901296,-0.4899909372015532,0.5417383009407695
16.1,0.7649566078539615,3.151961876794074,4.282962589655002,-0.2830752320705931,0.05593493262532268,-0.0972607888648871,-0.1675902730401643,0.22038210024092403,0.9609085299833598,-1.5239191055297852,-1.786149641076559,4.162686824798584,-2.9042578036200513,-1.349465010966148,1.6420171576376967,3.0,0.4827861172898921,0.49632098381710765,0.3573279679605156,-0.682517502696705,0.024782409511358693,-0.4899861267479688,0.5417280556570687
16.2,0.7957108543752798,3.1359109921319956,4.255984170169461,-0.2846191718998776,0.05502181400342737,-0.10019551455596123,-0.16809031563837595,0.2210001251744027,0.9606788974292745,-1.5239297141552255,-1.7861735581051097,4.162699222564697,-2.904280801812643,-1.3494874144578417,1.6420543162217103,3.0,0.4827760087488521,0.4963293714491286,0.35730996600239834,-0.6825261225263037,0.024769668991171997,-0.4899771791861796,0.5417258711230535
16.3,0.8056840013025374,3.2520859588745643,4.327360159313105,-0.2805685690234557,0.05251284666337185,-0.09787614834427823,-0.16830289713961485,0.22128615313259173,0.9605757617727181,-1.52389528262877,-1.7861418133039517,4.162698168880885,-2.9042838412851784,-1.349444969793942,1.6420520736050062,3.3479840127745795,0.48276395552122764,0.49633046017635973,0.35730462763348925,-0.6825318739675041,0.02475340481249928,-0.4899678385141488,0.541727816518931
16.400000000000002,0.5943575887526527,3.32345882930888,4.206410612970142,-0.2813342690747058,0.05932345055383633,-0.0998105574045618,-0.1674940137834024,0.22033508180661165,0.9609360049730062,-1.5239303928869834,-1.7861620388426722,4.162722568096378,-2.9042930492720114,-1.349465051556526,1.6420767993509136,4.0,0.48276826989528693,0.49633750218091754,0.35732217042213404,-0.6825189121360711,0.024750064886102922,-0.48997860768042123,0.5417345594295089
16.5,0.8525185525356458,3.2139992758994302,4.354133097675894,-0.2836181802633687,0.05114452165021434,-0.10070725351342043,-0.16718352505535938,0.21996922952882128,0.9610739783783996,-1.523894501741601,-1.786149641076559,4.1626745582257625,-2.904292722741598,-1.349476924517575,1.6420285890972803,4.0,0.4827712022833664,0.4963388224250133,0.3573135314948531,-0.6825244306729135,0.024750237388715575,-0.48997486237960935,0.5417309863021504
16.6,0.8388799271334867,3.182720375345725,4.300999861750919,-0.28114097100372154,0.05149295903081192,-0.098422945479426,-0.16597492869355862,0.21853890985038477,0.961608373532371,-1.5239185152262666,-1.7861501892155405,4.162699728539142,-2.904292722741598,-1.34944193075102,1.6420396754092792,4.0,0.4827699122936303,0.49633563847633566,0.35728471816039437,-0.6825446369526385,0.024742580916728565,-0.48996583207981753,0.5417140450930749
16.7,0.6423109902944237,3.4074142205711557,4.190442813100912,-0.27583863743032355,0.05066673962872583,-0.09891629221373298,-0.16547128770147243,0.21794078966429903,0.9618315937421701,-1.523931115865025,-1.786162628679592,4.16268743822898,-2.9043040538336333,-1.3494665115997404,1.6420413429531016,4.0,0.4827691560268208,0.49632683292631474,0.3573063144122431,-0.6825345573234349,0.02474823582629037,-0.4899729169016107,0.5417200786252219
16.8,0.7486930533911718,3.4855121753280685,4.16634485148163,-0.2739858558524407,0.05124935424341499,-0.10025307995659956,-0.1661663124173898,0.21875828695443061,0.9615256807699311,-1.5239148440681471,-1.7861454820955875,4.162682341175513,-2.904272179460583,-1.3494686755670253,1.6420761382050615,4.0,0.48278184023950216,0.49632278764436044,0.357316874907364,-0.6825226124877589,0.0247677346851828,-0.48997479642243197,0.5417325369887294
16.900000000000002,0.8138050945752301,3.1998647429690497,4.221673629785063,-0.2827656442162071,0.04974674856509286,-0.09944859615061874,-0.16686133713330717,0.2195757842445622,0.961219767797692,-1.52391222077851,-1.786130617536058,4.1626808937216255,-2.904292722741598,-1.3494353589988803,1.642058231489287,4.0,0.4827787581768939,0.496328686424207,0.3573186685809111,-0.6825224224801284,0.024764836882280185,-0.4899732850772216,0.5417342758001259
17.0,0.885577589522284,3.156279199539975,4.302923641599554,-0.2834892040537381,0.04838445240754443,-0.09880595052213374,-0.16739198077860076,0.22021864179795114,0.9609802167730933,-1.523919160737072,-1.786149641076559,4.162723007723232,-2.904268936837019,-1.349488943188976,1.6420407101255503,4.0,0.4827678690254253,0.4963420335360009,0.357325501821276,-0.6825170868898776,0.024759106491832626,-0.4899701873317053,0.5417440615966321
17.1,0.7980216859662674,3.110411750234749,4.264251983695025,-0.2811746747492,0.04931361558509756,-0.10241901396967434,-0.1679024134568745,0.22084002706170075,0.9607488250768772,-1.5239199795820748,-1.7861620388426722,4.162687735269719,-2.904281712283778,-1.3494647184955042,1.6420512699277028,4.0,0.4827670692500027,0.4963436204265562,0.3573068575952346,-0.6825289718202163,0.024753727280923205,-0.48996178495577425,0.5417369332939111
17.2,0.8935285515189789,2.944618501626409,4.347748788738238,-0.28421750184749134,0.04943755292835861,-0.1021442708968576,-0.16673983956759317,0.2194935159655266,0.9612583951696028,-1.5239542466816054,-1.7861495018478215,4.162686824798584,-2.9043045044418156,-1.349464863293391,1.6420284765544786,4.0,0.4827674110958638,0.4963418867667042,0.3572938655167316,-0.6825417688314129,0.024739893320744298,-0.48995833099945496,0.541724565958747
17.3,0.9372743775695115,2.9791996115392885,4.427577562809008,-0.28395011245409785,0.046634395449054906,-0.10217349574198252,-0.1656814820523982,0.2182493809588665,0.9617258282451017,-1.523905858414825,-1.7861261755355216,4.162674710201602,-2.904292722741598,-1.3494649085168955,1.642041012691837,4.0,0.48275597824991995,0.4963495375128511,0.35730732609595933,-0.6825340187979834,0.024730070410339096,-0.4899615246137591,0.5417318905133189
17.400000000000002,1.0192326302265,2.9846153133652957,4.47158077092445,-0.2869084178416818,0.04503197982260245,-0.10008170226902889,-0.16518558983680165,0.21763235771392708,0.9619510107209998,-1.5239409298703945,-1.7861507714097298,4.162674427032471,-2.9042932768264857,-1.3494776703465052,1.642040729522705,4.0,0.4827598817481388,0.49633699963382993,0.357315731565282,-0.6825321554428997,0.024741002812266908,-0.4899659773411644,0.5417297117700213
17.5,0.7354542401619085,3.21639834911082,4.133175768018218,-0.2780234502080692,0.04925798149682558,-0.10260141559949784,-0.16501601390374487,0.21741080020580625,0.9620302585770145,-1.52394150349112,-1.7861736593128235,4.1627350589413785,-2.904292920411864,-1.3494647184955042,1.6420768663581904,4.0,0.4827753466286901,0.4963272256941102,0.357330793919599,-0.6825153628103958,0.024761563066304535,-0.48997512363504964,0.5417416568265032
17.6,0.5162799229929994,3.342151504321252,4.1065871874995965,-0.2764964589885844,0.05279312758142948,-0.10621732082945438,-0.16489998799209848,0.21725414046652763,0.9620855578823826,-1.5239416104956416,-1.7861494494676902,4.162686824798584,-2.904304547866119,-1.3494772120660519,1.6420406298860935,4.0,0.48277260264218885,0.4963281036899182,0.35733904731606486,-0.6825121558936907,0.024762098453689818,-0.48997987903273,0.5417413715792688
17.7,0.8410075491149619,3.137000783427432,4.337313156029825,-0.27959639713988227,0.045287186596985225,-0.1034775628319702,-0.16555002685654324,0.21806562546247873,0.9617897815613614,-1.5238834003874304,-1.7861620388426722,4.162687092039419,-2.9042690145041052,-1.3494769772963837,1.6420525821175163,4.0,0.4827622424136103,0.49634370976562636,0.3573325659828842,-0.6825137002114512,0.02474856113771028,-0.4899735957912783,0.5417457274152253
17.8,0.7399722898242093,3.1308342061500314,4.2334891551790665,-0.27992060918846134,0.04757622836856809,-0.10053001283691587,-0.16596890697553193,0.2185853989701282,0.9615999939251801,-1.5239191055297852,-1.786150106135095,4.1627093072546195,-2.9042936170849365,-1.3494757568597429,1.6420641420958129,4.0,0.48275919866940525,0.4963464650389318,0.35733969324005543,-0.682508383561946,0.024747387524727982,-0.4899745559087767,0.5417516107408982
17.900000000000002,0.9915455096723993,2.779485627340147,4.077761945672574,-0.28789737537496085,0.04267710701793849,-0.10154558395612082,-0.16561563155092687,0.218130215865772,0.9617641821286296,-1.523930496598763,-1.7861377201476039,4.1627104987509,-2.9042571808831457,-1.3494648311689947,1.642053069847431,4.0,0.48277898770935446,0.49632629805455236,0.35732952600545365,-0.6825138308713066,0.02477343866215934,-0.4899722680494458,0.5417456266078275
