xiamingqian9007/apple-picking-rnn/training_data/grasper_20191127_135323_noimg.csv
,/manipulator_wrench.fx,/manipulator_wrench.fy,/manipulator_wrench.fz,/manipulator_wrench.tx,/manipulator_wrench.ty,/manipulator_wrench.tz,/ground_truth.x,/ground_truth.y,/ground_truth.z,/joint_states.elbow_joint,/joint_states.shoulder_lift_joint,/joint_states.shoulder_pan_joint,/joint_states.wrist_1_joint,/joint_states.wrist_2_joint,/joint_states.wrist_3_joint,/mode./mode,/manipulator_pose.x,/manipulator_pose.y,/manipulator_pose.z,/manipulator_pose.rx,/manipulator_pose.ry,/manipulator_pose.rz,/manipulator_pose.rw
0.30000000000000004,0.34777790544611564,-0.21966782158553522,0.07562021104957763,0.0011856566041579578,0.0013458112409041184,-0.017994556354621813,0.06470217504707843,-0.07144192498240953,0.9953420128746853,-1.8238327936860907,-1.6863617350615008,4.188458904374926,-2.6522107877029018,-1.321843838240243,1.6986391133386136,1.0,0.44429424412484697,0.45388778338333113,0.2988686544395197,-0.6627803560057334,0.04882406476300714,-0.4820627696526044,0.5709237221449036
0.4,-0.4011494545162625,0.21913964527379565,-0.13279650034097978,0.007856698297113381,-0.006867519187664017,-0.04977618058943561,0.06355605046995508,-0.06983767830089342,0.995531587255301,-1.8205834681624262,-1.6889485606594974,4.187719970034535,-2.652978804079049,-1.322601081715273,1.6987022389168105,1.0,0.44433675280206153,0.4539305197467696,0.29889504272315764,-0.6627617519999112,0.048821183859436866,-0.4820760569838879,0.5709343459413162
0.5,-0.2981838791172116,0.17457507187124663,-0.2721569270792513,0.0034041755096933914,-0.008950419243202397,-0.090963703997067,0.06467297890149915,-0.0714820542131919,0.9953407965159419,-1.8160464787783521,-1.6925039094292305,4.186800830833527,-2.6538999348157852,-1.3233243000977746,1.6988278010003977,1.0,0.44496582359621684,0.45460406444415913,0.2990350242500619,-0.6627757230854313,0.048753012959382606,-0.4820403978390328,0.5709540607326942
0.6000000000000001,-0.15707963388784027,0.41827141447205185,-0.12929451119848187,0.017066841850934853,-0.006468994778351476,-0.12596734974676715,0.06584525075210144,-0.07320587584809736,0.99514070387064,-1.8118343528812464,-1.6957412138757104,4.185905145068364,-2.6549218099846743,-1.3241143167196692,1.698910384167098,1.0,0.4464630181095948,0.4560373714433096,0.29927345782938924,-0.66274161010913,0.04887063939488721,-0.48210575795597527,0.5709284166870549
0.7000000000000001,-0.038417356240396605,0.30572004555280496,-0.05018054423978437,0.019380774507397776,-0.009263709321440147,-0.1556223936364842,0.06528634203045919,-0.0724225289797225,0.9952346811453294,-1.8077488587121753,-1.6989366529956895,4.185094266728263,-2.6558915374163865,-1.325069303961998,1.699029850851361,1.0,0.4471682456602821,0.4567194935305816,0.29949871794709443,-0.6626812409795875,0.048893914475933276,-0.48214064390116906,0.5709670371217065
0.8,-0.03112732527207135,0.1138648879924231,-0.23994542287213846,0.01161527013286325,-0.008532212908533645,-0.18209971710854508,0.06436765574016662,-0.07104097700945124,0.995393669808657,-1.8037604674976833,-1.7020530269080651,4.184392817112622,-2.65667659846991,-1.3259100637550074,1.6991425680192136,1.0,0.4483652567811449,0.4579715048914369,0.2995331878947515,-0.6627868360164844,0.0488360080327895,-0.48207791066642636,0.5709023930324448
0.9,-0.1779485001591975,0.4386738181171994,-0.04806168614822939,0.014789617846800015,-0.01928723173208769,-0.21549381743415466,0.06326897012353486,-0.06935501582342854,0.995583391009003,-1.8000075671784677,-1.7049959715889085,4.183736248425024,-2.6575946594136552,-1.3264857796321678,1.6992310272797386,1.0,0.44902685612362103,0.4586955319576551,0.29966459656061645,-0.6627623988619189,0.04880459172833021,-0.48204570596894625,0.5709606394822028
1.0,-0.1758806670480923,0.4187910530327058,-0.12041514407526871,0.012724791294124958,-0.016290559925931154,-0.23123541935712127,0.06335375997148218,-0.06951024512087717,0.9955667474275905,-1.7962922037378,-1.7078252485777738,4.183013660014892,-2.658553262750143,-1.3271297468717205,1.699341498284909,1.0,0.44993193472521875,0.4596936540144338,0.2998081504064277,-0.6627576308779264,0.04879703197457126,-0.48204630466167314,0.5709663147205587
1.1,-0.26141502801704275,0.3816025407602277,0.20952288494715418,0.01924267999658921,-0.010171612169294074,-0.2469662073770243,0.06495096918010286,-0.07183202364027425,0.9952983072480579,-1.7924713549559683,-1.710830961196585,4.182238717579321,-2.6593794047318093,-1.3279595377892934,1.6994281595430165,1.0,0.45122283083448417,0.4609732692820452,0.30003955683202127,-0.6627625940725557,0.04884689013491922,-0.48207843501792524,0.5709291617293973
1.2000000000000002,-0.25085369898615606,0.3150280672069077,0.1595509912282602,0.024200396562293048,-0.005123924677168533,-0.24532096395347955,0.06579903223089265,-0.0729277755272683,0.9951639184604456,-1.7890851329995072,-1.7134038985225692,4.181571623867505,-2.6601158350203664,-1.3287282449765403,1.6995122369391733,1.0,0.4517936915896306,0.46154624855079984,0.3000752166702416,-0.6627974833745959,0.04882299162358002,-0.48205711657453987,0.5709087036305077
1.3,-0.47180254537631106,0.40482198142208303,-0.029936842220718712,0.006287843255029929,-0.01423631169324975,-0.2434156438781802,0.0651143720390701,-0.07181301617589089,0.9952902917001639,-1.7857275009155273,-1.7163066943222474,4.180930859187864,-2.661017399737505,-1.3293048702643147,1.6995716139955341,1.0,0.45259953294275174,0.46243060725069063,0.30021638948577223,-0.6627851769508465,0.048790186917193216,-0.4820232098058349,0.5709544220717628
1.4000000000000001,-0.2753110391237561,0.3051891727807562,0.01998366287460361,0.022246975626021192,-0.002879416261538462,-0.23674444486029358,0.06504082143942409,-0.07179880564148589,0.9952962456542719,-1.7823038936828994,-1.7185064098313247,4.180242052661782,-2.661821852934078,-1.3298579996889608,1.6996673252303218,1.0,0.45376865424986895,0.4635566885179264,0.30030081287543464,-0.662842626285043,0.04879509616512471,-0.48202101612504017,0.5708891585794629
1.5,-0.14789598085503988,0.22071496088654066,-0.2898930294406241,0.011363882937915947,-0.015329354797918958,-0.22811709688319218,0.06514163314904428,-0.07204875560975701,0.9952715262936974,-1.779184755914184,-1.721055440729089,4.179646015167236,-2.6626950012257087,-1.3304068987130133,1.6997318930167966,1.0,0.4543934463709841,0.4641649060820483,0.30046637677589005,-0.6628147144367887,0.04882925774636222,-0.4820492340393978,0.5708948185752323
1.6,-0.01553248405097779,0.01567286495246023,-0.22009511235999468,0.012711158857764636,-0.012696680459756556,-0.22781824966682535,0.06541326888459767,-0.07252663324486021,0.9952190381305386,-1.7761314180292413,-1.7233272859019655,4.179064061919623,-2.663357751432996,-1.3309859143233111,1.6997934977262366,1.0,0.45504459555580323,0.4648177421795215,0.30063375358036704,-0.6627913568180877,0.04886498623232193,-0.4820607087993231,0.5709091902217442
1.7000000000000002,-0.046242894854578075,-0.04946627025373054,0.0176317039320852,0.01422609619364594,-0.007776492287159759,-0.22429951223241343,0.06478382641904193,-0.07159623250661576,0.9953266361278176,-1.7729033496485753,-1.725430305009918,4.178529731434505,-2.664109531247532,-1.3315667433798597,1.6998758779711225,1.0,0.45610854428556596,0.4659064875752681,0.3008254098245757,-0.6627655213105739,0.04883870238843373,-0.4820789278287619,0.570926047973298
1.8,-0.35048961864817607,0.5771123404712789,0.005142258307433112,0.015326642652298899,-0.007310920724607969,-0.2229478626397483,0.06401127668224835,-0.07044217207390195,0.9954596586593436,-1.7701355048302339,-1.7279240783739476,4.178045715158679,-2.664889968998318,-1.3321917520239404,1.699919127287409,1.0,0.45653577306667126,0.4663328857387576,0.30106913071248037,-0.6626553923630348,0.04883710047353055,-0.48211877370910705,0.5710203644588846
1.9000000000000001,-0.26754934971029476,0.18334622133354106,-0.068153692332346,0.02183343498192082,-0.0019227633539231946,-0.22530582715455924,0.06281568894191877,-0.06865100398458976,0.9956597252837636,-1.7671853553538084,-1.7298618312888467,4.177508016320488,-2.665640952028433,-1.332710227637588,1.7000010799639695,1.0,0.45743501397552416,0.467339717534653,0.30101515829906655,-0.6627966355094351,0.048772451897209274,-0.48201568030219766,0.5709489923242855
2.0,-0.4848039333920066,0.3946538472847956,-0.29118646656790403,0.015033323669142777,-0.007393491450892347,-0.22107990779243766,0.0617632229000092,-0.0671276526876427,0.9958307754639928,-1.7646420485380632,-1.7320749991188213,4.176975057041532,-2.6663226260897392,-1.3331396561051496,1.7000979668110892,1.0,0.4578437337166747,0.46775318714938363,0.30113109320857184,-0.6627684135607188,0.048773466271812255,-0.4820303981092943,0.570969241091528
2.1,-0.17753260001131432,-0.13671722067521108,-0.261097839773555,0.010294383069141246,-0.007419033983320404,-0.22159060234773445,0.061689546703951416,-0.06717918788439634,0.9958315170549004,-1.7616812712016396,-1.7341058703895025,4.17656212335942,-2.666942838021583,-1.3335443649574388,1.7001125341716103,1.0,0.4585198605410585,0.4684179717932728,0.3011884140837339,-0.6628157513750926,0.04879726470375549,-0.48202207807293856,0.5709192788273567
2.2,-0.39489373339333045,0.5289355455632123,-0.05313166612518154,0.021064612991120876,-0.007816211335841509,-0.22523748352830483,0.062438191146500274,-0.06840362124152302,0.9957019665460826,-1.7592861129440067,-1.736015062198026,4.176089333335489,-2.6676468884417854,-1.3339760939227503,1.700199751845592,1.0,0.4594837086036417,0.4693562019497157,0.3014336701658293,-0.6627323660226788,0.048851241176789496,-0.48210318910795547,0.5709429764113122
2.3000000000000003,-0.17467623825885917,0.3075800241196064,-0.17416115926468534,0.023664523478190456,-0.005955914087709605,-0.21771502723874905,0.06287004175169596,-0.06897089424653936,0.9956350565818982,-1.756582358802379,-1.737892590817338,4.175637289809863,-2.668266130884654,-1.3344790244056395,1.7002557381000767,1.0,0.4598479319327901,0.469747679350071,0.3014381998245711,-0.6627698110443608,0.04884882444594412,-0.4820716756165936,0.5709263257957906
2.4000000000000004,-0.23585251486800596,0.41765560657147477,0.016225474620562234,0.02489033698522179,-0.0038921529086616133,-0.22093360652427835,0.06392746333724518,-0.07039794543673825,0.995468029649998,-1.7543846259074838,-1.7397038115977244,4.175208560033607,-2.6689034943757957,-1.334959039605483,1.7002881413340432,1.0,0.4604213234607683,0.47033916257965264,0.30159594565081205,-0.6627328284410461,0.04884769455935765,-0.48207988460697604,0.5709624205673185
2.5,-0.5599350829620532,0.46991002253746866,-0.13971831112938266,0.024138270691032367,-0.0034257150398352013,-0.22501228639604068,0.06334076258700093,-0.0695100276084831,0.9955674565203682,-1.7517918527541745,-1.74170404885024,4.174780368804932,-2.6695556751479814,-1.3353859633969012,1.7003004999600728,1.0,0.4612097746333503,0.4711628749074823,0.3016162546780412,-0.6628215940509583,0.048791434649250016,-0.48203698729576905,0.5709004057131448
2.6,-0.15676192732050392,0.20765254883445888,-0.3015236509553608,0.017786771531884425,-0.007468259461821942,-0.2220506907030743,0.06266459433142449,-0.06852019955268424,0.9956797320145725,-1.7495493637614283,-1.7432092754703137,4.17434863040267,-2.6701392010603553,-1.335794499863523,1.7003769874572754,1.0,0.46162366316381975,0.4715730274102018,0.30161981331727133,-0.6628545663423724,0.04879057501829843,-0.48203047729726883,0.5708676927493943
2.7,-0.23234914574692997,0.4085662457311201,-0.11483057540098686,0.020108067432878546,-0.003966525020938507,-0.21739987270058297,0.06231966017999748,-0.0680542343709258,0.9957320593415059,-1.7473140814074721,-1.74489858820197,4.173958347628998,-2.6706577740111292,-1.3361767766274626,1.7004429667514795,1.0,0.4623186561203024,0.47226414384249127,0.3018549144557118,-0.6627828824325342,0.04881070630502084,-0.48204249038390473,0.5709390538130227
2.8000000000000003,-0.3015049079874102,0.3358989490216585,-0.15707259955396394,0.010544380645012794,-0.0043675594657093,-0.2139928090225838,0.06100234077693634,-0.06621962548650849,0.995936196484869,-1.7451223915663658,-1.746706419371639,4.1736159202698815,-2.6712213955321253,-1.3365411800104514,1.7004728317260742,1.0,0.4625264687976904,0.47250682454882775,0.3019188309537937,-0.6627610752781817,0.048797070929620275,-0.48204480406011213,0.5709635801375129
2.9000000000000004,-0.5482495531543392,0.4597800276456796,-0.18689068966401537,0.018835873957417898,-0.005439317628922617,-0.2167109944386306,0.06027372544793004,-0.06522494809375733,0.9960482428745555,-1.7429831217163057,-1.7481459267178796,4.173235880898886,-2.6718188848419793,-1.3368451195286035,1.700559462327499,1.0,0.4631765623939954,0.47316800123946134,0.3019395701849309,-0.6628064007340446,0.0488141247447646,-0.48204385910337094,0.5709103031756505
3.0,-0.12791089887503165,0.21369343770911917,-0.0954887751067017,0.012361968354147853,-0.006352583214786788,-0.2086809588837464,0.06105779174932773,-0.066388483959987,0.9959236610539814,-1.7409701354703562,-1.7494702730862992,4.172831258716115,-2.672394991150173,-1.337176902287099,1.7005824813100738,1.0,0.46391280665504875,0.47390491007405905,0.3021355819343568,-0.6627695171831431,0.048843578641039574,-0.48205714795569204,0.5709393820916402
3.1,-0.3391575539287677,0.2565296565605048,-0.24694355318401595,0.015780794593358613,-0.004160063561011573,-0.21340410205636867,0.06073228682887669,-0.06600001599748191,0.9959691220197391,-1.7390864846417122,-1.7510415831762882,4.172498386615754,-2.6729243243425613,-1.337510379392601,1.7005877179344504,1.0,0.4641447361334018,0.47414207568661565,0.3022355010861276,-0.6627457844377691,0.04883353424562507,-0.4820781681557347,0.5709500424123451
3.2,-0.09125984820412797,0.4593460428004379,-0.41404321233194075,0.020752636088426125,-0.006521102145680217,-0.2120568718419776,0.06008090730261841,-0.06515573354921755,0.9960645235615273,-1.7369434009817728,-1.7526550326330657,4.172154903411865,-2.673387724657828,-1.337865693634136,1.7006261494294568,1.0,0.46482014648055714,0.47474687621597944,0.30224539192205163,-0.6628080900734705,0.04884806769673011,-0.4820762779078593,0.5708780642956588
3.3000000000000003,-0.1911919259764256,0.3795115119027792,-0.29086668028121593,0.024540546160373385,0.0007853694657587607,-0.20734454619141943,0.05942207518011122,-0.06422690548088354,0.9961636962093688,-1.7353073035475512,-1.7538120373317512,4.171879291534424,-2.673877456315438,-1.3381555876134685,1.7007051681403011,1.0,0.4651249261394179,0.47508169344688883,0.30228661463078865,-0.6627858137207369,0.04885224060384197,-0.48208378201194696,0.5708972331686173
3.4000000000000004,-0.485981029393199,0.31106043939942274,-0.5224444748187356,0.014800670940256312,0.004303456112032964,-0.2212903402373799,0.05876093928357158,-0.06327194235872824,0.9962640345954189,-1.7335646962910243,-1.7549731571385998,4.171567593213573,-2.6743429289469116,-1.3384727514642834,1.7007387625819042,1.0,0.46571259078699295,0.47570038348867705,0.3024369992820964,-0.6627697158553125,0.048843492090498354,-0.4820684217943674,0.5709296399156042
3.5,-0.40643105658657963,0.06302160718089786,-0.27284448634960845,0.01732987173107508,0.002920362007621154,-0.2166160572816422,0.05786475131354876,-0.06197416847345584,0.9963981766635615,-1.731573189166109,-1.7563036842361164,4.171307393353248,-2.6748235798023967,-1.3388107458697718,1.700757581698124,1.0,0.4659337246128121,0.4759225422912044,0.302519319966502,-0.6627477787248361,0.04883082225042684,-0.48208048846193563,0.5709460002819396
3.6,-0.470801975200554,0.19322667106434685,-0.20678561632224476,0.013672550647034487,0.0001987262191240429,-0.21588013118745372,0.0565806803024255,-0.060109066946878904,0.9965869070254546,-1.7300429129673676,-1.7578270891187795,4.171033001981424,-2.6752760022329296,-1.3391025822299947,1.7008054618259238,1.0,0.4663068972990502,0.4763661047540075,0.3027141882910377,-0.6626737840515817,0.04881019341334651,-0.4820941315095025,0.5710221268162979
3.7,-0.34281829768774863,0.526355486396516,-0.30652901304909663,0.02223114614507128,-0.006403457351107235,-0.21839122848460982,0.05631647416247211,-0.05972587002210573,0.9966249044873549,-1.728564857969097,-1.7590031829182529,4.170776844024658,-2.675709697744261,-1.3393693248378198,1.7008113755899317,1.0,0.4669212458292332,0.47699403056405526,0.3025283613002027,-0.6628397354656299,0.04880052937631278,-0.48202093411929586,0.5708921198363199
3.8000000000000003,-0.3274258386464108,0.6440617297072502,-0.2666860606093924,0.0222644564536697,-0.0021654321061086073,-0.21005162320948215,0.0559639560689399,-0.0592412599049329,0.9966735225430242,-1.7267425317450962,-1.7600011535872102,4.170479894774316,-2.6761642175954417,-1.339631310700422,1.700841522740855,1.0,0.4671318099246557,0.4771799577476691,0.30248751106169164,-0.6628863224183138,0.04879573475014588,-0.4820098370034396,0.5708478053324144
3.9000000000000004,-0.4909263653730727,0.2718609534085934,-0.43309970105001594,0.024021848173880117,0.0016448310758138246,-0.21639832023063824,0.05557709253380837,-0.058717209137476495,0.9967262710585947,-1.7251527873236459,-1.7610729569633623,4.170284748077393,-2.6765960946221425,-1.339856201652022,1.7008860675055306,1.0,0.46764204480097815,0.4777294459177248,0.3028607147059717,-0.6627178472346367,0.04881049773323836,-0.482084849508567,0.5709787983296967
4.0,-0.25412979889913734,0.28287340496759716,-0.3258461662101064,0.01536448957463222,-0.0010659151321321025,-0.21995067991305792,0.05583290361650293,-0.059046740393652715,0.9966925347291543,-1.7238914822243356,-1.7623438086003296,4.170000538568239,-2.676959410578116,-1.3400962087002894,1.7009369183231045,1.0,0.4678496987335902,0.4779605668432548,0.3029208175257308,-0.6627085764709415,0.04880096744929305,-0.4820863125491153,0.5709891378132059
4.1000000000000005,-0.2541060376554783,0.2953552034141568,-0.30512423522605053,0.018368902575935493,-0.004069453767115008,-0.21654285907186666,0.05618030949373174,-0.059507934125379504,0.9966456410659525,-1.7222943169600822,-1.7634526819607204,4.169778665479733,-2.6773530573269313,-1.340316292787867,1.7009851996412995,1.0,0.468160109576805,0.4782978420213679,0.30281409143883553,-0.6628079311339584,0.04879396243638597,-0.48202642098066617,0.5709249732953079
4.2,-0.6740811332319718,0.3913563497860279,-0.39831083569908604,0.02220070954634413,0.0008358581559862136,-0.2245459404124969,0.055628047758413825,-0.05882510253968556,0.9967169312269651,-1.7207297337722915,-1.7644738514268759,4.1694882881458515,-2.67774343723807,-1.3405556060912072,1.700982844536108,1.0,0.46869582401856896,0.4788079999323676,0.3028915853946907,-0.6627917458451258,0.04882697109666878,-0.4820554644546199,0.5709164192090955
4.3,-0.3678934479665024,0.726445925834845,-0.22324470450464948,0.02390043748494942,-0.0031688162242946936,-0.21597497155888443,0.05461058923370344,-0.05749417650540029,0.9968502009542103,-1.7192534586331492,-1.765583877817187,4.169218677837503,-2.678182114138735,-1.3407906895680077,1.7009602625361475,1.0,0.4689417340519606,0.47906207223508845,0.3030032071983653,-0.6627450026313274,0.048834315134137364,-0.48206967687764335,0.5709580525639918
4.4,-0.20022136812846697,0.1562902218149514,-0.3014403020647674,0.008671875743914731,-0.00802637209509269,-0.21218991894720118,0.05379047527693232,-0.05639785579136076,0.9969582468712547,-1.7178456552616463,-1.7666232901913412,4.169017609320664,-2.678598197112728,-1.3410368464554248,1.7010560920099782,1.0,0.4693993882995394,0.4794829667409904,0.30309949383701845,-0.6627406225351559,0.048844508821303145,-0.4820903531210462,0.5709448069886831
4.5,-0.25117858724747916,0.3438613620759047,-0.34308492751949143,0.015810116837274086,-0.005530407057716587,-0.2135807096371815,0.05417592367488025,-0.05688627538473479,0.9969094906371163,-1.7162827135442378,-1.7677611476666217,4.168742059765005,-2.6790414120604873,-1.34130294072393,1.7010505144964276,1.0,0.46956673699211776,0.47966493504063135,0.3030826668314065,-0.6627759288893188,0.04883330925835406,-0.4820694537765294,0.5709224270663901
4.6000000000000005,-0.3160364950497231,0.3880576543019534,-0.43788743552131787,0.017775508050246653,-0.0011813540278004533,-0.21209865641371517,0.05450192396095222,-0.057298108384699634,0.9968683296494811,-1.7147245936429978,-1.768883154047562,4.168538785734782,-2.6794570346773483,-1.341595982455669,1.7011095939181722,1.0,0.4699634365912363,0.480077157281815,0.3031892293225151,-0.662757272983465,0.04883002539490142,-0.4820631643786022,0.5709496749072924
4.7,-0.19084582344874923,0.2909174873903232,-0.2962676410986543,0.02400508104892207,-0.0025488611260005146,-0.21424843987746228,0.054478568367921164,-0.05725986860987558,0.9968718032841307,-1.713293381649273,-1.7699625024941013,4.168273807458905,-2.6798259355201175,-1.3418105284320276,1.7011313438415527,1.0,0.47042743187827485,0.48056186427402775,0.3032526957935056,-0.6627627069100288,0.048826946322414515,-0.482061888937921,0.5709447073716708
4.800000000000001,-0.34397170964954726,0.4688996706053956,-0.41729778156819436,0.023570667947958028,0.00022241290402245201,-0.21262208123650106,0.05449850542939194,-0.057270478505718696,0.996870102908807,-1.711671870378513,-1.7710873089232386,4.167988727863123,-2.6802660036665085,-1.3420477795669945,1.7011693161268044,1.0,0.4706518555029769,0.48077105915706125,0.30325436381928855,-0.6627886421068528,0.0488277330527615,-0.48205079555848507,0.5709238993775916
4.9,-0.47193558083545806,0.45013553450490007,-0.43488745702053627,0.017248928040797824,-0.001618727162838373,-0.21317458708366924,0.05454369866395294,-0.057309586440131344,0.9968653841070788,-1.7102295659873774,-1.7723157157537268,4.1677460682737095,-2.6806605421402714,-1.3422942028115625,1.7012132790822052,1.0,0.47100971122008983,0.4811434946013341,0.30336039603114373,-0.6627558067951055,0.048821481085240245,-0.4820670766455531,0.5709488043234899
5.0,-0.44803478169683775,0.6085848965601836,-0.39009010216855033,0.021934395227140503,0.004840005550607115,-0.2187170743439121,0.0543581061515485,-0.05707512121104222,0.9968889002583748,-1.7087934561542883,-1.773280637409704,4.167473071310089,-2.681033199267392,-1.3425460912567873,1.701219204319931,1.0,0.4714841585952866,0.4816447222671527,0.30331984728709355,-0.6628141340279656,0.048801331707679155,-0.4820362396318052,0.5709088521278541
5.1000000000000005,-0.3345838288275544,0.030589607622430903,-0.44127789215544,0.01267242184592134,-0.002928393777523363,-0.21229306406494358,0.05400044868355098,-0.05662463884890312,0.9969340136829563,-1.707200050354004,-1.7743230485969634,4.167267547718615,-2.681509785287603,-1.342794332344691,1.7012995277017602,1.0,0.4717228855422764,0.48184256887868276,0.30342255617362796,-0.6627808889339906,0.04882905706539482,-0.48206409407374656,0.5709215582326806
5.2,-0.16843333814285888,0.4295592841943795,-0.37218812955324115,0.018558611690718943,-0.004596237736925562,-0.21320500006434184,0.05338918157719081,-0.05578026147506732,0.9970143828225638,-1.7055957110760083,-1.775386110747375,4.166967277124838,-2.6819408547174017,-1.343027099891474,1.7013063577745782,1.0,0.47206310430205667,0.48220081898491474,0.3035017706735928,-0.6627813903422702,0.04883213990339859,-0.48205358944103605,0.5709295820286728
5.300000000000001,-0.2690568724182864,0.2714907278216222,-0.355341016209207,0.016424992634966176,0.0019980291725176123,-0.21451482105446734,0.0533762856743028,-0.05579114598146461,0.9970146478567931,-1.7042787415327574,-1.776612466128833,4.166759501882214,-2.6823679409422816,-1.3432527673609151,1.701296306275631,1.0,0.47256607746594814,0.48268241539660045,0.30365455531565777,-0.6627390392327056,0.048839062549145315,-0.48208567523774953,0.5709510605794461
5.4,-0.36895101877567793,0.5119900932455905,-0.4094295041118241,0.01875841640429212,-0.004449339328370829,-0.21349849705981322,0.05310870055887443,-0.05541932055875059,0.9970495463938883,-1.7028038668228025,-1.7778473790800153,4.166616663535106,-2.6828098665717546,-1.3435041284302927,1.7013728973944426,1.0,0.47275040094360815,0.48286944768198764,0.30358190852874706,-0.6627986694218052,0.0488391134179301,-0.4820698199808249,0.5708952211018152
5.5,-0.39506593790638633,0.09493231625406717,-0.2972632792778,0.019724344718295848,-0.0009440542867221063,-0.21316492764364092,0.05289284965398987,-0.055107549143559975,0.9970784731087576,-1.7010447028716318,-1.7787990528899857,4.166330814361572,-2.683219095269674,-1.3436874742930156,1.7014017390968255,1.0,0.47322478062065143,0.4834056974942756,0.3035056797021523,-0.6628890839547599,0.04880810394987008,-0.4820224996733492,0.5708328487141349
5.6000000000000005,-0.7990043968433787,0.5014900013016986,-0.2429659108206586,0.024098986963201532,0.0037999288844474677,-0.21742518261230803,0.05299963992062992,-0.05526117517360938,0.9970643111497676,-1.6995597658957988,-1.779780919873672,4.166074794258499,-2.6836472882474984,-1.3439286044281267,1.7014227754631408,1.0,0.4734059875316984,0.48358558584338657,0.30362663666125794,-0.6628300725950242,0.04883105805137814,-0.4820440958883031,0.5708811717445991
5.7,-0.5559717123271632,0.3429801126754857,-0.4083215707642942,0.022762994820833975,0.0006618314404487837,-0.21167456099575446,0.05300427153245158,-0.05532270062265985,0.9970606010093489,-1.6982776582493977,-1.7807274730085296,4.16583032014515,-2.684070646444286,-1.3441498915301722,1.7014422416687012,1.0,0.47376273566813654,0.48393772033464105,0.3038276220720578,-0.662758024848762,0.04884853850940996,-0.48208356426004617,0.5709299938297101
5.800000000000001,-0.20443592667816693,0.48059003290249824,-0.40810033087140457,0.022895833530701803,0.0003012467536986312,-0.2118890524094838,0.0535915623409812,-0.05614338956546653,0.9969831404918174,-1.6966183683267646,-1.782075350059117,4.165623188018799,-2.684506847103454,-1.344378681885433,1.7014618948492652,1.0,0.47426346383351536,0.4844501984323626,0.30393546349650874,-0.6627562189120569,0.04885308002257668,-0.4820774080604746,0.5709368997563533
5.9,-0.1571987117880653,0.23473296293898385,-0.3448646073600589,0.007495467409309257,-0.008832655838120132,-0.2140062426605455,0.05293208252173144,-0.055216480206545834,0.9970682183770158,-1.69498662044493,-1.7832987291846967,4.165410904737001,-2.68493894460033,-1.3446241581878406,1.7014784812927246,1.0,0.47459843724457884,0.48480048711123663,0.30392010904431455,-0.6627845990508475,0.048839581653336836,-0.4820790541414219,0.5709037187504091
6.0,-0.29040310970049577,0.2512621382162071,-0.32671387566041876,0.01340691489727336,-0.007068263599638112,-0.21590483948920997,0.05140892124817713,-0.0530761866361836,0.9972661683233592,-1.6936007759324034,-1.7842775089113092,4.165173175071808,-2.685404649743015,-1.3448365248384062,1.7015405341710776,1.0,0.4748054711302283,0.4850571030822106,0.30397325965197686,-0.6627592157081085,0.04883740979506673,-0.4820778691865643,0.5709343722697239
6.1000000000000005,-0.26805669458299886,0.14012589949208287,-0.30519557304255235,0.011956187466390617,-0.0036636980204377578,-0.20565643864273891,0.052584944509160826,-0.05465361483600706,0.9971188011565141,-1.6921736094945734,-1.7852295970056333,4.164945616821783,-2.685839874572095,-1.345100232788068,1.7015743255615234,1.0,0.4752137074084986,0.485504674746179,0.3040375809224227,-0.6627820843280725,0.04881395306106725,-0.4820475980750881,0.5709353902766285
6.2,-0.5039948632898785,0.28440717080350014,-0.4233723224497128,0.021249526016755994,0.0022285961319016153,-0.21703427882048593,0.05228499501584923,-0.05423074565234545,0.9971576670225984,-1.6905345450108815,-1.7861861638219447,4.164700031280518,-2.686272520051088,-1.3453404356854857,1.7015624046325684,1.0,0.475602856224925,0.4858534519982629,0.304101225257614,-0.662798152234963,0.04883101192359515,-0.48204810004485504,0.5709148543448332
6.300000000000001,-0.4326697285015765,0.4158754230326168,-0.28717865334663517,0.022634892345553194,0.0008199870528662119,-0.2154353561051723,0.05161894894251553,-0.05330781392628837,0.9972430385920596,-1.688915226245935,-1.7874878872207953,4.1645301590065,-2.6867213654144098,-1.3455872039468746,1.7015732560307668,1.0,0.4758255464347656,0.48608599661454194,0.3042494591860271,-0.6627336310277638,0.04883920153393651,-0.4820744461803589,0.5709668072998497
6.4,-0.4793139384205936,0.012947630503372255,-0.6485991732932609,0.009127525427517632,0.003087938146634988,-0.20938826755279127,0.051820384259101494,-0.05355692089379002,0.9972192428063746,-1.6874754879133387,-1.7886748119497118,4.164290129416957,-2.687118457469148,-1.345852378277452,1.7016408519946418,1.0,0.47619025618033684,0.4864783591404529,0.304313459959665,-0.6627318490727416,0.04884206025646705,-0.48206566966256365,0.5709760410974462
6.5,-0.5835202053630208,0.6368387354628146,-0.3932550473122042,0.026400054426013883,0.004754535113693835,-0.2108714528559848,0.05251731318529051,-0.05449448677095063,0.9971308657254236,-1.6859780775848505,-1.7898463746782403,4.164015348731107,-2.6875182931517867,-1.3460840417456463,1.7016417229406813,1.0,0.4766752657010925,0.48696602805488487,0.304280371315385,-0.6627903172326988,0.048802995259997414,-0.48205330628045145,0.5709219499549095
6.6000000000000005,-0.24033858005627623,0.3196800339862549,-0.4681483449792111,0.022717434650187097,-0.0002453312921660202,-0.2132288375775649,0.05381180534066874,-0.05626233122536568,0.9969646038713968,-1.6844304237827255,-1.7907419318245958,4.163800439137528,-2.6879675327603674,-1.3463140451080242,1.7016970588497944,1.0,0.4768942240716585,0.4872159778412301,0.3042040243470819,-0.6628466637808967,0.048806118934806485,-0.48201712330224594,0.5708868153254936
6.7,-0.5910966544224949,0.4599839893120343,-0.5591247768287106,0.026453546574209445,0.004916439990343874,-0.21612449737580267,0.0538515159291971,-0.05630197552408345,0.9969604296573846,-1.6828968917403926,-1.7917382157661392,4.163565592485712,-2.6884363874384336,-1.346531753980223,1.701723159599709,1.0,0.47720984858096666,0.4875559699021776,0.304383243498153,-0.6627731766166571,0.04879334832541438,-0.4820499164348683,0.570945534689428
6.800000000000001,-0.32922068193486537,0.45070147144425576,-0.39778998619988337,0.025118908107082512,0.0015659628763374594,-0.21097192192767997,0.05364824811200186,-0.05601498012971528,0.9969874382053309,-1.6813452899328634,-1.7930009434904812,4.163296222686768,-2.688933512566233,-1.3467593816894599,1.701738768432407,1.0,0.4776863550495389,0.488019428779877,0.3045758028884591,-0.6627251203618308,0.04882264849136389,-0.4820540622267134,0.570995310774449
6.9,-0.5796441802860813,0.5394052767943777,-0.3594992580220533,0.020345836325723836,0.008267896380238692,-0.2142611268413711,0.053229499936702826,-0.05544176918923169,0.9970420124028414,-1.67983238961792,-1.7941773323912562,4.163057804107666,-2.689298312417501,-1.3469890286303918,1.7017729383468627,1.0,0.4778991138112129,0.48823106920414727,0.30457724376288625,-0.6627471255387445,0.04880357992375735,-0.48205921999093027,0.5709670451072398
7.0,-0.6996924600378732,0.2543563194951396,-0.5666680967318783,0.014511818798700614,0.0020610493991233885,-0.21389568294623837,0.05268028264831041,-0.05472291043833468,0.9971104895376353,-1.6784133911132812,-1.7952297117147444,4.1627974493165,-2.6897029894752387,-1.3471739927874964,1.7018017768859863,1.0,0.478419721833488,0.48874186996432856,0.30457167180387906,-0.6627757635009806,0.048820936798195255,-0.48206048281287317,0.5709312518649319
7.1000000000000005,-0.4521685380231485,0.2617762510873794,-0.4826075612193217,0.01509758337745326,0.0022682619246058525,-0.20905478073574033,0.05212013832686688,-0.05399185341000268,0.9971801310695159,-1.67683274363146,-1.7962667870465987,4.162555941828508,-2.6901921344915483,-1.3474399781463702,1.7018499374389648,1.0,0.478617627853909,0.4889597267651449,0.3045796527879778,-0.6627866225469301,0.04883079511102771,-0.4820476403611381,0.570928646017974
7.2,0.022435901755834153,0.09014965024653471,-0.3272721670376395,0.014021033278305351,0.008921448041911955,-0.20954781287756905,0.05232872581812889,-0.0543039149456908,0.9971522060031628,-1.676214935090583,-1.7966012921380479,4.162442154936369,-2.690331953149148,-1.347531310932987,1.701846456969692,1.0,0.4789631650867167,0.4892816071115003,0.30464951105297966,-0.6627910077021372,0.04883893294746259,-0.4820473178742954,0.5709231314878882
7.300000000000001,-0.19528316974266502,0.03452291542290978,-0.35724765405063086,0.019434901890798106,-0.0010022817109755096,-0.20743113481311679,0.0526187697964216,-0.054726507582573414,0.997113942568848,-1.6761987618541392,-1.7965996938633895,4.162462417899421,-2.690355606644151,-1.3475522234021748,1.7018749276577747,1.0,0.47921423467818486,0.4895297925317785,0.3047765770846785,-0.6627451643547534,0.04884231131270358,-0.4820699665797705,0.5709569362673536
7.4,-0.4075076593921573,0.2744903262118866,-0.40674123521946753,0.020894243438776088,-1.7213678586398525e-05,-0.20991406744983365,0.05189910721532884,-0.05375991443638924,0.9972036885255562,-1.6762378070576864,-1.7966323364888042,4.162455715081654,-2.6903145924499166,-1.3475346419452778,1.7018781384237867,1.0,0.47923059313255423,0.48951245709253144,0.3047994867359553,-0.662725227045906,0.04885268900186873,-0.4820908579407509,0.5709615511610127
7.5,-0.3234919438240463,0.3353964904948716,-0.2990388939460162,0.017305957903601458,-0.001692159251094287,-0.2094645440906562,0.05108226664205238,-0.052627810953325437,0.9973066230607357,-1.6762261690127067,-1.79665651346556,4.162471294403076,-2.6903056446669877,-1.347540347320582,1.70186185836792,1.0,0.47923952908144174,0.4895185734966938,0.3047620526090666,-0.6627488078286463,0.048840073172222026,-0.4820894326812145,0.5709364622016575
7.6000000000000005,-0.5357742314093363,0.14997857086705843,-0.3330733229990171,0.017662649875015313,0.0024772571968762844,-0.20599339556495966,0.05095684532194419,-0.052423465948819234,0.997323412919494,-1.676237756095307,-1.796667999311002,4.162436658225434,-2.6903460960745376,-1.3475584348009,1.7018463770510734,1.0,0.4792349985344704,0.48953768835646383,0.3047250581732455,-0.6627716450453338,0.04883348755241,-0.4820639957666238,0.5709319933257263
7.7,-0.5750771064662085,0.35276296783486616,-0.41635171718659186,0.017836952761889218,0.0026983657289240837,-0.2115310767956498,0.0519405543477664,-0.05380072051565427,0.9971996187273976,-1.6762233300549032,-1.7966634181494356,4.162469801025665,-2.6903292304206725,-1.34756737801467,1.7018284906235335,1.0,0.4792406883819187,0.48952574813984917,0.30474455773606357,-0.6627548572962647,0.04884679852797348,-0.48206697242278573,0.5709478290552517
7.800000000000001,-0.5276283731673311,0.4987585254183857,-0.4217044620166619,0.022453494285783897,0.000598504855834567,-0.2081386233642187,0.05126529181584923,-0.05283288871951758,0.9972857719666259,-1.6762219611918654,-1.796644518975914,4.162438561523623,-2.690323169228932,-1.3475568930255335,1.70188657005869,1.0,0.47923665747376876,0.48952890232547014,0.304709466768473,-0.6627752945268179,0.04883303286208457,-0.4820654131693147,0.570926598865632
7.9,-0.46451737070811366,0.5457056196816934,-0.5674536018613229,0.02698546515734269,-0.00038580893243220975,-0.20808319728735958,0.0510140554809604,-0.05246972251643674,0.9973177313463553,-1.6762450888854776,-1.7967010937132777,4.162450914074728,-2.690350902830475,-1.3475688139544886,1.7018052384155478,1.0,0.4792207417420597,0.4895444254607065,0.30469867543154844,-0.6627896126178001,0.04882414171095792,-0.4820496380757738,0.57092405714171
8.0,-0.23244033372660897,-0.2201853987857717,-0.5162295326172217,0.004908207716253835,-0.0024232346890896645,-0.2055149867352293,0.05227735259552722,-0.05425865837142472,0.9971568926051532,-1.6762443334059323,-1.7966691850715801,4.1624669634207505,-2.69032207327074,-1.347550727744143,1.7018704531292392,1.0,0.47924211839997527,0.48952880459531434,0.3047110465042831,-0.6627779089258108,0.04883328557835699,-0.48206686004425786,0.5709223205538755
8.1,-0.38165194034370503,0.18968626359363167,-0.5009573991819,0.0164134004458805,-0.0013834263567422884,-0.20459749930229995,0.05201380528208165,-0.053901230125408026,0.9971903440491919,-1.6762115808917117,-1.796683099893764,4.162458896636963,-2.690344671596459,-1.3475449720965784,1.7018572886680936,1.219256865912759,0.4792507110943452,0.48953580890806364,0.3047562079402007,-0.6627418879205668,0.04884911611007582,-0.48208338661287786,0.5709488262555632
8.200000000000001,-0.38973848138451167,0.3459588802914536,-0.5096070874376044,0.0188515673657018,-0.0017093665932365145,-0.20429707194102956,0.051989437153866204,-0.05386665677608275,0.9971928261192023,-1.6762219206833924,-1.7966891727843226,4.162458896636963,-2.69033160791441,-1.3475365415781315,1.701863533764964,2.0,0.4792370319128842,0.48953260204511995,0.3047095202520555,-0.6627770953250564,0.04882909131769912,-0.4820698861358747,0.5709210686553035
8.3,-0.35205861179631975,0.15676684524121653,-0.5696251406446575,0.012185135864770392,-0.0022534020373621466,-0.19592507275835747,0.0533382534005218,-0.05573166878801106,0.9970193424570135,-1.6762461146813827,-1.7966577109455482,4.162437490512709,-2.690342121459444,-1.3475545509739408,1.7018571742647346,2.0,0.4792348057815115,0.4895291902863362,0.3047102879868571,-0.6627767506618916,0.048829473991205255,-0.4820699987612586,0.5709213409447291
8.4,-0.18441987292615183,0.1323417217036563,-0.22316134431952322,0.007156815334302102,-0.009882749450274748,-0.209202004020697,0.05325654667001944,-0.055606239898681756,0.9970312571141187,-1.676213264465332,-1.7966995984619665,4.162471294403076,-2.690347686234922,-1.3475330511676233,1.7018818756689962,2.0,0.47923519910244594,0.48953823372716393,0.3047096726494111,-0.6627693617292079,0.048835156004295215,-0.48207154481452563,0.570928127150197
8.5,-0.18851509174482492,0.3909716600684779,-0.4566802248474848,0.013531608573590419,-0.006005828983841533,-0.20863185607559445,0.05244101151220035,-0.054468647626404444,0.9971365631450589,-1.6762198994646662,-1.7966794934091965,4.1624496044368415,-2.690334601976343,-1.3475449720965784,1.7018333540780453,2.0,0.4792323555821753,0.48953614383267263,0.3047190337781829,-0.6627749941615442,0.048826111131577955,-0.48206809035290754,0.5709252790422166
8.6,-0.3323604467236181,0.4149492258638998,-0.42109328597835666,0.016675455460030374,-0.003394486705663659,-0.2008586729770463,0.05115589436163093,-0.05269960081850385,0.9972992618776008,-1.6762376255713427,-1.7966848673187963,4.162450285088275,-2.690353604030309,-1.3475554767539788,1.7018393761307022,2.0,0.4792391251081849,0.4895260410582039,0.30469884063083474,-0.6627895354575309,0.04882664601100269,-0.4820650849946957,0.5709108898561696
8.700000000000001,-0.30263931769228947,0.22857663657688262,-0.26556809020808614,0.01172711506811357,-0.004892713339316317,-0.20659236204850523,0.05165297504681899,-0.05339319887835583,0.9972343585730632,-1.6762274268633344,-1.7966786110084703,4.16243646829828,-2.690346468623956,-1.3475688139544886,1.7018393212969884,2.0,0.4792424449533879,0.4895353525343105,0.30471258598105144,-0.6627737177197953,0.04882979043417389,-0.4820763735797566,0.5709194520264893
8.8,-0.2579889858482868,0.02379514608693452,-0.3448338653878602,0.00541482257608854,-0.005135098567246421,-0.20338581066250858,0.05388549528040194,-0.05645811218279929,0.9969475344469514,-1.6762644206823294,-1.796698471479521,4.1624562744032065,-2.6903037029770633,-1.3475529596748987,1.701835289386903,2.0,0.4792405046220595,0.48953368136087383,0.30470303195670784,-0.6627803123749394,0.048827436076836574,-0.4820623164894959,0.5709238671093735
8.9,-0.4354508421063934,0.38484593355436086,-0.21378152964589991,0.014936503092920906,-0.0036906758107471335,-0.19963545462969726,0.05374673374388028,-0.056262101835801166,0.9969672109954841,-1.676224708557129,-1.7966679688891056,4.162458896636963,-2.690308715056668,-1.3475345780302956,1.7018178626403069,2.0,0.479222602883157,0.4895516376695865,0.3047314434367165,-0.6627611289743739,0.04882767556593184,-0.4820602378135421,0.5709478707715729
9.0,-0.253305217379485,0.35850037269405216,-0.3999249632847749,0.009556744235889194,-0.009495609154817234,-0.20525912276383768,0.05284628589486072,-0.055018640720734195,0.9970853395169506,-1.6762361526489258,-1.796729923028596,4.162480633946549,-2.690323452301871,-1.3475404614763284,1.7018589177692274,2.0,0.4792356380697719,0.48953056832625347,0.3047001544676475,-0.6627831825124919,0.04883511744103866,-0.48205981064922715,0.5709219940061552
9.1,-0.293758395819776,0.0514564155849499,-0.5405751979623377,0.004573359006674679,-0.0072960209361760345,-0.19676785286825788,0.053913325235398726,-0.056497239009869006,0.9969435524472763,-1.6762498948184956,-1.7966785445509987,4.162438984573772,-2.6903453115015665,-1.347535636558886,1.7018520459930693,2.0,0.47922009700660856,0.4895516331196566,0.30471399917576475,-0.662777777841477,0.04882118666273851,-0.48205089257230965,0.5709369894328059
9.200000000000001,-0.5166369985912632,0.5582907327253785,-0.27970280586778307,0.013858274326377233,-0.004922181374022325,-0.2025798147247825,0.05508718314869791,-0.058123359936836955,0.996788240724729,-1.6762825417153213,-1.7966997451201268,4.162450149731468,-2.690338246067049,-1.3475436235034275,1.7018467634155048,2.0,0.47923380890562034,0.4895362171770352,0.30471945221509383,-0.6627732597750251,0.04883025867753429,-0.48206207721451266,0.570932014933741
9.3,-0.19910615498157502,0.5008589205162668,-0.41933839458242805,0.01192684771419417,-0.005443045744009573,-0.20158518623217547,0.05452695421415443,-0.05734950927720449,0.9968638540121234,-1.6762057170257856,-1.7966891727843226,4.162469814951871,-2.690336843530172,-1.3475253978863766,1.70186185836792,2.0,0.47923525020204494,0.48954241869077514,0.3047276807056803,-0.6627612147626811,0.0488341347729663,-0.48206348586237613,0.5709444763595546
9.4,-0.4096535645999938,0.5276587170198939,-0.5459091919183005,0.0129911172725667,-0.008480794703808265,-0.1968276728380666,0.05414251572633753,-0.05682501732733559,0.9969148557287264,-1.6762361526489258,-1.7966687136653112,4.162469974021794,-2.6903393827249467,-1.3475662747597144,1.701840555704784,2.0,0.4792379309178203,0.4895223325645768,0.3047007051732431,-0.6627858563503289,0.048828378293118146,-0.4820663522876666,0.5709139428033689
9.5,-0.313984180958755,0.5997186797001317,-0.3831873877460955,0.022145039751708888,-0.0025546971330366493,-0.20205207967829938,0.05382130453042066,-0.05639021327702907,0.9969570052977894,-1.6762184381258567,-1.7967010937132777,4.162448694223692,-2.6903342566999098,-1.3475224236537995,1.7018667836474557,2.0,0.4792414284894873,0.4895337036787574,0.3046879748341931,-0.6627886777282674,0.04883757167936479,-0.4820597208198446,0.5709154804616632
9.600000000000001,-0.45093264516087717,0.3863510994982594,-0.5608191566920454,0.010997272277814777,-0.0022326638287536674,-0.19496656636691978,0.05468330232232835,-0.05757067678837894,0.9968421720485041,-1.6762711441971183,-1.796699793634287,4.162440359101335,-2.6903329432932,-1.347546272175569,1.701784487426189,2.0,0.4792304912519429,0.489546688508072,0.3046956015587196,-0.6627848484502382,0.048821350171676575,-0.48206584049974954,0.5709161460805597
9.700000000000001,-1.2596373383574138,0.7880562647023727,-0.47244386841567704,-0.013120563334939273,-0.08562338672227009,-0.20641959270437524,0.05432402272433378,-0.057059195546394076,0.9968908411673226,-1.6762789134388405,-1.7966784825868438,4.162484873671406,-2.6903224611382646,-1.3475774702969137,1.7018469991388538,2.0,0.47923568544142314,0.4895375463277789,0.30472498862816455,-0.6627620590406342,0.04883666716514298,-0.48206448075153296,0.5709424396856262
9.8,-1.6710169930291354,0.7205333682140894,-0.4996133187419414,-0.03194527720927334,-0.13972562148248663,-0.21445071709882538,0.05367364859543346,-0.05614576310067322,0.9969786631145289,-1.6762723922729492,-1.7966755975010746,4.162462205345548,-2.690380231907306,-1.347567223229207,1.7018553682087711,2.0,0.4792397232913021,0.48954904778892705,0.30468628146970206,-0.6627874291433116,0.04882252181197964,-0.4820558018069528,0.5709215261993321
9.9,-1.8462810272972479,0.21239197961865064,-0.5718905504971741,-0.036548780548997684,-0.17286743496706183,-0.2161289885686976,0.05434177240111207,-0.05705679939503525,0.9968909121843836,-1.6762170783401693,-1.7966785403265964,4.162446112535088,-2.6903620253981604,-1.34755952150684,1.7018694885848795,2.0,0.47922628598295,0.4895583723851553,0.3046781790970025,-0.6628022155912734,0.048821117558195834,-0.48204312886199996,0.5709151805694097
10.0,-2.4436032734221893,0.34305577108256935,-0.5934526794205417,0.0010416731327527393,-0.20240336535794318,-0.22691124632251292,0.05427632932497137,-0.05698029055953305,0.9968988528247922,-1.6762767139338586,-1.7967101426942942,4.162477833395395,-2.690324922601217,-1.3475812117206019,1.7018675585638399,2.0,0.4792376878615472,0.48954172344676516,0.3047191962425765,-0.6627768799214894,0.04883244887723154,-0.48205752850952,0.5709314657517847
10.100000000000001,-2.3063534930033263,-0.051541452422228684,-0.6131995272490517,0.00926288264605274,-0.23023824774985618,-0.228916037295139,0.05309889673521817,-0.05532937008115795,0.9970528599055978,-1.676258483908419,-1.796697492083898,4.162482460032822,-2.690345639666906,-1.3475895310201773,1.7018380165100098,2.0,0.479234912421276,0.4895541280447174,0.30470490744910567,-0.6627787061556284,0.04881557652422428,-0.4820598207879465,0.5709288531307306
10.200000000000001,-2.6597420363026973,-0.22514108767259794,-0.7354585296474379,0.025186687351514088,-0.24100019497990505,-0.22621418939059354,0.0517250741896675,-0.05339351202312334,0.9972329965853853,-1.6762586209994348,-1.796679489530096,4.162471294403076,-2.690324922601217,-1.347580048129743,1.701836852919151,2.0,0.4792223026046328,0.4895501964571055,0.3046956712605097,-0.6627863157845436,0.04880735291921651,-0.48205145824548845,0.570927783097975
10.3,-2.695851985513963,-0.5483080832707731,-0.9285379318982934,0.03769988661762976,-0.25848378331425176,-0.23301404598451206,0.05172867382196315,-0.053376989648023294,0.9972336942769013,-1.6762723922729492,-1.7967326118493154,4.162462449439803,-2.690323753916072,-1.3475653078990537,1.701839138447749,2.0,0.4792198446498409,0.48954893949374306,0.3047010917400221,-0.6627835195928484,0.04880651410346353,-0.4820512990376461,0.5709312352930976
10.4,-2.810808489069642,-0.3977920975175734,-1.0797839470797492,0.0521784742834234,-0.2664811446772637,-0.22959964357469723,0.05171613947080021,-0.05334608880860211,0.9972359951531763,-1.6762699170535944,-1.7966891727843226,4.162474957727722,-2.69033313070114,-1.347558130635211,1.7018482724965163,2.0,0.4792262024237435,0.489567065675105,0.304684026628436,-0.6627914488566817,0.04880079781746143,-0.48203993737337864,0.570932111754024
10.5,-2.7535374529803778,-0.42577585031794635,-0.8013997605927372,0.06608723039012744,-0.27475878036352624,-0.23762403843067126,0.051627179568149786,-0.05324707818909423,0.9972458902035539,-1.6762496989577917,-1.7966999893452464,4.162451870017291,-2.6902999763752757,-1.347535259903686,1.7018506091445593,2.0,0.4792232223205955,0.4895555678895168,0.30468762436155045,-0.6627945632703283,0.04881345130717537,-0.48203721458461296,0.5709297133853557
10.600000000000001,-2.637581844077335,-0.4134181051222028,-0.8286786300369269,0.05924784584268812,-0.2672579501217052,-0.2344377741410329,0.0515760006791782,-0.05320050893949221,0.9972510222467267,-1.6762792772919168,-1.7966795313917823,4.162482506810254,-2.690324922601217,-1.3475364704722455,1.7018449015289774,2.0,0.4792224511746793,0.4895589734386345,0.30468799844642935,-0.6627873605374704,0.04881520152053337,-0.48204869881354917,0.5709282291010382
10.700000000000001,-2.8598348913442866,-0.3227242766126869,-0.9557345840749638,0.0700921857185313,-0.2586034208316507,-0.23498683464601056,0.05171587977524423,-0.05341913486310592,0.99723206783825,-1.6762496578082278,-1.79671194984109,4.16246111142334,-2.690300015942164,-1.3475460368977212,1.7018575139792569,2.0,0.4792205750443668,0.48955098434288913,0.3047122552815791,-0.6627758309600911,0.04882628297521403,-0.4820444392669041,0.5709442622164098
10.8,-2.378266748842739,-0.40501560642408035,-0.8746664722246468,0.07933338130466959,-0.26274495189826,-0.2310199899688475,0.05184305521867693,-0.0536129555721317,0.9972150954828197,-1.6762544816413534,-1.7966663659704716,4.16246040851818,-2.6903188166000214,-1.3475554392935938,1.7018559271416056,2.0,0.4792299694694082,0.4895403426388547,0.30470455054537093,-0.6627741212779779,0.04883459460013313,-0.4820544822033411,0.5709370567077547
10.9,-2.4453565248019453,-0.40855485624072,-0.4098070974851275,0.06519034969600096,-0.26462189458345375,-0.23251043848373193,0.051900901434061786,-0.05367140368962189,0.9972089400327018,-1.6762706965488468,-1.796694471922143,4.162458896636963,-2.6903028471225805,-1.34755512664626,1.7018459278432596,2.0,0.4792321459108455,0.48954621403164805,0.3046819854178308,-0.6627883608768234,0.04884691512070036,-0.4820470337135194,0.5709257612486953
11.0,-2.0102452673003777,-0.5523360017615925,0.4295989798281217,0.08871580961357371,-0.22840578289645858,-0.23130788422378748,0.05190862241505175,-0.05366798568536396,0.997208693322675,-1.6762270731328568,-1.7967118323543687,4.162513019388062,-2.690324922601217,-1.3475342334554874,1.7018494606018066,2.0,0.4792229073897956,0.48956273732792,0.3047189853019126,-0.6627718540360805,0.048811783432787845,-0.48206091265818135,0.5709362099068933
11.100000000000001,-2.1872133511991825,-0.9254811186646418,0.8700395073650417,0.10538526575947055,-0.24069072614640716,-0.22687469565185725,0.051601360054774704,-0.05327580545436138,0.9972455767072813,-1.676224708557129,-1.7966992357489062,4.1624836921691895,-2.690274205259716,-1.3475367670963665,1.7018494606018066,2.0,0.4792244677612153,0.489570918089112,0.3047169207450959,-0.6627661565706474,0.048808772161807915,-0.48206848347261333,0.5709366888780609
11.200000000000001,-2.096406365652838,-0.6334136102129615,1.2981249750719,0.0688401970395369,-0.24377682434813622,-0.2221730065665035,0.051449056670426534,-0.05309343023753926,0.9972630027749375,-1.676230985725075,-1.7966933984924014,4.162484371836297,-2.6902877417614217,-1.3475557365212678,1.7018223342515897,2.0,0.47923155706886283,0.4895485595270877,0.30469752616626755,-0.6627798058565726,0.04883487899581698,-0.48206106548188243,0.5709248748203749
11.3,-2.3163380655635977,-0.20488376145005163,1.4027355937065606,0.09895742030280147,-0.23887108602104196,-0.22379784043395973,0.05236667747011448,-0.05435966719215251,0.9971460845502631,-1.676213264465332,-1.796690407516031,4.162472578524053,-2.690292864009477,-1.3475449720965784,1.7018519300652235,2.0,0.47923146373773884,0.4895575597947984,0.3047057064752681,-0.6627735515363334,0.04880311182707184,-0.4820723166226838,0.5709253516931508
11.4,-2.342926853939154,-0.17503683887823795,1.9000496469833688,0.0966135166074009,-0.24024201686453747,-0.22856668373447983,0.053086702135098814,-0.05535119248260818,0.9970545450655084,-1.676213264465332,-1.7966801484294894,4.162451314643995,-2.690313001672262,-1.347534982217038,1.7018389434137289,2.0,0.4792370323851782,0.48954895149959493,0.30471103148959366,-0.6627695632088622,0.048826543065556546,-0.4820697603548209,0.5709301366433962
11.5,-2.4763620102806128,-0.6113158889577743,1.8019620447188531,0.09588336242786341,-0.24010383626065127,-0.2276015488014195,0.05232736739677933,-0.05428601112655818,0.9971530107020621,-1.6762256550300212,-1.796700107804015,4.162503662061366,-2.690316945309313,-1.3475439861873157,1.7018067458686705,2.0,0.479226001211955,0.4895514548626928,0.30470154155071794,-0.6627807381813754,0.04882406831655707,-0.4820618938492709,0.5709240176654207
11.600000000000001,-2.442368330405052,-0.32069365885823736,2.1419090199829998,0.09325011937020977,-0.24234280698090058,-0.22934928113964229,0.05350194862212502,-0.05589937399047916,0.9969998424801346,-1.6762144994724415,-1.7967321360157151,4.1624836921691895,-2.690301080743307,-1.3475436856308394,1.7018392515171192,2.0,0.4792225115441009,0.4895467460533256,0.3047093686777153,-0.6627741171463002,0.04882120676331418,-0.4820581820556443,0.5709350825832332
11.700000000000001,-2.5136087493355608,-0.24244193577569326,2.3526636208358664,0.08964266406247913,-0.24311078915683465,-0.22606748190983383,0.052956501872263764,-0.05514625798134108,0.9970707032657055,-1.676224708557129,-1.7967238223575865,4.162472452145222,-2.690324922601217,-1.347554666598331,1.7018290029132446,2.0,0.4792220525655956,0.48955596115847955,0.3047155540624804,-0.6627699444146711,0.04882911242582734,-0.4820557014266597,0.5709413448703212
11.8,-2.209609784787824,-0.5757108484156171,2.5816758625295653,0.07658274489301367,-0.2458733248901985,-0.22310073714554565,0.05212329164822057,-0.0539829978607799,0.9971804442284492,-1.6762342505480248,-1.7967100426095748,4.1624390967434675,-2.6903358528526193,-1.3475211302386683,1.7018713211046115,2.0,0.47922752146058173,0.48955239955067786,0.3046705417124232,-0.662805930900652,0.04883252981332621,-0.482035146573132,0.5709166309218625
11.9,-2.439348246448337,-0.6117459804444998,2.8017162196545993,0.07660645084429207,-0.24054062779211222,-0.21971061886157878,0.05246295094554675,-0.054435049325985974,0.9971380810309916,-1.676224708557129,-1.7966782533817236,4.1624763420959106,-2.6903586823353702,-1.3475429690438665,1.7018380165100098,2.0,0.47921558901997563,0.48955852941050554,0.3046719254304774,-0.6628000007765817,0.04881354819013265,-0.48204382060858547,0.5709178150108218
12.0,-2.321340419435047,-0.4189979670549022,2.864942382994283,0.08347868186478659,-0.24078030809236667,-0.22054650597401732,0.052930716871749245,-0.055136791404122025,0.9970744838859473,-1.6762371862911412,-1.7967010937132777,4.162462872183945,-2.6903120077855163,-1.3475449720965784,1.7018733024597168,2.0,0.47922474681436433,0.4895491560381139,0.30467750022741064,-0.6628008950894418,0.04881481920322514,-0.48204412426367227,0.5709164117081067
12.100000000000001,-2.4237460344988166,-0.44808859591227207,2.7134140988599995,0.08162593775665365,-0.2466443558478508,-0.220062248036428,0.053345879177319575,-0.05576172627320975,0.9970178774561135,-1.6762442119392806,-1.7967010937132777,4.162466955927318,-2.690308830060956,-1.3475408004852722,1.7018494606018066,2.2248696223692437,0.47924805311820856,0.4895369748661353,0.30467792882011374,-0.662802108641155,0.04883796432571375,-0.48205781337168885,0.5709014648682075
12.200000000000001,-2.460130903218921,-0.5156890213267988,3.019934120234991,0.08496579412168238,-0.2543308571368287,-0.21653339619871864,0.05218598692720947,-0.05408690414711644,0.9971705866153432,-1.676252415504043,-1.796676099932462,4.16250320303969,-2.69031257047447,-1.3475353331359299,1.7018710204914103,3.0,0.4792256343890612,0.48956141091970695,0.30468339122840427,-0.6628008694267113,0.04880487061034261,-0.4820491672278861,0.5709130340663146
12.3,-2.367344463030567,-0.3075652160892937,3.230004958442361,0.08474557645893115,-0.25658101002023626,-0.22308402763719945,0.05260967606217067,-0.05467915872740043,0.9971143162551892,-1.6774163312882178,-1.795871921750856,4.1625447273254395,-2.6900025320010847,-1.3474000136004847,1.7018462679597672,3.0,0.47919971359074687,0.48951616564502726,0.3046877551637211,-0.6627842064561152,0.04882006604573413,-0.4820654378091634,0.5709173412092923
12.4,-2.157903592460687,0.07658137169594886,3.5959793563371436,0.06588985405779038,-0.2506929759667541,-0.2144354191562017,0.054403097787770034,-0.05723473170990906,0.9968771106245106,-1.678848435120214,-1.794845203415231,4.1627392932967275,-2.689594552925922,-1.347209852141743,1.701817268888132,3.0,0.47910526472829373,0.48937332362096597,0.30466858171840155,-0.6627903783841725,0.048835162382512474,-0.48207154149649784,0.5709037310402078
12.5,-2.0907741506446786,0.27069399453043064,3.9333977842929455,0.033636059788004546,-0.2422241623268887,-0.20454409930602158,0.05155858371533057,-0.05331216129954888,0.9972400190661803,-1.6803369522094727,-1.7936841732298894,4.163058803520121,-2.6891476494882878,-1.3469322662714973,1.7017903248867252,3.0,0.47866490250650645,0.4888709383977352,0.3045876373354873,-0.6627881447476541,0.04885394425047828,-0.4820619383209193,0.5709128260386274
12.600000000000001,-2.0094041707425476,0.2129275168209527,4.0293015360688225,0.02194079200328492,-0.24029145443096,-0.17261047283643252,0.05093985998864872,-0.052456890823724886,0.9973213034331219,-1.6819562911987305,-1.7925637979054991,4.163299083709717,-2.6886935884163927,-1.3466659005568216,1.7017297744750977,3.0,0.4784472972628213,0.48867858846726375,0.3045867614358978,-0.6627638526924545,0.04886250063266976,-0.48206271769451897,0.570939635868059
12.700000000000001,-2.03451270787039,0.21249273203312774,3.82077505976074,0.01185145759785116,-0.2393857654738774,-0.17213614286441792,0.05250766257087382,-0.05461481160239395,0.9971259317125805,-1.6835162162549904,-1.7914460309271283,4.16349158285894,-2.6882638434577495,-1.3463919798480433,1.701760860656428,3.0,0.4780678621694189,0.48832783369934757,0.30457490788591907,-0.6627423265631429,0.04884193337745861,-0.48208922588296554,0.5709440011184876
12.8,-1.7406612192507862,0.1875672322322497,4.069247749667513,0.007421994977637232,-0.23247808220106037,-0.1698370764044202,0.05231447309845746,-0.054453063774762556,0.997144936438784,-1.685058524776574,-1.7904808391467675,4.163769543901672,-2.687830828724582,-1.3461729564567524,1.7017054557800293,3.0,0.4775838502078139,0.48777586697964975,0.3044506644052505,-0.6627701368807593,0.04888652957376152,-0.48208939044216387,0.5709077618218169
12.9,-1.9378099171237961,0.4023051438480076,4.127130368754932,2.427043201620022e-05,-0.2294160302680552,-0.16429769929818783,0.05260841383182551,-0.05486507010743309,0.9971064784496679,-1.6865395461941797,-1.7894038078099257,4.164065815432717,-2.687363494550016,-1.3459133615377967,1.7016717265383863,3.0,0.4774027649120617,0.48758554469643556,0.30437191751153403,-0.6627943959802522,0.048873826721506336,-0.4820865660911701,0.5708830707887499
13.0,-2.1355903466238124,0.6221019945265323,4.196028545332208,-0.014669671660568089,-0.2445069323751805,-0.14778868253968253,0.05341632059094833,-0.05588348726161596,0.9970073637543795,-1.6881209720438053,-1.7881769327616897,4.164244649011708,-2.6869776442642395,-1.3457069120311975,1.701609298969232,3.0,0.476896260449395,0.48715002209715563,0.3042503855129611,-0.6628246440464187,0.04884584762995361,-0.4820477702046748,0.5708831068220103
13.100000000000001,-2.1643896570258225,0.8434726333966952,4.260883433266828,-0.036103806655297555,-0.24271818192252523,-0.12716434776754876,0.052583432775361046,-0.05474094501013004,0.997113948667437,-1.6895860374425886,-1.786986379251069,4.164438724517822,-2.686486082496828,-1.345469489889638,1.7015754691785576,3.0,0.4766623194604321,0.48689791212644035,0.30424459422773326,-0.6627992635491122,0.048844365743892254,-0.4820603319827602,0.570902093622455
13.200000000000001,-1.6425718948988752,0.8251285722928278,4.205145537661462,-0.039211483181062795,-0.24258015735049565,-0.12645738118560085,0.05171806732083459,-0.05355562905593859,0.997224605167342,-1.6911468533938834,-1.7859790069968946,4.1647610692447135,-2.68605092352573,-1.3452553104973455,1.7015748392101677,3.0,0.4763004064690417,0.48648816105523635,0.3043348809463276,-0.6627077301948663,0.04883472660320283,-0.4821261846778625,0.5709535671712075
13.3,-1.9508589870901054,0.7777776730369325,4.400569897713286,-0.030663482819081645,-0.22592876268294498,-0.11828015913889853,0.05351248511351453,-0.05599337385112197,0.9969910013116197,-1.6926866789055957,-1.7849845434399834,4.164989948272705,-2.6856255145564565,-1.3450213786131149,1.7015525121880664,3.0,0.47584706354026346,0.4860499874980918,0.3041438573744862,-0.662771924430806,0.04884061371839132,-0.4820831861304411,0.5709148555504746
13.4,-1.658644687331671,0.6982675828194128,4.526560532092255,-0.04931577786028615,-0.234252798519706,-0.10642484348218098,0.055385383672881386,-0.05853802231436284,0.9967472395542419,-1.6941108861627512,-1.783995058220188,4.16521692276001,-2.685216566125387,-1.3447849223370942,1.7015129298559197,3.0,0.47560148979810946,0.4858461382682202,0.30405307186021896,-0.6628016821481072,0.04882621818612136,-0.48205299983424366,0.570907029130039
13.5,-1.9047517027326306,0.9358998782479724,4.602139721007982,-0.08543975699010821,-0.23513028965327556,-0.08280894229144861,0.053258956282124084,-0.055577056449866276,0.9970252431955413,-1.6955271702917962,-1.78269771280798,4.165468692779541,-2.6848207912840785,-1.3445570636779753,1.7014536494849375,3.0,0.4752989355573934,0.48550791025021883,0.30391848535318555,-0.662849384582418,0.0488345224301065,-0.4820371173556883,0.570864344892157
13.600000000000001,-2.062766496127208,1.2111941319263733,4.640012719519144,-0.0796977775804053,-0.2375529960472615,-0.08525508073025467,0.05098600743155743,-0.0524143839331719,0.9973223625150438,-1.6972532401213776,-1.7814365697173884,4.165729936393531,-2.684402163055401,-1.3443281906092424,1.701453685760498,3.0,0.4747837602186715,0.48503071332368913,0.30403040034652806,-0.6627489993167658,0.04882423286099692,-0.4820684723138397,0.5709552926378401
13.700000000000001,-2.078513613212456,1.2952603483093301,4.52875173057709,-0.08059705245776908,-0.23350567443783676,-0.08288682947465352,0.05162357838813329,-0.053294297631273906,0.9972426965216822,-1.6988494110157628,-1.7803789964470647,4.165950049836876,-2.6839338154029986,-1.3440747703482152,1.701441764831543,3.0,0.47451029752249413,0.4847039155742069,0.3039757524838388,-0.6627619681953973,0.048840087870222045,-0.48206686778114954,0.5709402370811358
13.8,-1.8522923246159164,1.2627923686192375,4.941357395060441,-0.08228357688807095,-0.23153654147474767,-0.07669496148928187,0.05238935181633783,-0.05435227902135212,0.9971464339024312,-1.7001346176530985,-1.7795015868337827,4.166246856047963,-2.6834573961547497,-1.3438137563074044,1.7014279271370634,3.0,0.47406648657788353,0.48428478740035696,0.3039022189824621,-0.6627562591839504,0.04883187572722683,-0.48205677402801245,0.5709560888887717
13.9,-1.873150175342424,1.3073858902853208,4.680752220291632,-0.08525075598726992,-0.21659987802339203,-0.06832175029198614,0.051908166041656274,-0.05368787973165433,0.9972074432211191,-1.7017064324723872,-1.7785020257028903,4.166452032030163,-2.6830568624779403,-1.3435966593962496,1.701392817222648,3.0,0.4738626162232606,0.48411816149184955,0.30384926621563363,-0.6627564191663511,0.04882817034975093,-0.48205309314705924,0.5709593278171785
14.0,-1.7865785360487294,1.2279697169135906,4.748270499961859,-0.097677313235396,-0.21671866830235037,-0.04113158114112766,0.052401607024581395,-0.054382604113846086,0.9971418940386435,-1.7034569563723116,-1.777215884708994,4.166726831070138,-2.6826504110899396,-1.3433214655976438,1.701321337239147,3.0,0.47350213745571185,0.48372169917599694,0.30372211016804024,-0.6627763553429618,0.04883443832145257,-0.4820505386814383,0.5709378062355512
14.100000000000001,-1.676332108839587,1.3832642959111507,4.633548721409506,-0.11978958113291681,-0.23421172823392233,-0.042911380555582364,0.05422406794600972,-0.05692949956835164,0.9969040928428582,-1.7047798171423596,-1.776006605022615,4.166968149717586,-2.6822492158947724,-1.3431037108050745,1.7013104867518267,3.0,0.4730192526373405,0.4832254348148371,0.30358315484582327,-0.6628364904781826,0.04882542491746488,-0.48203697679712887,0.5708802131555091
14.200000000000001,-1.7769197854051644,1.6232099142563785,4.779802233946739,-0.12555326400117234,-0.22883250914200678,-0.04261392277174754,0.05440650872744231,-0.05720364865594205,0.9968789631925534,-1.7062146373014146,-1.7749287972340493,4.1672349101663055,-2.6818182939935244,-1.34283954301943,1.7012773897538336,3.0,0.472853149357504,0.48305110496870557,0.303592784637895,-0.6628176676403384,0.04884229301895015,-0.4820421867553674,0.5708962253024419
14.3,-1.763362029044536,1.0962809321474145,4.505948968664564,-0.09975026310952971,-0.22830390784781865,-0.029128319430963025,0.053463379778458456,-0.05590410148532022,0.9970000486628635,-1.7077696323604252,-1.7739585242894071,4.167445898076978,-2.681429316776861,-1.3425996641274043,1.7012632488977475,3.0,0.4724456241933553,0.48265931918024635,0.30368948114409894,-0.6627214585735542,0.048857009689850246,-0.4820723591172496,0.5709811744054581
14.4,-1.7861324795677653,0.9897440501676766,4.6321588447861215,-0.08351837257475346,-0.23109038306910065,-0.021727536072700265,0.051136393868282164,-0.052667590259352685,0.9973009411454415,-1.7094159459978286,-1.7728785730036585,4.167655475524309,-2.681009431878561,-1.3423956544477784,1.7012147903442383,3.0,0.47197647629687,0.48217025876531033,0.30349368791563475,-0.6627926596752362,0.04883937132145719,-0.48204859662989386,0.5709200964904821
14.5,-1.8902949086853325,1.186614546922258,4.3810972987309205,-0.1030116772983717,-0.2314096581288782,-0.0127423963914869,0.049982175748149206,-0.051044735282788835,0.9974439581696531,-1.7108266675159516,-1.7717369673960566,4.167914821003617,-2.6805906246102715,-1.3421540418268276,1.7011678129276746,3.0,0.4717494928717027,0.48193752427674225,0.3034026769800024,-0.6628193211224787,0.048826794167260636,-0.4820450573738717,0.5708932075086423
14.600000000000001,-1.8780448621313137,1.08899072635815,4.551990537126179,-0.1226432491037359,-0.24040758752276103,-0.0062228249485925865,0.04992085183386091,-0.050947247702934316,0.9974510247529476,-1.7122754769254673,-1.7705356737415459,4.168153311297373,-2.6801587677527263,-1.3419044653521937,1.7011437549720658,3.0,0.4712899768637958,0.48148399247939333,0.30338715388748005,-0.6627890156181464,0.04881695891112024,-0.48205683975916025,0.5709192837345836
14.700000000000001,-2.0266333979853166,0.9976280980995412,4.449367277344767,-0.12152415354968334,-0.23419039518733134,-0.0056168590718031685,0.05131936934012214,-0.05289067844985114,0.997278250995146,-1.7138651828963407,-1.769457360510237,4.168393301266932,-2.6797286944614958,-1.3416661425904737,1.7011308670043945,3.0,0.4710745127666195,0.481250645393107,0.30337194408568746,-0.662776023837431,0.048827789924667714,-0.48205171599629715,0.5709377656648253
14.8,-1.9440817519595024,1.5675690906216893,4.398058356184217,-0.1173951408290545,-0.22187177294941962,0.0062855647434999825,0.05238494943106134,-0.05436806672611939,0.9971456403913238,-1.7153215134832884,-1.7684208530418601,4.168643383209713,-2.679319044152731,-1.341449103373403,1.7011060539648746,3.0,0.4707425923723551,0.48089100370294585,0.3033575385772567,-0.6627548468450395,0.048826014809171224,-0.48207721951765636,0.570940966898845
14.9,-1.5066972638233187,0.9626795212841512,4.362752759432325,-0.13719541148500303,-0.21523120200118342,0.01857347394888324,0.0529122661746793,-0.05509199934165174,0.9970779619720654,-1.7168587650326517,-1.7673516282630548,4.168838766313,-2.6788908003830003,-1.3412226825771199,1.7010691548994692,3.0,0.4702616199213615,0.48041280901745465,0.3032152032541515,-0.6627837726451933,0.04882481199023985,-0.4820464366559332,0.5709334824299936
15.0,-1.7750564892043492,1.5717530043374608,4.406524008990599,-0.12568893838704734,-0.2045316211773214,0.026840619620200633,0.052998866686212134,-0.055221490996280674,0.9970664062032596,-1.718374421519618,-1.7662351255197313,4.169067244375905,-2.678529344136832,-1.3410159216079527,1.7010138727003528,3.0,0.4700654048029421,0.480179880143904,0.3031888439714974,-0.6627776959154557,0.04882813333480282,-0.4820590396370827,0.5709296116827464
15.100000000000001,-1.489378490443928,1.4220483179607648,4.298939613003902,-0.14314764610404504,-0.20339603731697903,0.02743067677542926,0.053320309181158515,-0.05567365632759586,0.997021718753468,-1.7198376094835495,-1.7651525936522425,4.169330435347607,-2.6781334409986157,-1.3407535136801587,1.7010000276442248,3.0,0.469589721034322,0.4796681898503299,0.30310128418545407,-0.6627826483545357,0.04883282783826566,-0.4820541240864541,0.5709276113630409
15.200000000000001,-1.1285031940337558,1.5576419546915665,4.20327944609596,-0.15107778671281183,-0.20177446500727836,0.04267061930116716,0.05538888130783045,-0.05849288583718682,0.9967488070070255,-1.7213238803108108,-1.7640496009338444,4.169594786376765,-2.6777502157165056,-1.340465723421391,1.7009826732054047,3.0,0.46936761258132975,0.4794503288596641,0.30304889146782654,-0.6628007263259653,0.04881450155882462,-0.4820460119018656,0.5709150409902007
15.3,-1.1379102078065277,1.4788711923587539,3.8160965617078912,-0.14417750559325082,-0.2059973068507383,0.04730033947148089,0.053593961658933056,-0.05599970255658084,0.9969863371899218,-1.7228825735660351,-1.7629635589454427,4.169891860949046,-2.677352594402314,-1.340152962400075,1.7009308228620863,3.0,0.46901190686839245,0.4791403624063955,0.3030196036143136,-0.6627776662506609,0.0488214397088102,-0.4820484935261807,0.5709391228784606
15.4,-1.7729503173005008,1.1432890044348967,3.4593099302753982,-0.15471956859751843,-0.20210710124661568,0.060070643577095274,0.051737433871949234,-0.05345308170949021,0.997228903247451,-1.723586082458496,-1.7623911895772653,4.170008519795806,-2.6771135327290536,-1.3400408281265757,1.7008823450155655,3.0,0.4685021506585566,0.47861210305000895,0.3029052627154714,-0.6628102616806988,0.048823433195950554,-0.4820415167379193,0.5709070025168113
15.5,-1.284949178459574,1.3313709277720374,3.6245867247043995,-0.15254485534463771,-0.16797029563999047,0.045497434091043246,0.05103785316553575,-0.05255684825250521,0.9973127043602525,-1.723586082458496,-1.7623680301354336,4.170018438332204,-2.677117798343368,-1.3399831711363375,1.7009028079175832,3.0,0.46833779610633036,0.47843021678139297,0.30287753291410974,-0.662821688247701,0.04882615126387282,-0.48206238353119885,0.5708758839935739
15.600000000000001,-1.2017386144980151,1.492243833810312,3.9007208953414803,-0.15171865866766704,-0.17540862934408624,0.05043969290623156,0.05137313749548876,-0.05300541608834343,0.9972715001641739,-1.723573532502462,-1.7623811823842992,4.170057627190852,-2.677103658715719,-1.340011051901054,1.7009356267985196,3.0,0.4683469128932429,0.47845734313015076,0.30290326751238034,-0.6627958480495827,0.048833923266282796,-0.48206419846901993,0.5709036874124028
15.700000000000001,-1.327213448916088,1.1654219044946261,3.905478762746578,-0.15265829329446698,-0.19803493244100864,0.0442536999467434,0.05191010207135496,-0.053716066269134805,0.997205934239223,-1.7235846478045918,-1.7623807902881743,4.170036982208354,-2.677126121098721,-1.3400097549752885,1.7008944941905868,3.0,0.4683269400823388,0.47847882942631814,0.30288607648453714,-0.6628062795473697,0.048818819100904805,-0.48205202345859716,0.5709031488559504
15.8,-1.464489867796619,1.4400530512911778,3.871115657896923,-0.15100178778983564,-0.20482213146921177,0.0410622684899045,0.052960034756167035,-0.0551414468628087,0.9970719583090115,-1.7235612869262695,-1.7623709580288554,4.1700603617656595,-2.67709315617622,-1.3399982743834782,1.7008917554763354,3.0,0.4683321239144597,0.478477118569319,0.30289242919141107,-0.662801377089029,0.04882541790704651,-0.4820532590877302,0.5709072328303321
15.9,-1.5497429905865157,1.334109269253896,4.015130490860621,-0.16592072317586468,-0.21680552207335113,0.03911019665978278,0.05311581044285259,-0.05534002343218594,0.9970515618358956,-1.7235971376026007,-1.762322898588841,4.170071125030518,-2.677138261518204,-1.339999214171924,1.7009170127014295,3.0,0.46832739563627473,0.4784939615383503,0.30290346135678853,-0.6627861818199696,0.048814562868480196,-0.4820522126422685,0.5709266852470277
16.0,-1.447045878934169,1.6994663146844653,4.190673608415921,-0.17594281198092104,-0.2182429585492803,0.041463526510907185,0.0511293061160753,-0.052594520326822464,0.9973047211057094,-1.7235498428344727,-1.7623463688362748,4.170048531772376,-2.6771160014689204,-1.3400090376483362,1.7008693020501087,3.0,0.4683325794095921,0.47849100839311104,0.30291425154164303,-0.6627795169901824,0.04881405078561793,-0.4820573499348739,0.5709301285428245
16.1,-1.4379465393465505,1.5997644446042338,4.31192462568461,-0.17915933511336266,-0.2167140704788565,0.03624862182412962,0.05157762704469019,-0.05324458204408194,0.9972476949671074,-1.7235714203168897,-1.762345930139059,4.170080187765455,-2.677126696061177,-1.3399983658884937,1.7009050247048365,3.0,0.46832790382799144,0.47848742290254054,0.3029202357801632,-0.6627762034679624,0.04882174773669716,-0.4820579625785489,0.5709327997051377
16.2,-1.6019631302088853,1.478408557865461,4.227148548018764,-0.17989051910852313,-0.22235816793219204,0.0345390344735086,0.0519268232069451,-0.05375269521224478,0.9972020706657562,-1.7235529426042075,-1.7623576982644449,4.17008198791549,-2.6771149742208977,-1.3400202245668968,1.7008910179138184,3.0,0.4683348974663841,0.47846805219361105,0.30291036288492496,-0.6627913709346587,0.04882732891078868,-0.48206202522554,0.5709112841777122
16.3,-1.7323464779343143,1.5061022179365222,4.544511867020637,-0.17273899117833386,-0.22817722746354405,0.031254894605140804,0.05069247602735565,-0.05204369553137751,0.9973552974306649,-1.7235866255151766,-1.7623588935892143,4.1700489575973725,-2.6770940231502944,-1.3400203040463652,1.7009040039913355,3.2202649225414057,0.46834239797888993,0.4784580738613932,0.3029031394037135,-0.662794526773087,0.048827022637542725,-0.4820679901273388,0.5709026099384903
16.400000000000002,-1.6242298576770586,1.4306972076450941,4.965062858263742,-0.1782492363070622,-0.23889440064035458,0.030269431216591442,0.050390017991260014,-0.05161876616534193,0.9973918546830466,-1.7235970457345873,-1.7623692271007527,4.170060161754426,-2.677114577945287,-1.3400105602314043,1.7009496168806595,4.0,0.4683302742697127,0.4784855164139296,0.30292204300629594,-0.6627717603057175,0.048834539818847326,-0.4820562172561075,0.570938337184213
16.5,-1.773632688570329,1.5883559583279372,5.143169542729396,-0.1721706193289835,-0.23414108029387914,0.028824841619457437,0.05240596340930289,-0.05438841533265125,0.997138155307026,-1.7235850461720594,-1.7623340092101039,4.1700403259102865,-2.677115579644674,-1.3400068787182597,1.7009558977279964,4.0,0.4683177299426501,0.47848539825306236,0.3029414926272426,-0.6627647801209733,0.048834524256311455,-0.4820422833029316,0.5709582056332615
16.6,-1.412085876021587,1.8637692098857541,4.959904130875065,-0.20155363810265922,-0.20188208233968657,0.03657700084722668,0.05352315604980193,-0.05592105974074403,0.9969987648773375,-1.7235750824459155,-1.7623340092101039,4.170060569097154,-2.6771380295063736,-1.3399985187215735,1.700961165745979,4.0,0.4683230759427846,0.47847844234600534,0.30293131835521575,-0.662776112054249,0.04881693491215763,-0.48206242633662033,0.5709295484300021
16.7,0.12701216826045603,0.8456813053477841,2.274230084203283,-0.11126553722535727,-0.1055512809492591,0.04375984203333976,0.052265177084553235,-0.054184619864841264,0.9971614634874768,-1.7235502488109582,-1.7623096905150355,4.170047283172607,-2.6771396259081537,-1.3399975935565394,1.7008675820323937,4.0,0.46833290622055773,0.4784870226954759,0.3029216127617295,-0.662776378375263,0.04881009857889549,-0.48206797824454345,0.5709251359816865
16.8,-0.5342929722041917,-0.40817323171688596,1.8668998643841002,0.01820705590054486,-0.06525431918835731,0.027283088802954693,0.051555171652130936,-0.05323222745162885,0.9972500358749888,-1.723586082458496,-1.7622642657679628,4.170097225857175,-2.677115579644674,-1.3400056491952148,1.7009134641185475,4.0,0.46833134427759865,0.4784636205963236,0.30294411266128535,-0.6627663894112927,0.04883025158129396,-0.48207389490673924,0.5709300127394532
16.900000000000002,0.24526686939802889,-0.6280553864610697,1.6756805941598856,0.04086194917186213,-0.017749781152748383,0.019208423852981497,0.05101492520865215,-0.052522728347265735,0.9973156443931649,-1.7235738060771864,-1.7622862487963142,4.170048467584606,-2.677103658715719,-1.3400086535147149,1.7009029995351752,4.0,0.4683216330917019,0.4784635625767661,0.3029547119362694,-0.6627624712214237,0.048827577140907935,-0.48207179020866026,0.5709365669985047
17.0,0.1916310653681196,-0.7687327300391434,1.220053478377615,0.031809097688144196,-0.007533128084167213,0.017241176101047626,0.05228983029316365,-0.054283923483366206,0.997152584596114,-1.7235738582552542,-1.7622739277281703,4.170073911142821,-2.677095220427143,-1.3400214354144495,1.7009048087360832,4.0,0.4683430458816161,0.4784448094827168,0.30299885348321554,-0.6627278222609512,0.04884812914841426,-0.4820983807107078,0.5709525770114983
17.1,0.27439576957503053,-0.3537001620295283,0.8572210856676681,0.034842723394100036,-0.015197252835479316,0.013856759314445449,0.05380980588476348,-0.0563769379824173,0.9969583869111769,-1.7236002770056247,-1.7622982464232386,4.1700825691223145,-2.677103658715719,-1.3400312935019059,1.7009047909075974,4.0,0.46833146371248213,0.4784612476182543,0.30300747118285143,-0.6627259209168817,0.04882803779691694,-0.48209471000168524,0.5709596019493546
17.2,0.15290168559783682,-0.2746978820755274,-0.04832785721831301,0.0026449647833821227,-0.032260004017446955,0.013463403415178155,0.053694672178272805,-0.056214981423263394,0.9969727096750604,-1.7235990406360502,-1.7623112450665028,4.170083584816627,-2.6771342693238385,-1.3399975935565394,1.7008969365911546,4.0,0.46833377509360896,0.4784530449534052,0.30298374208838447,-0.6627420580317627,0.04883770375221635,-0.482082536151345,0.5709503231857582
17.3,-0.10715070563817852,-0.1831458085249247,-0.2643443388886757,-0.009435741370165162,-0.03655380559434255,0.013529965027907606,0.052709679279682814,-0.05480271271628414,0.9971033789637693,-1.7235986217571673,-1.7622919767739031,4.170047283172607,-2.6771513059503427,-1.3400032502797188,1.7009035572124895,4.0,0.46831701424241295,0.4784728670993932,0.30295623046907355,-0.6627591915726936,0.04882182152739478,-0.4820679575636525,0.570944102359474
17.400000000000002,-0.029912264861528252,0.08822791914119078,-0.3194846087670173,-0.006557891058415482,-0.03313053351356452,0.00840415614016852,0.05458929664840428,-0.05734333076983115,0.9968608802085245,-1.723574594770159,-1.7623458912135765,4.170059680938721,-2.6771398983397425,-1.340021357563485,1.7008909400628538,4.0,0.46830412291002504,0.47848605928709337,0.30294349390463887,-0.6627666383193139,0.04880820864861747,-0.482049715719906,0.5709520237934064
17.5,0.020320763691767198,-0.08074022533771327,-0.26152788642292507,-0.0058600374230139765,-0.0369953207170585,0.009089701180967026,0.054004765031873854,-0.056575000198593406,0.9969364833096634,-1.723586082458496,-1.762345930139059,4.170071125030518,-2.6771275005736292,-1.3400214354144495,1.7008795738220215,4.0,0.46831750044056125,0.4784735155368118,0.3029313420216059,-0.6627797016460278,0.048824260426146196,-0.4820524298776905,0.5709331953292405
17.6,0.02831606467448596,0.020100218575215476,-0.3484627255903096,-0.013485529139420782,-0.0415557254643998,0.008632577437221043,0.05326844748402278,-0.05558504423525207,0.9970316981083808,-1.723586082458496,-1.7622862050828836,4.170047632609625,-2.6771278500106472,-1.3400086882113185,1.7008678889074245,4.0,0.46833536857207936,0.47846505487428803,0.3029435380765876,-0.6627667117321564,0.04883380402820754,-0.4820671296166689,0.5709350470474073
17.7,0.024645168151729707,-0.09207121409731994,-0.29962676309119424,-0.01017601639437796,-0.032111456347903564,0.006711378040500036,0.05225702609115099,-0.054154437051982716,0.9971631094838687,-1.723597526550293,-1.7622982464232386,4.170071094293647,-2.677115579644674,-1.339985293123849,1.7008912125806643,4.0,0.4683190157642087,0.4784804925462178,0.3029236709398,-0.6627844855414249,0.04881031835217031,-0.4820552993371574,0.5709264111327415
17.8,0.19876352751747256,0.059822431945357274,-0.4215881616397798,-0.0015452058480202278,-0.03237518866740095,0.008790634337894409,0.051230237312903666,-0.05269758542380377,0.9972954603121861,-1.7236105616510708,-1.7623107817811328,4.170059826941637,-2.677103658715719,-1.3399977395594556,1.700915351103477,4.0,0.4683076415478997,0.47847866742846085,0.30293481259871186,-0.6627759399438841,0.04880380098934766,-0.482058953039031,0.5709338037245707
17.900000000000002,-0.08300372434113171,-0.1558606182268032,-0.43492573113038735,-0.00400431008993136,-0.0279882031171858,0.007444860602788703,0.05068273023069388,-0.0520011759169763,0.9973599314034446,-1.7235515583863918,-1.762333580322124,4.170071982806477,-2.6770930244507034,-1.3400214354144495,1.7008910179138184,4.0,0.4683310629908946,0.47846345103645926,0.3029367385549548,-0.662767693627489,0.04883743739203862,-0.48206103715537474,0.5709387405399654
18.0,-0.08282115544891615,-0.09603843809150417,-0.5008778216067179,0.0014929141589460296,-0.03189243649847673,0.004397003069182141,0.051181838882430414,-0.052688717921328405,0.9972972093974706,-1.7235861154504724,-1.7623340435767458,4.170059713930697,-2.677115614011316,-1.3399733779613971,1.7009034156799316,4.0,0.46832731591729865,0.4784642101195802,0.3029192896346074,-0.6627860244259351,0.04882148890256825,-0.48205449377469545,0.5709243496984714
18.1,-0.11645926700879083,0.300303517263697,-0.4067939239776548,0.0053577052322072135,-0.023808078901705318,0.00531465000170385,0.052190709146173526,-0.054050323319145624,0.997172537091899,-1.7235980877276733,-1.7623107069458286,4.17008231011737,-2.6771163890351266,-1.3399978525614842,1.7009264373555166,4.0,0.46830569774835296,0.47848218452988683,0.3029375912371344,-0.6627727285908053,0.04881896442603624,-0.48204029150555605,0.5709519912513717
