xiamingqian9007/apple-picking-rnn/training_data/grasper_20191127_124127_noimg.csv
,/manipulator_wrench.fx,/manipulator_wrench.fy,/manipulator_wrench.fz,/manipulator_wrench.tx,/manipulator_wrench.ty,/manipulator_wrench.tz,/ground_truth.x,/ground_truth.y,/ground_truth.z,/joint_states.elbow_joint,/joint_states.shoulder_lift_joint,/joint_states.shoulder_pan_joint,/joint_states.wrist_1_joint,/joint_states.wrist_2_joint,/joint_states.wrist_3_joint,/mode./mode,/manipulator_pose.x,/manipulator_pose.y,/manipulator_pose.z,/manipulator_pose.rx,/manipulator_pose.ry,/manipulator_pose.rz,/manipulator_pose.rw
0.2,0.11516636460222116,0.47798074644732164,-0.021354950808669226,0.006447659779312713,0.02462677938941437,0.007342631018485504,-0.031861486990109274,-0.03870434444464139,0.9987425454947305,-1.9436333737474807,-1.8599906361143683,4.173461437225342,0.5874522760903268,1.3269365275159795,-0.04070101409412273,1.0,0.4566034540673954,0.45833345436013245,0.33560110231433393,-0.5332176977546651,0.5018587442844554,-0.019341391577862948,0.6807661846465907
0.30000000000000004,-0.03687762487389909,0.21162604655918207,0.10819121282274033,0.011813118705898289,0.022114811952012196,0.012379563174705888,-0.031989906287271365,-0.038882213490234956,0.9987315198994746,-1.940125832492358,-1.862803223179191,4.172732643231954,0.5865510743642088,1.3275216060141994,-0.04069072200844846,1.0,0.4567498838600737,0.4585308787511788,0.3356112999261813,-0.5331990444249252,0.5018478437219765,-0.01931034921658762,0.6807897114301027
0.4,-0.06591515276884291,0.3445798229401985,-0.017708298351545138,0.0012429503319698419,0.027147810528086184,0.03858922053642941,-0.031559720042393644,-0.03844577591754565,0.998762008162897,-1.935752782311803,-1.8662692644444352,4.171749521095851,0.5856935418473479,1.3285960974294193,-0.040785171098912054,1.0,0.4573005577308716,0.45909328439019736,0.3355545932427882,-0.5332245775895826,0.5018519289889322,-0.019331526997083737,0.6807661002785464
0.5,-0.253405866005867,0.29389854199845794,0.02482249795311931,0.005923638890391139,0.02588142058861839,0.06364416105307028,-0.03132376207504314,-0.03822755176837705,0.9987779392098458,-1.9315143899603204,-1.869419137525876,4.171024493697267,0.5848538128118442,1.3293809387710067,-0.0408247152911585,1.0,0.45895293322072556,0.46069808837689774,0.33529379422607664,-0.5332815905781195,0.501853923079407,-0.019310591664071616,0.6807205638805567
0.6000000000000001,-0.3051502696278501,0.35982682192709237,0.10698085686447237,-0.002828703990265991,0.03155185770563226,0.08839010474680896,-0.03168515377443547,-0.03868044367645009,0.9987490994926204,-1.9276444999826279,-1.8726648171722136,4.170319080352783,0.5839332219804414,1.330062480712755,-0.040856937397685006,1.0,0.4595006628194534,0.46128345139895455,0.33530046510662553,-0.5332446630967196,0.5018139642937128,-0.01928590175018283,0.6807796475456482
0.7000000000000001,-0.4580333092205028,0.07954051419341096,-0.14638592196810704,0.010524250423459147,0.025403471063453982,0.10862007080418379,-0.03132048263800026,-0.038189055072659246,0.9987792521139336,-1.9237313293433878,-1.8753661978050782,4.169551372528076,0.5829920096134713,1.3307331080632072,-0.04095132399935636,1.0,0.460466859456718,0.4622838724439241,0.3350885610321715,-0.5332795932189325,0.5018665968367177,-0.01931588562192918,0.6807126346693013
0.8,0.2010582149734437,0.1510094900912231,0.06248695135033489,-0.007223004278906795,0.046561688789557916,0.1260885663832377,-0.03096695917679694,-0.037726161828606095,0.998807938203511,-1.9200815487062812,-1.8785616101501614,4.168737802348428,0.5821582513996582,1.3315920036039837,-0.040980164204732716,1.0,0.46191013347010496,0.4636794926388364,0.3350735066990202,-0.5332051436628737,0.5018587841123351,-0.019340223121858513,0.6807760214272677
0.9,-0.0786621972921672,0.17311500273567404,0.10152267392713377,-0.002460300753980604,0.035522649839819544,0.1424314439319124,-0.03163373372187185,-0.038642850995520346,0.9987516167003399,-1.9163236868920819,-1.8809558107894317,4.1681180251184005,0.5814337639364633,1.3323586908910192,-0.04102832475771123,1.0,0.46249557745611675,0.46423744624018476,0.3348364616207118,-0.533290209684343,0.501908417262782,-0.019359830883190373,0.6806722338128484
1.0,-0.3281146183793293,0.5897783553823085,0.2708876699469794,0.0054625641076161404,0.046544635185370935,0.15387176713517034,-0.03234757123052998,-0.039523580899409,0.998694661451668,-1.912799935127342,-1.883893138125083,4.167371243317702,0.5805380357320212,1.3329568206471416,-0.04111177126039678,1.0,0.4636671087091052,0.4654846597936213,0.3349575579047374,-0.533193488772198,0.5017725384714508,-0.019245554338307734,0.6808514021466504
1.1,-0.41500791951417193,0.17575004328764565,-0.047360022639007966,0.004867261314649015,0.04571859278125175,0.1710899674886872,-0.033248283173577094,-0.04026152619248426,0.9986351897692023,-1.9094995450534553,-1.886332465201089,4.166591814569837,0.5796888820400515,1.333533763885498,-0.041159539461855195,1.0,0.46424790390806425,0.4659708373258206,0.33475281828469766,-0.5332536151335535,0.5018656994092798,-0.019330483829152215,0.6807332326971863
1.2000000000000002,0.0015491622943206197,0.11367805811624515,0.18139615805473297,-0.001256645179586592,0.03466011919797081,0.18556437943879375,-0.033801979216839334,-0.040658926474875165,0.9986009209814763,-1.906020269915559,-1.8889704311495015,4.1660884987212885,0.5789214577078787,1.3340602143464118,-0.04120759493821652,1.0,0.46549504821492405,0.467079536604617,0.3347133881343956,-0.533162676551312,0.5018864059281036,-0.019382254214382808,0.6807877232285999
1.3,-0.08141194627300564,-0.07372992878831189,0.33802317230996104,-0.001897792730755576,0.037907451106727295,0.1965331443748808,-0.03289774096651643,-0.03962557891575842,0.9986725383060624,-1.902910960527394,-1.8913460723506048,4.165524668695186,0.5782475807252617,1.334661948482264,-0.04126707891445574,1.0,0.465939019810377,0.4675509524397766,0.33463638330683115,-0.5331793990808892,0.5018963494953522,-0.019397394980680317,0.6807668645189368
1.4000000000000001,-0.15855131653484936,0.4431219150509833,0.3407698677477864,0.004753550192263314,0.041657971056879975,0.20842011849710113,-0.032945384488138815,-0.039852653749956266,0.9986620255848925,-1.8997466245958854,-1.893697766333305,4.16498607868283,0.5774812678741726,1.3354538794476167,-0.04129143119507404,1.0,0.4668618894307053,0.4685125086937588,0.3345606696295348,-0.5331566187876301,0.501884773888768,-0.01938194935055896,0.6807936791869723
1.5,-0.1126534242813993,-0.05997596286499864,0.22171503346283916,0.00546738052428065,0.03305228355769665,0.21507329990989962,-0.03335561041357758,-0.04053804848676662,0.9986210834394589,-1.896664261355174,-1.896130114944383,4.164506086727098,0.576701091375243,1.3359439438924328,-0.041338745747701466,1.0,0.46785251179555437,0.4696298466608282,0.3344436905047404,-0.5332278496017882,0.501817910557768,-0.01929418656117918,0.680789673406869
1.6,0.0006516772274077348,-0.06893365115288436,0.30974223495426995,-0.0008196549876138956,0.03547819069424724,0.22427754044094397,-0.033296066128820384,-0.04047043482150014,0.9986258120322017,-1.8938187256221817,-1.8983234630876231,4.163954398433839,0.5759221858499662,1.3364003075783157,-0.04136319950887699,1.0,0.4682448596969912,0.4700535601259297,0.3344018535907132,-0.533225882935823,0.5018183090511608,-0.01927387573381284,0.6807914953805926
1.7000000000000002,-0.22314975935791842,0.30532445330815966,0.2214395679292143,0.002709122392344725,0.03852553137955688,0.23096447597826744,-0.03319687713929412,-0.040311097525026734,0.9986355341794582,-1.890917938482251,-1.9003998531285655,4.1633920665406405,0.575323009511932,1.336879015176335,-0.041399542277909436,1.0,0.4693334380750219,0.4711167943138985,0.3342077856819899,-0.5332700283975352,0.5018589178432215,-0.019339509779150506,0.6807251183522061
1.8,0.056970403878055575,0.15622629179304998,0.4392446481587673,-0.0013258500100714688,0.038918067631478384,0.2425025026341509,-0.03307453822253466,-0.04009819959793759,0.9986481722375357,-1.8882525988415562,-1.9027366389553293,4.16291079111089,0.5746396302411613,1.3373591204319868,-0.04141167399023789,1.0,0.4697502243760275,0.47152431191630934,0.33426256018015543,-0.5332096032637121,0.5018334449074286,-0.01933199901221817,0.680791441172617
1.9000000000000001,-0.19445769165759047,0.11106502722904492,0.26341452484539396,0.00710409380283174,0.04053075054779225,0.24669591217794254,-0.032868228878697864,-0.039807879693313175,0.998666539023916,-1.8854880544971808,-1.9044826434124762,4.162455216881796,0.5739561236186311,1.3377987922873844,-0.04149467149843389,1.0,0.4704396100338059,0.4721976390480761,0.33401494718480984,-0.5332661190395324,0.5018951845254641,-0.019358289427289208,0.6807009083768839
2.0,-0.062377669914398776,0.20625687093781792,0.22260806879674916,0.0033358858629965312,0.03948264383824925,0.2521373207605952,-0.032610625830856416,-0.0394702662338341,0.9986884052291289,-1.883149337412706,-1.9062554497101976,4.161896196177565,0.5733275154469043,1.3383272192169238,-0.0415423552142542,1.0,0.4714145749021126,0.4731542235144376,0.3340626865900419,-0.5332011576162549,0.5018600591009983,-0.019362106927505285,0.6807775814545867
2.1,-0.059502429832357116,0.6082199528288097,0.2770516442982671,0.016263897935797196,0.039548944704821905,0.2531983205675792,-0.032428570008325726,-0.03925243271271207,0.9987029714486513,-1.8802899987318868,-1.9085148057165437,4.161366110134992,0.5726604028648906,1.3388592464094649,-0.041578635714801,1.0,0.47177143780882913,0.47345499712210365,0.33405431344104447,-0.533187784074193,0.5018542979659495,-0.01936409422330714,0.6807922461236372
2.2,-0.01696317815702514,0.36169118534316846,0.21398417799841632,0.007059396724960733,0.037630175553022824,0.25172457538211035,-0.03226120930388036,-0.039076462736064195,0.9987152647145281,-1.8780470399105276,-1.9101319240249721,4.161030294452125,0.5720607729723536,1.3393139344181961,-0.04162623002562727,1.0,0.4727640093679055,0.47443848163645896,0.3338064959794202,-0.5332679580153434,0.5018902405937333,-0.019373443819322413,0.6807026818115893
2.3000000000000003,-0.10101010632955208,-0.02678913665763022,0.29586981374674537,0.0050511841311912525,0.03711987042797598,0.24229121689639052,-0.032071555639797564,-0.03887742968080213,0.9987291477628185,-1.8755634029077668,-1.911740922327892,4.160587981673312,0.5715326735653498,1.3396255863036568,-0.041625823109870105,1.0,0.4730867284708508,0.47475466133848976,0.33377205780189295,-0.533272321969414,0.5019038490370181,-0.01936557838384939,0.6806894529203718
2.4000000000000004,-0.08617512034714894,0.1768388378710053,0.4219761024705648,0.005294788843147514,0.03338219502131817,0.2393583454514523,-0.03195633282866061,-0.038765089200520124,0.9987372312500079,-1.8733099249737721,-1.9135622476082443,4.160274382404455,0.5709458866709347,1.3400335390843325,-0.04161475239352304,1.0,0.4736160683433719,0.47530418888112264,0.33392540542790883,-0.5331706863737196,0.5018278458656694,-0.019344392709937902,0.6808256948560933
2.5,0.12884657929575197,0.25932141777438833,0.19166548082021015,0.008910560730926689,0.03589187552357824,0.24627421450276796,-0.03191114044262653,-0.038732225727042456,0.9987399482304126,-1.8710182858155942,-1.9153004639069426,4.1598552418397645,0.5702738202215404,1.3404052008563676,-0.04168648394944128,1.0,0.47438701289834284,0.4761101525065057,0.3337313379759939,-0.5332073629228576,0.5018664775990218,-0.01933237419198976,0.6807688345505419
2.6,0.04120568612292344,0.36856659543757575,0.09610919442310592,0.010964778890888762,0.03814685706119622,0.24283268973537134,-0.0320811171421762,-0.03892436075115606,0.9987270047168747,-1.8688911896445835,-1.9167714722014275,4.159485634274687,0.5697044476478808,1.3407148680061218,-0.04172212282289678,1.0,0.4747812518775752,0.47651503250826904,0.33371313981300577,-0.5331941819325685,0.501858583265993,-0.01933560761518851,0.6807848860202913
2.7,-0.24425276349202518,0.13486955363638198,0.19321667356132616,0.007470298220058471,0.03922027826258313,0.2351270398174387,-0.03226982083792032,-0.03913807688628451,0.9987125757246665,-1.8666902369762122,-1.9184544393521814,4.159232001109436,0.5691583547182383,1.341017523731026,-0.04176980653871709,1.0,0.47550754183415034,0.47725984183467896,0.33366984011259904,-0.5332152069060896,0.5018482269028988,-0.019352911352318636,0.6807755614743396
2.8000000000000003,0.018161448840617433,0.1508723751660183,0.2743048971117289,0.0074432685360454245,0.031897472800062006,0.23415822172987422,-0.03271431354095919,-0.03964656592068042,0.9986778568199464,-1.864770867456169,-1.9199527757292403,4.158873081207275,0.5686322667440108,1.341412555163517,-0.04173497560011074,1.0,0.4758248875552903,0.4775704718942767,0.3336552404770448,-0.5331804106099964,0.501852922073089,-0.019360716273922676,0.680799131178807
2.9000000000000004,-0.14261041540681083,0.29842953409932066,0.2407904072082036,0.006916386767172364,0.0450735686648785,0.23824367944423197,-0.03312264861016142,-0.040117041549309757,0.998645836430897,-1.8628047014741427,-1.9213524465548724,4.158550146760718,0.5681648870149507,1.3417835886799845,-0.04178304228869343,1.0,0.47645559806491916,0.4782614910410865,0.3334852311884833,-0.5332413983735715,0.5018706855064718,-0.019340573283040747,0.6807388400223287
3.0,0.12600128033353322,-0.06215940045339348,0.28511133061244015,-0.0013416988710414236,0.03957680709038197,0.23582120194605757,-0.032906577915469,-0.03993106410987744,0.9986604166780084,-1.8607935767758765,-1.9227569471949935,4.158197666871947,0.5677124866914057,1.3421655595834359,-0.041815335987569875,1.0,0.47672989564769486,0.478532757573459,0.33348729138522637,-0.5332449309551528,0.5018403524407807,-0.019329422467120924,0.68075875146768
3.1,-0.503284319503283,0.5674051470742654,0.2606963289569938,0.013632381006046402,0.04362910358251832,0.2293584013306737,-0.03313350928917746,-0.0402158964556486,0.998641284540772,-1.859144590365592,-1.9240878878428125,4.1578673881014225,0.5672041177420474,1.342480182647705,-0.041865234174866255,1.0,0.4774218269676452,0.4792247006919828,0.3334932133089538,-0.5332019495176741,0.5018113377279851,-0.019319469997712675,0.6808140865443439
3.2,-0.16162960150421385,0.5078819321754975,0.33993098755295353,0.017346285599649035,0.043081223778568205,0.2285957599467346,-0.03372153379615848,-0.040883642512779914,0.9985947046269326,-1.8572445520317575,-1.925386537881725,4.157595411155523,0.5667387650721183,1.3427614800582894,-0.04189104474323431,1.0,0.47767153093940257,0.47946361255318576,0.3334153482689142,-0.533247124635655,0.5018206643402897,-0.019338455867530715,0.6807712898129121
3.3000000000000003,-0.12951060961606037,0.11075232762693535,0.26780925900135993,0.011305738266063646,0.04150338860764911,0.22815097531584885,-0.03385278717066299,-0.04103846139996602,0.9985839038806784,-1.8553763742825615,-1.9267399292938763,4.157267093658447,0.5662341746583053,1.3430562019348145,-0.04186571363984904,1.0,0.4780503552959704,0.4798814509791627,0.33336586656062994,-0.5332522817188362,0.5018207147842211,-0.0193100309285237,0.6807680199309069
3.4000000000000004,0.009574060887766557,0.18004332692509845,0.24585079298552415,0.009262185308371721,0.038140996092564945,0.2280916722993158,-0.03375260934207823,-0.04087898325640529,0.9985938081807422,-1.8538896777163048,-1.9280918877883753,4.156995884555859,0.5657971680398476,1.3433331727657958,-0.041888133711886044,1.0,0.4787905779499013,0.4805520661118418,0.33331759281711537,-0.5332192226596076,0.5018421790966978,-0.019347989650244427,0.6807770142728495
3.5,-0.06445500630645093,0.477916577545744,0.1802668751200676,0.013125409328004857,0.04115008683495975,0.22447501085416527,-0.03390789344797233,-0.04099384628285331,0.9985836750323457,-1.8522700837921489,-1.929171921146888,4.156703472137451,0.5653815670762744,1.3435710634793505,-0.04196028424088222,1.0,0.47902556982718875,0.48078976377856364,0.3331724286787667,-0.5332729571906247,0.5018786638316713,-0.01935095040407464,0.680707940777953
3.6,-0.18067005348602805,0.4223319391316809,0.2479037510082553,0.01571125009137422,0.039353288685695466,0.23083903123496594,-0.03450707612003145,-0.04164308836721907,0.9985364859761778,-1.850470813457155,-1.930263417001131,4.15640426962658,0.5649620985751811,1.3438117535554084,-0.04196149507631475,1.0,0.47955127554337335,0.4813045797948219,0.3331736390516649,-0.5332421796616151,0.5018760239466393,-0.019352685943736285,0.6807339480031868
3.7,-0.07153607496942288,0.5338327919345582,0.29985282197469215,0.01347205636435824,0.04155423903228008,0.2326934660712287,-0.03418524631039889,-0.04128470533363012,0.9985623782878547,-1.8490613206150113,-1.9313902427360858,4.156151524063991,0.5645796119713667,1.3440632820129395,-0.041983944013883515,1.0,0.47970057304174296,0.4814723429113827,0.3332287094698563,-0.533209710729794,0.5018455256958688,-0.019342959767391678,0.6807821403576357
3.8000000000000003,-0.049991338365403475,0.48752306081944785,0.2801202783280506,0.015511551944876788,0.03815279343761248,0.23108432335817336,-0.033068264990298114,-0.03998307960558729,0.9986518703337148,-1.8477135157284061,-1.9327085980228367,4.155947534092255,0.564171499589789,1.3442922507409545,-0.041996737579983054,1.0,0.4803014589005512,0.4820285948503299,0.33314874008831374,-0.5332020504198649,0.5018633858727894,-0.01937746272616859,0.6807739928101305
3.9000000000000004,-0.17540724172349134,0.3119214265847824,0.21403834819540413,0.008994504282447245,0.04601732298970069,0.22647634082220883,-0.03239962360437244,-0.03919069406048911,0.9987060583495249,-1.8460811924580585,-1.933811333514758,4.15568398145761,0.5637861667832502,1.3445177014069056,-0.042032511647085845,1.0,0.480616716754949,0.48234140667226366,0.33297974339219627,-0.5332704758695694,0.5019051160387322,-0.019381870256814652,0.6806895012891983
4.0,-0.21895098926531947,0.6662532176003806,0.194837366696071,0.01654119603627006,0.043914551818685754,0.22851552479503462,-0.03309748354647082,-0.039995020966711356,0.9986515453176339,-1.8445742740251985,-1.934674802402913,4.155411320149476,0.5633826875848305,1.3447828031786233,-0.041999241922567994,1.0,0.48110774294770037,0.482856050924086,0.33300447903427294,-0.5332176010397185,0.5018907304399565,-0.01935378290521917,0.6807423269689878
4.1000000000000005,-0.133055286011319,0.5209890120031877,0.14299528995445646,0.013443315775180148,0.03978487334445548,0.23468655803899569,-0.032814657016422444,-0.039651787311515696,0.9986745265614497,-1.8431831409091408,-1.935623183884115,4.155192852020264,0.5629724801766363,1.3449999145288698,-0.04203349748720342,1.0,0.48127845967019894,0.48300479595289264,0.33307577187119236,-0.5331788927172094,0.501853561922212,-0.01937146842815926,0.6807995424188944
4.2,-0.1627846382294047,0.37091328268828194,0.18409941884612013,0.011985017048496846,0.0394930763029611,0.23393455142187555,-0.03281758823067733,-0.039646638209639054,0.9986746571938852,-1.8417570790192737,-1.9366545185779003,4.1549649704746,0.5625410347689105,1.3452731771335504,-0.04207940979666206,1.0,0.48158826205981625,0.483299566696609,0.33308517867854953,-0.5331648125693161,0.5018494508060891,-0.019365707133592907,0.6808137636319999
4.3,0.08675428654796916,0.28495959757136363,0.3152935228841018,0.00859983957885117,0.03798165320591954,0.22674819990526135,-0.03289121075654299,-0.03975642346677818,0.9986678751804717,-1.8402379217663913,-1.9379023682676462,4.154748695056077,0.5621789715376182,1.345513569978,-0.04209310213197881,1.0,0.48194301515396476,0.48364880033542157,0.3330325597996158,-0.5331825816341063,0.5018601792539849,-0.019366194224699464,0.680791925365158
4.4,-0.003526308630750194,0.2161195137016308,0.20181633893350173,0.006709720196762142,0.039441468951025745,0.22871715427164718,-0.03261606342349661,-0.03949152517176622,0.9986874388351121,-1.838775691000524,-1.939088923873587,4.154522885087776,0.5617625585337589,1.3457660588087643,-0.04208215226957691,1.0,0.4823745432256106,0.4841138050924117,0.3329026941965276,-0.5332327464700147,0.5018724872574148,-0.019363561944235892,0.6807436353686553
4.5,-0.22000588742687371,0.4743544017123652,0.1310316568246464,0.016939296988303463,0.040887711788601934,0.22806222754235977,-0.03287935946244733,-0.03982072440058668,0.998665680732963,-1.8373842239379883,-1.9400180778899134,4.154278596242269,0.5614283917296549,1.345996379852295,-0.04213085174033656,1.0,0.48284440665848705,0.4846423533584887,0.33275933558722387,-0.5332825936563425,0.5018853924076415,-0.019325706337300148,0.6806961475324778
4.6000000000000005,-0.19305561122795173,0.27400265278400127,0.20730482222430255,0.01601326294505847,0.04149582352876903,0.2252793463822645,-0.03293384582971091,-0.039885403478137786,0.9986613418649286,-1.8358090641052742,-1.9408849620284394,4.154056805711452,0.5610669452870121,1.3462145061027713,-0.04212671333654486,1.0,0.4830833815626698,0.48482440606321,0.33278633283614306,-0.5332421855299574,0.5018894395953905,-0.0193662026619416,0.6807236680095058
4.7,-0.07108678632497034,0.23253461064750916,0.1824147718822696,0.009694639392754667,0.036374366110008674,0.22823477109896007,-0.03313306508115946,-0.04006322340854217,0.9986473457448298,-1.834445725800622,-1.941849651839954,4.153811568557209,0.5606217751941805,1.346444916558462,-0.0421617461305257,1.0,0.48349544013291146,0.4852606686556525,0.3329372866503706,-0.5331513946266621,0.5018132739088831,-0.019334813441012434,0.6808518146599121
4.800000000000001,-0.4022119487638083,0.25155236740332443,0.18920694671625618,0.00847840643780824,0.043281018067556125,0.22396416988952034,-0.03392954183102389,-0.04089589016408734,0.9985870822121208,-1.8330380266319772,-1.9431271451377385,4.15361484385986,0.5602164355610321,1.3466415405273438,-0.04214506768867236,1.0,0.4837318054640474,0.4854317258583069,0.3329217279896528,-0.5331428683556566,0.5018405427591736,-0.019365511840260394,0.6808375199090059
4.9,-0.13669741984133454,0.22302767328755474,0.2706473768998753,0.012403657884033553,0.03663169621928043,0.23218734440859073,-0.03335942017870957,-0.04035301651092485,0.9986282024257817,-1.8314435621298524,-1.9441753980253198,4.153383731842041,0.559876374402803,1.3468701853889766,-0.04215414306532705,1.0,0.48405542760924064,0.4858393314275289,0.3327803665287468,-0.5332188110600077,0.5018442539432995,-0.01935159030755452,0.6807757048165082
5.0,-0.17583576370418066,0.08540954056049666,0.31440292437085643,0.009721475287444763,0.0381139878162027,0.22799134881819882,-0.03297150600176916,-0.039973566055106734,0.9986565939322974,-1.8299485041682881,-1.945263177280273,4.153191089630127,0.5594326298391957,1.3471093392909919,-0.04219002197331494,1.0,0.48455967437636527,0.4863964658692298,0.33272051630804755,-0.5332156799826167,0.5018282819384913,-0.019332068773433575,0.6807904855271387
5.1000000000000005,0.0806548225482468,0.5788598017003852,0.36710722904910736,0.020755127799842097,0.03637173342159394,0.22714793182817652,-0.03301569778836669,-0.04000032478515439,0.9986540629011266,-1.8286197080759663,-1.9462960333422237,4.152963419661951,0.5590125757404785,1.3473245271838776,-0.04218928076658093,1.0,0.48479167443353555,0.4866335884183703,0.33275532754982534,-0.5331703215725062,0.5018177778223519,-0.019331257047952834,0.6808337745416667
5.2,0.05440893932542276,0.1299828564231324,0.24334981837189587,0.007996341752301727,0.04368885415704038,0.22725497061508498,-0.03340720691826652,-0.04040942521116313,0.9986244660314463,-1.827264462580711,-1.9472315673232254,4.152701216275707,0.5586291540662585,1.3475408108086901,-0.04221410177624191,1.0,0.485228432011048,0.4870488843882257,0.3326424069258703,-0.5332244474307628,0.5018462354941932,-0.01934701851669437,0.6807699592791819
5.300000000000001,-0.24703428301735936,0.38033511719690316,0.127703360672903,0.007877546278310823,0.051195094116888024,0.22302891344367137,-0.03342441480125895,-0.04040286339612132,0.9986240652883516,-1.8255747523280343,-1.9484306650406447,4.152496738351466,0.5582346776265541,1.347757339477539,-0.04224912821528986,1.0,0.48540743289678556,0.4871909906050858,0.3326030195957145,-0.5332237633993233,0.501878476935098,-0.019361795650344134,0.680746306199867
5.4,-0.4704499470432014,0.33343643933393124,0.1782888642202563,0.01986107316927377,0.0450717277094758,0.22411654549190382,-0.03280418113154063,-0.03968898231448064,0.9986733817959857,-1.8240785598754883,-1.9494873932905044,4.152245545378562,0.5578717607578745,1.3479500710782812,-0.04226047197450811,1.0,0.48578724363751574,0.4875931640455458,0.3326177618259724,-0.5331887617511496,0.5018528526155488,-0.0193543643259305,0.6807928225572379
5.5,0.07567565464953568,0.3332156882161753,0.47977590619441435,0.010289661817509128,0.04290470271442556,0.22721912004088127,-0.03325313401630767,-0.040214799295896095,0.9986373414784665,-1.8228110321343274,-1.9506007851897098,4.151994657912867,0.557431820531502,1.348225589937997,-0.04231917023229562,1.0,0.48632000585831353,0.4881625467350668,0.3325276816314424,-0.5332050788154606,0.5018415943822572,-0.01933248513222832,0.6807889636971831
5.6000000000000005,0.012266908699220903,0.47662308471210546,0.31237362773849303,0.014916680875204405,0.042722239368797835,0.2251797286692448,-0.0336458487826096,-0.040671825174538045,0.9986059064321281,-1.8214171437267666,-1.9515950717106927,4.151788523579062,0.5570470529743652,1.3484654426574707,-0.04228493115222733,1.0,0.48652327870998296,0.48834218189615436,0.3324465916416764,-0.533230796008449,0.5018719620818041,-0.019362306164249204,0.6807455860777633
5.7,-0.021280421615827744,0.567146098632394,0.2722772097145152,0.014726481716900837,0.04245888099370961,0.22119370832055488,-0.033704092478586294,-0.04073500780848338,0.9986013678674551,-1.8197161552972978,-1.9525893961476182,4.151548862457275,0.5566023424879717,1.3487169144220537,-0.04230894320972433,1.0,0.48682438427674984,0.4886326721033782,0.3324191364261549,-0.5332386906204603,0.5018670253485561,-0.019361629404739757,0.6807430609267805
5.800000000000001,-0.23118282288166325,0.40413592920317126,0.21876217221407623,0.015324665380117035,0.046715246704600526,0.2211818118874086,-0.032859108941384434,-0.03979427220814298,0.9986668475009035,-1.818293571472168,-1.9536711401994942,4.1512962327789875,0.5561908862240111,1.348955725271663,-0.04234349983648014,1.0,0.4874209256374564,0.4892443552782593,0.3325074178232948,-0.5331770645407192,0.5018164379210452,-0.019343126900232356,0.6808291444420524
5.9,-0.0586534602605549,0.5222983701866301,0.26941423512295687,0.016008838272195115,0.04287220200066903,0.2294677796771612,-0.03237094570801963,-0.03925443520598361,0.9987046816176692,-1.8169767185856287,-1.9547243435249517,4.1510934411139315,0.5557290789844702,1.349185488673832,-0.0423786200100591,1.0,0.4876097944514454,0.48941045212094103,0.3324400241446095,-0.53319373684854,0.5018423300651716,-0.019342582221127474,0.6807970176589114
6.0,0.07306511623084327,0.17399493893673887,0.34196388550953555,0.010433413587438756,0.03818627326015353,0.22258303652674838,-0.032796695990788535,-0.03973827033637376,0.9986716969798174,-1.8154408714988015,-1.9557101024098626,4.150833433324641,0.5553454379009011,1.3494255326010964,-0.04237112709443294,1.0,0.48805482909933023,0.48985457141794636,0.3323046388584651,-0.5332455534893147,0.5018715411337512,-0.01935363594142912,0.6807345831230809
6.1000000000000005,0.08781276507212943,0.377938216661621,0.27308707298901,0.013994343159609268,0.04026524442281837,0.22267594771571186,-0.03298372460493524,-0.039945378795400485,0.998657287453846,-1.8138573850929234,-1.956825395623678,4.150634134419042,0.5549262378603987,1.349638464263572,-0.04240798275595227,1.0,0.4882661684845637,0.49006947827817876,0.33231612207297706,-0.5332429880481984,0.5018493323165216,-0.019337844887293492,0.6807534143182871
6.2,-0.19934986478973457,0.20074829036366662,0.18235277182656587,0.019550361054674847,0.04359234409810485,0.22850373410434796,-0.03312642393040054,-0.04010110064770853,0.9986463272230373,-1.8124404630884436,-1.9579456470628867,4.150419382102393,0.5545138793838709,1.349854429729476,-0.04242356436430278,1.0,0.4886242277845426,0.49042676430849963,0.33230202324724556,-0.5332087339636644,0.5018457837456877,-0.019343296257720886,0.6807827056054144
6.300000000000001,-0.07525934006961212,0.32504183963353583,0.09430787405796018,0.016009610120024248,0.04332154577884035,0.22631388430186689,-0.03281851017592964,-0.03975206160259922,0.9986698164688967,-1.8110229342582447,-1.9590519614909496,4.150169849395752,0.5541114071404859,1.3500610276759974,-0.0424288394349433,1.0,0.4889475965613081,0.4907593198226167,0.33227188112494693,-0.5332011861405141,0.5018468772026382,-0.019343416421708212,0.6807878077502898
6.4,-0.004112306250573156,0.30346334692455956,0.259814261933716,0.011438229740080689,0.04101705181169667,0.23026227247142278,-0.03161351587030438,-0.03839814452749475,0.9987618877353244,-1.809556950853781,-1.9599911175169886,4.1499536299053466,0.5537006097980957,1.3502783826358538,-0.04243952177596604,1.0,0.48928161727841873,0.4910933988024358,0.3322000928317266,-0.5332277977943947,0.5018554159966097,-0.019354105083804668,0.6807603658488168
6.5,0.04944164652053984,0.4089650764080752,0.26275850945955426,0.014811363362391356,0.03758842115208278,0.22664353913866087,-0.03162317377440259,-0.03836607887378888,0.9987632301347841,-1.8080264190389634,-1.9610336355099394,4.149718897839913,0.5532647494969023,1.3504915237426758,-0.04246840411408042,1.0,0.4897374422477039,0.49153664210961384,0.3321384122660856,-0.5332394308227021,0.501862883225137,-0.019369108597760018,0.6807453220470643
6.6000000000000005,-0.08039925306071627,0.3670358135207914,0.08802171079621396,0.01754427687645085,0.041743658968738696,0.22138160522354597,-0.03174416481887553,-0.03847941990722328,0.9987550432678305,-1.806602533823601,-1.962004226141391,4.149508617460615,0.5528489786335449,1.3507095361815058,-0.04243357631343346,1.0,0.49021844566211453,0.4919918915184006,0.33215238583206025,-0.5331934651327651,0.5018635336722245,-0.019374453183803264,0.6807806936698277
6.7,0.04749748324387633,0.2754273547722768,0.20964641542403106,0.01596419413385903,0.03614789863959375,0.22631877906339234,-0.03191847757318392,-0.03867393955405812,0.9987418994467958,-1.8050660093773603,-1.9631790939070868,4.149307094126915,0.5523931223103027,1.3509001731872559,-0.042453480692951656,1.0,0.49039633856856396,0.4921893762419298,0.3321130725201886,-0.5332204195081351,0.5018718666641944,-0.019366794763767677,0.6807536565683239
6.800000000000001,-0.14763015270431815,0.7253162501716025,0.2809476163161853,0.020110622752416808,0.04362597227694493,0.2279176563351705,-0.03234388905762754,-0.039184161728460114,0.9987083372864913,-1.8035697601179816,-1.9644628215969546,4.149071523280294,0.5519707941674605,1.3511394912118013,-0.042481479486135294,1.0,0.49093103227551277,0.4927648543092382,0.3320445241774727,-0.5332172341977177,0.5018665382604176,-0.019352983258993844,0.6807604725364261
6.9,-0.46529422377191876,0.1157705306184188,0.8761820390720121,0.03122301728536299,0.034335423580758355,0.22377890689278732,-0.03242623488346424,-0.03928227929216847,0.9987018780418232,-1.8021936416625977,-1.9653080099227818,4.148855370004087,0.5515724130290898,1.3513356861661967,-0.04250166345500271,1.0,0.49112918187976806,0.49298167659170034,0.3318841435796197,-0.5332779896396996,0.5019061976147448,-0.01935796016626461,0.6806834976256961
7.0,0.05113950392494471,0.46020006956093046,-0.16262256462310717,0.02036816287762293,0.046640497308175446,0.2258144883011667,-0.03235276392951108,-0.03918908881328794,0.998707900621589,-1.8019327757493504,-1.9654336131329657,4.148792743682861,0.5514292769673427,1.3513922162775724,-0.04252278526846896,1.0,0.49156626521248925,0.4934002540482102,0.3319314356183773,-0.5332459861469646,0.5018884685981925,-0.019365319668663464,0.6807214318210076
7.1000000000000005,-0.2791639724305144,0.3771168728280715,-0.03291760104017387,0.016761271946116502,0.04427745658891443,0.22274946853759425,-0.032127290521137095,-0.03890140356026201,0.9987264268105114,-1.8019068867078503,-1.9654462322559114,4.148802960628595,0.5514460179977786,1.3514049403723811,-0.04255573182451496,1.0,0.4916299110543474,0.4934310459636592,0.3319684605982627,-0.5332218145284163,0.501881956277173,-0.019380388477849186,0.680744738515744
7.2,-0.1475830836992807,0.5327663189213391,0.19046514527249056,0.0205340337053515,0.040553001228322366,0.22600380613653567,-0.03228549002649487,-0.03912385905516805,0.9987125889782599,-1.8018274307250977,-1.965447717941844,4.14878310505734,0.5514365869709472,1.3514257347861,-0.04254391701119663,1.0,0.49161331298855043,0.49345212726210574,0.331975354052422,-0.5332392749527739,0.5018598839978557,-0.019363612268904064,0.6807478116023572
7.300000000000001,0.08613676010997608,0.21549958025529245,0.223382592851481,0.007832219756440422,0.03859696925598325,0.22430907965009023,-0.03250765787002919,-0.039415500768583335,0.9986939822064718,-1.8017739842218117,-1.9654718473711157,4.148800015752405,0.5514546338984395,1.3514151573181152,-0.04253608385194951,1.0,0.4916170408685084,0.4934636977332453,0.3320213102119658,-0.5332111988564422,0.5018437460722345,-0.01934577825162113,0.6807822065874674
7.4,-0.037680757980277535,0.2786119327749762,0.13806837206941044,0.01346214004146366,0.04180935404785513,0.22596384860806293,-0.03252479742238852,-0.039384514772332055,0.9986946465907975,-1.8017969627314259,-1.9654876318357093,4.148837439505645,0.551458496687998,1.3514236645558058,-0.04253507913870262,1.0,0.49163606474618954,0.4934480320032587,0.3320405596543739,-0.5331788364331898,0.5018612606201469,-0.019347489257589445,0.6807945931982232
7.5,0.08701664069820417,0.4439213813174703,0.16532449784520875,0.019539252269962237,0.03761412117292836,0.22194685988232543,-0.0322759035048359,-0.039108884393245835,0.9987134329293579,-1.8017376204537465,-1.9655095951702757,4.148784073447923,0.5514499289648056,1.3514362253191663,-0.04251224199403936,1.0,0.491629429358015,0.4934685688072783,0.33198301340637965,-0.5332195876824911,0.5018668129566229,-0.019347802758783773,0.6807585738665973
7.6000000000000005,-0.10033093569698426,0.47825807566674305,0.06588006050759473,0.019971082751940872,0.04387081084833254,0.22374658229470792,-0.0319287978102676,-0.03874293846257481,0.9987389093634499,-1.8017907014056755,-1.9655105076231898,4.148795140726893,0.5514704295509391,1.3514019395106227,-0.04254677098247325,1.0,0.4916186880963934,0.49348096207731756,0.33198409651756006,-0.5332179807641445,0.5018668607667006,-0.019331021135736096,0.680760274014161
7.7,0.11216368074863328,0.037431515999702236,0.28447910358638206,0.008243764636337636,0.03879063820836816,0.22020583185371953,-0.03181555155445751,-0.03859877754924183,0.9987481674793274,-1.8017886500331333,-1.9655177947848805,4.148811649453299,0.5514576692986537,1.3514319081987654,-0.04255698082896542,1.0,0.49164013861727457,0.49346040663979823,0.3319428881702713,-0.5332283154186095,0.5018864178934466,-0.01935356190875573,0.6807371201949846
7.800000000000001,-0.07973247455755379,0.23352482171799255,0.1824450655654507,0.009417091962710993,0.043269029937086166,0.22393248809185498,-0.03179733034279258,-0.03854473543194801,0.9987508355408864,-1.8017707274779695,-1.9654861889281214,4.148817539215088,0.5514620239344422,1.3514258357592315,-0.04253525439704538,1.0,0.49165063532007686,0.49345833077269957,0.3319921167962583,-0.5331970395837202,0.5018801716722805,-0.019367260596188415,0.6807658330721059
7.9,-0.11849752042983419,0.166969778741827,0.1008950170290145,0.009476672152216273,0.04059790023411129,0.21521662217941925,-0.03229620918551661,-0.039097470435970026,0.99871280398757,-1.8017826437181041,-1.9654996172777701,4.148817539215088,0.5514624899959283,1.3513925053996425,-0.04252475789271312,1.1889493003041969,0.491620897999714,0.49348767553027745,0.33199190728139805,-0.5332312668511383,0.5018443381855748,-0.01935300320583081,0.6807658463453695
8.0,-0.448984420029485,0.3360440963704189,0.08777683092983612,0.013803927079177956,0.0486799093090282,0.21872345758697653,-0.03301418903403012,-0.03990730360976005,0.9986575275577956,-1.8017881120357138,-1.965499911493454,4.14881552981146,0.5514480310627441,1.3514335972275326,-0.042549537347373614,2.0,0.4916395375599877,0.49345801401015643,0.33198846269886084,-0.5332202680194108,0.5018647905405551,-0.019363807717288066,0.6807590768691084
8.1,-0.3438407904166194,0.5461621490532058,0.18770965730606679,0.017203903368211183,0.04732632495917267,0.21496797343699267,-0.033396056715652746,-0.04035142009340254,0.9986272529215683,-1.801794728374008,-1.9655122054610032,4.148792743682861,0.551448913938407,1.3514142744424522,-0.04255564715856999,2.0,0.49163223294722597,0.49346488792331206,0.33200386858714265,-0.5332037286101601,0.5018690963616386,-0.019356618702213033,0.6807690615956284
8.200000000000001,-0.023832565942085826,0.40015402922324883,0.20621747175111552,0.008719048596491996,0.044241178563637754,0.2212006066845656,-0.033536167672566515,-0.04052820920865758,0.9986154170317029,-1.8017806889338734,-1.9654879473790456,4.148818366721405,0.5514719301297937,1.3514151573181152,-0.04254842440892338,2.0,0.4916328370617418,0.49347356940101844,0.33197358550759715,-0.5332208768765604,0.5018668633649406,-0.01935442294945087,0.6807573387276276
8.3,-0.10146603302863688,0.6390047213438665,0.2502244728681588,0.012990597448866947,0.04742282141101306,0.230106884551038,-0.03326550005313248,-0.04023916718477873,0.9986361473568288,-1.8017674461214577,-1.9654985866942347,4.14884230926869,0.5514613570245489,1.3514036877476934,-0.04248974399051968,2.0,0.4916286552155861,0.4934786008788796,0.33197423961381767,-0.5332304149203988,0.5018594314886269,-0.019363255043438058,0.6807550954519946
8.4,0.00023952222629242126,0.2143091349682898,0.16397439700986025,0.005934535348044486,0.041232292527739495,0.22092518873268965,-0.03319504745150574,-0.0401595844831032,0.9986417252768954,-1.801740100795779,-1.965484060402535,4.148821796266261,0.5514995984423315,1.3513947891191087,-0.04251057199688218,2.0,0.49162136688328173,0.49347225632430014,0.33196046393028494,-0.5332326778299816,0.501869402953848,-0.019346161084191165,0.6807464577390911
8.5,0.07261331995876172,0.25249392770134976,0.10183058896608256,0.009560179448473665,0.04268697751590134,0.22139612785811383,-0.0332223681440973,-0.04018228945275642,0.9986399036493445,-1.8017469012972238,-1.965497781472427,4.148815928771473,0.5514588803253812,1.3513927155111725,-0.04253527863014187,2.0,0.4916293780387595,0.49347196195493576,0.33198495091137536,-0.5332228617115952,0.5018630657808155,-0.019355013479549536,0.6807585668990032
8.6,-0.12634105028025405,0.3950500330417927,0.1760771245967037,0.013411488250271794,0.04539928713441518,0.22884714815801666,-0.033635372586671916,-0.040637114406504596,0.998607443128929,-1.8017923068387507,-1.9655199217841164,4.1488397318835055,0.5514488886412802,1.3513814244621203,-0.04255576975233859,2.0,0.49163223638048537,0.49347952222419167,0.3319947449760372,-0.5332068985857045,0.5018553196324225,-0.0193549268727244,0.6807767829935191
8.700000000000001,-0.16801764414224013,0.49466404445186174,0.11063288937661872,0.011588068416350255,0.04619172471404164,0.22942025108404543,-0.03407803360290339,-0.04112551845350037,0.9985726243647646,-1.8018035978725342,-1.965489180379859,4.148818483884058,0.551450077845512,1.3514151573181152,-0.04253411579159574,2.0,0.4916413196531958,0.4934737829320411,0.3319801516288301,-0.5332106320609361,0.5018692146222115,-0.01935395696671446,0.6807636429932143
8.8,-0.23366347922968833,-0.138650826522985,0.1440019386141012,0.027935351421851787,0.022597521945282903,0.2199269657697477,-0.03364136489425854,-0.04063060195540279,0.9986076476001831,-1.8017483541248425,-1.9654893120310117,4.148820601080667,0.5514728265949707,1.3514151573181152,-0.042533021986370705,2.0,0.4916359271759592,0.49346583703855357,0.33196390280669924,-0.5332231660053852,0.5018771511494989,-0.019362870670946726,0.680747720986737
8.9,-0.8959422054253594,-0.2235038474019112,0.5679943156850431,0.04865648436891378,-0.03874892046910409,0.21642536518133682,-0.03423764434142477,-0.041314297748890144,0.9985585436629271,-1.801793098449707,-1.9654773362924194,4.1488383729423575,0.5514912627452169,1.3514251575072047,-0.042522242183128924,2.0,0.49162070381191586,0.4934754450764495,0.3319845986403123,-0.5332142849068255,0.5018670932442892,-0.01935058475405156,0.6807624416487056
9.0,-2.0445105370559085,-1.3704418102507145,0.4725789254978009,0.1164677935359019,-0.10579328291461831,0.2038711770452148,-0.03504980460719816,-0.04224666995925614,0.9984917943495735,-1.8017493009906689,-1.9654663952543594,4.148817539215088,0.5514881569435497,1.351406969663516,-0.04252033836233562,2.0,0.4916304687369948,0.4934769527965109,0.33199754323313907,-0.5332128891745308,0.501855037257674,-0.019350990607537744,0.6807724109860471
9.1,-2.365660725272224,-1.6940192700645411,0.3466096396445862,0.16834619241777632,-0.14204179942219672,0.20228792131526743,-0.03361538522932384,-0.04063077256323688,0.9986076085673895,-1.8017622933520396,-1.965479556403672,4.148840758113989,0.5514897052131236,1.3514086469555544,-0.04252368608583623,2.0,0.4916302325688354,0.49347164281889616,0.3320158731635036,-0.5331975496237654,0.5018471836330136,-0.019351642639860844,0.6807901962293257
9.200000000000001,0.9504816349695586,0.9636888535096428,0.4367864446327937,0.03399547337811032,0.052878885667036274,0.2282010949005856,-0.03307171684741534,-0.039989330183369025,0.9986526488717127,-1.8017758455027666,-1.9654623470702113,4.148838476645427,0.551428603934743,1.351437488873688,-0.042518050849182906,2.0,0.4916234505891878,0.4934722021358748,0.3320277305469343,-0.533188837732107,0.5018383331080537,-0.01934601941862207,0.6808037031875409
9.3,-0.22408840357734894,0.15077906773126776,0.5583751878021898,0.05438221863562704,0.039488720453876455,0.24135894196178145,-0.033006014594197254,-0.039878972803698086,0.9986591923574026,-1.801789236220782,-1.9655443392955925,4.148828056371943,0.5514117409335165,1.3513903617858887,-0.04253701078689155,2.0,0.49164255749669555,0.49346678690642554,0.33200408242108836,-0.5332016120115094,0.5018602512969229,-0.019372112490560582,0.680776799233178
9.4,-0.4470685991029395,-0.030693710839856947,1.038049359613367,0.04853346074425155,0.01387180994485657,0.23217549734370263,-0.03247441986595036,-0.03932760948834259,0.9986983974457366,-1.8017593392427618,-1.965530771956468,4.14882230924793,0.5514052127804232,1.3513849279354735,-0.0425312661187785,2.0,0.4916359810256115,0.4934789328190822,0.3320004801577617,-0.5332257060127379,0.5018594126846343,-0.019361775889304694,0.6807588398114738
9.5,-0.41315148310104466,0.8708337342749158,1.5266390825537055,-0.009407859993438288,0.01873364879581037,0.2355365064729485,-0.0327525982692581,-0.03966938850631634,0.9986754978908978,-1.8017568588256836,-1.9654915611382575,4.148841381072998,0.5514343698683514,1.3514140487668174,-0.04249222959439746,2.0,0.4916306772208428,0.4934738682392001,0.33200263249525025,-0.5332162571710652,0.5018502446707793,-0.019355612049728337,0.6807731746290684
9.600000000000001,-0.20055655272005266,1.2456908936421285,2.027654999631529,-0.016479206946366176,0.027984138548045212,0.235183005808909,-0.03346184356630881,-0.040486967620771135,0.9986195740726532,-1.8017696001365937,-1.9655212703207938,4.148809867032887,0.5514492356233492,1.351426601409912,-0.04258024654446252,2.0,0.4916284541302786,0.4934890655947654,0.33197122628459746,-0.5332355173635088,0.501852499061062,-0.01935586616351489,0.6807564194727054
9.700000000000001,0.13503250541301318,1.4121239598211741,2.291435105346505,-0.034712728375610076,0.03416822054003595,0.23204118444857078,-0.032993266579500545,-0.04000908392353855,0.9986543502916131,-1.8017568588256836,-1.965543364470951,4.148850834154152,0.5514385242636832,1.3513913691781114,-0.04251317189455263,2.0,0.49161910804135256,0.49349981993240766,0.33199252150309055,-0.5332345875363504,0.5018413703063748,-0.01933162228598463,0.6807660406363926
9.8,0.15135142097222884,1.8041102725109668,2.8871382409458124,-0.08033726063758484,0.05733228458229652,0.23200741241360606,-0.0330936336628177,-0.04011492773677931,0.9986467377126169,-1.8017660140991212,-1.9655260048308314,4.148864078521728,0.5514580446430664,1.3514175415039062,-0.04252254167665655,2.0,0.49161655604585675,0.4935047190311354,0.33197882903773135,-0.5332396324894492,0.501840310908463,-0.019335577977144462,0.6807627575845377
9.9,0.7588087490103937,1.8516791115801372,3.085768934231787,-0.13330097929312273,0.08148306830665965,0.2322415936821301,-0.03362280836278033,-0.040666346780434154,0.9986068486974023,-1.8017816543579102,-1.9655353527473949,4.148817539215088,0.5514594656932141,1.3514235514803754,-0.04256779344298297,2.0,0.49162088947544275,0.4934856386102701,0.3319848562768494,-0.5332198946869297,0.5018597039861651,-0.01934116659264703,0.6807637627692988
10.0,0.672322255797641,2.754950928249043,3.179452210490944,-0.1588736878079974,0.09925767685094566,0.23338015769452394,-0.03435659093236288,-0.041509636438537084,0.9985469315520992,-1.8017672272526442,-1.965532108512691,4.148853778839111,0.5514275954768157,1.3514344276004708,-0.042553157985264205,2.0,0.49162368285752106,0.4934962303085222,0.3319495241857419,-0.5332514304028132,0.5018646518597836,-0.0193462329740475,0.6807352689972264
10.100000000000001,0.7750261566556039,2.833937226912393,3.40590643391254,-0.18668811423640486,0.10498472412664776,0.230793674790223,-0.03448388461920614,-0.04167959188689151,0.9985356900718744,-1.8017986003201367,-1.9655060144709438,4.148838409962314,0.5514588838513019,1.351418128428799,-0.0425222599527081,2.0,0.4916384012982445,0.49348071717222464,0.3319574548925181,-0.5332413047814408,0.5018694654208641,-0.019350954409629494,0.6807395178161756
10.200000000000001,0.7575923759066305,3.0514267039842213,3.4171241062850006,-0.20534971730319235,0.1066634120657584,0.2285964898787514,-0.03410294906046324,-0.041279195558413986,0.9985654562794933,-1.8017718988661187,-1.9655343494811,4.148819904970771,0.5514604288288574,1.3514341730344321,-0.04252491627879139,2.0,0.4916113331352507,0.4934983833412158,0.3319573889141214,-0.53325370592269,0.501849676185958,-0.019332449245866946,0.6807449184811613
10.3,0.9079808796058446,2.848234654435572,3.588718990237576,-0.22308546995247258,0.11096646181651688,0.23208998593246669,-0.033481689037985894,-0.040470654119403995,0.9986195595003927,-1.801780258841331,-1.96551864072143,4.148841381072998,0.5514480310627441,1.3513954454534272,-0.042534788015125974,2.0,0.4916298594008211,0.49348244921064427,0.33196009743924093,-0.5332338308847949,0.5018702810740244,-0.019362834884953294,0.680744433102338
10.4,0.8190589594760117,3.109534588559393,3.5455614925114394,-0.2255457170195425,0.11776238467322192,0.23288456377090266,-0.03438490237073666,-0.0415103821324463,0.9985457577379094,-1.8017683029174805,-1.965521248668767,4.148850191993643,0.5514616559075705,1.351405119318758,-0.04251224199403936,2.0,0.49161503148853913,0.4934875648940157,0.332003738611055,-0.5332151260044083,0.5018537267147805,-0.019336532815025967,0.6807720359131118
10.5,0.8858010817740425,3.1812267778298526,3.5804411317534495,-0.22628373549538458,0.11962639557454585,0.23271115552348876,-0.03446459806085819,-0.04160933145121891,0.9985390907387458,-1.801789583775288,-1.9655275229019398,4.1488447605676315,0.5514604288288574,1.351424979252488,-0.0425441484491126,2.0,0.4916363619602338,0.49348427597064787,0.33195830561119055,-0.5332366688145315,0.501871696960233,-0.019353013679590553,0.6807414455454842
10.600000000000001,0.7901679107246592,2.976296420377212,3.4648413626715064,-0.23061500090936832,0.12086233752959694,0.22935311279865436,-0.03379427393429142,-0.04085145212495231,0.9985935635960765,-1.8018259013147182,-1.9654968683147287,4.148882455636872,0.5514678036394913,1.351452795122977,-0.042553316557913216,2.0,0.4916300050395317,0.49347933687981005,0.33197431245260123,-0.5332224559736254,0.501866995302366,-0.019341468411386623,0.680756372773198
10.700000000000001,0.6095783795653122,2.84285860533645,3.335010613086128,-0.22646121882326184,0.12439032688167219,0.22906023223762584,-0.033668614846738096,-0.04071476271526471,0.9986033822653727,-1.8017568588256836,-1.9655302118157736,4.148851648555973,0.5514624771780289,1.3513996460612614,-0.04254654473614408,2.0,0.4916322917274129,0.4934904433129185,0.3319657212390904,-0.533225842106666,0.5018640335080079,-0.01935000882466713,0.6807556612612164
10.8,0.6628980096752065,2.9276982732738595,3.4785326955677625,-0.22326583344048653,0.12186706303411733,0.23025839438035364,-0.03368733705392147,-0.04073015216301435,0.9986021116751201,-1.8017502863811965,-1.9655533196917003,4.148840114444697,0.5514492976910447,1.3514003237283472,-0.04253364802829466,2.0,0.4916197795052587,0.49349688283262,0.331995766802615,-0.5332167297354065,0.5018500665031927,-0.019339590461265,0.6807733911675826
10.9,0.8095622190060489,3.0502597678394703,3.419665578582092,-0.216015775102925,0.1164093968143754,0.2312271335050994,-0.03384873639826161,-0.040895825454947445,0.9985898827137816,-1.8017487552602771,-1.9655213296947796,4.148827928403814,0.5514615716405172,1.351427744221572,-0.04252038951374039,2.0,0.49162625152547745,0.49347591230608595,0.33197420451580284,-0.533221767375185,0.5018629475770715,-0.01934614839603984,0.6807597631975443
11.0,0.7553159148651591,2.6676525780314484,3.419193297398044,-0.2223380096605529,0.11693815125899548,0.22902107590931048,-0.03403799979442863,-0.041097325248931726,0.9985751839494538,-1.8017739079414157,-1.9654861889281214,4.148852321532888,0.5514618861350805,1.351426601409912,-0.042544725431778736,2.0,0.4916294246893334,0.4934524034853977,0.3319774186725156,-0.5332129895900488,0.5018574486258074,-0.019364167819425574,0.6807701800137098
11.100000000000001,0.5853194462108926,3.0814884024583047,3.4118719691698955,-0.21062443435734834,0.11803124033025775,0.22621087150245128,-0.03369617525978525,-0.040716324545094634,0.9986019170840742,-1.8018025805194153,-1.9654883144520507,4.148835196376832,0.5514583033049281,1.351426601409912,-0.04252777363185418,2.0,0.4916324881849654,0.4934732609689418,0.3319846146955116,-0.5332181801456457,0.5018566610444614,-0.019354930634120505,0.6807669577672073
11.200000000000001,0.6745787421272949,2.8698639202078984,3.4465024289260437,-0.21687094951604838,0.11973774227556798,0.22932294681215662,-0.032769249532356645,-0.039687983166379476,0.9986746106327057,-1.801780453318267,-1.9655094352663656,4.148850518874366,0.5514799812594707,1.3514038748030992,-0.042520469015363674,2.0,0.49162164004404413,0.4934837203733383,0.3319665890237842,-0.5332251142111999,0.5018724610090151,-0.01934416076753647,0.6807501846488238
11.3,0.9693790399814248,2.9683083346050765,3.5029869203882287,-0.21403964437046305,0.11222167136719591,0.2324770983434091,-0.03385976110844382,-0.040936924825677574,0.9985870673578336,-1.8017816543579102,-1.9654861889281214,4.1488855532161315,0.5514604288288574,1.351435392695969,-0.042527292565892584,2.0,0.4916104627043986,0.49349464752635513,0.33198577420110037,-0.533228101923328,0.5018497833447684,-0.0193410827739855,0.6807646500760627
11.4,0.6627021847855612,2.8481739679101983,3.292057272302073,-0.21189894850649668,0.11891523715496237,0.22688738817129425,-0.03393483618649214,-0.04103591305064425,0.9985808690540505,-1.8017502159034873,-1.9654886375246177,4.148841381072998,0.5514604288288574,1.3514051601368022,-0.042538484436749825,2.0,0.49161438818257713,0.49348559245964213,0.33198316834654584,-0.5332326105271136,0.5018479356976712,-0.019355949442731068,0.6807620580846117
11.5,0.4434931610239521,2.7273164284854103,3.544806368663306,-0.21746700653008083,0.12311164847752341,0.22231172094629628,-0.03327101685316459,-0.04028113621796777,0.9986342884346531,-1.8018111076566086,-1.9654861889281214,4.148830251840825,0.5514728265949707,1.3513928988537687,-0.04254752794374639,2.0,0.49161872442248,0.49349027240299126,0.331947835692619,-0.5332509526774938,0.5018559238853969,-0.019349372773484606,0.6807419884970756
11.600000000000001,0.6351253593224382,2.723620106482529,3.5068278661714305,-0.21323128072720626,0.11771193877883401,0.2265745724733022,-0.03315326158984823,-0.04012461142570515,0.9986445042275643,-1.8017604750261484,-1.9655009657734879,4.148887827667607,0.5514278054052987,1.3514139201969035,-0.042514621073292486,2.0,0.4916204864050665,0.49348047417971713,0.33200304466042097,-0.5332147457211704,0.5018481524005483,-0.019350158557922548,0.6807760558667197
11.700000000000001,0.6650070817479121,2.67625090983946,3.3374346180343526,-0.21393210341826058,0.11423072017124423,0.2273951591728519,-0.03305594614633444,-0.04000539700459404,0.9986525271335618,-1.801793098449707,-1.9654742679991664,4.148853778839111,0.5514499587667508,1.3514021000743155,-0.04250111245424632,2.0,0.4916285415752489,0.4934776573529628,0.3320150088094591,-0.533202075542617,0.5018592249741747,-0.01934674955489227,0.6807779140270537
11.8,0.5470438338200989,3.1380115680106733,3.515647499592426,-0.20117172025046462,0.12019482460995,0.22405286776706446,-0.032955398098570655,-0.03990722583197775,0.9986597670864551,-1.801793098449707,-1.9655029235201404,4.148823321649629,0.551481379469497,1.3514056507692724,-0.04253319263467903,2.0,0.49162395203608694,0.4934775002702016,0.33198676497847074,-0.5332178453581298,0.5018570164354096,-0.019344808018094548,0.6807672457227405
11.9,0.5627465883493069,2.7591379006944043,3.441212300855023,-0.21262874184910074,0.1230708716162829,0.22942960625754685,-0.03281817650841433,-0.03977694462514373,0.9986694810110189,-1.8017724179956303,-1.965472914355038,4.148841381072998,0.5514521461408939,1.3514110422399654,-0.0425250938757296,2.2481281132694897,0.49161124416020396,0.49350011896715185,0.3319526604158591,-0.5332437505559613,0.5018597919579001,-0.01933692293980225,0.68074513227801
12.0,0.8282234404550954,2.926118975482419,3.2115837035975483,-0.2154318015787287,0.12770238987941968,0.2292959745012655,-0.0328060850059649,-0.03976267104166804,0.9986704510423654,-1.801848014224012,-1.9654427172456133,4.148824208267832,0.5514604288288574,1.3514128758000712,-0.0425576441918156,3.0,0.49161607527348145,0.49349327960538353,0.33195706650941414,-0.5332463923340581,0.5018570928550897,-0.019352535482407847,0.6807446090746162
12.100000000000001,0.8431949176114596,2.765351091168756,3.714105432714796,-0.2197638198311821,0.11945683528282916,0.22545974427179877,-0.0329635647619759,-0.039905606320140515,0.9986595717015594,-1.8025963267862628,-1.9648586163530886,4.148878574371338,0.5516513907228846,1.3512926688089923,-0.04252511283161301,3.0,0.4916153378054365,0.4934735797356264,0.33198891570093025,-0.5332143491643933,0.5018695998752097,-0.01933910804643952,0.6807608695175257
12.200000000000001,0.9434965856852637,2.817893746358268,3.5913423969356058,-0.21710085690622066,0.12843500513598557,0.22231451360011314,-0.03320114945212752,-0.04016095855107244,0.998641371667813,-1.8039372848100963,-1.963784064708301,4.149081129422363,0.5521069363216271,1.351102811932035,-0.0425297175813855,3.0,0.4914200335957588,0.4931993973662801,0.3320674348806773,-0.5331915863402716,0.501861692359944,-0.01937653172622131,0.6807834633830498
12.3,0.93513306838457,2.8575647120974046,3.7048462761791385,-0.21812566060831678,0.13527094694237687,0.21778870391792754,-0.033446681953568286,-0.040427464510965426,0.9986224452932161,-1.8055011799963416,-1.9626091100581287,4.149355003022034,0.5525479197055377,1.3508169545415163,-0.04249806136939935,3.0,0.4912047612447315,0.4930060118772885,0.3321353397658596,-0.5331849317919912,0.5018206700299344,-0.019348064915340153,0.6808197235867282
12.4,0.960036419809107,2.7127220141877997,3.608423615845455,-0.21866603394508718,0.12632537509156969,0.22195316599102596,-0.033550939751490275,-0.0405400189902025,0.9986144496738241,-1.807067918111259,-1.9617575033562695,4.149597054772509,0.5529132384536617,1.3506369574456032,-0.042498709548313064,3.0,0.490859379255798,0.492650984709725,0.3322252526454565,-0.5331358387110843,0.5018163065643927,-0.019354353582189857,0.680861205346079
12.5,0.7489668241654717,2.6775236641810864,3.4172970379200502,-0.20773493081459846,0.13535384422553687,0.20704312638163205,-0.03344165161020639,-0.04041986575383334,0.9986229766046717,-1.8085286227361577,-1.9607606673063018,4.1498411091669185,0.5533572870441894,1.3504041238375613,-0.04246523920456718,3.0,0.4903443192324295,0.4921526732343366,0.33208612281278993,-0.533229818128291,0.5018789183072426,-0.019375912711436277,0.6807408364599707
12.600000000000001,0.7607181736639953,2.5221393271083636,3.5288195859134386,-0.21484399769670884,0.14084650058544734,0.1823634308750016,-0.033332363468922495,-0.04029971251746418,0.9986315035355193,-1.8100117947168806,-1.9597344357519666,4.150093311103247,0.5537884965997915,1.350143936045336,-0.04239248148503717,3.0,0.49012902286718657,0.49196435199366956,0.33209945743120944,-0.5332467266575606,0.5018637603530605,-0.019376299847760195,0.6807387557334253
12.700000000000001,0.7832312791957805,3.0572245264773996,3.602290841372611,-0.21384233106655368,0.145565126981468,0.18347714856237338,-0.032975832496910086,-0.039884730407005714,0.9986598270720243,-1.8114959285298333,-1.958641766071806,4.150293827056885,0.5542103856164671,1.3499022094538955,-0.042382045907343444,3.0,0.48966811317522213,0.4915288440673712,0.332129507777431,-0.5332322160758689,0.5018966050298916,-0.01934086473396124,0.6807269148121214
12.8,0.8951541123675318,2.710206204350785,3.732174260164349,-0.23252496608436082,0.14172281018034474,0.18648882672907896,-0.03258930989117037,-0.03943398426821177,0.998690552023139,-1.812991766109444,-1.9574896319797503,4.150517863729529,0.5546323452158339,1.3497086317259221,-0.04242543733597091,3.0,0.48948100409208356,0.4913282948166396,0.3321234756412983,-0.533258964494906,0.5018972481319935,-0.019370504598653512,0.6807046442143218
12.9,0.749652383429687,2.9252399559100413,3.939594958008246,-0.22617210443278826,0.14822566243913043,0.19013072321014376,-0.03301997348421438,-0.03988853218985662,0.9986582204899191,-1.814416189047353,-1.9564029806390932,4.150741671164737,0.5550829260631793,1.3494701385498047,-0.04241910030539188,3.0,0.489074179634349,0.4908859468334431,0.33223247577530163,-0.5332093025757568,0.5018922681279743,-0.019365606747942483,0.680747357038804
13.0,0.7769174898076614,2.765642464190656,3.7263724226502006,-0.2229361179428119,0.1454818068004145,0.1841354629339368,-0.03327081875538108,-0.04014704033299313,0.998639681250491,-1.8159293397527776,-1.9554378844524227,4.150941580193953,0.5554653475760958,1.3492438975904921,-0.04241350015778166,3.0,0.4885961854182093,0.4903872386408793,0.33234172447101357,-0.53317672974494,0.5018665365199676,-0.019365089747369092,0.6807918534170483
13.100000000000001,0.8367285575109781,2.641919890755413,3.69630761631923,-0.22441557269048226,0.15225473735491055,0.18382333237038848,-0.033037690166098234,-0.03987468871876187,0.9986583480147023,-1.817434382533687,-1.9544487899230119,4.151189975286395,0.555906971139402,1.3490363028306043,-0.042370365034323655,3.0,0.48838236911898564,0.49016060459755756,0.332305727394427,-0.5332047898423472,0.5018817971500361,-0.0193793900495689,0.6807582192085051
13.200000000000001,0.9770480382218636,2.6181856596288466,3.8575476109383544,-0.22633742534647683,0.15318544316643198,0.17584561676406604,-0.033302399434513644,-0.040187648316730155,0.9986370049154686,-1.8186933651521213,-1.953387040581461,4.151443958282471,0.5562723594490566,1.3488588333129883,-0.04234439531435186,3.0,0.4880220538258548,0.48981618760305445,0.33230063861663267,-0.5332405842201834,0.5018794993623206,-0.019398045832638534,0.6807313444217321
13.3,0.7167923458332696,2.640663621372286,3.9895249501919183,-0.22352009375423426,0.16260663545460494,0.1666730727268715,-0.03355876015293176,-0.040524384380065635,0.9986147512047193,-1.8202514007730843,-1.9522530839711982,4.151628383293041,0.5566436487385253,1.3486032086674264,-0.0422996125502457,3.0,0.48752417507196616,0.48938431524003,0.33243258161119654,-0.5332195941375044,0.5018360710118016,-0.01933717969599177,0.6807815330490966
13.4,0.921729377931712,2.5808223114462887,3.867065168948386,-0.21548571750167395,0.15452198221358304,0.15657466996019567,-0.033800321358673384,-0.04084943308374859,0.9985934179353378,-1.821884908858047,-1.9512750111021937,4.151870350746758,0.5570864627989133,1.3483952475503616,-0.042280449112725965,3.0,0.4873314818847255,0.48916344357501007,0.3324748735205342,-0.5332028927668566,0.5018388808771805,-0.019352559168497787,0.6807921057405301
13.5,0.7999698952046596,2.5803301381767962,4.035369634934289,-0.21979851095173686,0.1618102716545666,0.15428633852741214,-0.03358615797462679,-0.040671391758216414,0.9986078887538489,-1.8232618209743765,-1.9502479293145523,4.152115345001221,0.5574203078672201,1.3481988906860352,-0.042289107655128284,3.0,0.4869794100296758,0.4888134719382295,0.33240197779646286,-0.5332519430363644,0.5018869901094241,-0.019331336765811703,0.680718821412844
13.600000000000001,0.9289770377879146,2.550229877802068,4.061138264997362,-0.22931308082921625,0.16741822264259512,0.15669320067378983,-0.03331274477534178,-0.04040519145029999,0.9986278865528149,-1.8245796626673494,-1.9490961445380144,4.15234497653921,0.5579127243043778,1.3479526918015474,-0.04225063979355024,3.0,0.4864224261167041,0.48830317941634127,0.33250818083908007,-0.5332435191555789,0.5018452629039729,-0.019320833886439095,0.6807564812452018
13.700000000000001,0.9763610177566782,2.540504397744871,4.251391153766938,-0.2241056885932219,0.16386219611076192,0.15055536319953866,-0.0330942145458767,-0.04011512799943158,0.9986468255426882,-1.8261672018492057,-1.9479704134538585,4.15253850227133,0.5583221155354003,1.3476929560005817,-0.042256710117936296,3.0,0.48625284624215964,0.4881183739657349,0.3325779063272183,-0.5332119289491418,0.501819155552204,-0.019331369657941553,0.6808001704570559
13.8,1.0991013153372513,2.191691723604465,4.143258812505048,-0.22720175448961744,0.16326257098473476,0.1483609043138216,-0.03288272536191977,-0.039751668916248276,0.9986683569938907,-1.827805519104004,-1.946933575347907,4.1527701696750405,0.5587239584390208,1.3474653403459431,-0.04223831870442443,3.0,0.48592318458121775,0.48769931106221653,0.33262305646653906,-0.5331863205867962,0.501848813483103,-0.0193631303748497,0.6807974626324651
13.9,1.0026184075906852,2.489806225360859,3.9764806750043307,-0.21614316130568487,0.17094414294850677,0.13670487188411815,-0.032097934851944815,-0.03887625260061948,0.9987278532636091,-1.8290784561953588,-1.9460085285781574,4.153030654223923,0.5591410807252253,1.3472201337779424,-0.04222423235048467,3.0,0.48538637241583377,0.4871643250344858,0.3325349206150712,-0.5332604669464294,0.5018925671293677,-0.019385717403520738,0.6807064855083432
14.0,1.0744805000188298,2.2615883430761223,4.240391088745404,-0.2291727849416639,0.16773533902654486,0.12897798296876384,-0.03187407115829518,-0.03865257934258902,0.9987434534332263,-1.8304529190063477,-1.9449690938184008,4.153229236602783,0.5594970422932128,1.3469903015419358,-0.04217079693699652,3.0,0.48518969127933387,0.48700680325250356,0.3325847514990247,-0.5332501222210824,0.501878810168832,-0.019361891334948634,0.6807254102930577
14.100000000000001,0.8946736329565025,2.5453616585351875,4.193888375512672,-0.21971123262520614,0.17257395623878036,0.12204124473440159,-0.033228088967090216,-0.04018115973805482,0.9986392036660809,-1.8320062921511875,-1.9438174044958436,4.153447407486981,0.5598558443704412,1.34675931930542,-0.04214727359538848,3.0,0.48489380918258945,0.48670233250238865,0.3326340137135316,-0.5332410912121783,0.5018709583024694,-0.01936501639754482,0.6807381846167656
14.200000000000001,1.0119384945758343,2.7068211418551615,4.33956122803964,-0.21572861898616594,0.17423426868802394,0.12438654489885467,-0.03402822296860694,-0.04104001057085787,0.9985776294948409,-1.8335721515058034,-1.9426227100951872,4.153714893019343,0.5603099633346785,1.3464886461395815,-0.04218353085201645,3.0,0.4843337230559805,0.48611606069873103,0.332723325356665,-0.5332180048285303,0.5018862833113531,-0.019367404734181342,0.6807449019893278
14.3,1.0043390659698905,2.527707554050265,4.167590095291469,-0.21714219057470951,0.17652077657796023,0.11187086285642742,-0.03439724894533786,-0.04141905050052066,0.9985495472263901,-1.8349260421700908,-1.9415879665783478,4.153943904018368,0.5606330637139516,1.3462662225632926,-0.042120563377255615,3.0,0.48412620606179246,0.4859027957083922,0.33275687254688613,-0.533222635745685,0.5018842816512165,-0.019385822377869903,0.6807422261404096
14.4,1.0675296372736025,2.5793992542022695,4.390860877690359,-0.2047896819344567,0.17478399554681082,0.10698431167709825,-0.034053188628856056,-0.041037896305887944,0.9985770857758133,-1.836338838924019,-1.9407027087288196,4.154233401928194,0.5610144960938033,1.3460159301757812,-0.04212491912327285,3.0,0.48364842695893373,0.485428544551942,0.332863615053897,-0.5332014516603011,0.5018744882022717,-0.01936767653635996,0.6807665555420878
14.5,0.7088207216725138,2.424854422056917,4.39013930518967,-0.19690231045588327,0.17936909784443775,0.10279207991430325,-0.033352331585357886,-0.040280996852946914,0.9986311985987565,-1.837858156846928,-1.939769095792942,4.154446746071858,0.5614591292162456,1.3457970840324722,-0.04210182840671015,3.0,0.48347590167410237,0.4852735147365297,0.33282385048955027,-0.5332149358257934,0.5018886214216619,-0.01937932389305075,0.68074524288107
14.600000000000001,0.9903131905324175,2.3549436480864028,4.459369915430707,-0.21567785549498578,0.18228510494805317,0.09988318525669494,-0.032782985803747215,-0.0396596989363331,0.998675313851221,-1.8393468495925023,-1.9384955751879616,4.154702484927893,0.5618820032648066,1.345569908939123,-0.04208270998352998,3.0,0.48300255100764633,0.4848322702425616,0.33274416114524435,-0.5332909379207875,0.5018953834021229,-0.019379783226566322,0.6806807060974289
14.700000000000001,0.8732160566600096,2.3673203848180058,4.334092466902468,-0.21819796366742736,0.1906030552148623,0.09511245522525952,-0.03284364710511709,-0.039694023759886524,0.9986719570734373,-1.8407514593224186,-1.9372785656016724,4.1549463132043085,0.562209140941311,1.3453276887856673,-0.04207244227205968,3.0,0.482803691447038,0.48461169962462836,0.33279298980907357,-0.5332690259894243,0.501903406612305,-0.019384807345617615,0.6806918139624033
14.8,1.0340633584844274,2.530367805683766,4.590178775096381,-0.21589797487621948,0.1806454891494261,0.09087540401841306,-0.032680828564464394,-0.039585245237256164,0.9986816093727404,-1.8421525797350653,-1.936207713265364,4.155177322256154,0.5625430780598144,1.3451111806672196,-0.04203030761104162,3.0,0.4823512933419554,0.4841802890143923,0.33299721671593674,-0.5332121800688073,0.5018530827313343,-0.01935098229113242,0.6807744074682116
14.9,0.82092958894302,2.3787427907568497,4.54301795803145,-0.19782366767377055,0.18351003230007418,0.07341999313286554,-0.03354930479580263,-0.04062320165564569,0.9986101069822677,-1.8435799487738804,-1.9352897815286991,4.155419465229863,0.5628812983641409,1.3449125289916992,-0.04201922541190431,3.0,0.4818967412069303,0.48372521512179384,0.33311029741875653,-0.5332136676529975,0.5018161574339906,-0.019336982587350143,0.680800859187648
15.0,1.3913259923368546,2.4006761979273317,4.0878764175121205,-0.2115498800785471,0.17227631063482235,0.07934365646301775,-0.03449127828427479,-0.04171503804751029,0.9985340291207455,-1.844094902141105,-1.9349527781387654,4.1555099637210295,0.5630916046580332,1.3447969255614458,-0.04202966779937679,3.0,0.48154783044631677,0.483409082998524,0.33304520701184137,-0.5332625427271397,0.5018597728979735,-0.019335734049307173,0.6807304593300894
15.100000000000001,1.1698085928693966,2.3180315183767344,3.900559263644059,-0.22281421134561483,0.17549367757525788,0.08016065436101888,-0.03449635395663248,-0.04171186924759559,0.9985339861594763,-1.8441383731190206,-1.9349638894376593,4.155506610870361,0.5631037940045268,1.3447713546730529,-0.042001011520809366,3.0,0.48142861102532697,0.4832868010590147,0.33304788128479257,-0.533244157998664,0.5018555640580854,-0.019328458115455964,0.6807481703913097
15.200000000000001,0.9723024436668846,2.4288184027369533,4.283501198744095,-0.21519326430241958,0.1744461500178975,0.0865657480406308,-0.03414519299055725,-0.04128696011726083,0.9985635513134518,-1.84414131021824,-1.9348462266539204,4.155525575689718,0.5631214160730288,1.3447840424621997,-0.04202363578113793,3.0,0.4814405980365912,0.4832983112461778,0.33306837999918304,-0.5332209688845281,0.501850197824118,-0.019331835551247973,0.6807701942799482
15.3,0.7793440206838114,2.405824225164589,4.330072012497267,-0.20866601634786183,0.1738747915266835,0.08279685455260177,-0.033690893560074195,-0.040760610169455924,0.9986007492040797,-1.8441989304337558,-1.9348138323599564,4.155518054962158,0.563103963642497,1.3447937965393066,-0.042038086717473014,3.0,0.48142827942715316,0.48327600729368586,0.33308566185071864,-0.5332208288820419,0.5018531153580421,-0.019350169954168873,0.680767632290579
15.4,1.0613944151686026,2.5273369272866284,4.160517400636864,-0.21065946965189705,0.16531060513419119,0.09251550059156502,-0.03338745537050332,-0.04046265740916611,0.9986230708661358,-1.8441972221329215,-1.9347793064513148,4.155513016631296,0.5630916245008754,1.3447608716066397,-0.04203831219628708,3.0,0.4813959437657509,0.4832570924329625,0.3330763142590194,-0.533233753236917,0.5018509461489977,-0.019318015018093892,0.6807600212659285
15.5,0.8784642026452857,2.5577061179202154,4.200631897893786,-0.20723593666098747,0.1728642981551245,0.09312493243836895,-0.03325834251670107,-0.04028114184539565,0.9986347151294259,-1.844226272068873,-1.9348186246875179,4.155493201819281,0.5630933481403808,1.344753130535213,-0.042036936165949466,3.0,0.4814089894343297,0.48323773907688566,0.33311631154757476,-0.5332051723952644,0.5018624412588294,-0.019318426706635385,0.6807739217789154
15.600000000000001,0.8649927622737006,2.3068240629917938,4.28669781813875,-0.21264485625856558,0.17026179319950802,0.09221357859024445,-0.03335158237333429,-0.040365684974501145,0.9986281795667822,-1.8441990804021586,-1.9347728144017091,4.155481815338135,0.563082807622466,1.3447663830502457,-0.042010964607710484,3.0,0.48141785282258104,0.48324434486607515,0.3331109099234004,-0.5332160971088706,0.5018558575037725,-0.019338421417978202,0.6807696508586422
15.700000000000001,0.9880729680108598,2.2723107615106555,4.214842663157563,-0.20987910425341028,0.1642444571370994,0.09052778179241598,-0.03358410505929811,-0.04062083130497391,0.998610008426257,-1.8442011895320645,-1.934789311713723,4.155508449910246,0.5630791113343825,1.3447517831964653,-0.042049199841767686,3.0,0.48141358335912854,0.48324816969435774,0.33307330917074107,-0.5332379460336564,0.5018627920449426,-0.019357236784096475,0.6807468900074
15.8,0.7896708864902707,2.7761442110215633,4.395275649753497,-0.20230597131575426,0.1682184969535846,0.09152521193052791,-0.03400304768264451,-0.04111562671823232,0.9985755535780394,-1.8442120652031024,-1.9347930408027634,4.155512754188716,0.5630809503742675,1.3447903091883575,-0.04202994038923538,3.0,0.4814094634545042,0.48323564089858917,0.3330993118613338,-0.533226077893581,0.5018494400315462,-0.019346427818146612,0.6807663366566603
15.9,0.9403310065290936,2.207199502957217,4.2891419293350905,-0.21549862791293167,0.1652579962979103,0.0996252454451638,-0.03335908421186076,-0.04041672308133226,0.9986255536667379,-1.8442144801421607,-1.934793170981474,4.155512373666331,0.5631038023052899,1.3447758669851506,-0.04200730994482335,3.25615516138468,0.48140064752239514,0.483248395954914,0.33312526483472826,-0.5332167073516665,0.5018330843939539,-0.01933313840936107,0.6807861104399403
16.0,0.9505152484695354,2.47115352877488,4.40925328269795,-0.2124160448606176,0.16556370336810988,0.09395500525241489,-0.03326917322532606,-0.04030886233924244,0.9986331267722116,-1.8442184529833667,-1.934789447740039,4.1554931735815055,0.5631320624694376,1.3447955049939282,-0.042031646661363324,4.0,0.48140141060947417,0.48324962160259266,0.33311203685558727,-0.5332312728167232,0.5018415887816262,-0.019336709321475857,0.6807683314696765
16.1,1.0056158425867698,2.2858162294155835,4.366516472842744,-0.21718707820408478,0.16521410608085466,0.09805943071519628,-0.03372153112378161,-0.04079311001649527,0.9985983705188199,-1.8442398915463563,-1.9348036251463832,4.155501545446502,0.563117189998291,1.344780816204854,-0.041991827101451176,4.0,0.4814098458440658,0.48323653311612363,0.333103254560126,-0.5332283606894535,0.5018512549283953,-0.019347569215648026,0.6807631782409198
16.2,0.9154318487195148,2.5803557963255677,4.527770503939501,-0.2077617029715121,0.16585318930478526,0.09925851545588528,-0.034165713491101896,-0.04126846031854521,0.9985637772507291,-1.8442316055297852,-1.9348100391207748,4.155519938920298,0.5630914641822407,1.3447594408734234,-0.04206516044048715,4.0,0.48141167203044066,0.4832383889426446,0.33310184016897787,-0.533223984468509,0.5018512130150804,-0.019357809986562616,0.6807663458010712
16.3,1.0469122267791813,2.5498331596473487,4.433553607333227,-0.2030301355287122,0.16250609019158066,0.10036805377785266,-0.03420253822695813,-0.04132795594026334,0.9985600554778786,-1.844243049621582,-1.9347608843013013,4.155508345176888,0.5630983751037546,1.3447813987731934,-0.04201098536143396,4.0,0.4814151965330611,0.4832330934174057,0.3330970202865519,-0.5332210700063086,0.5018588766855366,-0.01933848197692428,0.680763528332774
16.400000000000002,1.0317522592339992,1.833653579148141,3.790253835638949,-0.17422522313148014,0.1657497419725864,0.10035878134541747,-0.0341380643571467,-0.041264563992176886,0.9985648752458044,-1.8442127554565142,-1.9347993346541652,4.155476764921016,0.5630789313191061,1.3447916092295484,-0.042018996538630324,4.0,0.481417100778594,0.483246038616555,0.3330839826406107,-0.5332360202138111,0.5018622928710966,-0.019341350326732468,0.6807492180739104
16.5,0.525170698292382,0.6000041834793943,2.447732205256563,-0.07881191483746655,0.14957430160604418,0.1000903452558074,-0.03393536005614555,-0.04103123507881028,0.9985812840537315,-1.8441839218139648,-1.9347317215618485,4.155481752089268,0.563117255882527,1.3447699863058298,-0.041997323747416,4.0,0.4814102858158181,0.48323509315383384,0.3330809259250688,-0.5332460829648626,0.5018514043767174,-0.019355132760411498,0.6807489711806946
16.6,0.16297531467108695,-0.34651533005088525,2.1328948551183644,0.02279805738905858,0.10988340036089665,0.10319951974539365,-0.033183631110831634,-0.04011654381986352,0.9986435323842389,-1.8442217428966234,-1.9347489760189562,4.155473485762073,0.5631345432817527,1.3447684216242966,-0.0420005021504042,4.0,0.48141634786228343,0.48321984716339006,0.33313295679990146,-0.5331866011416779,0.5018586156792987,-0.019350257751733584,0.6807903831256615
16.7,-0.06295778551971226,0.07090232061157598,1.2629903632937385,0.01390120968044655,0.09268399440971681,0.09671971291001893,-0.03301134815011141,-0.03989235721505136,0.9986585048625417,-1.844223568447205,-1.9347494367814695,4.155492916395442,0.5631069025325883,1.344755628015464,-0.042023189362560984,4.0,0.48142454197468304,0.4832051507108916,0.33312125833827966,-0.5331803791676666,0.5018735408379968,-0.019355853369318887,0.6807840944217923
16.8,-0.09728828332991107,0.03179246465351091,0.6235510191817414,-0.010856130257834825,0.08001948649050378,0.10130308184493396,-0.03303198457902221,-0.03991958671182479,0.9986565731539344,-1.8442087173461914,-1.9347493371043394,4.155506610870361,0.5630693634944878,1.3447815415611764,-0.042032931700432534,4.0,0.48142464205354557,0.48320889824582425,0.33313060429151137,-0.5331916822286297,0.5018527700481294,-0.019370346257932977,0.6807901415877518
16.900000000000002,-0.008242352734163823,0.29176934050454684,0.5070973461696843,-0.013817705629618345,0.0683470665008269,0.09844515953172563,-0.03192035200095548,-0.03874740767018719,0.9987389799003223,-1.8442029816121803,-1.9347673855223597,4.155463737074384,0.5630745166156408,1.3447911911660582,-0.04203590244712505,4.0,0.48140829062143625,0.48323033842926594,0.3331400958360177,-0.5332037946373319,0.5018476388241216,-0.019342348322929907,0.6807852336474102
17.0,-0.1900971785133951,0.45445505254966073,0.5691162858833383,-0.008340208798532815,0.06368572279802032,0.09663240467247773,-0.03268303558845024,-0.03957897182546403,0.9986815033274783,-1.8442061156259895,-1.9347538799338992,4.155481815338135,0.5630706141048177,1.3447949043616538,-0.0420384588965393,4.0,0.4814248707685208,0.48321730004546454,0.3331573117154922,-0.5331852122405636,0.5018548155852537,-0.01934314194495311,0.6807944744058767
17.1,-0.1829750125954389,0.23372216389464057,0.4453494376878406,-0.014422416356118647,0.06351972001265381,0.09379791686190211,-0.0328528340111039,-0.039767032894377184,0.9986686964144551,-1.8442564010620117,-1.9347570176201647,4.155480324432445,0.5630917329925503,1.3448021345775834,-0.04204649460576038,4.0,0.48141700372864343,0.4832243190908221,0.3331478356762767,-0.5332019118605893,0.5018430354807943,-0.019341415822158845,0.6807901281317387
17.2,-0.4157202933509331,0.1736899778569191,0.3448905127014787,-0.0124420840753702,0.07270042340004476,0.09309615364740548,-0.03260622864785981,-0.03950313945795113,0.9986872625506619,-1.844226025716107,-1.9347637145923082,4.155485633105388,0.5630607794464088,1.3447796367267686,-0.042053264996504996,4.0,0.481414797344031,0.4832301061908857,0.33310269808887033,-0.5332321147309754,0.5018586924017088,-0.019364320318186527,0.6807542785609164
17.3,0.07072521616336608,0.28559271257685964,0.5265483513928495,-0.010729567040822376,0.06078737276891772,0.0982023024248038,-0.03252885713954122,-0.03943259614234586,0.9986926153844788,-1.8442171281114121,-1.9347554645934046,4.1554951667785645,0.5630838235230301,1.3447911441974245,-0.04199930720090623,4.0,0.48141032301016917,0.48323148458426035,0.3331088579884066,-0.53323484410041,0.5018435907635078,-0.019361238739829742,0.6807633611478072
17.400000000000002,-0.2820804894155625,0.06351907331182269,0.24187361004482894,-0.013200390680619963,0.06140854146715264,0.09485265706820503,-0.03256565964143474,-0.03948920976442057,0.998689179776482,-1.8442313049868213,-1.9347670724567725,4.155459528240469,0.5630936737285916,1.344793170408132,-0.042045254644587624,4.0,0.4814062760478744,0.48323073538055816,0.33313182208636705,-0.5332156490924364,0.5018425747738049,-0.01934741528670693,0.6807795379041982
17.5,-0.20727784862556578,0.09922517851924678,0.33852822273816036,-0.012218835294723108,0.067245705986916,0.09463369105419975,-0.03248052192414481,-0.03936174820104825,0.9986969797621685,-1.8442427432644235,-1.9347715286337483,4.155495473135723,0.5630758098813575,1.3447699546813965,-0.04200796722340916,4.0,0.48143318876247443,0.48323259450798706,0.3330941620269683,-0.533215441116858,0.5018711210788419,-0.01935482480598023,0.6807584461013694
17.6,-0.20294246242107128,0.41757015624211336,0.43756163359331074,-0.0049250019794000455,0.06019308913504636,0.09035904544116764,-0.032709370845618695,-0.039595825765389864,0.9986801309902431,-1.844218843837024,-1.9347673855223597,4.155496958106257,0.5630897122960093,1.3447813987731934,-0.04199198364920475,4.0,0.48141803696250046,0.4832281385317897,0.3331126916974752,-0.5332088091114839,0.5018637942629552,-0.019334760814539408,0.6807696122170466
