xiamingqian9007/apple-picking-rnn/training_data/grasper_20191127_134139_noimg.csv
,/manipulator_wrench.fx,/manipulator_wrench.fy,/manipulator_wrench.fz,/manipulator_wrench.tx,/manipulator_wrench.ty,/manipulator_wrench.tz,/ground_truth.x,/ground_truth.y,/ground_truth.z,/joint_states.elbow_joint,/joint_states.shoulder_lift_joint,/joint_states.shoulder_pan_joint,/joint_states.wrist_1_joint,/joint_states.wrist_2_joint,/joint_states.wrist_3_joint,/mode./mode,/manipulator_pose.x,/manipulator_pose.y,/manipulator_pose.z,/manipulator_pose.rx,/manipulator_pose.ry,/manipulator_pose.rz,/manipulator_pose.rw
0.30000000000000004,0.5375243159681514,0.03292539180912185,0.33510317051851535,-0.01839531727236046,-0.02086618095350915,0.004269727831318312,0.12454705010972962,-0.31508582165275384,0.9408553747473375,-1.4001731971214557,-1.7652130944220221,4.174359921203263,-3.3953417526509293,-1.3406045551905066,2.0693339786310307,1.0,0.45611781994905276,0.4638915513148314,0.3535093565205745,-0.7779038728060862,0.16792356679414905,-0.32387388800641637,0.5116375133393085
0.4,0.7545346659530312,-0.13226131268243424,-0.0885981287447899,0.0014892146377905105,-0.013738452084806091,0.03795684191400869,0.12459531569781147,-0.31546435125696115,0.9407221282951859,-1.3972885371376427,-1.7683374492959605,4.173548530816758,-3.3950971671101944,-1.3412174569435302,2.069177378598933,1.0,0.4565414140296187,0.46427313787966035,0.35327261390433456,-0.7779337876675836,0.16797495386487524,-0.32387446694898425,0.5115747907567101
0.5,0.26403426534704144,0.08126596054158372,-0.059613351067805284,0.001100892626783704,-0.014731695862294858,0.03395537795120738,0.12452006898968689,-0.31532941090462985,0.9407772399013469,-1.3938618405309555,-1.7718093369001595,4.172908817909521,-3.3947719892718826,-1.3420770454529267,2.068898730950743,1.0,0.45717512615272027,0.4648163903525772,0.3530122198268121,-0.7779379408331045,0.16802559146269858,-0.32390903087129136,0.5115299605555677
0.6000000000000001,0.20199291099922945,0.07835046480751713,-0.27085647123599293,-0.010320833241369076,-0.015357088545548798,0.03944290451424038,0.12430763290348078,-0.31462414171731895,0.9410415673157327,-1.3908331099888849,-1.7753553621759472,4.172111011080483,-3.3944716102815646,-1.3428445323663476,2.0687268534246925,1.0,0.45795029052982583,0.46566437077133505,0.35273396588656253,-0.7779273101761381,0.16797912220716504,-0.3238932288164492,0.5115713937579821
0.7000000000000001,0.2008815513113593,0.09720280629387999,-0.05569694140249487,-0.006538094472821097,-0.011116097611433978,0.03251186735067252,0.12468569169019734,-0.31548924371555864,0.9407015563249178,-1.387488897685637,-1.778921017256725,4.171411310960482,-3.3942327524572797,-1.3434879604720182,2.0684949492598155,1.0,0.45931249604566865,0.4670721433209707,0.35226793173804843,-0.7779016191738635,0.16793116772038796,-0.3238790321235582,0.5116351887287031
0.8,0.30927993433956535,0.09387488774585945,-0.009463664851499326,-0.005452348655435582,-0.007260951353377099,0.03195389947465191,0.12488625370590256,-0.31595217341862036,0.940519879260857,-1.3844298000042785,-1.7819414292725195,4.170842212971633,-3.393974648984733,-1.344043473774294,2.068316064445199,1.0,0.46013858241574257,0.4679224601685437,0.3518257762545201,-0.7779528666265337,0.16794801469480475,-0.32385826640881044,0.5115648785308783
0.9,0.3161226557922327,-0.05109315419203353,-0.14400553842837244,-0.007306739855203176,-0.015710907808813856,0.0354421887873917,0.1248501289603168,-0.3158691271578992,0.9405525711223223,-1.381527858250142,-1.7852927215617789,4.170232409951558,-3.3937598309960944,-1.3446086088763636,2.068134187212056,1.0,0.46121556140107145,0.46909648774250035,0.3514908377264501,-0.7778899060293669,0.1679491046604857,-0.32388525838869303,0.5116431683701578
1.0,0.34294116846731426,0.08266832650044703,-0.26289175998199255,-0.007322319020593473,-0.015076077262958464,0.03772407825999424,0.12511536656325567,-0.3164321102090657,0.9403279200288392,-1.3785329430270272,-1.7880397266938473,4.169594023080782,-3.3935610256590785,-1.3453343924370826,2.0679693749504966,1.0,0.4617940104562651,0.4697411586289151,0.35114720588661874,-0.777953623914303,0.16792167171855896,-0.32385371136374325,0.5115752582384896
1.1,0.5422790147994252,-0.24323717928050648,-0.2616467974586393,-0.0029439955193894243,-0.015237684896906729,0.03463709647327331,0.12500737086235486,-0.3160029361017249,0.9404857408960872,-1.3757617850466661,-1.7912800021053172,4.168914572530861,-3.3933450184264125,-1.3459978683054818,2.067807425159944,1.0,0.4625658484161861,0.47052778339060625,0.35092087290648843,-0.7779134161351045,0.16790050233343307,-0.32386102404088113,0.5116387157168472
1.2000000000000002,0.22897599192693682,-0.24845390222773772,-0.3241510746082046,-0.011341694796033992,-0.016359129373873304,0.032222049194968266,0.12438667768099204,-0.3142230363378819,0.9411649114827149,-1.3728718610339445,-1.7941202254458324,4.168329961511836,-3.39317155786337,-1.3465930849806826,2.0676392307429907,1.0,0.4637539391872803,0.47169213327230525,0.3505338282512477,-0.7778683007265229,0.1679004181901675,-0.32386008562662283,0.5117079257098871
1.3,0.3829273125288826,-0.38406074740308416,-0.44225428575024117,-0.004781655601376616,-0.01426240085988599,0.035140017471591296,0.12449668271764067,-0.3144290138797649,0.9410817985174453,-1.3702832860249505,-1.7969797395023905,4.167718410491943,-3.393003223920369,-1.3470313488749872,2.0674594855460824,1.0,0.46441156043160087,0.4723679127834228,0.35021597892895445,-0.7779039504522571,0.16788457322238354,-0.3238443562058394,0.5116688840435148
1.4000000000000001,0.3073668501582062,-0.12264731444317828,-0.49126583820427727,-0.0015292798647310439,-0.008400684187543646,0.035586321715990306,0.12443739304220348,-0.31456229694129634,0.9410450985817693,-1.3676561231099944,-1.7996208146880335,4.167123902372183,-3.3928420241376283,-1.3474811529821786,2.0672974586486816,1.0,0.46541835910487594,0.4733128674276287,0.34981237076798166,-0.777898829562377,0.16793807270342984,-0.3238845115165417,0.5116336950415136
1.5,0.33877276148711033,-0.0648155827334757,-0.3299057498775126,-0.002532786484543327,-0.013855083969519604,0.027183483812653994,0.1243489228503747,-0.31466523440370237,0.9410223860325037,-1.3651677927321937,-1.8022552477876814,4.1665564288754435,-3.3926915483701157,-1.3480284821534747,2.0671363949070316,1.0,0.4660312319214256,0.47388312836005436,0.34960941831760106,-0.7778842826683492,0.1679581055302287,-0.3239257707906341,0.5116231157619229
1.6,0.33524204850913186,-0.2764593766181793,-0.4450285338504553,-0.01125116146276766,-0.010962410745676185,0.032052484427300756,0.12415916605849549,-0.31429722044148284,0.9411704024824431,-1.3625937319655068,-1.8049689029926044,4.166149412926255,-3.392571446324389,-1.3485789583707632,2.066997254554214,1.0,0.46668075742396764,0.4745102622333844,0.34935377807754786,-0.7778812344392565,0.16797491307071646,-0.3239369183984173,0.5116151743104193
1.7000000000000002,0.3770217918090154,-0.03871456084156033,-0.564923899285005,-0.004886328121062804,-0.020624522713561227,0.028656537018319463,0.12412057736441623,-0.314023838261944,0.9412667387400921,-1.3603758253028337,-1.807331159149649,4.165622001464041,-3.392475565661742,-1.3490889134132598,2.066848459817326,1.0,0.4673754076302434,0.47523483621694723,0.3490409851323876,-0.7778957493358275,0.16797167008288186,-0.32391333391897653,0.5116091020733626
1.8,0.3381898471600455,-0.01608483110819984,-0.37459114434142177,-0.002752014140233735,-0.010304833180346857,0.03193131410259351,0.12436889966588303,-0.3144547670873094,0.9410892842325368,-1.3577579588249813,-1.8100225494318916,4.165202225047301,-3.3923856220641078,-1.3495994592603349,2.0667406070714116,1.0,0.46809450948091497,0.4760511760130718,0.34869372699179013,-0.7779257378896487,0.1679312472809435,-0.3238627986034465,0.511608766731236
1.9000000000000001,0.14297036627371906,0.04305499832811416,-0.4509382045431866,-0.004839413798083421,-0.012424746520433858,0.03264497863856939,0.12509437160331163,-0.31612985574203506,0.9404320886345272,-1.3557558059692383,-1.8119970591625896,4.164794456163847,-3.39227762968504,-1.3500068767813787,2.0665669441223145,1.0,0.4689426455491249,0.4769865813079042,0.3483393437688168,-0.7779351490055308,0.16788678157678802,-0.3238393164156786,0.5116239142739094
2.0,0.36557705782355354,0.03481302787550175,-0.4407467890521627,0.003803111328007783,-0.014191713502088893,0.02976707770864349,0.12397610553746849,-0.3130693252456487,0.9415933150588951,-1.3534118895979057,-1.814379718672329,4.164350863309529,-3.392235464322879,-1.350373524155434,2.0664648393848672,1.0,0.46971185968377194,0.4777563066809187,0.348098637220568,-0.7779083313074839,0.16788919582338585,-0.3238630569149406,0.5116488701970257
2.1,0.2813104946149525,0.02498654409534043,-0.38169172629750764,0.0010909616931950978,-0.013089318461181965,0.02490658366565762,0.12251453769965481,-0.3091270282276256,0.9430931294504061,-1.3513163638243684,-1.8165383781149,4.1639012255672,-3.392109382349209,-1.3507516069315504,2.066321476459167,1.0,0.47015100571273133,0.47820406406255256,0.3479253399635756,-0.7779099326971655,0.16788978508167043,-0.32386690275424007,0.511643807718512
2.2,0.2540125421395313,-0.0009468436064641594,-0.36244343800035017,0.0007822411134294459,-0.009489024169349717,0.027749713309282022,0.12216903150732919,-0.3083230994967637,0.9434042407872361,-1.3494082147172353,-1.8183998239019437,4.163487368625344,-3.392075414609204,-1.3511100779908154,2.0662258417860975,1.0,0.4707124266181824,0.47874854474145073,0.3477029545842042,-0.7779103190361427,0.1678996378998649,-0.3238835291755272,0.5116294622663815
2.3000000000000003,0.33019686558571126,-0.2057197059999476,-0.33207358993068925,-0.008124466339997253,-0.0070692212196487945,0.033999739502338956,0.12200840357015202,-0.30796948393675816,0.9435404154247241,-1.3471699018067809,-1.8207179251523464,4.16308069229126,-3.3920141997443785,-1.3515132190455075,2.066140677411029,1.0,0.47148877149547813,0.47949483750330235,0.3474487290335326,-0.777874010442792,0.16792661823623967,-0.3239011818214548,0.5116646354596457
2.4000000000000004,0.1360220876256984,-0.022702181926411463,-0.4256501905285437,-0.003058863952448811,-0.013429529814911077,0.028047987033175133,0.12177852163248873,-0.30727868585276963,0.9437953468107418,-1.3453320215922469,-1.8225845317083815,4.1627326011657715,-3.3919348868509345,-1.3519109968399725,2.0659831713420025,1.0,0.4719856896806507,0.48002298889472816,0.3472140422975886,-0.7778949061107762,0.1679089039289364,-0.3238905102045333,0.5116454362424602
2.5,0.24520952930251033,-0.041163142497576716,-0.3387270637728584,-0.005216035300464221,-0.013430911796533416,0.031976344962738185,0.12198009316041354,-0.30780813435441434,0.9435966006425428,-1.3434318629386042,-1.8244605952299537,4.162252902984619,-3.3918944431993383,-1.352286163960592,2.06592545589383,1.0,0.47244057212191765,0.4804944670697767,0.34701595954522024,-0.7779096470454275,0.16790126203375888,-0.3238764087220988,0.5116344584900491
2.6,0.34396623372046,0.1366634556678984,-0.3890247502849426,-0.0010234341341287655,-0.014606436746231015,0.030272781272784027,0.12210159261411178,-0.3081933256618617,0.9434553427826005,-1.341546304011967,-1.8264831231367147,4.161880970001221,-3.391870444061523,-1.352640947968114,2.065816613468847,1.0,0.4731485133107214,0.48117917153195267,0.34672344467007604,-0.7779163926855299,0.16791877014640405,-0.323877218557984,0.5116179433159036
2.7,0.41083448304701636,-0.06876193987707972,-0.3917181965269866,-0.009216408287345584,-0.014608765701137276,0.026334539028760064,0.12179222550138268,-0.30749159490813777,0.9437241476682898,-1.339819377840679,-1.828232469208501,4.161509725541434,-3.3918156690847026,-1.352987670531409,2.0657029151916504,1.0,0.4736878626472763,0.4816771296503536,0.34650601556507216,-0.7779174663399229,0.1679412002902629,-0.3238826342605702,0.5116055199397035
2.8000000000000003,0.19325798503349298,0.0514502317298347,-0.3460460401210199,0.00035633792674875063,-0.009895904486212026,0.022605608451353832,0.12150570223270189,-0.30669213005335283,0.9440213409790478,-1.3379694856994584,-1.8299262274645793,4.161265532625582,-3.3918103861441598,-1.3533185906501262,2.0656081608200165,1.0,0.4742862755365968,0.48228699280895493,0.34631280202392106,-0.7778992091175863,0.16792801541091407,-0.3238871352422142,0.5116347581224102
2.9000000000000004,0.24944370731484616,-0.23226147258045313,-0.44167838870557924,-0.008692637041563334,-0.013374725617866188,0.02991906908526464,0.1214822369748262,-0.30653875717098167,0.9440741753245689,-1.3363355806351163,-1.83163889743181,4.160905028697956,-3.391762196675749,-1.3535994731055772,2.0655421662063254,1.0,0.47463166299826104,0.4826630381598506,0.3462019272986119,-0.7778908312653736,0.16791478663934725,-0.32389336921391665,0.511647891073916
3.0,0.054465713729058646,0.005951030221879122,-0.37033074976882285,-0.007543296731989736,-0.006300488730693845,0.027682439640512372,0.12171738421928228,-0.3071757144692482,0.9438365371104933,-1.3347597302808132,-1.8332916337620027,4.160599231719971,-3.391773839990133,-1.353889034151041,2.0654332636339623,1.0,0.47506003291134424,0.4831070722586676,0.34600927229545136,-0.7778976885263856,0.1679117105807341,-0.3238903294849993,0.5116403992075456
3.1,0.3175070189101581,-0.27155384430184104,-0.38642322138519325,-0.014194591313867973,-0.010610946428413974,0.0289497087001892,0.12180341502057628,-0.3074500389033789,0.943736129480501,-1.3329073242558778,-1.8350774339036955,4.160341382845668,-3.39173397511834,-1.3541468255150197,2.0653922838791634,1.0,0.47571775072938716,0.4837770026758283,0.34574597321805095,-0.7778943345567745,0.16792177901441985,-0.3239008059478919,0.5116355620003479
3.2,0.25249991583690795,-0.13660212894629298,-0.4317091719191045,-0.008954989204637803,-0.00663785904691661,0.03007961096969132,0.12129532896356558,-0.3061406417045311,0.9442272730380876,-1.3315349724963514,-1.8364740976095162,4.160047768012999,-3.391696228976879,-1.3543917634076845,2.0653022650677393,1.0,0.47609639015728084,0.4841685815474451,0.3456185417760507,-0.7778772748438529,0.16793001373989694,-0.32391074143074233,0.5116525064461287
3.3000000000000003,0.335935743830452,-0.08951947077782572,-0.2629776168998562,-0.00788723964959209,-0.015789743917465963,0.029511863261925442,0.1210450205876098,-0.3054832800538732,0.9444723676087803,-1.3301574702905765,-1.8378725493028527,4.159764853740821,-3.391712514262314,-1.3546627537734945,2.0651925374383797,1.0,0.47657505016439433,0.4846368660011658,0.34542850964237937,-0.7778825150765778,0.16793373489353747,-0.3239110965037621,0.5116430933615496
3.4000000000000004,0.4488929922522014,-0.029321749825911653,-0.18671711247235975,-0.011041434055982246,-0.018858333997212724,0.028733368048584975,0.12110973751610515,-0.305685837678494,0.94439852986672,-1.3285813701041285,-1.8395541183430935,4.159515417391346,-3.3917087332461744,-1.3549344435125439,2.065138853777224,1.0,0.4768927288079723,0.484942025563048,0.34527853454910534,-0.7778965087512257,0.16793310096654157,-0.32391256888030734,0.5116210931869166
3.5,0.3549825562303566,-0.05867768025406685,-0.41455000188857155,-0.005887951190758041,-0.01569965875902428,0.02649701022579528,0.12126343306509524,-0.30602533610511157,0.9442687934287619,-1.3270334102419292,-1.8410060356279145,4.159268458103186,-3.3917080835609767,-1.3552204785361468,2.065067768096924,1.0,0.477253214986579,0.4853579597281701,0.3450815312757547,-0.7779265072286807,0.1679209687642086,-0.3238854734119747,0.511596616205557
3.6,0.35348584312208625,0.17233312292170486,-0.4753912794650405,-0.0013199209770352756,-0.014910019349483897,0.03118389239236025,0.12138971877004566,-0.30628200364234504,0.9441693987902615,-1.3258300914693235,-1.8421040763885952,4.159017538223694,-3.391690828289987,-1.355454662807614,2.0649897755081974,1.0,0.4778122400979245,0.485939875867302,0.3449108332465951,-0.7778968403693434,0.16792461088808874,-0.3238869428006071,0.5116395988239695
3.7,0.5041365199694083,0.185106345573282,-0.3520403935162896,5.826364770398183e-05,-0.013383873521164893,0.026883665020606805,0.12130393156595368,-0.3060690352596647,0.9442494803688195,-1.3246708518263894,-1.843356646627241,4.158801555633545,-3.3916718570386903,-1.355699202145334,2.0649179810288354,1.0,0.4780844285117829,0.4862139826389599,0.34482292862965463,-0.7778887762987863,0.16792504417112974,-0.32389120266143845,0.5116490204105038
3.8000000000000003,0.5463702336735518,-0.04059682617440667,-0.34190909784197454,-0.008209289977394969,-0.017182076087594048,0.02847036898751587,0.12124426717010764,-0.30580347327980567,0.9443431632304343,-1.3231618675509202,-1.8448718448802084,4.158524778775286,-3.391679624190106,-1.3559278883402446,2.064857629438358,1.0,0.4783407164771854,0.4864924234855995,0.34471198360248795,-0.7778939893137824,0.1679094361293938,-0.32387867438349127,0.5116541477676013
3.9000000000000004,0.26185886446123424,0.01541066545000186,-0.21770649372764667,-0.006266706038243993,-0.015203555776122438,0.027271103758920993,0.12122288726738518,-0.3056394263906754,0.9443990331823843,-1.321801822863225,-1.846229056347691,4.1582986674501745,-3.3916838770810616,-1.3561792218339912,2.0647927912661412,1.0,0.47870618372453755,0.48688481257991595,0.3445308503946444,-0.77791058311711,0.16789375461489217,-0.32386855156229905,0.5116404725436123
4.0,0.4799430727307441,-0.17554004016870384,-0.34518631713350345,-0.007912100349235545,-0.0076778147267489265,0.026287362510515826,0.12130738277837862,-0.3059095392570911,0.9443007287335955,-1.3206529213011524,-1.8472068771374273,4.158131523871676,-3.3916672088930757,-1.3563849604030103,2.064700734379392,1.0,0.4792203379941519,0.4874127332013753,0.3443058830918549,-0.7779196693855128,0.16789302577011456,-0.3238779960307048,0.5116209178366584
4.1000000000000005,0.30401067385293035,0.09370273687924335,-0.4076258253166773,-0.002447946895104498,-0.014987486688999388,0.028125812717344024,0.12138823964974234,-0.3060333498214198,0.944250218482919,-1.3195805281822575,-1.848283814198247,4.157865497512091,-3.3916903934874476,-1.356592930393582,2.064659091872443,1.0,0.4795934597105332,0.48780454805766793,0.3442108970976027,-0.7778989754023328,0.16788112249133424,-0.3238658761286024,0.5116639591162383
4.2,0.12478553262999778,0.010646092596433204,-0.45922305282393483,-0.009709439804655478,-0.011843024633156615,0.025568547523849988,0.12128988874118447,-0.3058201085382391,0.9443318909450198,-1.3183097118220288,-1.8495778257308435,4.157622120048572,-3.3916903934874476,-1.3567911607647634,2.0645896662562158,1.0,0.47979921276896925,0.4879680654283853,0.3441521505050302,-0.7778895525656746,0.16789666588459398,-0.32388227269393133,0.5116628059851779
4.3,0.15730392681772332,0.09899998269703164,-0.4273669127306906,-0.005268914214446709,-0.010760579912030816,0.026360025254075062,0.12115361991441892,-0.3055426053256901,0.9444392590847753,-1.3169808365514213,-1.850810428288254,4.157440642925017,-3.391676306220157,-1.3570366343194717,2.0645227245074853,1.0,0.4801062074141598,0.4882743731517325,0.3440251618388523,-0.7778893540174034,0.16790785083859935,-0.3238826626498575,0.5116591906415715
4.4,0.14389926351827814,0.10917409468562161,-0.4701134269818493,-0.0014129802250363514,-0.01603698023262054,0.03055428422234419,0.12123923162091997,-0.3057594729034852,0.9443580027444728,-1.3157343733855762,-1.852139174575836,4.1571831703186035,-3.3917142353453578,-1.3572002158237122,2.064465587805574,1.0,0.4805911299317737,0.48880010225549386,0.3438136038910407,-0.777896882852859,0.16790958564102465,-0.3238631042725077,0.5116595551620622
4.5,0.23322718543201362,0.14778271198877038,-0.5738657388538939,-0.004736329963500178,-0.01328139587299324,0.027573009603533788,0.12149054503013539,-0.3065199949829261,0.9440790471414167,-1.3145857470056495,-1.8532327471651342,4.156956195831299,-3.3917023144164027,-1.3574088540661566,2.0643949793816874,1.0,0.48088927364075135,0.4890835589469872,0.3436455949097486,-0.7779199982690419,0.16791251687477926,-0.3238722514385055,0.5116176577465099
4.6000000000000005,0.4120576727698223,0.04170580400216287,-0.27995189758821337,-0.003233157142824211,-0.014698703528709025,0.0273499433373423,0.12142629037374264,-0.3063937687266106,0.9441283017104967,-1.313409548337204,-1.8543121854195177,4.156716474204254,-3.3917098427552217,-1.3576213938680144,2.064355573460409,1.0,0.4812589605872514,0.48944960928526454,0.34353264065206296,-0.777907263341511,0.16792424852865126,-0.32387932549043086,0.5116286924288671
4.7,0.5149598677262182,-0.2281609054749085,-0.38447312506282,-0.007891294765354282,-0.013424698179614123,0.028132363051748696,0.12122478243463278,-0.3058765703069316,0.9443220190541104,-1.3120782844411978,-1.8556979885419427,4.156492068654559,-3.391758841578355,-1.35781852442554,2.064282963000855,1.0,0.48149455016683534,0.48965828570449177,0.343495142053237,-0.7778768674656196,0.16792805331617142,-0.3238958606497674,0.5116631894374101
4.800000000000001,0.3974767690107379,-0.18338125581942788,-0.35678502611129687,-0.010671424263494189,-0.012371092227564053,0.02433424483938878,0.12122952079914788,-0.3059061305964096,0.944311835214938,-1.310790142889832,-1.856914355138113,4.156265647930413,-3.391875451419608,-1.3580215612994593,2.0642523765563965,1.0,0.48178986284930314,0.4899561249916807,0.34335804108755924,-0.7778860316516956,0.16792601626752024,-0.3238993152745201,0.5116477385725411
4.9,0.32843901734102365,0.11286476909001686,-0.535092674914075,-0.004742987862578894,-0.014382494417656839,0.02384031533638323,0.12088868718088194,-0.305035136615172,0.9446369048313001,-1.309616372932852,-1.8581030524533562,4.156063385505641,-3.3918436105640386,-1.3582228430303025,2.064175911445582,1.0,0.482245957928027,0.49042028528332765,0.3431463602862911,-0.7779131111888762,0.16793152803602357,-0.32389457572457436,0.5116077571227073
5.0,0.36755598657899524,-0.09368314343771317,-0.5484471080024166,-0.008491949301689908,-0.014317498380892382,0.03405916041447842,0.12072172943951306,-0.3046144187455884,0.944794314219177,-1.308375350333549,-1.8592976380305748,4.155834111909608,-3.3918472770364936,-1.3584535757647913,2.0641394522383405,1.0,0.4825648132642201,0.4907225814475826,0.3430107431638711,-0.7779240529812754,0.16793576197577081,-0.32389682110324763,0.5115883080388114
5.1000000000000005,0.22374358800469218,0.27866226944757355,-0.30821680478297864,-0.005234076555573781,-0.013176616624733736,0.02350454149949942,0.12077335747427696,-0.3047614519548629,0.944740307471108,-1.3070554733276367,-1.8604890776593683,4.1556196277802595,-3.391858240167135,-1.3586631190532277,2.0640539655168,1.0,0.48285993258378257,0.4910255895764381,0.34289444566740607,-0.7779202502054647,0.16793616323565164,-0.32389410734288115,0.5115956769036601
5.2,0.2108628398011703,0.029838938189462955,-0.4138691830882135,-0.006004857823882954,-0.0109818295852472,0.023316136430868356,0.1207089016919408,-0.3046049346734668,0.9447990160220262,-1.305868636272311,-1.8616832085551496,4.155439310736497,-3.39184631923818,-1.3588736693011683,2.0639869002295863,1.0,0.4832840939301859,0.49145188107980037,0.3427598709102843,-0.777896462926996,0.16793615450587743,-0.3239051830753833,0.5116248365280456
5.300000000000001,0.3581912265916083,0.11774104842379413,-0.3465581013725317,-0.004468426444685424,-0.009114305792572773,0.026418120706760164,0.12064118192155232,-0.30441814566134623,0.9448678578073599,-1.3046888406670696,-1.8628958220351473,4.155222222427696,-3.391849269581799,-1.3590627796328631,2.063947394271523,1.0,0.4835923112558429,0.4917575105979888,0.3426426067209306,-0.7778914360526705,0.16793139155019238,-0.3239114947397281,0.5116300470294965
5.4,0.23845974664490116,0.32846713625470614,-0.3693892642991451,-0.003608764359101827,-0.010156740829492932,0.025485928911453543,0.12056418607355351,-0.30418748256197337,0.9449519591671783,-1.3033815196193166,-1.8640763354806114,4.154994684195896,-3.391881469930387,-1.359274987688701,2.063904285430908,1.0,0.483867385119931,0.4920382784820814,0.3425192975819996,-0.7778977246466999,0.16794106371048062,-0.3239030706395464,0.5116226440840476
5.5,0.35429534358912035,-0.09446255589566051,-0.39990594918794875,-0.00845752519113505,-0.008860882847523385,0.023712678411766684,0.12041930427029283,-0.3037286687421102,0.945117889430531,-1.3019123121585086,-1.8654534210896,4.154816377593811,-3.391966482202047,-1.3594817864904785,2.0638249806500455,1.0,0.4842575808254679,0.4924519875814059,0.342369984834,-0.7778968479368694,0.16794323638914851,-0.3238965833321398,0.5116273708733613
5.6000000000000005,0.3083283788742506,-0.41867786539950036,-0.4869104542573497,-0.014634908475898354,-0.007008642888574065,0.02431498693046198,0.12032056297108956,-0.3033948623047641,0.9452376701599468,-1.3008210449263393,-1.86662878361547,4.154578411298722,-3.3919903240599574,-1.3597067063276869,2.063747354008567,1.0,0.484626506993761,0.49285787720779367,0.34225430846313387,-0.7778848973595227,0.16792601667486384,-0.32389383100429625,0.5116529347331437
5.7,0.39968093209324296,-0.13623638685126127,-0.4346514957860237,-0.010969655584991474,-0.014027235468077291,0.020776408427474812,0.12078080571125085,-0.30457549817916413,0.9447983574546069,-1.2996688038163438,-1.8677796535923985,4.154360440214902,-3.3920323721975616,-1.3599119018235093,2.0637194184863863,1.0,0.4849801963434894,0.49323101724139623,0.3421076402027628,-0.7778918084002613,0.16791018043910738,-0.3238848075858475,0.5116533368832418
5.800000000000001,0.6162876069895249,-0.07261472816159187,-0.29318328905803026,-0.006059277965852628,-0.017260229684341787,0.026435217046572403,0.12121198257836172,-0.30568277364756735,0.9443864119329756,-1.2983982973487254,-1.868913574391059,4.154156760540434,-3.392061175424796,-1.3601241156757857,2.0636557711777934,1.0,0.48526180619529197,0.4935270520659591,0.34194460377268315,-0.7779194734038153,0.16791105022210412,-0.3238596931146654,0.5116268867916494
5.9,0.34701169692893147,-0.0810571951670083,-0.40091014432873495,-0.009337177803437303,-0.01510550570383443,0.02504351464152249,0.12115714133410965,-0.3055633704640162,0.9444320802912457,-1.2970225906677526,-1.8702980933645108,4.153941329047544,-3.392087790982369,-1.360314597774954,2.0635795784607494,1.0,0.4856655932489897,0.49392982090053555,0.34179966896968156,-0.7779196912272922,0.16790651303799117,-0.3238709953955171,0.5116208901342615
6.0,0.3291151034105101,-0.048397362411200434,-0.37207742687816137,-0.006597668118179462,-0.0099489217481654,0.0234328300951462,0.1210869606213263,-0.3054035352896859,0.9444927451693115,-1.2957086563110352,-1.871639206965996,4.153747111450173,-3.392128986066945,-1.3605307463383922,2.063546034924974,1.0,0.48593722394298156,0.4942071851057437,0.34166878362062764,-0.7779255806174807,0.16791045329368873,-0.3238737136504438,0.5116089212493599
6.1000000000000005,0.47163396991089324,-0.01500669908966562,-0.3859334116994669,-0.010094916235396371,-0.014171927737377533,0.024578066377680386,0.12071571141888261,-0.30445013947973043,0.9448477474656409,-1.2945709089016246,-1.8726145369234695,4.153549837672353,-3.3921944103636683,-1.3606864376773995,2.063500381697297,1.0,0.486242020354262,0.49451559599817,0.3415345492852071,-0.7779287380877522,0.16791936693300882,-0.3238755422244509,0.5116000369574192
6.2,0.3712566686334798,-0.025449120648603878,-0.28670839007385973,-0.009434134431080045,-0.013620293433288503,0.02771433616876388,0.12040506781432249,-0.3035950393982775,0.945162569819701,-1.2934155716684241,-1.8737422176014942,4.153378339962928,-3.3922480248729867,-1.3608889905117005,2.0634255409240723,1.0,0.48664659688006257,0.4949454066939753,0.34137320269391036,-0.7779300382161134,0.16792897712437482,-0.32386256870193253,0.5116031185174924
6.300000000000001,0.41377689631396875,0.043607197587106905,-0.532554340138726,-0.011874698682249961,-0.015484564948235174,0.02325380089899305,0.12015918263906449,-0.3028637020531485,0.9454286524931946,-1.2918963896077615,-1.8749485755051591,4.15315580368042,-3.392302175561422,-1.361070710205261,2.0633661420189875,1.0,0.4869001579566937,0.4952116413281438,0.34128787551150813,-0.7779264835782912,0.16791589040262236,-0.32386264356285355,0.5116127715394614
6.4,0.36000323216969043,-0.1397926160879117,-0.46151837300872667,-0.010699426730742593,-0.013140440329037113,0.02100329771111415,0.12029987491962996,-0.30329730362261503,0.9452716868289124,-1.2905815990652825,-1.8764402307680257,4.152946307364819,-3.392359222923485,-1.3612683887838948,2.0632859924398685,1.0,0.48738649983809945,0.4957231895884485,0.34121555499125383,-0.7778591851403962,0.1679187037087271,-0.323905450892765,0.5116870683527717
6.5,0.40536617739440406,-0.08453202533584747,-0.5230685729219333,-0.011480543485459826,-0.015151951208316278,0.024803965855277218,0.12096128198090719,-0.3051198761430936,0.944598705395999,-1.2894220352172852,-1.8776336395873099,4.152758589728746,-3.392357046115527,-1.3615077520439938,2.063237901202874,1.0,0.48762135575154003,0.4959514292166012,0.3410619822017944,-0.7778939867610373,0.16792247696636559,-0.323886423446794,0.5116449665513614
6.6000000000000005,0.35269054214867646,-0.10422948193835356,-0.4377360713693146,-0.01425312132392178,-0.016219848691034006,0.02919946346197761,0.1215324111471999,-0.3066530270584572,0.9440305307473086,-1.2883187799429772,-1.87862335364257,4.152527434508937,-3.3924156360218554,-1.3617289702044886,2.0631527851397333,1.0,0.4879039844053593,0.4962418208254469,0.3408892954908476,-0.7779254470624704,0.16791732515378885,-0.32387246606934417,0.5116076587073475
6.7,0.5018281051028483,-0.04032091963662604,-0.18113599595083524,-0.009627447903204937,-0.011829250909110514,0.025307078307354392,0.12139616037915793,-0.3062458692786755,0.9441802142260514,-1.286928145044399,-1.8797325041960902,4.152261315837894,-3.3924595318236292,-1.3619032328115515,2.0631260871887207,1.0,0.4883379725650985,0.4966729327534963,0.34076114078147346,-0.7779033755334807,0.16790305216936516,-0.32387858452927903,0.5116420290487662
6.800000000000001,0.44904246548906035,-0.055226985291987135,-0.38824947251838476,-0.0026459318440091766,-0.0129065260873601,0.028283718169498703,0.12119199464281886,-0.3056439409223057,0.9444013276258943,-1.2855333909832063,-1.8811147987156924,4.152078164001631,-3.3925594539621144,-1.3621292997526417,2.0630326642104184,1.0,0.4886121207422844,0.4969157246498369,0.34075191609120487,-0.7778605472231058,0.16791768910826443,-0.3239088346105944,0.5116831887208309
6.9,0.12294596292858023,0.031990865939896904,-0.4003281739446984,-0.005102755698461263,-0.006572387346920675,0.024861423799293594,0.12091015007152481,-0.3048192405930963,0.9447041401443724,-1.2843231507521276,-1.8823280605713604,4.151847174717497,-3.3925763495922627,-1.3623552269425012,2.063037947963339,1.0,0.4890816921584895,0.49742718924615853,0.3404859547215519,-0.7778998494444171,0.16789220908415067,-0.32388638319059126,0.5116460115616209
7.0,0.49715127667777925,0.012946379243601175,-0.2909895078716682,-0.010269101521981324,-0.01666992317849758,0.02269906634776413,0.12058095839631204,-0.30399329075748754,0.9450120864088662,-1.283169585934908,-1.8836351470445174,4.151645183563232,-3.3925942841167256,-1.362569914542284,2.0629268055859966,1.0,0.4893131145745723,0.49763340986286275,0.3404161832839619,-0.7778900849621218,0.16791509179864317,-0.3238852030992959,0.5116540949481438
7.1000000000000005,0.4410597675507015,-0.11298620801756333,-0.5280691406949005,-0.005619368875046647,-0.004225243901026762,0.023331198429753917,0.12050772577012839,-0.30380328927526595,0.9450826580481761,-1.2818078994750977,-1.8846873114058877,4.151410328105208,-3.3926383457579554,-1.3627569043648131,2.0628951712513888,1.0,0.4895763628058689,0.4979255263518436,0.3402542437004054,-0.777915332481007,0.16791486456333587,-0.3238562309517766,0.5116341226143449
7.2,0.14212402342380057,0.20051658297196437,-0.20599328572629289,0.005643312832697831,-0.005230549730561385,0.025073222379625934,0.12075194395558156,-0.3043955733010891,0.9448609747361889,-1.2816947999665123,-1.8847185271223397,4.151379982667706,-3.3926813008199765,-1.3627942244159144,2.0629001458112985,1.0,0.48994085322822317,0.49829691816255567,0.34017204280678726,-0.7778848436774254,0.1679028982524626,-0.32387382913121626,0.5116732644366466
7.300000000000001,0.39405759588147327,-0.14200085627389836,-0.294735465148589,-0.016471580824342583,-0.013692274220346592,0.020820573173857222,0.12115515091304442,-0.30555504514087645,0.9444345303275764,-1.2817135999529026,-1.8847376308836878,4.151420522879727,-3.3926621876158656,-1.3627988785523673,2.062876065143376,1.0,0.4900508177610904,0.49837046987396505,0.3401503205540656,-0.7778843315725663,0.16791048955596272,-0.3238834626362531,0.5116654540045962
7.4,0.11818875528906202,0.26167986556474443,-0.3967267019763361,-0.0032273969426791795,-0.013265359298545923,0.024947035473266953,0.12120349311492239,-0.30572514142505564,0.9443731368547259,-1.2816851807044203,-1.8848991260722492,4.151399068080175,-3.3926811327423616,-1.362776929918387,2.062861919403076,1.0,0.49006321728131963,0.4983734321952056,0.3401331772691407,-0.7778896853938049,0.1679197446223949,-0.323881449813887,0.5116555513139005
7.5,0.3015468702720722,0.0663286350641655,-0.32154323404117124,-0.010459833745917066,-0.012516780946283716,0.024093856398139126,0.1207666411573545,-0.30453158541789016,0.9448144939813884,-1.2816758993615462,-1.8849198033712657,4.1514058113098145,-3.3926788665698306,-1.3627770686247913,2.0628573516990665,1.0,0.490080633972686,0.4983930865193375,0.3400958786622297,-0.7778997779952487,0.1679164858539175,-0.32388228009220116,0.5116407507379481
7.6000000000000005,0.33805382793441807,0.20422203617443074,-0.3059566483066739,-0.012064070245957688,-0.013960015847204384,0.01951425804954288,0.12060867224074388,-0.3041296760408151,0.9449646347103162,-1.281690361445204,-1.8848888536774235,4.151353997713782,-3.3926763092715384,-1.3627603907825436,2.0628286716311726,1.0,0.49008318610769697,0.4984077151294985,0.34006343346068574,-0.7779086171225171,0.1679103854183548,-0.3238794998200645,0.5116310735984453
7.7,0.3205309494273966,-0.15435519690547234,-0.3342334921281654,-0.014988387294147663,-0.012375666296093045,0.025113838234428493,0.12083758629311095,-0.30482598546391976,0.9447107829118256,-1.2816767510982419,-1.8849147849671353,4.151365298309717,-3.3926549203887904,-1.362769905720846,2.0628812937071817,1.0,0.49008697967673737,0.49840076544097484,0.3400915223898892,-0.7778954315361007,0.16792425668818903,-0.32388206641766926,0.5116449439445317
7.800000000000001,0.2738322495023582,-0.13360758632475983,-0.3250124112594355,-0.01267517720912225,-0.01251057521969991,0.023987515951800133,0.12106650034547801,-0.30552229488702437,0.944456931113335,-1.2816804042082945,-1.8848741548567316,4.151389828525052,-3.392657459810693,-1.362791485092193,2.06286940025181,1.0,0.49010461784350956,0.49838675022340356,0.3400662891349976,-0.7779028824561108,0.16794054079666354,-0.32388642571224013,0.51162551095772
7.9,0.2493901040683068,-0.16900083829914417,-0.4268370532620014,-0.013396232068948407,-0.011983349332560594,0.022468851558542603,0.12087233989753193,-0.30491644888283825,0.9446774404432275,-1.2816759348027742,-1.8849078191544038,4.151368362532573,-3.392645285431189,-1.3627914059877277,2.0628573213208714,1.0,0.4900994358026763,0.49839054500391605,0.34005783563307296,-0.7779104255577436,0.16793138600541002,-0.3238840390694634,0.5116185577546253
8.0,0.24382231266195198,0.019223789896230303,-0.490440376660385,-0.008240238625982237,-0.011458070223718538,0.021036912999863697,0.12079209874483536,-0.30463659780173524,0.9447781043134668,-1.281690667052651,-1.8848984512730773,4.151373007295511,-3.3926551613255675,-1.362774800359503,2.0628759719836722,1.0,0.49007939149250357,0.4984105492461366,0.3400654327618177,-0.777911773261546,0.1679021160451359,-0.32388589131417644,0.5116249425665879
8.1,0.29282016936045036,0.23376256552328858,-0.32399897761184404,-0.002058545584449292,-0.007967125071217407,0.02330380924118643,0.12095213974847775,-0.30505865055252096,0.9446214076853328,-1.281692857008714,-1.8849246656740204,4.151361217865577,-3.3926621876158656,-1.362777172902536,2.0628760667947623,1.5428129462737845,0.49007968085516834,0.4984137296339831,0.340075910399094,-0.7779090722589986,0.16790447182407217,-0.3238773704404787,0.511633670271205
8.200000000000001,0.3334563461664412,0.004143170029047988,-0.31302781031965776,-0.003993230340187438,-0.012209781855213864,0.02214082207841791,0.12100627167644674,-0.30521023247542384,0.9445655782219493,-1.2817002236319843,-1.8849022180978845,4.151385570783886,-3.3926672477473474,-1.362757984791891,2.062904745392674,2.0,0.49009080426392493,0.4984131520581733,0.3400736823876109,-0.7779052309857158,0.16792068107799923,-0.32388149143744327,0.5116315822695257
8.3,0.22857232097113556,-0.4998154387852932,-0.4769184468150319,-0.008097375702429502,-0.019189815491245554,0.017433505897283184,0.12089161559137689,-0.3049307632033934,0.9446705014439316,-1.2816537382574087,-1.8849157504260057,4.151376275224311,-3.3926638356821903,-1.362757984791891,2.062893455108736,2.0,0.49009023072969915,0.4984021219262612,0.3400783941414778,-0.77790342783405,0.16791664128066164,-0.3238869138804048,0.5116322170877086
8.4,0.15299066908529405,-0.0156796187038106,-0.3976221457253182,-0.0016099110641641496,-0.012229237396152465,0.02267818216849606,0.12084516445093434,-0.30478724549039216,0.944722802869917,-1.2816416969852171,-1.8848911817144736,4.151382923126221,-3.392642759605948,-1.3627746083027215,2.06285498978988,2.0,0.4901024952407963,0.498396592813579,0.3400504137136014,-0.7779129446746982,0.16793111203915245,-0.3238833596384918,0.5116152474918209
8.5,-0.04792552875921105,0.12072428232753032,-0.3574479663011088,-0.0035545484239101408,-0.005907345430951804,0.02087145581473883,0.12091980400143279,-0.304885095442262,0.9446816798430178,-1.2816745990671075,-1.8849158731517797,4.151378261752792,-3.3926604829917215,-1.3627895630424858,2.0628665807765048,2.0,0.49008353621525763,0.4984208686613897,0.3400442819306463,-0.7779201425184538,0.16790976809841116,-0.3238687949204031,0.5116205286323178
8.6,-0.3841760359307405,-0.14013064206603493,-0.3427778531335508,0.0010495319982410777,-0.04622470992042954,0.015134851962896623,0.12100197313640211,-0.30514942853942667,0.9445857539558863,-1.2816702468993229,-1.88491897254493,4.151418209075928,-3.392648692634311,-1.3627564107392913,2.0628594719656492,2.0,0.49008728209657954,0.49841335162429756,0.3400410440488977,-0.7779236533547017,0.16791101603551964,-0.3238696985306696,0.5116142087734139
8.700000000000001,-1.2003020310520416,-0.8761328121237492,-0.21753865894920849,0.018091712408844107,-0.15872794021767217,-0.0029272849381477084,0.12108543066694578,-0.30544224875277054,0.9444804506903804,-1.2816705703735352,-1.8848827551230385,4.151385474334013,-3.392645642387228,-1.3628091733898202,2.062884641843413,2.0,0.4900970344098909,0.4984064519733146,0.3400548619347703,-0.7779121157737592,0.16792269341279115,-0.3238750256899423,0.5116245468150707
8.8,-2.360247689455347,-1.2686116633402629,-0.29831001820592307,0.04146574177428419,-0.2524366903974589,-0.02181590463144099,0.1212177633020064,-0.3057528349441965,0.9443629214487945,-1.2816799541847343,-1.884919011906451,4.151394367218018,-3.3926678032251005,-1.3628493176129979,2.0628743171691895,2.0,0.4900850555871048,0.49841935999332826,0.34006278042037863,-0.7779092395770556,0.16790720909193563,-0.3238700326051478,0.511637162543872
8.9,-2.826763651680551,-1.4497185369772043,-0.18544984822162736,0.052894827917836826,-0.3451836725040653,-0.033710991981719826,0.12135891720184136,-0.3060666276432747,0.9442431855915259,-1.281671346257622,-1.8849180912459793,4.151439944962745,-3.3926502666869105,-1.3628162039293683,2.062863304910374,2.0,0.490081306640476,0.4984242699486002,0.3400484105812101,-0.7779145177342812,0.16789732000000607,-0.3238694317017603,0.5116327630676472
9.0,-3.397717066581695,-1.4559004530732849,-0.11905166113866594,0.06912610919627102,-0.39731225552855864,-0.04583326556882671,0.12141341239381903,-0.30625968429265804,0.9441735910337742,-1.2816547573274648,-1.8849412403502406,4.1514105443436105,-3.392637868920797,-1.3627625357859257,2.062876659272917,2.0,0.4900797410066869,0.4984232540315932,0.3400822926604626,-0.777898287996033,0.16790492657636027,-0.32387999922124816,0.5116482534600035
9.1,-3.396480043126853,-1.6662386656211354,0.02054178129494308,0.06875287843402589,-0.4140649824356652,-0.047568315552636894,0.12142969312816203,-0.3063612928136501,0.9441385424717182,-1.281678883452596,-1.8849308941031395,4.151401492714355,-3.392654765223847,-1.3627521370817264,2.062863790980611,2.0,0.49008865214190633,0.49842361363116783,0.3400604114159411,-0.7779040811932693,0.16792121556936673,-0.3238794571175455,0.5116344428220267
9.200000000000001,-3.230463836206028,-1.1799489058151813,0.15784052155619702,0.04444152544140907,-0.4120962165097896,-0.04947354682903182,0.12149386669523173,-0.3065565001424266,0.9440667466594633,-1.2816733812894368,-1.8849326011719385,4.151397923103434,-3.392640131567172,-1.362781826649801,2.0628690469069255,2.0,0.4900904507705176,0.49843231813313355,0.34006612960112037,-0.7778985482991849,0.16791889878400862,-0.32388088564098894,0.5116427111780203
9.3,-2.8111993460655227,-0.2964685720260496,0.41287371081806257,0.002994199158683798,-0.3681357610850261,-0.0483702222696828,0.12175552464399213,-0.30725009979317025,0.9438073990258321,-1.2816306264847412,-1.884945719137824,4.151376042744328,-3.392642526859884,-1.3627773478622176,2.0628547749473594,2.0,0.4900840427189789,0.49842457868274337,0.3400738564338898,-0.7779078413543012,0.16789971661100475,-0.3238802989105325,0.5116352484915985
9.4,-2.522897093751217,-0.3917425607942132,0.6160473304774985,-0.007271775760488321,-0.34982780865447544,-0.040844328100910494,0.12177600327325663,-0.3073198440913346,0.94378208467786,-1.2816426194044446,-1.8849412403502406,4.151418209075928,-3.392637868920797,-1.362775250620982,2.062871351794572,2.0,0.49010356361600715,0.4984118515129847,0.3400663811583705,-0.7779043301048243,0.16791471442289205,-0.32388967734633234,0.511629728214587
9.5,-2.2035166154365315,-0.44878373094372404,0.7595810115514366,-0.008264272411863834,-0.33779364635390585,-0.03494332229417559,0.12136495055319799,-0.30625710706058074,0.9441806218948723,-1.2816236357810835,-1.8849354160288683,4.151399958566535,-3.392637868920797,-1.3627701780070565,2.0629096031188965,2.0,0.4901003763000966,0.4984115999318815,0.3400624533043932,-0.7779045349453199,0.1679234947071998,-0.32388497384984655,0.5116295125880751
9.600000000000001,-2.095814548127485,-0.381676021506635,0.5831618037737477,0.010184543339557268,-0.31449778422322017,-0.03646641450661425,0.121211360551159,-0.3058224044401078,0.9443412509695158,-1.2816458531842225,-1.8849293194212855,4.1513741921097935,-3.3926555510671075,-1.3627712578894067,2.0628724881634706,2.0,0.49009522544061984,0.4984140053510342,0.34005889993637906,-0.7779048657402137,0.16792680239746857,-0.3238770559324141,0.5116329363272205
9.700000000000001,-2.2275710236681476,-0.2860028029171141,0.4591814291374549,-0.001432170656951828,-0.3258151357715678,-0.03328797969020735,0.1210312184620054,-0.3053526099212629,0.9445163097220332,-1.2816364200250452,-1.8849143516862024,4.151397263919922,-3.392659170218049,-1.362769905720846,2.0628481166775217,2.0,0.49009575800890565,0.49841251916359464,0.34005521052123455,-0.7779081123456357,0.16792997196404033,-0.3238793983086153,0.5116254769010786
9.8,-2.32375525579196,0.3681346403594223,0.5575947166990077,-0.044005037048543166,-0.33657694792688675,-0.03545128645527473,0.12091319213019235,-0.305055864476039,0.9446273881069664,-1.2816747582601546,-1.8849337249760019,4.151398596550545,-3.392666593170582,-1.3627655001661296,2.0628981590270996,2.0,0.49010320541864355,0.4984120436760147,0.34005078545433925,-0.7779064437588976,0.16793882212257694,-0.32387865429368035,0.5116255799658392
9.9,-2.3493259974979566,0.9545862293554087,0.6037122076964001,-0.0828334585444296,-0.34596218172642434,-0.030605027724123518,0.12097125385736285,-0.30522352685249476,0.9445657846892526,-1.2816890630423046,-1.8849262719699573,4.1513871823954815,-3.3926469198679765,-1.3627832159372864,2.0628726285140986,2.0,0.49011074367539126,0.49840903362233724,0.3400533912543166,-0.7779036297391144,0.16793285911063607,-0.32389133747730364,0.5116237867582015
10.0,-2.399583616671384,1.184016694091495,0.6793992939064515,-0.10510656199370971,-0.35531368706673755,-0.033103788437546466,0.12092403228176686,-0.3050916315239093,0.9446142659537294,-1.281686196739994,-1.8849456486030136,4.151387155048883,-3.3926741085448207,-1.3627896398330304,2.0628286400980023,2.0,0.49010786807102036,0.4984057870943377,0.3400466711028114,-0.7779093686316526,0.1679328763157632,-0.3238867791765055,0.5116179409697121
10.100000000000001,-2.405608382235997,0.9099431783835623,0.5546476004561819,-0.11435926756556922,-0.3569786060795404,-0.029605994388016896,0.12059910498201945,-0.3041695929606634,0.9449531175388786,-1.2816755988422528,-1.8849519103445038,4.151398677334061,-3.3926741085448207,-1.3627654160166338,2.062835018363814,2.0,0.49010422958569466,0.49840588684308545,0.34004848676713983,-0.777910392646304,0.16793077914874655,-0.32387923763612514,0.5116218465386428
10.200000000000001,-2.6835338610524877,1.0104769995091738,0.7039602042663488,-0.10790696252972262,-0.3600527602525103,-0.03241654493353777,0.12063176492306366,-0.3041615584895157,0.9449516940301582,-1.281650416048859,-1.8849173984923304,4.151373864484026,-3.3926816743573363,-1.3627926031583923,2.062875158957053,2.0,0.49009181556985343,0.4984148198235772,0.3400631761855225,-0.7779092187625147,0.1679105897695396,-0.3238816824186015,0.5116287101025854
10.3,-2.492147220751622,0.9761935193298841,0.6734535150252291,-0.10745072800065002,-0.3657337035107359,-0.03455036648750241,0.12048484232266796,-0.30379751630906837,0.9450875044121438,-1.2816458015864185,-1.8849278136342031,4.151404961382771,-3.3926366609479928,-1.362785094249009,2.0628696625742964,2.0,0.4900941429583726,0.49841448480518286,0.3400545991353152,-0.7779133810257368,0.16791399010059238,-0.3238836183093139,0.5116200400106233
10.4,-2.5461127311587033,1.1494660941471924,0.6308075458537237,-0.1017032442533454,-0.36558728471733537,-0.03687537390451282,0.12029318601205156,-0.3033117677762297,0.945267827947041,-1.2816790073698092,-1.8849452965984492,4.151382923126221,-3.392670052296612,-1.3627658494726373,2.062866204672772,2.0,0.4900939883807506,0.49841554113795533,0.34005337477492686,-0.7779108330583373,0.16792006222982298,-0.32387795732906,0.5116255049033149
10.5,-2.54019726212879,0.8373736798431107,0.6430596397463825,-0.10629436368177075,-0.3670400181830747,-0.036872520423072874,0.12011756910686702,-0.302853489978571,0.9454371531262238,-1.281656249931298,-1.8849203946907056,4.151382923126221,-3.3926591914174904,-1.362785121190723,2.0628857612609863,2.0,0.4900982548066635,0.4984096798190964,0.3400277323681911,-0.777924770192933,0.16792084058439727,-0.3238818440904207,0.511601597228049
10.600000000000001,-2.2639983672794393,0.7160858845480227,0.8099079894680876,-0.10438126520616939,-0.38557339394818174,-0.03285839780157945,0.12002674759636767,-0.30259005982633463,0.9455330819736224,-1.2816591262817383,-1.8849281414524273,4.151412622736677,-3.392632712299951,-1.3627752772008945,2.06285676278223,2.0,0.49009783845905175,0.49839582306000774,0.34005131419083495,-0.7779114739280569,0.1679284204256792,-0.3238807466320978,0.5116200214079288
10.700000000000001,-2.400566288244152,0.7399207457036869,0.7010840125504194,-0.09990135505645904,-0.3888131898016709,-0.03914663336015303,0.12003957084579414,-0.30261158564396184,0.9455244725941017,-1.281659348562852,-1.8849450779729084,4.151374728679377,-3.392622110369174,-1.3627820306802767,2.0628818812739684,2.0,0.4900971878462975,0.49840729117422566,0.34005949029515653,-0.7779054567900119,0.1679135505627309,-0.32388950271518346,0.5116285076739288
10.8,-2.539261273548933,0.9810026753199113,0.8302519540561513,-0.10999500203026578,-0.3870270166990813,-0.038534734108496754,0.12029556630282787,-0.3033460593689634,0.9452565329399688,-1.2816631667077456,-1.8849293194212855,4.151382923126221,-3.3926613138624644,-1.3627621935689818,2.062858892865461,2.0,0.4901003656953242,0.49840955114727364,0.3400475033849183,-0.7779113855333208,0.16792104222011003,-0.32388876537549777,0.5116175011674997
10.9,-2.5723131434047892,1.422377662816419,0.8630599417216885,-0.12400374839875292,-0.3813151521002774,-0.03338233373729084,0.12039369843494044,-0.30358188891400467,0.9451684463653461,-1.2816665702617651,-1.8849448277130079,4.151394367218018,-3.392653687378354,-1.3627734930836133,2.0628857612609863,2.0,0.4900910436974418,0.49840348434223064,0.3400298684048819,-0.7779337740247376,0.16791281673838612,-0.3238719763532282,0.5115967866783996
11.0,-2.5816282979352296,1.3829296372928948,0.9035554027536699,-0.12417102830615527,-0.3823971645201365,-0.03202812795991366,0.12048360711083148,-0.30377463312711056,0.9450949551374603,-1.2816790089462742,-1.8849293194212855,4.1513868178521,-3.3926502666869105,-1.3627777696436765,2.0628857612609863,2.0,0.4900897219359593,0.49841822367041605,0.34005124882113535,-0.7779106338310694,0.16791960815434911,-0.3238756006028295,0.5116274487397938
11.100000000000001,-2.513631891706577,1.2170652311874322,0.8745474502734584,-0.12581269917520707,-0.3819752700185585,-0.03304883427925908,0.12077118393832609,-0.3045273957587094,0.9448159201086758,-1.2816591262817383,-1.8849296648175364,4.151413956749856,-3.3926305457141646,-1.3627538960168222,2.0628618872929807,2.0,0.49008433565984777,0.4984266572303623,0.3400549927934294,-0.7779067524394596,0.16791554712449025,-0.32387352519340185,0.5116359968002399
11.200000000000001,-2.8399988181014346,1.2042748277410764,0.8636145053823518,-0.12380755224037285,-0.37582142672713176,-0.034462318351281086,0.12083962952840732,-0.3047004066243158,0.944751524046612,-1.2816713020464465,-1.8849016616342618,4.151386768104549,-3.392646101293721,-1.3627859920429908,2.0628664960543164,2.0,0.4900847965275574,0.4984312036130879,0.3400474726532774,-0.7779150289435253,0.16790536403183967,-0.3238677618531263,0.5116304030307192
11.3,-2.443958139209393,0.9808538757013713,0.775989412512835,-0.12759137192124723,-0.38325115287643624,-0.03374491094125905,0.1208647804705863,-0.30477706629617135,0.9447235283615857,-1.281655658326563,-1.8849215527301542,4.151386911194532,-3.3926735667603043,-1.3627706136748752,2.0628754007382217,2.0,0.4900842187630686,0.49841966257444625,0.3400768643808199,-0.7779013659419782,0.16790976129301372,-0.323880628134894,0.5116415890514318
11.4,-2.4403800265659306,0.8538850575433238,0.9167975520100066,-0.12527506983759154,-0.3855197315130149,-0.03131666747201439,0.1210096542160099,-0.30522798799802664,0.9445593553608405,-1.281701040703633,-1.884923309740113,4.151400136511943,-3.3926558391140564,-1.3627638960396735,2.062856150109151,2.0,0.49009058586084314,0.4984148208263941,0.34007678556852217,-0.7778993983217135,0.1679237118168278,-0.3238772882509947,0.5116421163817123
11.5,-2.67259326537603,1.0638172670848844,0.7615417287986661,-0.12140384575150867,-0.3862147193841525,-0.03618323548671024,0.1207425018778724,-0.3045031684719784,0.9448273975908451,-1.2816867949679096,-1.8849215191355286,4.151390834761161,-3.3926580669726674,-1.3627740263640442,2.0628782729866595,2.0,0.4900954715121761,0.49841590593931934,0.34004967216017085,-0.777915456154503,0.1679213614171936,-0.32387554866425317,0.511619573934732
11.600000000000001,-2.8394807187259374,0.953528215534875,0.7509742645324308,-0.12083332332931876,-0.3891315402613644,-0.036878780233313264,0.12039460606173547,-0.30358157818737336,0.9451680374522499,-1.2816658830040282,-1.8849233323113885,4.151382923126221,-3.3926499739116758,-1.362769905720846,2.062856171777575,2.0,0.4900976557161491,0.4984132969482007,0.34006677240522803,-0.7779050125661685,0.1679213476078535,-0.32388633857033833,0.5116286271598686
11.700000000000001,-2.7640543361790906,1.0379771303023184,0.954498538861675,-0.11733040014500044,-0.3925632853198203,-0.03398436734890578,0.12012124595886718,-0.30286286566274573,0.9454336558830825,-1.2816631244905865,-1.8849371783730182,4.151386822624354,-3.392653901182332,-1.3628054528603568,2.06283860755059,2.0,0.49009784934682843,0.4984044229826733,0.3400497002973675,-0.7779152074954157,0.16792337919294323,-0.3238869282206629,0.511612085857606
11.8,-2.5166571311218005,1.1152675853709673,1.0363455555487728,-0.13522175204082285,-0.39358504652901743,-0.031610708185355954,0.12041840149640959,-0.303641295095521,0.9451460526518367,-1.2816448478978377,-1.88494385590178,4.151372977113251,-3.3926741085448207,-1.3627942244159144,2.062878907636714,2.0,0.4900939048566213,0.49840976274511667,0.3400441808154081,-0.7779171346039324,0.16791903026366145,-0.3238830892039832,0.511613013412094
11.9,-2.5085831588483747,1.2284463358452784,1.1344076354648374,-0.14986285923289705,-0.3950374240752334,-0.03336056113353056,0.12055126955298608,-0.30398548045078233,0.9450186290405849,-1.2816476821899414,-1.8849256681733844,4.151386892573127,-3.3926537525411904,-1.3627735569687471,2.0628701890841303,2.0,0.4900957123399696,0.49841531533268435,0.3400374924496401,-0.7779169654228895,0.16791914905371638,-0.32387536895493446,0.5116181189838998
12.0,-2.7707450904052604,1.1470982578202427,1.1954060079787496,-0.1493763792165545,-0.3848907620560765,-0.03441759572670207,0.12055112556876688,-0.3039836595197182,0.9450191736319489,-1.2816473335907246,-1.8849259937124154,4.151370525360107,-3.392637868920797,-1.3627658350563538,2.062886366336086,2.0,0.4900933916763677,0.49841549308591615,0.34006128542120195,-0.7779034556261013,0.1679224785023059,-0.32387624774923,0.5116370110561709
12.100000000000001,-2.5346216022262125,1.247983662841607,1.1106576531631842,-0.14116718591181496,-0.39140611634796857,-0.032993201530627216,0.12028063296046354,-0.30329940486967494,0.9452733917202155,-1.2816505143792862,-1.8849543304419678,4.151382923126221,-3.3926969534780076,-1.362782823574524,2.062866397592351,2.5359362798688263,0.4900940542072039,0.49840786738671844,0.3400579965257014,-0.7779037230380468,0.16793208031045198,-0.3238770838256173,0.5116329237439317
12.200000000000001,-2.3578281505455054,1.219267375305542,1.6510517862333307,-0.1588617599110908,-0.39342572967460576,-0.034055487217659546,0.12026680459421409,-0.3032836156177938,0.9452802714815896,-1.2817957229896764,-1.8846817773726041,4.151417367344128,-3.392646579116793,-1.3627607186876922,2.0628302090809703,3.0,0.49008448902224055,0.4984245563717968,0.3400421328529383,-0.7779153389587474,0.167920712826903,-0.3238693156113198,0.5116239107213979
12.3,-2.391807609614956,1.2788793748238059,2.4400106116551186,-0.16002226805763933,-0.38544140638758534,-0.03941962011821461,0.12040178570447503,-0.3036553910113413,0.945143748770335,-1.282851219177246,-1.883726328906377,4.151443004608154,-3.3926444478794577,-1.3626130262957972,2.0628573174282865,3.0,0.49005963500192784,0.4983619214387518,0.34013211853591147,-0.7778832438425669,0.1679164112983868,-0.32390338414068426,0.51165255350467
12.4,-2.3963705080218585,1.410369884718084,3.013878587542025,-0.17145792507987084,-0.38062496377935934,-0.05517640052550546,0.12032344136984192,-0.3035600022248026,0.9451843629631755,-1.2841917208354823,-1.8825974235887464,4.15169135513443,-3.3924969688840427,-1.362382764808154,2.0630059242248535,3.0,0.48990339492440205,0.4981171739826652,0.340195222664746,-0.777885571370557,0.1679425056591492,-0.32392612557371897,0.5116260527154848
12.5,-2.2988259019927084,1.545189432547222,3.4645943413155704,-0.18579899591881593,-0.38585293433947143,-0.07526854065242128,0.12015095268016085,-0.3032412247298212,0.9453086804250398,-1.285543102109168,-1.8811890544956023,4.152023661635721,-3.392501692739569,-1.3621816421703792,2.063022737613775,3.0,0.4895148630528487,0.49770621360812367,0.34031163360012734,-0.7778979018122438,0.16796512783737347,-0.3239107566340124,0.5116096089045485
12.600000000000001,-2.5219859460987952,1.62105829717843,4.038595157305944,-0.18038504263982424,-0.39426120842585777,-0.1027576738888231,0.12024852223801713,-0.30337993359344084,0.9452517531896397,-1.2868054796184285,-1.8799460790488611,4.1521951269184365,-3.3924576244749964,-1.3619779046835414,2.0631105016742963,3.0,0.48915389087199346,0.4974011046999007,0.3404536574871994,-0.7778997191354993,0.16793410032339245,-0.32389593494426944,0.511626414724711
12.700000000000001,-2.3987449721423793,1.4075588279210447,4.313135484917641,-0.16351477315920362,-0.39284669538342804,-0.12471758879458553,0.1203342943884418,-0.3034947275681749,0.9452040026497519,-1.288136181256291,-1.8788520822562722,4.152447426570855,-3.3924125853593665,-1.3617902860479894,2.063122167658884,3.0,0.48870208183224423,0.4969370081397719,0.3406665004633295,-0.7778927774051326,0.167932204889146,-0.32390161018821867,0.5116339984202358
12.8,-2.695905385498797,0.8245448544919571,4.626638138566269,-0.17493054458075394,-0.40023149444436673,-0.14557610401476254,0.1203200929523698,-0.30340686199873207,0.9452340172602053,-1.2893610000610352,-1.8778157187448006,4.152662740217014,-3.3923696698179033,-1.361582423404686,2.0632058629445513,3.0,0.48848845848392386,0.49675207373583835,0.3406716384974705,-0.7779262201528071,0.16793101021504542,-0.32387233187785697,0.5116020762769826
12.9,-2.7483602562727696,1.2577291619188504,5.102123292215478,-0.1735856828036715,-0.41308861011901765,-0.16215075044210547,0.1200434892003599,-0.30263919672653317,0.9455143906634055,-1.2904883492848678,-1.8764301416356046,4.152834415435791,-3.392285914758408,-1.361363010467736,2.06330166944478,3.0,0.4882184604716245,0.49651128188822674,0.3407077596353596,-0.7779541017976997,0.1679259197836766,-0.3238579466071857,0.5115704559298924
13.0,-2.756706668997886,1.7197963753168777,5.518785610125141,-0.1612437485424496,-0.429387988681816,-0.1788165646210787,0.11958920745573146,-0.30141122512610447,0.9459642871425382,-1.291913263650057,-1.8750403582776016,4.153061719283677,-3.392286255561185,-1.3611589654264196,2.0633220574138793,3.0,0.48784612068100264,0.496134996565624,0.3409040935920164,-0.7779291190137714,0.1679259388656486,-0.32387155769521125,0.5115998230674298
13.100000000000001,-2.8735739260059012,1.278894004476915,5.680816021164168,-0.15362059918511003,-0.44506008876520514,-0.1930960612368574,0.11927218906964174,-0.3005407428199086,0.9462816723260173,-1.2932885092158866,-1.8738633784852088,4.153273124615681,-3.3922420940794886,-1.3609706409686573,2.063389301300049,3.0,0.4873690599804687,0.49560362316479306,0.34120791400194467,-0.7778761318111713,0.16793451744772203,-0.3239007184255454,0.5116591111389553
13.200000000000001,-3.1787879739037805,0.9803110233106779,5.9464056455701035,-0.15240463058201006,-0.461312178780139,-0.20901030773627544,0.11905157549438228,-0.29992133762672557,0.9465059902370184,-1.2944260266146739,-1.8728167880437254,4.153482674242654,-3.392210340041196,-1.3607382128530656,2.063434167050478,3.0,0.4870769963982412,0.4953145289305305,0.3412474705718471,-0.7779131080940599,0.1679275167326103,-0.32388431672228385,0.5116155732195786
13.3,-2.8891595690010115,1.2488056005909107,5.999676615432087,-0.1750997178917231,-0.4733248937916476,-0.22179719115938626,0.11899206405146559,-0.29978427180080147,0.9465570499854097,-1.295531463758544,-1.871719389197383,4.153685092926025,-3.392141921466199,-1.360475116158842,2.0635296086747865,3.0,0.48681219926464,0.4950777074845102,0.3412893679414957,-0.7779429404969475,0.16792260604642667,-0.3238680242091947,0.5115821367135216
13.4,-2.8880937651720777,1.8196401033766496,6.02059359218127,-0.20344740004788905,-0.47767041839842245,-0.23584014153722105,0.11906336991873064,-0.30003267485320123,0.9464693598127003,-1.2968670349121094,-1.8702931159565768,4.153938279603657,-3.392137807885641,-1.360281002072871,2.0635716080916557,3.0,0.48638952883775255,0.4946614488846008,0.3415088634275041,-0.7779153261315659,0.16793022291132984,-0.32389413945396817,0.5116050938272056
13.5,-3.167027632782015,1.694856285960892,6.160744837677232,-0.20559933431427024,-0.46775175574073896,-0.25139155896178017,0.11931364855662736,-0.30072983422322447,0.9462164276756946,-1.298293479020414,-1.868857530503454,4.154132779102196,-3.3920938616386698,-1.3600796142791929,2.0636296673382364,3.0,0.48606445050879077,0.4943157276332399,0.34170565400887953,-0.7778836099670172,0.16792781361210599,-0.32391830337599525,0.5116388096090404
13.600000000000001,-3.034014022680606,1.5571683643087357,6.107958915037991,-0.20275472179663726,-0.4615533824737969,-0.2562797968328509,0.11915097090893254,-0.3002600674669583,0.9463855520901352,-1.2995107618428894,-1.867871609646557,4.154392584784556,-3.3920703651371347,-1.3598876190671656,2.0637136850518694,3.0,0.48563585890937827,0.49386842359962935,0.3418942276626442,-0.7778695059493385,0.167941320736877,-0.3239050013288955,0.5116642401198409
13.700000000000001,-2.875329891068897,1.5632159447352776,6.084763209345901,-0.21381181277024847,-0.4587245491668829,-0.2547344496223858,0.11867545945064889,-0.2989057301880854,0.9468745954595504,-1.3006513428857267,-1.866728175662756,4.1546072498678255,-3.392022573950488,-1.3596686836085963,2.06376560646041,3.0,0.48537315442691814,0.4936389142502012,0.3419174006943765,-0.7779154136523293,0.1679244927705271,-0.3238785873526684,0.511616687163668
13.8,-3.001745065299138,1.727554018146467,6.246603957155834,-0.21703844390430393,-0.4615473966566795,-0.250000675925708,0.11866551316052719,-0.298854375692987,0.9468920503690447,-1.301872246332857,-1.8655136426672148,4.15478546744318,-3.391997721540742,-1.3594583178016748,2.063834991408656,3.0,0.4850914505408309,0.4933886122547406,0.3420207916125625,-0.7779154750605246,0.1679129485178921,-0.32387702903581356,0.5116213692217331
13.9,-3.292401763885414,1.5173565485535891,6.204874245044317,-0.22213645361472042,-0.4791996890841001,-0.24517516461926586,0.11865437179329434,-0.29879883413867153,0.9469109748826382,-1.3032659733596015,-1.8642071775200746,4.15508328748196,-3.3919584661756383,-1.3592995777580417,2.0638891195164435,3.0,0.48463591515854737,0.49292019066961595,0.3422274669671819,-0.777895029433779,0.16791458622506394,-0.32389110308739183,0.5116430086065072
14.0,-3.200032023075849,1.6710458200450569,6.3901802428488885,-0.23104725663791484,-0.4870481434416835,-0.24340106904630193,0.1186095936218919,-0.2986254430417462,0.9469712630746383,-1.3046045744246169,-1.8629927365012322,4.15525200018583,-3.3919274239580957,-1.35908710738314,2.0639697597448325,3.0,0.48435271255470974,0.492651318992708,0.342332720833108,-0.7779058844184834,0.16789868133815644,-0.3238710102574287,0.5116444434437234
14.100000000000001,-3.005241514089682,1.8060327871398012,6.462088817348368,-0.23693139304657138,-0.48939971240362073,-0.23791527558038544,0.11855977414245848,-0.2984404973852746,0.9470358093218526,-1.305709029382882,-1.8618728190558422,4.155471324920654,-3.391918171451141,-1.3588789693183978,2.064021791641008,3.0,0.48406527177608194,0.49233807991976475,0.3424148487858509,-0.777919943537325,0.1679075229950257,-0.3238639165639653,0.5116246560872618
14.200000000000001,-3.314427854656916,2.158515974907786,6.621947740497084,-0.23476309011384744,-0.4849867961738103,-0.2373652666629602,0.11831890959348035,-0.29781768091858624,0.9472617185426313,-1.3069312509206625,-1.8606181758029219,4.155663013458252,-3.391905743922778,-1.3586955511364456,2.06404554440425,3.0,0.48361632390459364,0.4918737535656667,0.34260549232448756,-0.777919515979965,0.16791650807456188,-0.3238602216056272,0.5116246962716878
14.3,-3.1174900084740487,1.839699354150733,6.649443088405292,-0.23851926985440758,-0.484291281616076,-0.2296309527813853,0.11808473155327166,-0.2972111469768686,0.9474816759600208,-1.3081799035656665,-1.8594185059651418,4.155883654687202,-3.391883072554993,-1.3585072984960935,2.0641411136309604,3.0,0.4833650168851053,0.49159720626417736,0.3427278890344975,-0.7779088298744739,0.16791264647439,-0.3238787141806495,0.5116305054020751
14.4,-3.1864623298811163,2.105247838785508,6.645200607445279,-0.2356950825072825,-0.48096559324194643,-0.22951427848489944,0.1182411535307804,-0.2975557752576693,0.9473539520104358,-1.3094697930249608,-1.8582477300609384,4.156089424705844,-3.3918517069475453,-1.3582784340271057,2.0641892678784224,3.0,0.4829559252049988,0.4911903258487684,0.3428800622440674,-0.777917374206586,0.16789891446798236,-0.3238657420664515,0.5116302322417532
14.5,-3.1841845293348507,2.058573184327496,6.703120325392151,-0.24122098546060394,-0.4826217435814123,-0.23421064659104346,0.11803170568178437,-0.29695171529296904,0.9475688325652183,-1.3106592934287173,-1.857059342971492,4.156317768446774,-3.39184631923818,-1.3580698369930564,2.0642280500007666,3.0,0.4827064722023992,0.49093085368220507,0.3429509934634568,-0.777932788450521,0.16790151057891695,-0.32385716171990814,0.5116113741910358
14.600000000000001,-3.20112044750521,2.205468131303884,6.823500286454268,-0.24805905508894327,-0.480871261059822,-0.23296313023422688,0.11746779772750275,-0.2954285521089737,0.9481156334367142,-1.3118922815654388,-1.8557521929184488,4.156562896225852,-3.3918219094930415,-1.3578800173737353,2.064301013946533,3.0,0.4824145533051512,0.4906361206417746,0.3430552077002731,-0.7779358679424391,0.16790459277437766,-0.3238519506861237,0.5116089787432455
14.700000000000001,-3.3039413449705917,2.4880745246952456,6.858543775430726,-0.2488970853962536,-0.4817177923354375,-0.2281473137747557,0.11671200043108802,-0.29337218962900924,0.9488429877325203,-1.3131292316782097,-1.8545134517957282,4.156745240436755,-3.391751949763777,-1.3576647936363289,2.0643556617520593,3.0,0.4820702501902536,0.4902968644374761,0.34322663649491686,-0.7779035268449563,0.16790134159345663,-0.32386788541580425,0.5116491329119899
14.8,-3.4464623281943543,2.265670992531714,6.879603471698229,-0.239373552314852,-0.4921679253464854,-0.23123359299019253,0.1159547745105963,-0.29131185745826577,0.9495716862560271,-1.3143402969129427,-1.8534145556058463,4.156953068356852,-3.3918508772241007,-1.35746379505011,2.064407573051586,3.0,0.48163242052920036,0.4898634618018173,0.34346440675224793,-0.7778662715010668,0.1679014822006273,-0.32388405242602614,0.5116954919871353
14.9,-3.424366348397932,2.0224343144978625,7.141235948565482,-0.23517881496643495,-0.493446863820957,-0.231951592723547,0.11533151672334825,-0.2896485679373685,0.9501586073233934,-1.3155126270565867,-1.8523445458462677,4.1571736335754395,-3.3918442938113076,-1.3571946632825773,2.0644843555717625,3.0,0.481329293685594,0.4895358114384666,0.3435373802948756,-0.77790845398346,0.16791587363619204,-0.3238669372889339,0.5116374727608829
15.0,-3.194751535076902,1.7191761838353117,6.995813487524272,-0.24292735081052394,-0.4917942411459939,-0.22357397507042526,0.11485132562313567,-0.288409286538029,0.9505941220043662,-1.3167660327972155,-1.8509747911203647,4.157361754995701,-3.3918215237059535,-1.3570062194701218,2.0645527839660645,3.0,0.4809690745614349,0.4891598201953022,0.3436304329136297,-0.7779353172832681,0.16791949775349968,-0.3238632355153799,0.5115977805650672
15.100000000000001,-2.8265745727989806,1.0660550247780187,6.591067075498133,-0.1846835020464957,-0.47103799019806897,-0.22721947372617565,0.11383830444379138,-0.2856878355303253,0.9515347178359044,-1.3179751182389947,-1.8496207760772958,4.157545566558838,-3.391729788681056,-1.356795612965719,2.0645925107005607,3.0,0.48067231456319415,0.48884991730071786,0.34379174516231903,-0.7779154706356577,0.16792148209212132,-0.32387641398464123,0.511618964525493
15.200000000000001,-3.033682810784325,1.209201225689312,6.25467073846311,-0.14645597542974317,-0.45854099093077005,-0.22782859960647628,0.11281097208309934,-0.28296568624975255,0.9524714159873905,-1.3192806243896484,-1.8485608584780506,4.157794052516138,-3.391769374530577,-1.3565830266312102,2.0646696628677006,3.0,0.48021897961738397,0.48835158118164035,0.344077558418472,-0.7778416538178935,0.16793717612842143,-0.3239115362445513,0.5117038041167475
15.3,-2.8474903930854976,1.1187159712019534,5.65577680051601,-0.16673480916079586,-0.45702485311888835,-0.2221203788217653,0.1119265400245092,-0.28064095285049456,0.9532638486799965,-1.3194294277739806,-1.8483486339633752,4.1578631089807985,-3.39181367876968,-1.356549657667471,2.0646384293037716,3.0,0.4800307141363731,0.4881277608337952,0.34409021967800746,-0.7778846923153921,0.1679514979031328,-0.3239039015379416,0.5116385075245814
15.4,-3.0728863620178974,0.8490810663291085,5.615104411289364,-0.16085069654036518,-0.4688958178953469,-0.22363426684667892,0.11126558175079702,-0.2787961823563677,0.9538824289621934,-1.319439849205452,-1.84832825283193,4.15786102724153,-3.3918378389273514,-1.3565482372386308,2.0646911674137307,3.0,0.47992319454899846,0.4880445711975815,0.3440987690839517,-0.7779149681502908,0.16793796958304466,-0.3238883830455386,0.511606739623515
15.5,-3.1282329424839417,1.0220973459044587,5.407771202255995,-0.1666668849111176,-0.46304445389607923,-0.22505146849507177,0.11088035502154953,-0.2776505553912765,0.9542618355480973,-1.3194497726923133,-1.8483450468857971,4.157879104513695,-3.3918293012635945,-1.3565559926564157,2.0647021628850792,3.0,0.47987864647323203,0.4880251805128752,0.3441188627967676,-0.7779186664660197,0.16792182829564484,-0.32387765320392925,0.5116132071210564
15.600000000000001,-3.0756611543923746,1.0846221434727568,5.382572647164823,-0.1643699024592313,-0.4635033098209104,-0.22456723484250374,0.11076705173927791,-0.27731367102411014,0.9543729740828832,-1.3194615285312188,-1.8483125312420314,4.157830329186271,-3.391834398309225,-1.356553393725674,2.0646878477984654,3.0,0.47987514481173027,0.4880288194930417,0.34412772895771065,-0.7779126425175574,0.16792588849671344,-0.32387439806301255,0.5116230945366538
15.700000000000001,-2.9305743848419232,1.0133647012606266,5.322384168302496,-0.16560244167953947,-0.46558645878546834,-0.22649929510021866,0.11054982000023855,-0.2767545483673321,0.9545602305903244,-1.3194855630166253,-1.8483130190326147,4.15787935256958,-3.3918118704786844,-1.3565430057559762,2.0646937447761773,3.0,0.47988101568773117,0.48801585417313154,0.3441221326053464,-0.7779136589232438,0.16794381429123917,-0.32387086736986676,0.5116179001667663
15.8,-2.828757110963529,1.0110385246049358,5.216395811716315,-0.1671102707382652,-0.46788368508374567,-0.22258213029312932,0.11032446939982418,-0.27617806451881033,0.9547534334120604,-1.319440428209045,-1.8483186619893768,4.157856464385986,-3.39182247738027,-1.356532398854391,2.064703769775038,3.0,0.4798893662196772,0.48801419301330745,0.3441302931851054,-0.7779057338079477,0.1679437198164076,-0.323875040474249,0.5116273394187902
15.9,-2.8745062694382995,0.8860490983727246,5.109824732236264,-0.16891146278455235,-0.466381779169132,-0.21920876011331242,0.1105492736083668,-0.2767032272443952,0.9545752463763338,-1.3194565813608439,-1.848316632125267,4.157833940258307,-3.3918100796141566,-1.3565339230863898,2.064695294442745,3.0,0.4798744531055829,0.48803225861218885,0.34413285421697815,-0.7779085648375893,0.1679251929702566,-0.32387029729207584,0.5116321186655177
16.0,-2.880387176185249,0.9461512246178218,5.085528046175034,-0.1633357835347734,-0.467092674019844,-0.22092224746704556,0.11061917394018392,-0.27682983182910614,0.9545304724920508,-1.3194665908813477,-1.8482956684370346,4.157870313233788,-3.3918018139143298,-1.3565472013765094,2.0646843910217285,3.0,0.4798660597765092,0.4880402762580776,0.3441236321068273,-0.7779154410334044,0.1679171302967138,-0.32386160466282166,0.5116298124424952
16.1,-3.0118615350559717,0.9848870859955984,4.940318397699083,-0.15653257375673169,-0.46545752010210384,-0.22417666300975747,0.11039221341539167,-0.27620062504531206,0.9547390694445422,-1.3194452535554608,-1.8483039341368617,4.157889359430062,-3.391810919662081,-1.3565575252878483,2.064673722358785,3.0,0.4798686108302942,0.4880399468842356,0.34411697025327265,-0.777917880404819,0.16791506789806088,-0.32386128261910485,0.5116269841784851
16.2,-2.8324226042896683,0.684828213179977,5.049800853487373,-0.16038477978570184,-0.46603213042764174,-0.22360555092944145,0.11058512998641483,-0.2767585689360618,0.9545550021620768,-1.3194625357891718,-1.8483207899423126,4.157877579209671,-3.391808232364251,-1.3565242463152425,2.06468631216163,3.526269634815023,0.4798790468268946,0.48802880078504834,0.34412390392487346,-0.7779127090954094,0.16792029154574517,-0.3238771473648463,0.5116230899107683
16.3,-2.832187897526209,0.9206783572591308,4.889785530045773,-0.14849772523463617,-0.46503616816988347,-0.21891106237027383,0.1106287833377266,-0.2769246489978419,0.9545017497965632,-1.319459117727373,-1.848311718672252,4.157840741274044,-3.3918181755309624,-1.3565447966205042,2.0646894925041908,4.0,0.47987494612937714,0.4880270981230043,0.3441551530864749,-0.7778949950088538,0.16792298128418506,-0.3238778851269539,0.51164867303893
16.400000000000002,-2.6741578932379424,0.38463514430685825,4.870630406505353,-0.12181735596573351,-0.4459813887035298,-0.22439696718034507,0.11027044624460901,-0.27601267765625326,0.9548074069729169,-1.3194542123809305,-1.848319650229186,4.157856814923319,-3.3917981586852015,-1.3565640159405543,2.0646570459360927,4.0,0.47987873591262825,0.48802960752616764,0.34413598890679964,-0.7778941361310672,0.16793793506191573,-0.3238774070513627,0.5116453734196434
16.5,-2.794018030037954,0.3842486043274457,4.7930278816500715,-0.0912058932340359,-0.4305751137069947,-0.22289491301510317,0.11024707985142838,-0.2759210165607484,0.9548367234881033,-1.3194646971997688,-1.8482989599648731,4.157856464385986,-3.391805105442168,-1.3565447966205042,2.0646768920998873,4.0,0.47987728519184375,0.48803006708112195,0.3441289831809948,-0.7778983758446629,0.16792882404152767,-0.3238801297704088,0.5116401943301255
16.6,-2.84827379834928,0.499638203214209,4.557524029809774,-0.10042358461583911,-0.4330872500335335,-0.22255573207539575,0.1101221973850881,-0.27554275777195436,0.954960093190336,-1.3194665908813477,-1.8483076683299107,4.157896380980264,-3.3917937061423444,-1.3565641859355573,2.064700373613169,4.0,0.47988333252836207,0.48802085453960353,0.34415688473687917,-0.7778838539686405,0.16792910191110608,-0.3238970743465348,0.5116514552857048
16.7,-2.8615528353739337,0.4261287593526132,4.398460286610182,-0.10217980107656849,-0.4336731233135062,-0.22195014573843683,0.10977182580396835,-0.27454890979687735,0.9552868874208326,-1.3194895392504202,-1.8483088271516173,4.157848482797471,-3.391814972628912,-1.3565447966205042,2.064697171074566,4.0,0.4798679861849445,0.4880385998177863,0.34413771562458734,-0.7779038309141745,0.16790773371279472,-0.32387956412870156,0.5116391802318181
16.8,-2.7265159408109088,0.25649230242729815,4.5598351690284105,-0.10776865347102961,-0.43777231708671416,-0.22142039753015152,0.10976729291617322,-0.2745007273951751,0.955301250185393,-1.3194584414383768,-1.8483194242687115,4.157881591835147,-3.3917997838365754,-1.3565482285463646,2.0646559689237423,4.0,0.4798711046662323,0.4880318097355566,0.34414541947230065,-0.777902223096026,0.1679116821237349,-0.3238804665456949,0.5116397577385687
16.900000000000002,-2.795921669358948,0.48266966519915344,4.4964702800077205,-0.10587199800101768,-0.43854528716393465,-0.22107571149606042,0.1098019578758678,-0.2746820506552846,0.9552451470540896,-1.3194518181890735,-1.848317712263752,4.157859792986463,-3.3918393846538524,-1.356560184841623,2.064671089731996,4.0,0.4798773672036054,0.48802185527083775,0.3441615106867782,-0.7778901430472749,0.1679239038006195,-0.3238924043407088,0.5116465560253932
17.0,-2.6828470471685417,0.5256887374920495,4.348766819129325,-0.10626392522264227,-0.4421205208923128,-0.2207099050249051,0.11112901636700338,-0.27828772608962987,0.9540397204299295,-1.3194665908813477,-1.8482834990448902,4.157863005376589,-3.391834398309225,-1.3565533107835206,2.064683161724087,4.0,0.479867787509389,0.48803515624037036,0.34414814731889803,-0.7778984637887136,0.16791687337362163,-0.32388636118874037,0.5116400382177918
17.1,-2.74155666661905,0.32976549229032776,4.490354899215028,-0.11420709885108052,-0.438333013170168,-0.2215201626150351,0.11237469092498285,-0.2816576259773066,0.9529117672079859,-1.3194699839517905,-1.8483074685852396,4.157864515407341,-3.3917969824793155,-1.3565483310688822,2.0646834088971304,4.0,0.47986702030613504,0.4880367440636013,0.34416229356948563,-0.7778898264763106,0.16791609315842748,-0.32388967940303437,0.5116513257084996
17.2,-3.1324828257782,0.7058159534911255,4.51641808150081,-0.10282540552239908,-0.4335666719411274,-0.22084038669147452,0.1125257172371502,-0.2820750824283048,0.9527704587111151,-1.3194517573511484,-1.8482955438729092,4.157840394728271,-3.39182247738027,-1.356540433683249,2.0646924258505863,4.0,0.47987415191767946,0.4880345551632617,0.3441751716142024,-0.7778795111955423,0.16791380615341817,-0.32389882117224855,0.5116619718217137
17.3,-2.9760373009178585,0.735410029313186,4.371159103923885,-0.10449504027340469,-0.4391570441762147,-0.22025091329671304,0.11281053390592563,-0.28283796563168895,0.9525103318540823,-1.319443702697754,-1.8483005963331647,4.15787935256958,-3.3918049678047435,-1.3565413253046592,2.064696788787842,4.0,0.479873693359023,0.48803232386658185,0.3441704457629537,-0.77788595113804,0.16791383491153572,-0.3238915684760321,0.5116567628181068
17.400000000000002,-2.8637155865573387,0.5672342064294669,4.333229466145356,-0.11047841614857176,-0.44233810218690667,-0.22104189941677524,0.11291733681302597,-0.2831053795382878,0.9524179064551326,-1.3194874567134296,-1.848283600939795,4.157872615940761,-3.3918321442483728,-1.356565129817571,2.0646386248760358,4.0,0.47987052845715894,0.48803233142066377,0.34415153425661166,-0.7778949125677843,0.1679130383948297,-0.3238806939896499,0.5116502834934795
17.5,-2.8183170870740066,0.39528762179737426,4.404563131792614,-0.11494582218275305,-0.44287340404549363,-0.21889573495777567,0.11240789904793776,-0.28168035713006084,0.9528999256085231,-1.3194481776647204,-1.8483025976372982,4.157912249742217,-3.3918547584469407,-1.3565482783406988,2.0646641701528208,4.0,0.47985955397493096,0.488026235389752,0.34414296837681496,-0.7779112822463177,0.1678948568287933,-0.32388152463292913,0.5116308356674548
17.6,-2.6727622999643477,0.5001888668125604,4.606240811853608,-0.11445234126364551,-0.44242793923883833,-0.22248398212837903,0.11209062135172838,-0.28080561289262335,0.9531965182980366,-1.3194698491886672,-1.848309066925568,4.157859722693305,-3.3918203975873347,-1.3565703771969961,2.064657290856499,4.0,0.47986230337795355,0.48802607993681396,0.3441587829821995,-0.7779016917558652,0.16789958446522366,-0.32388410994689487,0.5116422293201337
17.7,-2.9658042321110334,1.0944591749325405,4.4088048317207145,-0.09838767082287021,-0.4398644302116831,-0.22142150572409192,0.11233667628790937,-0.28154405318569947,0.95294951845753,-1.3194780349731445,-1.8483022367047712,4.157864680005089,-3.391831035316835,-1.3565704704302004,2.064683336818283,4.0,0.4798747661981291,0.48802299507549,0.344131954660623,-0.7779088252116284,0.16792339455639707,-0.32386930512569695,0.5116329410973444
17.8,-2.9795140141648035,0.8599398796979242,4.284765910120166,-0.10587049392671077,-0.4401846965070435,-0.21908780623010557,0.11252889859611702,-0.28212941232749517,0.9527540277003891,-1.3194880530251987,-1.848319282294151,4.157859627981372,-3.391792828579966,-1.356548092032364,2.0646867707357877,4.0,0.4798787481625633,0.4880192452958046,0.3441489582019223,-0.777894846377722,0.16791889284723796,-0.32389444604713735,0.5116397572743503
17.900000000000002,-3.0721973523739634,0.7141846208670372,4.307847931979567,-0.10984255570285385,-0.4366116453128192,-0.21999208320156005,0.112554127731121,-0.28223990133620624,0.9527183222928383,-1.3194699188863497,-1.8482870256227055,4.15786312039599,-3.391825944052147,-1.356541191281752,2.0646774576779743,4.0,0.4798832162797707,0.4880170460924871,0.34414300221891225,-0.7778953952777526,0.16792122178127514,-0.3239018168952439,0.511633492153429
