xiamingqian9007/apple-picking-rnn/training_data/grasper_20191127_112941.csv
,/manipulator_wrench.fx,/manipulator_wrench.fy,/manipulator_wrench.fz,/manipulator_wrench.tx,/manipulator_wrench.ty,/manipulator_wrench.tz,/ground_truth.x,/ground_truth.y,/ground_truth.z,/joint_states.elbow_joint,/joint_states.shoulder_lift_joint,/joint_states.shoulder_pan_joint,/joint_states.wrist_1_joint,/joint_states.wrist_2_joint,/joint_states.wrist_3_joint,/mode./mode,/manipulator_pose.x,/manipulator_pose.y,/manipulator_pose.z,/manipulator_pose.rx,/manipulator_pose.ry,/manipulator_pose.rz,/manipulator_pose.rw
0.2,-9.68175555811455,-3.1207295262228967,-11.43744147068607,-0.13260250327250567,0.2628967796659803,0.47125987948027653,-0.021022320952251414,-0.041327037201133336,0.9989244608410307,-1.968826319116642,-2.075434462944945,4.169088054766886,1.076689934452884,1.3268391639326584,-0.4733079115497034,1.0,0.4546016769534296,0.4496430794883473,0.27949076168794307,-0.5420906119290823,0.3495363673766558,-0.16541853109978547,0.746055497874169
0.30000000000000004,-9.956145802973237,-3.8354763712964273,-11.172255606479448,-0.12982975234214528,0.24474746691885021,0.4429563059621133,-0.02111696194270829,-0.04159068100255605,0.9989114847329574,-1.9654083606875126,-2.076829537224984,4.168472766876221,1.0746843767663825,1.3273105443876891,-0.4732306560294888,1.0,0.45466237420644134,0.44973065859889505,0.27953814332632243,-0.5420857380747022,0.34951166677109985,-0.16541733061263034,0.7460708773969703
0.4,-9.743573280992447,-3.7286594144580794,-11.269033590614123,-0.14076844845666137,0.2458020853599175,0.37189892030288724,-0.021218161707882526,-0.041872358835650096,0.9988975938461598,-1.960762571200619,-2.0788798095637198,4.167565764127694,1.0719371227878927,1.3283383359874557,-0.47303862268100016,1.0,0.45517706012173287,0.4502503131901685,0.27971063419659037,-0.5420465286323362,0.3495228890618393,-0.16542189270122587,0.7460930962250241
0.5,-9.896559750807395,-3.5445168113100762,-11.368485311696388,-0.14319234563403913,0.24191718562695408,0.3143890348397471,-0.021544412742097563,-0.042852288337425194,0.9988486789160157,-1.9563482515117068,-2.0807410777993924,4.166644012535638,1.0692042480924366,1.3292396100818717,-0.47290609562961616,1.0,0.45666797801412334,0.4516843562019258,0.2800056593866906,-0.542099559756338,0.3495157722141439,-0.16541546516531164,0.7460593248326027
0.6000000000000001,-9.726710692778978,-3.3841472503898617,-11.28217785009955,-0.14680804847343762,0.23967637882135595,0.27890843237556634,-0.02201804702094326,-0.04412658711522238,0.9987831004590745,-1.9519689343803888,-2.0825831156267856,4.165865264861514,1.0666774817606532,1.3298815295624888,-0.47275691333403846,1.0,0.4572722290312097,0.4522703718852648,0.28012767821850804,-0.5421595656846735,0.34950657041902655,-0.1654081435108022,0.7460216542640342
0.7000000000000001,-10.008331113156068,-3.388029134882318,-11.16415368318118,-0.14427114755456039,0.2456309586076163,0.2485840240192182,-0.022390221821216298,-0.044907089458379665,0.9987402050127688,-1.9476134594575858,-2.084461645766376,4.165187980534118,1.0642989263910303,1.3305477454338546,-0.4726078825179734,1.0,0.4582419532805507,0.45316138223319763,0.2803804486800784,-0.5420889335792395,0.3495493410358742,-0.16543688433357695,0.7460465693067073
0.8,-10.239331740240024,-3.2052380358124015,-11.102080776537711,-0.13444080001047867,0.24923523371982156,0.24573149084288712,-0.021908839117704453,-0.0435243071451485,0.99881205844124,-1.9435031197376351,-2.0861010416883987,4.16451225926211,1.0618765000410537,1.3313093291250355,-0.47251253658726566,1.0,0.45977115418048825,0.4547317921465556,0.2807433135528741,-0.5420610925966405,0.34954774658530186,-0.16544957644493655,0.7460647307065691
0.9,-10.0436712952844,-3.4179777806657503,-11.189301992781392,-0.14225132738440513,0.24715828909403634,0.25764733218928704,-0.02135311321665242,-0.04237698638906298,0.9988726787995235,-1.9396411109082092,-2.087786940863524,4.163864116572682,1.0594202906802475,1.3321909535835648,-0.4723385753359431,1.0,0.4602816772449869,0.4552864409423361,0.28087109038972596,-0.542079664941892,0.3495600773105188,-0.165390363832215,0.7460585880201352
1.0,-9.878236448982758,-3.1675749268929088,-10.997325073512705,-0.13901447623569232,0.2431134182867352,0.2635282542307945,-0.020795032054437532,-0.04124487244115556,0.9989325553130328,-1.9357237797329991,-2.0896764292304457,4.1631802714756825,1.057332598650487,1.332766056060791,-0.47224917135303074,1.0,0.4614298222081979,0.4564913083593173,0.281108476577855,-0.5421699314551351,0.34950327815496907,-0.16534596224555667,0.7460294476453029
1.1,-9.908614106599515,-3.590834523804879,-11.214423368421985,-0.13740588322271569,0.24418373658432027,0.2661934085145639,-0.02098598413154879,-0.041791544294036205,0.9989059146739898,-1.93202661723166,-2.0909714219587774,4.162437866628705,1.0551349359699707,1.3333901019755556,-0.47212344804872686,1.0,0.4620429780068767,0.45713669859442524,0.2812195545225986,-0.542128417847253,0.3494782653300923,-0.16534295359239706,0.7460719994220708
1.2000000000000002,-9.855736210764025,-3.783521326816598,-11.223135387497015,-0.14622739481359218,0.24183760353405304,0.266609896800193,-0.02157502502046844,-0.04299377709757293,0.9988409317559306,-1.9284417418163953,-2.09235903122916,4.161728497571075,1.052911372441453,1.3339193080088374,-0.47202037884333936,1.0,0.46285957012608375,0.4578050338410159,0.28144489665242123,-0.5421109730888976,0.34952090796420615,-0.1654088763302372,0.7460500863773518
1.3,-9.943708058007239,-3.5322507378140835,-11.342221195492018,-0.14532220781196747,0.24969995967742564,0.2673738332550479,-0.022188354205939075,-0.04423416192686469,0.9987736690489833,-1.9249157153199294,-2.094189582336272,4.161030292510986,1.0509333672881602,1.334505558013916,-0.4719197190255118,1.0,0.46412607518463567,0.45893621684792857,0.28185192867245223,-0.5420353063343744,0.3495655724964598,-0.16548649167065588,0.7460669261445392
1.4000000000000001,-10.217201349480817,-3.735690403859718,-11.214070650133213,-0.14724365734738787,0.24510497014987206,0.26858536066602595,-0.02230190327397586,-0.04443900550101804,0.998762294467221,-1.92143386954611,-2.0956277597535897,4.160546246712858,1.0488887965899059,1.3352054401554845,-0.4717918978894893,1.0,0.4646110637009083,0.4593797745704272,0.2818360439166216,-0.5420782371789762,0.34959864842390126,-0.16548370273256305,0.746020853547028
1.5,-9.808980167880309,-3.5184067891193136,-11.092359426460337,-0.14485450798714047,0.2415023273420609,0.27173994983671657,-0.021710451482742154,-0.0431830917356615,0.9988297569077887,-1.9180945153867601,-2.09681169860988,4.159994698185464,1.0470422476851378,1.335818976060435,-0.47172248426404423,1.0,0.46566396897509826,0.46051947873628507,0.28204871767618656,-0.542156197877988,0.3495476855789853,-0.16542464926898345,0.7460011782987295
1.6,-10.09141516373611,-3.703020610584795,-11.199885601571863,-0.14994717414840616,0.2454547802178235,0.2685352184111492,-0.02111899969150845,-0.04192717797030495,0.9988972193483566,-1.9150620312312767,-2.0980788357357807,4.159481614425051,1.0451508930724238,1.336254133112592,-0.47160468048301113,1.0,0.46599478677452505,0.4609015825774612,0.2822282933887406,-0.5420914123691022,0.34948930345011964,-0.16536559764701952,0.7460886988317583
1.7000000000000002,-10.2235106128159,-3.5531787568218096,-11.03786682109976,-0.13604035862376457,0.24669107149933134,0.2743566057439209,-0.021614596687687053,-0.043211734186866746,0.9988307030769012,-1.9117911089928896,-2.09962780720297,4.159040927886963,1.0433368587503842,1.336729222797554,-0.4715097161184673,1.0,0.4667762976489375,0.46165560198203226,0.282534228830616,-0.5420397745545023,0.3495024577099536,-0.16539336364556945,0.7461138988905186
1.8,-10.247999572943808,-3.3726235787030463,-10.994731379658226,-0.13890537095299751,0.2523051509633432,0.2716527014516699,-0.022224768213170498,-0.04476405497458847,0.998750065500087,-1.9089160351923415,-2.100927352589358,4.158567557458364,1.041577949694424,1.3372329376893415,-0.4714341944518811,1.0,0.467780861289791,0.4626996194144038,0.28265556040395656,-0.542094977662887,0.34952070565451504,-0.16539583675675554,0.7460646947115086
1.9000000000000001,-10.090689678598835,-3.355035345648027,-11.20655253580396,-0.13970038109129712,0.24393958097942697,0.2728484073573678,-0.021888608632907553,-0.043814343642000105,0.9987982354040397,-1.9058903325687755,-2.1019906195906235,4.158113936944441,1.0398522486960782,1.3376476390795273,-0.47132256265315664,1.0,0.46820816110216995,0.4631564097532649,0.28265913671040993,-0.5421891590724804,0.3495474577701137,-0.1653848463601613,0.7459861547945464
2.0,-10.076526012946145,-3.7968911681685427,-11.128230296070978,-0.145062496472656,0.24931067586764546,0.2752239331805213,-0.02144407753758953,-0.04257810573330326,0.9988611560244764,-1.9031353850335626,-2.103111520433017,4.157553195953369,1.0382082558790215,1.3381512555074402,-0.4712305064567824,1.0,0.46910265858507355,0.46404087242267755,0.2830341015453637,-0.5420741268320448,0.3495196897103493,-0.16538207205753502,0.7460833718600177
2.1,-10.136917014675532,-3.257809215652661,-11.21929314929906,-0.14437966460994722,0.24463772762980648,0.2770473277513939,-0.020999546442271505,-0.041341867824606415,0.9989240766449133,-1.900418322948429,-2.1044215483864903,4.157136731320767,1.0366458633156723,1.3386720155804612,-0.4711627666967813,1.0,0.46951420296728663,0.4643826987702258,0.28316302119955283,-0.5420741305027076,0.3495313947489586,-0.16540236057181643,0.7460733879732289
2.2,-10.078837786793688,-3.228974395905288,-10.969882338029976,-0.13547389853271694,0.2432726629572969,0.276972341018021,-0.021559558230321907,-0.042991917004962854,0.998841521976642,-1.8976932395640713,-2.1056126407632356,4.156630039215088,1.0350225038421474,1.3391309309845443,-0.47107617384801664,1.0,0.4700709157301107,0.4649760083232737,0.2832376204123001,-0.5420890475109393,0.34950817823593244,-0.1653662929984727,0.7460814211966587
2.3000000000000003,-10.151451011951703,-3.3368223850350938,-11.068553280683682,-0.1389605851333461,0.2483817095526095,0.27903351217093636,-0.021941962061393396,-0.044073882328188534,0.9987872427610758,-1.8951544091112396,-2.106724040280023,4.156165303602614,1.03367315293318,1.3395349076316767,-0.47099747136551984,1.0,0.47093432341916985,0.46577722130223487,0.2833906226357698,-0.5421179548831789,0.3495254183883055,-0.16537693117899807,0.7460499819231794
2.4000000000000004,-10.221943681830163,-3.5870292704233915,-10.950739700727985,-0.14012423496030577,0.24595461366527022,0.273101180114555,-0.021829238354982055,-0.04363897467899509,0.9988088345073631,-1.8925635630381104,-2.1077124081053675,4.155763437949688,1.0320767415007568,1.3398853368675034,-0.47094300331449557,1.0,0.4716275963422441,0.4664225618691258,0.28353679918091257,-0.5421108953637765,0.3495277072566152,-0.165409122290105,0.7460469028493018
2.5,-10.13748322959916,-3.5702362041758726,-11.039050742349735,-0.14175725736066316,0.24891161851023208,0.2746095461794955,-0.021888475765106368,-0.04369450055658419,0.9988051169008677,-1.8902502059936523,-2.108750127238095,4.155382484974338,1.030827124970054,1.3402429841778933,-0.4708726951140092,1.0,0.47189881348221935,0.46670554486579957,0.28361225069298124,-0.5421222196846756,0.3495354975309937,-0.1654096472173449,0.7460349076935705
2.6,-10.125470887580907,-3.3493612554810377,-11.070110329970136,-0.13931092324622205,0.24792307176607106,0.2752244558963182,-0.021973453725794772,-0.04382343854761379,0.9987976107828287,-1.8878355026245117,-2.109774972236536,4.154998545881657,1.0293734055532207,1.340599293473812,-0.47080424524200265,1.0,0.47259835278521023,0.467354542474716,0.28379611158095347,-0.5420870136249938,0.34954603342239626,-0.16542497079328067,0.7460521558281614
2.7,-10.05168601556237,-3.8223271793273565,-11.065865662791566,-0.15265089413712762,0.25004694693524676,0.27500109286210034,-0.0222385458352029,-0.04448777832490691,0.998762193926781,-1.8855049474040437,-2.1107448676227105,4.154670086330152,1.0279964706369802,1.3409383234262522,-0.47072785809108075,1.0,0.47328482635522795,0.46803683526446704,0.2839642027573885,-0.5420859998865375,0.3495591439991921,-0.1654315711477652,0.7460452860524937
2.8000000000000003,-10.041453843450492,-3.365571783769563,-11.17172950852867,-0.14270247890332569,0.250224445303382,0.2786411597860341,-0.022276595800028647,-0.044556239927360144,0.9987581437980194,-1.8834829330444336,-2.111649992014212,4.154326076096866,1.0268209195323796,1.3412857865592662,-0.47066154565016505,1.0,0.47358354596996893,0.46834216792066274,0.28409022131229167,-0.5420683699698297,0.34955597564885976,-0.1654322101216416,0.7460594386647049
2.9000000000000004,-9.937291987443643,-3.7647710208571543,-11.049277897929436,-0.15201914061539332,0.2432190588369409,0.28011515343669946,-0.021840061988206382,-0.04336024379648643,0.9988205719178637,-1.881119728088379,-2.112539329193675,4.1539752826254555,1.0254999824902662,1.3416650976358147,-0.4706143611087465,1.0,0.47406743883191915,0.46881480574914347,0.28417639817920354,-0.5420759494618704,0.3495599522723877,-0.16543428851418804,0.7460516074415646
3.0,-10.122623043397377,-3.651425647577758,-11.060059750145243,-0.14587809879866975,0.24845646011446687,0.27591473141580014,-0.021659429789886647,-0.043010463188933444,0.9988397975737385,-1.8792292191223665,-2.1135678801300104,4.15364989525441,1.0243237144336088,1.342020862707586,-0.4705665239277805,1.0,0.4747603582959188,0.469524393437877,0.28443156530919145,-0.54202433477449,0.3495275698329297,-0.16542052035965457,0.7461073313424145
3.1,-10.054796781843788,-3.4461033464104913,-11.137325073001158,-0.14623862392584483,0.2496522027259733,0.281823529294712,-0.02168316047638206,-0.043225778154534635,0.9988296679502374,-1.8771053556455515,-2.1144507699251927,4.153370380401611,1.0231677728840332,1.342368531072851,-0.47049035246171567,1.0,0.4750635846175566,0.46984230390356074,0.2843895514214657,-0.5421168751845417,0.3495275565448995,-0.16539932720299608,0.7460447998724316
3.2,-9.978932048375425,-3.3576820549023307,-11.290979942472733,-0.13793813043968395,0.24353068140827322,0.27623899054532836,-0.022030579291811257,-0.044277495054708266,0.9987757693769944,-1.8750821749454598,-2.115236724129022,4.153087239102956,1.0220275834637103,1.342653347603399,-0.47045657018597414,1.0,0.4756555363787796,0.47048006498812994,0.28448933096992535,-0.5421371050526548,0.3495211717695373,-0.16536780033391302,0.746040079635605
3.3000000000000003,-10.17896025079751,-3.2046582482353143,-11.159866690335312,-0.1356247372248647,0.24769341386215601,0.2744919996386185,-0.022172914421282622,-0.04471290401363205,0.9987536023756568,-1.8732918795564384,-2.1159711024453847,4.1528076301864685,1.0209343573778877,1.342923641204834,-0.4703906218158167,1.0,0.4759150250896691,0.4707491566029685,0.28461544917799203,-0.5420965832275298,0.3495042409186489,-0.16538345770233304,0.7460739855747134
3.4000000000000004,-10.071944758552927,-3.7681791561221987,-11.041827900469022,-0.15228354478279296,0.25000033679679173,0.2762207576767961,-0.02186072998452741,-0.04378241194142033,0.9988017609110911,-1.8714325407014822,-2.116723673815886,4.152483543997209,1.0199624793169997,1.3431915458830928,-0.4703584425706479,1.0,0.4764947448033465,0.47127911582858234,0.2847647493415056,-0.5420924535357915,0.34951924121072087,-0.16539437904043514,0.7460675379782027
3.5,-9.857094346770712,-3.785432377514119,-11.077047942761995,-0.14812398256119996,0.24531988090786547,0.27646229991304194,-0.022264172697975773,-0.044856572866808546,0.9987445060834259,-1.8696775436401367,-2.1175245389708786,4.152236536673517,1.0188250383308781,1.3434472829754807,-0.4702915142578502,1.0,0.4767852560357802,0.4715663839699392,0.2848788408083665,-0.5420534725998213,0.3495076757874652,-0.1653847624577876,0.7461034095585544
3.6,-10.172374234318825,-3.5535420592706584,-11.20208222588928,-0.145555549463997,0.250755074627191,0.28303014162103485,-0.022587781531442343,-0.045709282363862416,0.9986992000435009,-1.86789739243317,-2.118332450886918,4.151957035064697,1.0178545733083397,1.3436993327890157,-0.4702396963293947,1.0,0.4771368617552094,0.47193617011146627,0.28496837628748617,-0.5420535535969264,0.3495012012406972,-0.16539722166742823,0.746103621777129
3.7,-10.088065707048075,-3.608402806866599,-11.287809665762255,-0.1487665034774279,0.2444205121357187,0.28237762954233886,-0.02227332249921317,-0.044780021291657125,0.9987483520288415,-1.866215723325041,-2.119139968491711,4.151692867279053,1.0169917867377158,1.3439374287429497,-0.47021959238623345,1.0,0.4776932377242908,0.47246536944775297,0.2850169120280731,-0.5421049671835151,0.3495338086711932,-0.1654143263288834,0.7460471981020582
3.8000000000000003,-9.95120550766731,-3.5509241491070096,-11.254668392939884,-0.15188169801632195,0.24650022605087127,0.27968159733437004,-0.022086870489054247,-0.04422940345205344,0.9987771416022796,-1.864659032057027,-2.1198483906187953,4.151432375525584,1.0160043315210752,1.3441542746454287,-0.4701420231269377,1.0,0.4779148020571691,0.4726768237493974,0.2850828378224512,-0.5420520118303537,0.3495368057159514,-0.16539614726168791,0.7460883006665805
3.9000000000000004,-10.050504419573745,-3.4550845111422204,-11.236218851225766,-0.1547037219630476,0.24847798478212893,0.27837859280029265,-0.021956451492686067,-0.04384453059370939,0.998797017857616,-1.8631232291380833,-2.1204318559272286,4.151153087615967,1.0150730039727716,1.3444274381382737,-0.4701040426837366,1.0,0.478304667650202,0.4730490070356211,0.28509013667578087,-0.5421210363648644,0.3495578301893094,-0.1654126627305682,0.7460246351779618
4.0,-10.150219828843252,-3.6606163594185146,-11.138368662541117,-0.149296208818528,0.2505143164727708,0.27695943286682934,-0.021839868953160552,-0.04356477890928415,0.998811829348949,-1.8613196711684719,-2.1210769066483843,4.150941219445431,1.0141969306959784,1.3446785854570793,-0.47006442254435454,1.0,0.4787960395145371,0.47352358557339325,0.2852686540597029,-0.5421176357228188,0.34954535850750784,-0.1654374648425629,0.7460274503063711
4.1000000000000005,-10.036446692097082,-3.7600956953012603,-11.151440440290736,-0.15433808219216474,0.25001447225925705,0.2852531547995909,-0.02172965801374576,-0.043333434854861075,0.9988243085487674,-1.8599366454275799,-2.121692893071478,4.1507048742721,1.0133506494709472,1.3448988797787726,-0.4700473402267244,1.0,0.47902779973616166,0.4738153398373427,0.28539947203001237,-0.5420554857837708,0.3495102434074338,-0.16539165616457033,0.7460992160270223
4.2,-10.168239006182235,-3.632818974645882,-11.149473285954265,-0.15586950281850107,0.25022505979087134,0.2819749468448495,-0.022120171906420755,-0.04436943069530502,0.9987693873174381,-1.858507731297682,-2.122318651946378,4.150461428888481,1.0123785252650082,1.3451509901855159,-0.4699912216515948,1.0,0.47946448386057544,0.47420488092551044,0.2855018763523523,-0.5420537169598187,0.3495106121538532,-0.16541632560265276,0.7460948593483275
4.3,-10.180278158229646,-3.8223869269917423,-11.111012585425552,-0.16035469979432307,0.2531491243881121,0.2815667226117207,-0.02262633325795472,-0.04569168609116286,0.9986992977271444,-1.8567243648530167,-2.1230458491541846,4.150216032433531,1.0114074678847025,1.345395025667549,-0.46991752060217695,1.0,0.47970664129065,0.47443036035987796,0.2855324616200297,-0.5420845218061259,0.3495410978402019,-0.16540377778345222,0.7460609776914033
4.4,-10.123802894233071,-3.7120742703329204,-11.416337474079993,-0.15279657660669535,0.2517489335569983,0.28055214056388844,-0.022484234601449004,-0.04533987701420015,0.9987185269481821,-1.8551275825755018,-2.1238165241090163,4.1499956984926625,1.010636611694332,1.3456220626831055,-0.46991585701053,1.0,0.4800435926282471,0.47479071375366616,0.2856517405396225,-0.5420679736077977,0.34953334157694266,-0.16538774827936156,0.7460801886083523
4.5,-10.171866660775772,-3.431829344347423,-11.166129485268794,-0.151225121109325,0.25132100434256055,0.2839280991980837,-0.022297809186943376,-0.04489054487524101,0.9987429503629653,-1.8537748278262969,-2.1246085010036944,4.149717926495746,1.0097016540844364,1.345876420034173,-0.4698408285724085,1.0,0.48042780629118836,0.4751549334599285,0.28574747736231493,-0.5420318004634236,0.3495211046382556,-0.1653988873123145,0.7461097323950957
4.6000000000000005,-10.315355506360412,-3.19657679826837,-11.179675384169613,-0.14706762293278916,0.2553621791159429,0.28258740867366083,-0.022084298592944224,-0.04436599984747724,0.9987711507463,-1.8521965023303608,-2.1252828383566187,4.14949412630035,1.0087772799563823,1.346144631366268,-0.4698465262880683,1.0,0.48091129413092,0.47564697999947453,0.2856597921460322,-0.5421824952683288,0.3495398615483804,-0.16541165968379754,0.7459886124157654
4.7,-10.121337537351948,-3.257633222842547,-11.161625914659988,-0.15166312647655478,0.2525594532471475,0.2844065115869277,-0.0218510439061253,-0.043702657257975,0.9988053461405921,-1.8504069355206612,-2.125836883034297,4.149241266984206,1.0077830285088532,1.3463482153721344,-0.46977484170680245,1.0,0.48115579904674616,0.4758693190842947,0.2856841892419827,-0.5422083189552986,0.3495694456940303,-0.16541267987133546,0.7459557539362645
4.800000000000001,-9.837725373512917,-3.72486088038176,-11.116831805718451,-0.1609931139635818,0.249553602069332,0.28289240579254826,-0.02168182795121578,-0.04322273525558931,0.998830109670349,-1.8489484786987305,-2.126513325911447,4.1490307651077245,1.0069886197665439,1.3465764579268804,-0.4697335402118128,1.0,0.4814628375451644,0.47617052193704845,0.2858911940979311,-0.5421151197336066,0.34953152041466895,-0.16540893010741092,0.74604208931772
4.9,-9.96290348091173,-3.819486087415787,-11.13888638654719,-0.1602204779116639,0.25400684870101997,0.282259711069711,-0.021929921173406957,-0.04393807574499089,0.9987934103398909,-1.8475386931900553,-2.1270908893466736,4.1487832494178685,1.0060753448908795,1.3468040570419488,-0.4696853796588343,1.0,0.48178724761106495,0.4764994824955409,0.2860233798000918,-0.5420790436620586,0.34951119070216274,-0.16540232849246594,0.746079290508492
5.0,-10.35302276174504,-3.447218194768678,-11.23844185980218,-0.15063943071924826,0.26181755908944937,0.2834887963340803,-0.021958414417163452,-0.04396883645731821,0.9987915096395906,-1.8457800702947387,-2.127700468102926,4.148552417755127,1.0050951257678784,1.3470164465080297,-0.4696644006872009,1.0,0.4822771087999825,0.4769621243375322,0.2861615378550929,-0.5420769080415023,0.3495205480455914,-0.16541782277694284,0.746073023349464
5.1000000000000005,-10.226422463286534,-3.3639963622681166,-11.27801005491973,-0.14978390052794593,0.2543871671798954,0.28027548532350177,-0.021819908286650928,-0.04349979735175532,0.9988150201117099,-1.8441364796041584,-2.128413321472879,4.1483426738986005,1.0041934686848144,1.347226537045815,-0.4696358349059037,1.0,0.482667976762601,0.4773599673858381,0.28634229790460347,-0.5420383416656941,0.3495119255952908,-0.16541628793666655,0.746105422655693
5.2,-9.849653953873496,-3.5063701877368945,-11.190360991915611,-0.16508198775101687,0.2517691275700075,0.28355250552175154,-0.021426190365472803,-0.04239952125319873,0.998870659532378,-1.8426966704809078,-2.129168839218384,4.148125652261913,1.003409250405579,1.3474812507629395,-0.4695888364387077,1.0,0.48286634631797976,0.4775657129370922,0.28640261337702666,-0.5420265774133392,0.3495143158245942,-0.16541578552522118,0.746112960824513
5.300000000000001,-10.060966177207616,-3.514572452462823,-11.120576744526039,-0.1566309484577885,0.25569711518837607,0.28092399715387606,-0.02133472735911088,-0.04215053334206888,0.998883411427922,-1.8410707465622163,-2.129924532857262,4.147883320668008,1.002454534734374,1.3476352725536722,-0.46953231577820936,1.0,0.48321414129746953,0.4778956356335618,0.2863708742044001,-0.5420569968709601,0.3495421530701614,-0.1654097109976938,0.7460791666290993
5.4,-10.219059324363233,-3.163634732485527,-11.224654558173546,-0.14746403061431038,0.25807131551335377,0.2735375689431328,-0.02144229373831419,-0.042462103279884214,0.9988679226651495,-1.8395022267596095,-2.1306759456049402,4.147689028657793,1.0015198160908643,1.3478746550532836,-0.469518009816305,1.0,0.4837152575450704,0.4784344517661636,0.2864490450246118,-0.54209422343825,0.34953576710101036,-0.16540871111534533,0.7460553322101181
5.5,-9.997621684327672,-3.491496636660885,-11.249344348339577,-0.15967205983822183,0.2555581780151118,0.2838919675510434,-0.021619527266402528,-0.04294658241061905,0.9988433118329397,-1.8379664795993182,-2.131343366352019,4.1474325650585016,1.0005757245416946,1.3481579008054263,-0.4694728298108579,1.0,0.4839345445353404,0.47863902998559205,0.28647131278217364,-0.5421031446029753,0.34956094764964013,-0.1654116611292987,0.7460363978066334
5.6000000000000005,-9.90960585511344,-3.6633766399508576,-11.046142054004426,-0.16066839061983812,0.24906365600509,0.2828216896777632,-0.02184552111245838,-0.04355459723064161,0.998812149529428,-1.8362725066762562,-2.132009611475392,4.14719229844629,0.999800665049806,1.3483430656388913,-0.4694207010098158,1.0,0.48439998962717057,0.47909874225261767,0.2865822318731419,-0.5421196394339777,0.34954753584008713,-0.16542280307003604,0.7460282253055504
5.7,-10.036891916747544,-3.537333078416873,-11.148448250567188,-0.1558246812928699,0.26011817568648393,0.2868941705625947,-0.022083499957501286,-0.04421959409504698,0.998777611129032,-1.834728167104587,-2.13261805278437,4.146985456991062,0.9988749234748278,1.348569356226854,-0.4693864027606409,1.0,0.48461735042557147,0.47930486146865586,0.2866792400678397,-0.5420841745437331,0.3495377408720441,-0.16541670370155895,0.7460599369700922
5.800000000000001,-9.975853265174274,-3.5598845560424297,-11.234625576966437,-0.15925655794550056,0.25623633793875167,0.28307435304369605,-0.021906543467058753,-0.043773778332026995,0.9988004999806587,-1.8332461420109367,-2.133163114587301,4.146733036059753,0.99784494771308,1.3488249778747559,-0.4693193277055813,1.0,0.4849640542821286,0.4796568098680121,0.2867936321975582,-0.542053849379974,0.34951605437849753,-0.16540185330152146,0.7460954222004461
5.9,-10.130918275695665,-3.4733351261949017,-11.164533911972569,-0.15874617794969886,0.25625985657569456,0.2840756221664399,-0.021423949495116976,-0.042509748392413324,0.9988656892082151,-1.8315796217489453,-2.133847896113979,4.146480766990195,0.997025652522705,1.3490555669332303,-0.4692892497271645,1.0,0.4853966020689845,0.4800778983529508,0.28693702510599506,-0.5420803197981314,0.3495363090581744,-0.1654014375144148,0.7460667932603013
6.0,-10.13439172597033,-3.336279982058194,-11.221576291745418,-0.1660705875076139,0.2559111385204646,0.2822954756220995,-0.02111476348425162,-0.04174655196789901,0.9989050519096554,-1.829850196838379,-2.134722910093103,4.146289580561401,0.9961108468941656,1.3493064483957289,-0.46925335250732936,1.0,0.4856345292016613,0.48033020026428364,0.2870062881626602,-0.5420806372259694,0.34950716351960265,-0.16538909051275616,0.7460829539217018
6.1000000000000005,-10.051167295602099,-3.576022359187527,-11.209365195224802,-0.16886030176221165,0.25564602486563515,0.28835028059103174,-0.020982304852157505,-0.04147833453516967,0.9989188970737962,-1.8284272679241191,-2.135444780389303,4.146078525203862,0.9952251622475117,1.3495644909326214,-0.4692290158111801,1.0,0.4860203971590352,0.4807505620464342,0.2871146721585352,-0.5420256480528868,0.349470642129538,-0.16538675803600297,0.7461405279226946
6.2,-10.108641034125084,-3.309286050955318,-11.37625397331191,-0.15347716880339088,0.259424016177359,0.2853676364004402,-0.021643520727167877,-0.04320199718588517,0.9988301646709355,-1.8269872665405273,-2.1361148411558406,4.145843893299414,0.9943277078815917,1.3497177506578675,-0.46918258480586056,1.0,0.4864969876979994,0.4811925648273566,0.2871117359532457,-0.5421109018407319,0.34951739080244804,-0.1654021324205013,0.7460532810884406
6.300000000000001,-10.046130023214511,-3.6718618074074145,-11.212834603374422,-0.16433937885209515,0.25495226259823744,0.28211397160564317,-0.02227259383205072,-0.04484152730691571,0.998745787267202,-1.825103084140791,-2.136780124719861,4.1456223976924065,0.9934152485979895,1.3500228963347614,-0.46916879873513984,1.0,0.486717757357459,0.48138346789116426,0.28707976774017385,-0.5421715311794217,0.34955447499660663,-0.16540673976075146,0.7459908244945959
6.4,-9.930866824818667,-3.817001746228728,-11.30312193301601,-0.16375757092737547,0.24946213091137368,0.28275679447357294,-0.022083939886867424,-0.04434068666833453,0.9987722030706222,-1.823578493858103,-2.1374713912460686,4.145400758946188,0.9925649915164663,1.3502152002212926,-0.4691078394094921,1.0,0.4871936482098453,0.4819050190303031,0.28733191569540023,-0.5420630147219211,0.3495036133420163,-0.1654005398041214,0.7460948825477645
6.5,-9.941700500700069,-3.4066540785789106,-11.281448649061021,-0.15831372143483396,0.25579576194172915,0.285850579311715,-0.0218992020368248,-0.043850500906003315,0.9987980561157682,-1.8222568406531559,-2.1381584937615705,4.14514776866482,0.9915943422226422,1.3503957125788106,-0.4690641601564965,1.0,0.48741866933387407,0.48213892571537864,0.28742167797429846,-0.5420330247416877,0.3494877482015157,-0.16540331030629687,0.7461234876923053
6.6000000000000005,-10.102330887906259,-3.5685488564223475,-11.331818943001458,-0.1635985132470598,0.2603835309360231,0.2792693383023576,-0.021847665493034837,-0.04372272805333661,0.9988047676093098,-1.8204584121704102,-2.1388733414098247,4.144899419212654,0.990612192744873,1.3506343110082975,-0.4690175946820311,1.0,0.48774010301901244,0.48244715751053124,0.2873969240678683,-0.5421269684865796,0.34952035888960425,-0.16539526837949564,0.7460417374107884
6.7,-9.95546527469703,-3.387601613733694,-11.053035019373443,-0.15813724711761523,0.2555055115461078,0.2815808926268002,-0.02179612894924487,-0.04359495520066991,0.9988114791028514,-1.8187490788388347,-2.1395030764052714,4.144660647348161,0.9897968012043457,1.3508639335632324,-0.4689579215813989,1.0,0.4882425760423731,0.48293224169398513,0.28749928934481717,-0.5421308927005141,0.349537145199004,-0.1654083736853437,0.7460281155698116
6.800000000000001,-10.208802707350765,-3.668873446591647,-11.459100675287083,-0.16898291700825877,0.2613892749278489,0.28137736734020075,-0.021737623490744103,-0.04344638981640474,0.9988192228786497,-1.8174075434871382,-2.140145299321014,4.144440174102783,0.9888720852102304,1.3510883863187837,-0.46893245378603154,1.0,0.48848252568978695,0.48317160732397024,0.28764223410024076,-0.5420719261201187,0.34950263894093425,-0.1653968275875784,0.7460896874436161
6.9,-10.053156764977528,-3.546130356548702,-11.2182575183064,-0.1594815501073515,0.2576127703943869,0.28485839775016797,-0.021323128783153688,-0.042235690941119355,0.9988796981629651,-1.8158695102980917,-2.140903093813743,4.1442131996154785,0.9879738966808306,1.351306424604208,-0.46887814971734415,1.0,0.48894402455685415,0.4835775026810087,0.28770499747940737,-0.542103375238482,0.34953418910285355,-0.16540904546435722,0.7460493474843515
7.0,-10.12831008508439,-3.5134456927447046,-11.157590878337707,-0.16479169535771776,0.2606031594890427,0.2828571423237977,-0.021026542724920674,-0.04139206630402548,0.9989216390807716,-1.8141098868368897,-2.141569656928457,4.144009113311768,0.9869892929419802,1.351488541861496,-0.46888429323305303,1.0,0.4891644054525148,0.4837979370991091,0.2877205538036541,-0.54213893108933,0.34954956280123417,-0.165418720246597,0.7460141617521497
7.1000000000000005,-9.931884772263116,-3.230851404169197,-11.228919082159381,-0.16581593785859025,0.2659644284305011,0.2784260852355158,-0.020844460898729517,-0.04090441911596312,0.9989456102760595,-1.8139174160636373,-2.1416271702315486,4.143976219675949,0.9869213369975544,1.3515378406106,-0.46883960668300845,1.0,0.4895092921961463,0.4841628781151793,0.28787076018307534,-0.5420972479707367,0.34952701946967374,-0.1654162415365914,0.746055563238495
7.2,-10.275341157578344,-3.5019194500808557,-11.553703024910753,-0.16163144466390864,0.2694356215002464,0.28139975110942067,-0.021231791787911316,-0.04197880254085317,0.9988925480677638,-1.813939094543457,-2.14164557490002,4.14392614364624,0.9869215332638145,1.3515610093650916,-0.4688261450560257,1.0,0.4896534378346037,0.4843192889500158,0.28789635919420486,-0.5420989124018676,0.34952418099177895,-0.16540299563568828,0.7460586204243466
7.300000000000001,-9.99264946484647,-3.7911496760592542,-11.390904569559861,-0.17119747103189567,0.25659484209019867,0.2864359466670839,-0.0215362313364405,-0.042805860523523385,0.9988511258151659,-1.8139619827270508,-2.141659711369756,4.143963024646989,0.9869004923054199,1.3515582084655762,-0.46882438072744975,1.0,0.4896550066500004,0.4843149047199995,0.2878726298369609,-0.5421053914177827,0.34954052060071583,-0.16540201669594876,0.7460464743746642
7.4,-10.121570379985592,-3.675224172056222,-11.367197474497114,-0.16424163831771862,0.25908693458890747,0.2877891396620345,-0.021754302588343453,-0.04337521876351026,0.9988218317672575,-1.8139627434581886,-2.1416596735222506,4.143973368249978,0.9869337677514053,1.3515568500171156,-0.4688391240270817,1.0,0.4896562998092813,0.48430860409220633,0.2878986697800268,-0.5421005905843204,0.34952890020351085,-0.16541311705536155,0.7460529460545575
7.5,-9.940009166754223,-3.45749970068226,-11.18666894152051,-0.16051815999657615,0.2537351853297654,0.28775613389360266,-0.021558683433765834,-0.042867916883032375,0.9988473177129016,-1.8139485154214467,-2.1416484318175257,4.14397579264328,0.98692433416333,1.3515614118874373,-0.46889352972759274,1.0,0.4896739251311468,0.4843094165099929,0.2879002634677957,-0.5420885696973398,0.3495365937966304,-0.16540670141502703,0.7460594985170697
7.6000000000000005,-9.956411589676884,-3.5841825763805124,-11.27013513229489,-0.1639994036608065,0.2540096324932175,0.28685794272739756,-0.020913353251265414,-0.041190208529711995,0.9989323534252896,-1.813939398206739,-2.141671957359517,4.143961902470067,0.986935310107567,1.3515470806896983,-0.46887189386718103,1.0,0.4896616096465894,0.48431393580435306,0.28787789667329305,-0.5421086881575704,0.3495317949157868,-0.1653895234366102,0.746050936668829
7.7,-10.086835727192938,-3.851316398605301,-11.17532549404677,-0.16961321809733876,0.2579721210531666,0.2875101639742905,-0.02145735033563292,-0.04263636978433169,0.9988581645588244,-1.8139486988633082,-2.1416903279174337,4.143947072531903,0.9868910075115538,1.351549600688862,-0.4688609282123011,1.0,0.4896578995391574,0.4843143271461432,0.2878968245536236,-0.5420863461426866,0.34953236897905704,-0.1653939476580458,0.7460659209745794
7.800000000000001,-10.313419734637325,-3.5820293774062604,-11.397814814351056,-0.1621918813480388,0.2670066075262809,0.28980089459013636,-0.022040233937946716,-0.044184669798361935,0.9987787696488962,-1.8139291646099411,-2.1416484318175257,4.143986225128174,0.9869004923054199,1.3515475214529198,-0.4688609282123011,1.0,0.48965328118653406,0.4843168282426559,0.28788940905886284,-0.5421026996259365,0.349535731480798,-0.16539109643879793,0.746053095091246
7.9,-10.15060419679665,-3.438164524122368,-11.292216823000825,-0.161612022012998,0.25888193524051445,0.28769711390975017,-0.02223392497255897,-0.044680614585996835,0.9987537226141964,-1.813950538635254,-2.141660450380512,4.143974679496985,0.9868884850754304,1.3515469596418412,-0.4688609282123011,1.0,0.489665544094599,0.4843010724867186,0.2878927197202405,-0.5420909260051683,0.3495408110704366,-0.16540151880250054,0.7460569595660286
8.0,-10.25408450526581,-3.404862888384573,-11.310480981942677,-0.15841962680136543,0.26043503489035696,0.2861444068399915,-0.0219719315632177,-0.043944413783047684,0.9987923085554542,-1.81396142314713,-2.1416495976090277,4.143949425924229,0.986913449651454,1.351559374257078,-0.4688491366577688,1.726637127467606,0.4896675201632689,0.4843070747967144,0.28787087648974363,-0.5421132545068792,0.3495322181081015,-0.1654237893136762,0.7460398231471926
8.1,-10.028386483616956,-3.3492389661492274,-11.261291844282685,-0.15856017496251695,0.2565952753639101,0.28931359924747485,-0.02161558307586939,-0.04294493835217696,0.9988429866076367,-1.8139619827270508,-2.1416601703255194,4.143962572988063,0.98692433416333,1.3515473043398252,-0.4688609282123011,2.0,0.48966387567149905,0.4842916075747551,0.28789228846073944,-0.5420955034417126,0.349532275683638,-0.1654170850625073,0.7460541812583833
8.200000000000001,-10.047266234101759,-3.4486236845168428,-11.243422405658725,-0.1604824928407524,0.2600831504022967,0.28737564275633254,-0.02125398870042578,-0.04193082556139323,0.9988943369486041,-1.8139395484029612,-2.141637929199521,4.143927089186874,0.9868904773017031,1.3515587001467055,-0.46884713104605014,2.0,0.48967671023124315,0.48430485601921935,0.28788236156712177,-0.5420971862579371,0.3495439116580235,-0.16541937833962442,0.7460469983478036
8.3,-10.125209086214031,-3.713475640009706,-11.264629326076017,-0.17118712680573156,0.26012962231216125,0.2865608176785981,-0.021898648666997717,-0.04373489809742864,0.998799676809388,-1.813974907764689,-2.141660352746481,4.1439385414123535,0.9869355814538385,1.3515816403208023,-0.46882468858827764,2.0,0.48967574699762934,0.48430164424705946,0.2879177103916823,-0.542070604322655,0.3495291054349455,-0.16541463936002063,0.746074300233236
8.4,-10.198949268647281,-3.461023168511705,-11.310319362965782,-0.1604054230812903,0.2617828067938472,0.2873215559008285,-0.022628946447987644,-0.045778813804257475,0.9986925903700975,-1.81394990841178,-2.14167030422708,4.143951350988344,0.9869256471289005,1.3515487075628236,-0.4688383993199614,2.0,0.48965605836240483,0.48431097304687193,0.2879050106786899,-0.5420778179572371,0.34951791463540793,-0.1654005770243863,0.7460774194060805
8.5,-9.988022527726562,-3.392308573616388,-11.332313522427805,-0.15964699842517682,0.2537259939207229,0.29172757187950876,-0.02262517936232947,-0.045796847812445446,0.9986923811347614,-1.8139178102366482,-2.1416666227918695,4.143948071881344,0.98692433416333,1.3515469066984436,-0.46887850002482245,2.0,0.4896623881378828,0.4843105858405559,0.2878902383378124,-0.5421015795126368,0.3495269950028428,-0.16539963170208175,0.7460561098784746
8.6,-10.109701788692256,-3.3038121841624424,-11.370314989281347,-0.16113739490531429,0.26323451408634285,0.2883662341693929,-0.021571295319297534,-0.04291675548053193,0.998845065150865,-1.8139391745871993,-2.1416603110570316,4.143962299891365,0.9869004089265216,1.351581966944588,-0.4688370863543909,2.0,0.4896654508653217,0.4843034568375086,0.287897637616902,-0.5420897571318998,0.34953287384360815,-0.16539537652849123,0.7460628892649097
8.700000000000001,-9.84385985389248,-3.3921927224590847,-11.52892679854794,-0.1610467068754104,0.2504510605408158,0.29622955681857444,-0.02179840432468474,-0.04356785767447654,0.9988120030447398,-1.8138916181037936,-2.1416839786917277,4.143962607819434,0.98692433416333,1.3515478525736033,-0.46886070366313104,2.0,0.4896632328847267,0.48431312461129017,0.28788221581286094,-0.5420991049201563,0.34953954418063754,-0.16538393699582,0.7460555079097804
8.8,-9.938861793885865,-3.4710903156811055,-11.05902340331201,-0.17634961977691097,0.25479413647406485,0.2932948217640891,-0.022172174608228633,-0.04462324738834278,0.9987576748093937,-1.8139147512081606,-2.1417202795294648,4.1439388389103335,0.9869128900715332,1.3515939958926695,-0.46883693165544116,2.0,0.4896582382087441,0.4843251595725969,0.28790342305853034,-0.5420901969822235,0.3495113874243284,-0.1653903734408928,0.7460737448601024
8.9,-10.018517832176562,-3.2749346496682183,-11.191743696258635,-0.16114240977360894,0.2658985027392131,0.2937762121579238,-0.022627971213867015,-0.04585764676479223,0.9986907726603311,-1.813950538635254,-2.141660410848727,4.143962383270264,0.9869357782551269,1.3515581697307455,-0.46882468858827764,2.0,0.489674428532588,0.4843076511291299,0.2878862034217461,-0.54209276250049,0.3495464942920848,-0.16540778423728106,0.746051573342228
9.0,-10.092530406268812,-3.4244709511344174,-11.346003458438158,-0.16452706071903778,0.25410372246157764,0.29644970255946257,-0.023094134218765973,-0.04711466919182417,0.9986222814334395,-1.8139142735172986,-2.141684247716749,4.143913881847763,0.986912834834681,1.3515706062316895,-0.46886079436915923,2.0,0.48966362964369065,0.48431560754809116,0.2878823426561974,-0.5421036099056181,0.34952116948902867,-0.16539586867727096,0.7460581980186334
9.1,-10.154713767582164,-4.224075238948563,-11.156746847690723,-0.14687742163273088,0.2338563230865337,0.29982645262062374,-0.022984407998654536,-0.04679777026477386,0.9986398998651801,-1.8138780703452129,-2.141684199872663,4.1439500065772386,0.9869004977844228,1.3515582139445792,-0.46882468858827764,2.0,0.4896528812601735,0.48432172191627054,0.2878904647799227,-0.5420928324301864,0.3495215936496672,-0.16539319321854473,0.746066423475409
9.200000000000001,-11.126384517965743,-4.886269704826453,-11.070673543270193,-0.069811862688577,0.19299993348463784,0.2939749964604807,-0.023076836211493822,-0.04701948039274866,0.998627336166447,-1.813903340912847,-2.1416840347381365,4.143962383270264,0.9869353050510138,1.3515470841062882,-0.46886108807855553,2.0,0.4896681974489644,0.4843171877725461,0.28787794775029,-0.5421065997508391,0.34952076625535844,-0.16542243418575414,0.7460503245297266
9.3,-11.537734832118534,-5.712031825862238,-10.78957152197138,-0.02190555378736684,0.15765903277540563,0.29462919400391085,-0.023170000868763422,-0.04726482219694133,0.9986136309288421,-1.8139273120443964,-2.141660190050681,4.143974442629113,0.9869244903512979,1.3515582084655762,-0.4688251831835093,2.0,0.4896653307738239,0.4843132604066047,0.2878893950416629,-0.5421027117100068,0.3495211989102303,-0.16540942618896798,0.7460558311526351
9.4,-11.874473811304457,-6.196115172843603,-10.658079075028306,0.02684653443932329,0.13784135198068026,0.29440692797963874,-0.02319202550963327,-0.04735709857472644,0.9986087488923302,-1.813937513879005,-2.1416370308439827,4.143950526257779,0.9869717683005527,1.3515582084655762,-0.4688604082568892,2.0,0.4896646123474271,0.48431020913760364,0.287902568672463,-0.5420904059868504,0.34951504594928723,-0.16539748639498192,0.7460703022412174
9.5,-11.892541572610034,-6.619813125242336,-10.60046278855894,0.05431456398882592,0.11744919145464353,0.2929364016012241,-0.02315537453958957,-0.04717259235960911,0.9986183053399827,-1.8138889293259308,-2.141662475781388,4.143932597672357,0.9869149281850439,1.3515820503234863,-0.46888264703530425,2.0,0.489673753909604,0.48431034213033036,0.2878927193616502,-0.5420854270491384,0.34953555480582227,-0.16540236002330402,0.7460632312386535
9.600000000000001,-12.109792031656507,-6.622336095336774,-10.540965328503878,0.07136528639314986,0.10885328604527018,0.2930950131315221,-0.023108652923725354,-0.04694058123710341,0.9986303399017604,-1.813903733057019,-2.141694848988752,4.143973902898792,0.9869137006600733,1.3515931646577442,-0.4688370863543909,2.0,0.4896855964994118,0.48429298297805484,0.28790643108487257,-0.5420686020988474,0.349540424539825,-0.16542089548403918,0.7460690648782985
9.700000000000001,-11.616739432364,-5.691122941340621,-9.9344186988879,0.019167211846009884,0.11112201382365204,0.2946710613974725,-0.023481882460013526,-0.04801353521518466,0.9985700797783746,-1.8139136386861812,-2.141672961514029,4.143962383270264,0.9869114593672597,1.3515923570602768,-0.46883499532506806,2.0,0.48969016376565916,0.4843071775744095,0.28788238969695007,-0.5420887093484598,0.3495562815765759,-0.16539654134539963,0.7460524253149092
9.8,-11.611954430925366,-5.164883515575146,-9.768829461662673,-0.01032388649044021,0.12295639301470049,0.29691049422051385,-0.023692921817111783,-0.04862462524729977,0.9985359886656078,-1.8139009042905943,-2.141661636054928,4.143950652824543,0.9868978743561883,1.351559491774023,-0.46885897758346184,2.0,0.4896753247357476,0.48431298649509225,0.28791569173405845,-0.5420745787372675,0.34952740211184324,-0.16540169180522746,0.7460750810794635
9.9,-11.64445848386792,-4.870485794683909,-9.432611260609942,-0.03102222640985408,0.1450261835102146,0.3015596580666475,-0.02351855709173977,-0.048116647139627315,0.998564794589898,-1.8139042656178563,-2.1416518229195036,4.143984868687383,0.9868780068883009,1.3515589138147877,-0.4688035596119497,2.0,0.4896828216100183,0.4843101851829707,0.2879160658984686,-0.5420697912257079,0.3495269559648419,-0.16541945555929322,0.7460748301725078
10.0,-11.221889123643713,-5.07752853028604,-8.938313097256392,-0.04202333315029244,0.13817568512152004,0.30826770784212415,-0.02356703958584431,-0.048284826293497715,0.9985555277064572,-1.8138914108276367,-2.1416628982946846,4.143983645639327,0.9868889769960173,1.351524619548005,-0.46886177672836904,2.0,0.4896683423381281,0.4843210074749046,0.2878792536934009,-0.5420963944594812,0.34954039951769167,-0.1654004632058946,0.7460534129607066
10.100000000000001,-11.592026518679711,-4.352153776227444,-8.842125489433304,-0.040328981337641685,0.15095455082206047,0.304050641306467,-0.023554965722648664,-0.048297086705041646,0.998555207601905,-1.8139284893909842,-2.1416586049562225,4.143973872185443,0.9869137290108572,1.3515591173165105,-0.46883883414464916,2.0,0.489657277821254,0.48432462733295195,0.28789835489903903,-0.5420839265571571,0.34953603592995075,-0.16538510044497043,0.7460679223137515
10.200000000000001,-11.4182311046056,-4.491502907858809,-8.543507533638028,-0.05915577922697138,0.15012074296856956,0.3059828491546637,-0.023403744659045204,-0.047951074963947855,0.9985754455244619,-1.8138924742911375,-2.141684194604391,4.143991022573091,0.9869128900715332,1.3515932960041404,-0.46882468858827764,2.0,0.4896577229793698,0.48433407211310425,0.2878599830863027,-0.5421230940502975,0.3495292160840089,-0.16538741393288542,0.7460421444621096
10.3,-11.466509308528567,-4.305844889079616,-8.397760770454765,-0.07006401264168138,0.15085835637739475,0.3100659429572148,-0.023014221128525345,-0.046820518663840224,0.9986379901585872,-1.8139288979106165,-2.1416735731118486,4.143981027382522,0.98692433416333,1.3515860006101814,-0.4688459315733621,2.0,0.4896799818168099,0.4843106370556931,0.2878823431908784,-0.54209676410302,0.34954214825595264,-0.1653915100884977,0.746054309907995
10.4,-11.368897875394534,-3.778294890958168,-7.7997736184925985,-0.08334181891781997,0.15079003854729242,0.30927779323225213,-0.023099217445344666,-0.047025924859168795,0.9986262329136758,-1.8139261318818696,-2.141707341940211,4.143953355796163,0.9869038625974326,1.3515582084655762,-0.4688869690029757,2.0,0.4896649461886397,0.48433359715899776,0.287881596572603,-0.5421073734375438,0.34953245007458356,-0.16537783210484872,0.7460541767578321
10.5,-11.287022139454017,-3.8249772222340837,-7.819308062619632,-0.10105226392102444,0.15512102251996543,0.31399844414307837,-0.023336505451099183,-0.04766854879977179,0.9985902578026784,-1.8139053231857585,-2.1416853812708934,4.14394998550415,0.9869104218052083,1.351593213956437,-0.4688485304461878,2.0,0.48966913932012035,0.484315081886123,0.2878972870649538,-0.5420946172574873,0.3495182116666516,-0.16540342697890584,0.7460644422551163
10.600000000000001,-11.552555931928802,-4.006110911174309,-7.782044067327026,-0.10501139826965769,0.16062594586427864,0.3114287932565006,-0.02350745762184267,-0.048137999058763925,0.9985640352138375,-1.8139276504516602,-2.1417052788725606,4.143960949323598,0.9869536246612072,1.351562400001982,-0.46885817062256047,2.0,0.48966300961033976,0.48430852528436846,0.28789558378647445,-0.5420904706064495,0.3495341621659153,-0.1654018968167978,0.746060321747548
10.700000000000001,-11.22091857796894,-3.879703970350999,-7.970979379433644,-0.10143862346129781,0.15346584737924432,0.31431624691425625,-0.023495915708077235,-0.04813103754904378,0.9985646424312743,-1.8139421104944626,-2.141673659882803,4.14397611179545,0.9868950810244362,1.3515916756748656,-0.4688261302439393,2.0,0.4896634963107003,0.48432140264006107,0.2878830179013803,-0.5420975732800165,0.34953675685933827,-0.1653946809031628,0.7460555449677416
10.8,-11.252120447746053,-3.505123796834344,-7.82077936345585,-0.09432342995404266,0.15341440616548055,0.3147629588533473,-0.02286901460689736,-0.04640572837631614,0.9986591972381048,-1.813905916862006,-2.1416797783410653,4.143962383270264,0.9869034364809703,1.351580637119222,-0.46885645306546436,2.0,0.48966695105182234,0.48432140358134923,0.2878938546035655,-0.5420885374611023,0.3495288031996376,-0.16539183539767743,0.7460664675958166
10.9,-11.215064240429408,-3.9024219487579512,-7.899513696216261,-0.10332074930018051,0.1519645268007562,0.3148506130034766,-0.022468675934674342,-0.04529139091495843,0.9987201255456307,-1.8139592004067397,-2.141673722800598,4.143955782004799,0.9869301306639781,1.3515597155557446,-0.4688500375363563,2.0,0.48967229985512617,0.4843097975881959,0.287912213593781,-0.5420678356998612,0.34952206087893134,-0.1654140062306099,0.7460797524402821
11.0,-11.172320751040406,-3.945607345992875,-7.9216016962809395,-0.10243826572445298,0.15049211916488653,0.31225375541245837,-0.023326182824347678,-0.04762486338561149,0.9985918872624893,-1.813910420066432,-2.141684194604391,4.14398124805778,0.986931000267549,1.3515582084655762,-0.4687895470898493,2.0,0.48965780294319117,0.48432663081084654,0.28789240832948076,-0.5420863878533467,0.3495290234721501,-0.16539049064843073,0.74606822439894
11.100000000000001,-11.510353264771725,-3.9220193781941703,-8.027717068924398,-0.10156598276023523,0.1566941063811558,0.3076645097897896,-0.023650047698083237,-0.048522163312842106,0.9985419584927188,-1.8139088476178054,-2.141700863576215,4.1439474357911,0.9868821018409349,1.3515467643737793,-0.4688370863543909,2.0,0.489677172598114,0.48430692802145053,0.2878903371247101,-0.5420779153394972,0.34953528586398014,-0.16542411124506337,0.7460639926011382
11.200000000000001,-11.491605597978776,-3.8854243248362903,-8.003299552817705,-0.1003811604190945,0.1562854919536159,0.30656174899877214,-0.02378788423418886,-0.04891881152445934,0.9985193285265619,-1.813912688886459,-2.141677305315347,4.143974781036377,0.9869276885899374,1.3515565983408047,-0.46883869647916243,2.0,0.48966544489749775,0.48431371861797207,0.28788405959810515,-0.5420955305049877,0.3495286007426732,-0.16540932960992394,0.7460576028346471
11.3,-11.450679715393232,-3.9921373869184515,-7.817137567021657,-0.10454211179734273,0.15787537215964112,0.3070323258419894,-0.02384460776110787,-0.04908588636347033,0.9985098585090383,-1.8139335434775763,-2.141675925692463,4.143951884553005,0.9869187830974493,1.3515564554974033,-0.46887102313274276,2.0,0.4896565955018814,0.4843244685177251,0.287899746941209,-0.5420828415122632,0.3495273988041173,-0.1653907532896488,0.7460715040460266
11.4,-11.187231464021359,-3.7436552839399013,-8.005625937146114,-0.0953311861495362,0.14945380348947432,0.3087923591081043,-0.023583723472320576,-0.04833947294567671,0.9985522505125718,-1.813923682568661,-2.141674181311493,4.143990038675741,0.9868842809917387,1.3515543931934617,-0.46886895756369934,2.0,0.48966687268988257,0.48431642427488275,0.28788985340606393,-0.5420854263861938,0.3495350921952676,-0.16539906262328635,0.7460641794826252
11.5,-11.15256995577012,-4.016294376048451,-7.9745944429353965,-0.1004360595473672,0.1470316964373089,0.3173537200832337,-0.023158968777101517,-0.0470781772109872,0.9986223957717587,-1.8139349133242657,-2.141662362948015,4.143917927099318,0.9869620472795401,1.3515602990751718,-0.46885263125731785,2.0,0.48968203969069257,0.4843011363115864,0.2879074251067955,-0.5420582418526562,0.34953525812792346,-0.1654168578903597,0.7460799078454892
11.600000000000001,-11.235394258213022,-3.8830748653594993,-7.980322663437474,-0.0984202947001911,0.14886480904864124,0.3163804375275796,-0.022675932943599836,-0.04583307441207681,0.9986912011723671,-1.813936051891696,-2.1416778557465554,4.143971484830303,0.9869370118790006,1.3515642673738542,-0.46883102744611294,2.0,0.48968833761916486,0.4843002879834598,0.28788535216389155,-0.5420803866280619,0.34954874192140795,-0.16543369541791061,0.7460537674153962
11.700000000000001,-11.466654694370476,-3.78722046000537,-7.833121288761583,-0.09527310950904348,0.15152068632451843,0.31041031277108017,-0.022334043067630552,-0.045000326827527845,0.9987371137231031,-1.8139187049200822,-2.1416820763789817,4.143970375127525,0.9869459730668143,1.3515663697808704,-0.46882689154270346,2.0,0.48965821822819233,0.48432061292389733,0.2878803263252861,-0.5420976423624048,0.34953117110204135,-0.16538970454756569,0.7460592149439795
11.8,-11.3759355355114,-3.6611832460017295,-7.664664761965949,-0.09266773289175133,0.15184595267280862,0.30997410398350156,-0.022615450620791788,-0.04570696813523465,0.9986982292851654,-1.8138914108276367,-2.1416573223084385,4.143971629380813,0.9869004923054199,1.3515883872135146,-0.4688395603495821,2.0,0.4896534939976235,0.48432496321119384,0.2878745389765441,-0.5421060437926095,0.34953108791786464,-0.16538621924066446,0.7460539218768025
11.9,-11.071557487077964,-4.076160144171202,-7.91303852335078,-0.10068926501141562,0.14591972826075444,0.31521931289182414,-0.02289685817395302,-0.046413609442941456,0.9986593448472276,-1.8139345109821543,-2.141686398239633,4.143945578233667,0.9869222186734979,1.3515511716442627,-0.4688586364316497,2.0,0.4896745747419615,0.484316194017339,0.2878885807984063,-0.5420953231104146,0.34953482837248584,-0.16540832944497003,0.7460550575973978
12.0,-11.172276653399274,-4.18652854988049,-8.195265805338154,-0.10285505373473755,0.14654956984844242,0.30942832870036635,-0.02319387414177563,-0.047184121181393826,0.99861679897514,-1.8139344185745758,-2.141670025613474,4.14395788714634,0.9869028302898605,1.351542268249855,-0.4688415824783152,2.0,0.4896778809803003,0.48430604981140124,0.28790484790163356,-0.5420694073787196,0.34954188565597977,-0.16541159839897268,0.7460698565625358
12.100000000000001,-11.302485070780106,-4.240762683579676,-8.207596771643363,-0.0929117683123105,0.14813490185393122,0.30996329926906807,-0.02344948890599623,-0.04790526226069245,0.9985765158045692,-1.814018918983048,-2.1416706397993943,4.143971098652932,0.9869718669327052,1.3515706062316895,-0.4688451313230072,2.716499892070013,0.4896765168600645,0.48431075847124755,0.2879016726498477,-0.5420851372316612,0.34953018090811644,-0.1654165216209487,0.7460628197422097
12.200000000000001,-11.606645024604536,-4.316900098854927,-6.840022051188238,-0.075767988129087,0.1521333672347255,0.30795731541987276,-0.023271565913511164,-0.047355331723845547,0.99860672014761,-1.8150666171553962,-2.14143133112557,4.1440013441322625,0.9875095652002057,1.3514540376346893,-0.4688449360793208,3.0,0.48966037734240786,0.4842758796490619,0.28782906195665914,-0.5421205771514847,0.3495513339315638,-0.16542369938929088,0.746025565551186
12.3,-11.322396639763035,-3.385680622153605,-6.693003179399355,-0.10435141673751433,0.16409160143474713,0.31979766608275223,-0.023093642921026093,-0.04680540118699864,0.9986369244906507,-1.8165927194814933,-2.140668802066933,4.144119739532471,0.9883726314639967,1.3512315498650025,-0.4688769988299074,3.0,0.4895700729540705,0.4841228159651648,0.28771841324103736,-0.5421612965183347,0.34958857617230765,-0.16543696962468804,0.7459755793916963
12.4,-10.916246418522837,-3.308126522090575,-6.405081829110902,-0.1426071957399554,0.18513103880960655,0.33816211851022887,-0.022914566104527634,-0.046272291218499635,0.9986659219956184,-1.818096205552033,-2.1398753060568425,4.144438498384825,0.9892524672886099,1.3509901795948192,-0.46898061433901006,3.0,0.48928619716387983,0.48380503178543255,0.287642313590789,-0.5421618697151411,0.34958864489426233,-0.16544515240191401,0.7459733158328674
12.5,-10.758926604498743,-3.1738252185603213,-5.950668783438958,-0.14881191873219968,0.18724488950349036,0.344002414145772,-0.022749606320863026,-0.04582456017719061,0.9986904229303848,-1.8195768726319055,-2.1391867398015427,4.144745568115853,0.9901587267361093,1.3507499406080903,-0.4689764490429117,3.0,0.48877615126026214,0.4833328207087105,0.2876610445588763,-0.5420898846086326,0.34955049064845817,-0.16545319560265553,0.7460417223971398
12.600000000000001,-10.877633733685183,-3.204370167306988,-6.195431312623561,-0.14713770648878444,0.19425418004604456,0.3515647116346169,-0.02265193007469893,-0.04573356332813791,0.9986968130122471,-1.8213496400234426,-2.13845785918357,4.144952966058643,0.9911541277773462,1.3505549982931357,-0.4689863547877148,3.0,0.4885212615901038,0.48318919735025645,0.2876606403845577,-0.542067603412933,0.3495105921268713,-0.16541363767508444,0.7460853756725021
12.700000000000001,-10.807265511137633,-3.359478669048543,-6.073325009404528,-0.1534855398430673,0.2026330295981011,0.3827340895660788,-0.02273299672212588,-0.04596334160695622,0.9986843454619265,-1.8229155901393939,-2.137793648184019,4.145195997091299,0.9919997888752441,1.350288835903847,-0.46910230395412944,3.0,0.48802632010794583,0.4826638544428828,0.2874883702313613,-0.5420793863155114,0.34954992124715456,-0.16540819808803067,0.7460595951351189
12.8,-10.91666639561224,-3.057544719685915,-5.998005578796797,-0.15989049919262588,0.20457007704665675,0.38376833634211854,-0.022901726991074272,-0.04635044255655727,0.9986626292735356,-1.824339314606397,-2.1371243016013697,4.145402385925712,0.9928775197963736,1.350069646379704,-0.469097212414772,3.0,0.48781904798914044,0.48243416936910105,0.2874101421170961,-0.5421071682071065,0.3495610975207157,-0.1654289739550352,0.7460295650004558
12.9,-10.653794200599922,-3.103962328011999,-5.889336706865726,-0.1656441713593192,0.20230709117016138,0.4011474604672272,-0.023060208774925005,-0.04672893894778824,0.9986413203201262,-1.8260496044548769,-2.136377118200907,4.145660853483384,0.9938703711127571,1.3497943878173828,-0.469155063060395,3.0,0.4874809027157063,0.48213142758747324,0.28735963409938914,-0.5420986764343259,0.34954232003794933,-0.16543445841168528,0.746043317429137
13.0,-10.652411563415944,-2.8984857529130776,-5.763491261137483,-0.15607362558041016,0.20338243088425614,0.41941761856683635,-0.023213513153354726,-0.04710308842464834,0.9986202170966938,-1.8278211477821533,-2.1356649780418526,4.145933393012576,0.9947731411970469,1.3495741227551397,-0.46920806566347295,3.0,0.48699089528104955,0.4816317721765207,0.2872550645119183,-0.5420751857469186,0.34956847332353114,-0.16541628647179363,0.7460521614643181
13.100000000000001,-10.555777797971265,-3.099799601228026,-5.9804066743012445,-0.17945245641379118,0.20387183395246297,0.4296385784543937,-0.022600118930331023,-0.045450972956030414,0.9987071464064049,-1.8292431712621335,-2.1349524403494478,4.146142360579816,0.9956283974714172,1.349360954451513,-0.4692314306842249,3.0,0.48673125146654417,0.4813506747992391,0.28716644827658183,-0.5420890041764437,0.3495882362364366,-0.16541803402778069,0.7460324729222402
13.200000000000001,-10.669564783539595,-3.15773636366615,-5.980804939211733,-0.18186313915213898,0.21091780828240253,0.43719076646013794,-0.021584586476221676,-0.04273606879920998,0.9988507394581598,-1.8306440213700423,-2.1342849286703465,4.146373508883195,0.996447018824766,1.3491224638173276,-0.4692670725827962,3.0,0.48627514481246764,0.48093386892825374,0.28713631527567834,-0.5420527196798139,0.34954498703136516,-0.16542389551361542,0.7460778015207665
13.3,-10.542518438245594,-3.4406707569740496,-5.904572058478995,-0.1678714448852886,0.20314909500024625,0.4508193468105903,-0.021649874619895742,-0.0429480382221876,0.9988404536363902,-1.8325014114379883,-2.1336247428117465,4.146626680763207,0.9975023899702984,1.3489347018093338,-0.469305925860357,3.0,0.48605433629696615,0.48073827431538846,0.2870949751121883,-0.5420462143061203,0.34952823017799683,-0.16542149166770606,0.7460909113234604
13.4,-10.528727482522823,-3.611313951772711,-6.120455964534494,-0.15646393352828258,0.19969415716101024,0.46582280078242944,-0.02230687017286616,-0.04476235755114592,0.9987459250922063,-1.8340470099204642,-2.1330828190042888,4.146861004319751,0.9984157048740963,1.3486990714300022,-0.46938332762349017,3.0,0.4857061978567344,0.4803609557738383,0.28694034621257664,-0.5420847091211694,0.34955937379004887,-0.16544361871033267,0.7460434446870746
13.5,-10.600710517917125,-3.383138459760563,-5.993973132078578,-0.1409277540680561,0.20671800566171114,0.4612033538152251,-0.022858858360000688,-0.046298242960900966,0.9986660762325188,-1.8355664539972336,-2.132428243137209,4.147080650792362,0.9992350461900404,1.3484832204942132,-0.46940288772670125,3.0,0.48519607200679354,0.47987988026608863,0.2867513931955409,-0.542119271354733,0.3495547940129452,-0.16541589255397238,0.7460266242561008
13.600000000000001,-10.518243244521974,-3.1824869609600053,-5.7747077979470385,-0.1688742217657092,0.21173209923996242,0.4722756154441279,-0.022740607812578712,-0.04605694639700222,0.9986799245442846,-1.8371655371205176,-2.131610348894191,4.147328229070513,1.0001349599318408,1.3482662337504985,-0.4694360687059381,3.0,0.48500238279566776,0.4796858709842452,0.2866702645381535,-0.5421488059929376,0.3495574892526444,-0.16541578733018367,0.7460039216852383
13.700000000000001,-10.26503079704167,-3.2219726254764205,-5.785018637020291,-0.17778546882467344,0.20389864667932703,0.48153523548399574,-0.022580134882526855,-0.045659639451664874,0.9987016190034347,-1.838842066029646,-2.1308666447010647,4.147575541387033,1.001107096923457,1.3480475924701514,-0.4695121740971521,3.0,0.48464976829679024,0.47939393450868084,0.28664086814804735,-0.5421477879025005,0.34953661370800987,-0.16538860047480178,0.7460204706192379
13.8,-10.385084525018145,-3.0574608075167946,-5.7068165071041665,-0.18130488668830175,0.2031271686690296,0.4782667315296649,-0.02239442034705073,-0.04516906556483629,0.9987280040874156,-1.8403575529318235,-2.130151059295975,4.147806689538429,1.0019809217213858,1.3477932265398,-0.46953409724264106,3.0,0.4841034993933843,0.47886466641982744,0.28654688197367995,-0.5421253858220779,0.3495082865052772,-0.16537600295960353,0.746052814053076
13.9,-10.35100046868352,-3.1288741634811803,-5.816369449553198,-0.18138790973996421,0.19833074819808197,0.47065876103388415,-0.02220870581157461,-0.044678491678007706,0.9987543891713965,-1.8419126908140833,-2.1294282218984466,4.1480340129473445,1.0028434870745813,1.347561950436031,-0.46957455642796,3.0,0.48391215847830243,0.47864402050547056,0.28655404743234963,-0.5420961956355541,0.34951566417815516,-0.16539671758675914,0.7460659762937109
14.0,-10.695628935349859,-3.035967685144294,-5.941078804504233,-0.1668485468207746,0.2023173020117171,0.47226120626500384,-0.02232533109960695,-0.04502187319428245,0.9987362792714914,-1.8434761706530578,-2.128810545007223,4.148262866106528,1.0037431517356765,1.3473156436348919,-0.4696027132694837,3.0,0.4834263183846823,0.4781593953310054,0.28645925638345915,-0.5420825247550978,0.3495187140554346,-0.1653965110876636,0.7460745264383458
14.100000000000001,-10.372481704939055,-3.534014737110171,-5.841407141418461,-0.18780010267420985,0.1956233375699631,0.4733059582489871,-0.02263405538740051,-0.04587290261477835,0.9986907468277472,-1.8450297916211909,-2.1281858490185503,4.148522012977907,1.0047656339632318,1.3470517725957296,-0.46963412094767104,3.0,0.48321789581803803,0.47795427811744656,0.2863730063733971,-0.5421132761741091,0.3495249166874037,-0.1653955143108934,0.7460494971892097
14.200000000000001,-10.362448949481896,-3.352973277364775,-5.7903121628004275,-0.16456832588364778,0.190029521265295,0.47113803628870843,-0.022991478469676984,-0.04668107615103343,0.9986448110483152,-1.8466764597602972,-2.1276054858292555,4.148725803122336,1.0056453419777496,1.346863075139621,-0.4696493275677926,3.0,0.48291059210333587,0.47762389219414564,0.2863252296505282,-0.5420527862817494,0.34952855458536725,-0.16540462310428067,0.7460897245434941
14.3,-10.46955820599902,-3.527131523660169,-5.698056852828442,-0.1473964265054825,0.19557532535682137,0.47174414729855774,-0.023335177838211648,-0.04746545574209696,0.998600258515166,-1.8483285900374073,-2.126958509840421,4.148987439114424,1.0064918237873535,1.3465768010551522,-0.4697248467616411,3.0,0.48241369338850004,0.4771071144737686,0.2860966749380143,-0.5421050638397167,0.3495574956420835,-0.16543877109626293,0.7460306093036194
14.4,-10.59569257685938,-2.432868902151115,-5.5051801383487025,-0.17150594745858022,0.20833634017698963,0.4615261274301375,-0.023493096454824825,-0.04792773177489407,0.9985744312730976,-1.8496702301475891,-2.1261858687561896,4.149244727540577,1.0073813063793766,1.3463584637876542,-0.46977588871456244,3.0,0.48221067627979797,0.47691806198724135,0.28598116712976673,-0.5421576731510886,0.3495858107261579,-0.16543002850112018,0.7459810480517924
14.5,-10.621264299457534,-2.95146865621711,-5.6660055846746875,-0.17952904555931298,0.20639459555764356,0.4621258757469969,-0.023096720801967754,-0.046928339531491864,0.9986290508694343,-1.8512744487126325,-2.125472007645335,4.149482291857436,1.0083409837166974,1.3461356163024902,-0.46981916319789735,3.0,0.4818554445102131,0.4766112744478313,0.28597147499765746,-0.5421252412734382,0.34956634548466964,-0.16541166408385466,0.7460178109560919
14.600000000000001,-10.59845573787939,-2.9426403795343004,-5.731139484477725,-0.17960019970334823,0.20308839254803135,0.4665433979467035,-0.022267471709517123,-0.04478746448894782,0.9987464950366943,-1.8530264987464713,-2.124682357883756,4.149707010333278,1.0092354456215393,1.3459179591531514,-0.46985269991430617,3.0,0.48134069265528556,0.47612310836564126,0.28593454493609427,-0.5420696552765986,0.34951610145560186,-0.16540503234421394,0.7460832117979848
14.700000000000001,-10.468584390931435,-2.9047568616817427,-5.63708558266548,-0.1892970990223348,0.20072428181530072,0.46875800526666195,-0.021549785522515536,-0.04287552449562879,0.9988470896156352,-1.8544797897338867,-2.1239761052517867,4.149933338165283,1.0101168447719895,1.3456198586463548,-0.46987301164066997,3.0,0.48112383694588373,0.4759243122124991,0.28585670845065086,-0.5421101440453526,0.3495289419020836,-0.16538687358726625,0.746051802853506
14.8,-10.297203031180342,-2.899472882055733,-5.534936515724454,-0.1741166330964479,0.18801531786587353,0.4692427390810654,-0.020969144996106776,-0.04127736199278287,0.9989276205070633,-1.8559163996391494,-2.1233068859870894,4.150160312652588,1.0109943066114235,1.345468811579006,-0.46991568292594,3.0,0.4807501532939526,0.47552642859455985,0.2858183605492762,-0.5420862900823191,0.34952628337267877,-0.1654035151144676,0.7460666917402544
14.9,-10.36498797534606,-3.1816208567293156,-5.4715940445032984,-0.1470709300564771,0.17480750529879607,0.47647543510339463,-0.021348616543414432,-0.0423116427745326,0.9988760547603792,-1.8576558335036624,-2.12274075045957,4.150381259702443,1.0120275611327605,1.3452343930361321,-0.4699609915362757,3.0,0.48026172509677534,0.47503417692525995,0.2857783794187663,-0.5420212546013057,0.3495073627009149,-0.1653945581749686,0.7461247905708432
15.0,-10.791756668682222,-3.5939979079204196,-5.5688618892864845,-0.12424035567652066,0.18041794935350647,0.4662299845935956,-0.02127406741586391,-0.04210435074104941,0.998885958813813,-1.859306337540768,-2.1222225244964403,4.150606156441283,1.0128928857990722,1.345019817352295,-0.4699908140709622,3.0,0.4800675639622856,0.47484232974128693,0.28566043564719035,-0.5420476745129887,0.3495105541843128,-0.16538793523347203,0.7461055702432765
15.100000000000001,-10.604400142106531,-3.6318459984796005,-5.710751801010541,-0.13555415887379516,0.1786126268053728,0.4672689797371395,-0.020809164547294,-0.04082959059430124,0.998948712809473,-1.860666567822335,-2.1216023040023515,4.150799114111479,1.0137970213492944,1.3448071741288707,-0.47005429372918084,3.0,0.47960839761225943,0.4743534807076722,0.2853668299346238,-0.5421449428095318,0.3495658066737824,-0.16539494457138437,0.7460074531134299
15.200000000000001,-10.69137486716364,-3.6564881324902547,-5.959846935316673,-0.13264054464577058,0.17945264776112493,0.4668313690147655,-0.02195779737343105,-0.04394646227791271,0.9987847183036782,-1.8609023177890482,-2.1214901409544886,4.150895251177264,1.014018830793475,1.3447416888251773,-0.4700734996633536,3.0,0.4794222265530121,0.47417242334751986,0.2853500134064772,-0.5421196424669869,0.3495426462461782,-0.1654035593486777,0.7460347808657944
15.3,-10.687351864477561,-3.3049121843127596,-5.824996680907158,-0.13198100570587865,0.17808996028176607,0.46297789886812785,-0.023323558094042993,-0.04765280823125968,0.9985916171537821,-1.8609588541493023,-2.121444710738098,4.150897241526447,1.0140515376110322,1.3447605798658304,-0.47008945228855614,3.0,0.4792548767851076,0.474023753372002,0.28535414053313274,-0.5420898845765048,0.3495107056425246,-0.16541992750136517,0.7460677390602942
15.4,-10.643576346987484,-3.411904656793048,-5.906758385370407,-0.13613553038953177,0.17114135099613403,0.4605567117652136,-0.02335151718229912,-0.047716507693369506,0.9985879219434766,-1.861067713257558,-2.1213850954204805,4.1508843379728395,1.0140819311575313,1.34474723423678,-0.47008696041553005,3.0,0.479222561960825,0.4740070825999616,0.2853634024118889,-0.5420635039914241,0.34950027641754267,-0.16541531076134003,0.7460928155332485
15.5,-10.667412330266218,-3.7104140234910195,-5.660712296558953,-0.13676080066645754,0.16356660210842305,0.45659439751395403,-0.02332936917545346,-0.04766828828294031,0.9985907363458153,-1.8610353469848633,-2.1213868806819347,4.150887310911466,1.0140959818845428,1.3447213172912598,-0.4700812677797073,3.0,0.4792352611934896,0.4739811459096613,0.28536922675568005,-0.542057831076017,0.3495142325268093,-0.16541981374896642,0.7460894009765969
15.600000000000001,-10.933841360979235,-3.643046899333834,-5.897362496207416,-0.1358026442187349,0.16876309052377733,0.45843380993001787,-0.02325578387548832,-0.04750517887857519,0.9986002331721302,-1.8611035243627811,-2.1213950642249473,4.1509021992625685,1.014052896924318,1.344709873199463,-0.47009212175478154,3.0,0.47920472809084286,0.4739908072344732,0.2853363254587954,-0.5420926090884508,0.349521466215257,-0.16540278982790965,0.7460645179497265
15.700000000000001,-10.63933485297084,-3.50500737464046,-6.245575748397648,-0.12985165288332973,0.16461963432543011,0.45543946311431355,-0.023203653199114892,-0.047314802481356055,0.9986104648223596,-1.8610963821411133,-2.1214008901442925,4.150908552415421,1.0140902376305363,1.3446974754333496,-0.4700631573292247,3.0,0.4792044327173956,0.47397476496260244,0.28534924482401314,-0.5420766057750921,0.3495213824348909,-0.16541241496201597,0.746074051062354
15.8,-10.596638267824714,-3.5563971251382314,-6.04565773937338,-0.12991926997111564,0.16262465193794043,0.4630859343387931,-0.02315188865197309,-0.047123960765176685,0.9986207090125673,-1.861097840190722,-2.1213938198485316,4.15087239442723,1.0140596307179515,1.3447163242701656,-0.47006979869854726,3.0,0.47921763223334635,0.4739726870793043,0.28534844062964704,-0.5420724580063773,0.34953353472285603,-0.16540576688459188,0.746072845408805
15.9,-10.68927654357592,-3.671374120061507,-6.269421598989451,-0.13128203611261174,0.16228490590920758,0.4599567728476942,-0.0223640856547202,-0.0449884776371635,0.998734406909809,-1.8610861177470506,-2.121390297312411,4.150889856970207,1.0140764121601642,1.344687001550301,-0.47008020082582647,3.0,0.4792051149848133,0.4739780925590689,0.2853757917390686,-0.542051540176289,0.3495201087084087,-0.16540407851263686,0.7460947072673555
16.0,-10.799986428012213,-3.3724818637856657,-6.237262830058233,-0.12289977639686833,0.1628243882737468,0.4597206575848818,-0.021557797263668372,-0.04280415539987544,0.9988507030171226,-1.8611028016606248,-2.1213955403985385,4.15088580260667,1.014085491095987,1.3446964992004806,-0.47005318534788243,3.0,0.4792059142409019,0.4739749549816242,0.2853494062815848,-0.5420777333535036,0.3495363137939633,-0.1654045197577902,0.746067986972602
16.1,-10.81799788253707,-3.6296265216528414,-6.340610322588452,-0.13107869544893277,0.16453580397573445,0.4553044730331141,-0.022633976703268343,-0.045709427660113565,0.9986955225086993,-1.8610903369214373,-2.1213699779906214,4.150897376166937,1.0140808408235369,1.3447033242114805,-0.4700689531755746,3.7101169704788934,0.4792103079862462,0.4739730051357041,0.2853291383304208,-0.5420884562720156,0.3495329168760932,-0.1654125601835253,0.7460600046445626
16.2,-10.9399774305662,-3.4686321372438593,-6.225334813205772,-0.125883508087643,0.1664635349356016,0.4586229515315628,-0.023442500576423598,-0.047894621450307026,0.9985768991031774,-1.861090556997876,-2.121382113705699,4.150915622711182,1.0140632675628702,1.344709873199463,-0.47006806511074867,4.0,0.4792155730564757,0.4739630135848305,0.285346461760522,-0.5420733827893849,0.3495377611155221,-0.1654102270819355,0.7460692045663886
16.3,-10.618631296995375,-3.570903066342158,-6.156344160862369,-0.1272798466169549,0.15852503189019865,0.45662644519373063,-0.02386757091332355,-0.049047248154502274,0.9985111942274699,-1.8610808748812289,-2.1213669880927646,4.150907869081239,1.0140599346915316,1.3447247840262748,-0.4700608244834654,4.0,0.4792251544857264,0.4739729098789151,0.2853297863209525,-0.5420859467564344,0.3495384276924083,-0.16541283517015623,0.7460591852235786
16.400000000000002,-10.740399964034715,-3.3241853553498792,-6.40654260785512,-0.12295184566764288,0.16202530190073194,0.4568879349152897,-0.023755759366996962,-0.04877747642488598,0.9985270268973958,-1.8610959349037843,-2.1213828492989006,4.150903224945068,1.014075441951416,1.3447213172912598,-0.470044903911179,4.0,0.4792054839170063,0.473977889032167,0.28532267837655706,-0.5420894271657799,0.34953967182972645,-0.16539093080716788,0.7460609296692746
16.5,-10.88378056874652,-3.7300381139685665,-6.237548880432017,-0.131824720262977,0.16579065191123663,0.45474438447835713,-0.02361813074537492,-0.04843930572593745,0.9985467804687729,-1.8610909298351148,-2.1213824608777014,4.150920036221897,1.0140755270723827,1.344721232170293,-0.47006771793874647,4.0,0.47920529896295877,0.47397349880436257,0.285342059296479,-0.5420863374821779,0.3495261456182722,-0.16540117432649876,0.746067240787188
16.6,-10.545575570212941,-3.5684851224812317,-6.340058064156083,-0.12750093904681947,0.15989614034476685,0.45817683573299584,-0.023384017057166424,-0.047848984529803816,0.9985807057240683,-1.8610719895910326,-2.1213874039304983,4.150890827178955,1.0140506464191894,1.3447093225072924,-0.4700918464086963,4.0,0.4792012192988476,0.47397557744444896,0.2853536693015559,-0.5420745850734842,0.34952572816804867,-0.16539695515532832,0.7460769107748553
16.7,-10.77314370467227,-4.02863883683243,-6.526309232478544,-0.12128362501969923,0.1583744416006178,0.45150061340206255,-0.022994229681783166,-0.04678739462467648,0.9986399535354054,-1.8611045590354616,-2.1214017884635394,4.150906764408971,1.014067473336408,1.3447525787809065,-0.470059762298592,4.0,0.4792037259181423,0.4739830024531965,0.28532863601388764,-0.5420995421410473,0.3495205593521929,-0.16540277708661263,0.7460599080051372
16.8,-11.356207351063105,-5.343247473268523,-7.715711165185705,-0.02699758437395581,0.13348255543677628,0.45103853218989287,-0.02307636884665555,-0.04696101039970671,0.9986289850910591,-1.8610849380493164,-2.121363816403125,4.150903299536189,1.0141225771078466,1.3447094680845362,-0.47005643069014774,4.0,0.479212348792823,0.47397666291797014,0.28534330372544353,-0.5420799945029714,0.3495352031154286,-0.16540557945387568,0.7460666294830791
16.900000000000002,-10.360363004913513,-4.019001526527857,-8.983621471935459,-0.09178006764349562,0.18038660599196685,0.454207416790336,-0.023847044142912176,-0.04904634892519308,0.998511500267048,-1.8610963821411133,-2.1213779862537767,4.15090764087295,1.0141047806491073,1.3447054572715813,-0.47006436723107153,4.0,0.4792041478095951,0.47397619690638604,0.2853595576435421,-0.5420728051256082,0.34951942071671077,-0.16541260722805162,0.7460776888871076
17.0,-9.754746272106251,-3.5777284203688096,-10.431006863267104,-0.14148943756911225,0.2173359314254676,0.44521797507517463,-0.022693357827841938,-0.045879976366877066,0.9986782907519641,-1.861096031656278,-2.1213818989195765,4.150926777272027,1.0140570021315112,1.3447038311456714,-0.4700857088981932,4.0,0.4791940493908844,0.4739697400946299,0.28534123502539155,-0.5420913519807954,0.3495208963523577,-0.16540256947468512,0.7460657471911236
17.1,-9.840309224972133,-3.657085117404476,-11.195507399420302,-0.15416663860775118,0.23067288678269143,0.4399678544601153,-0.021375129212052063,-0.042264556904196844,0.9988693881618851,-1.8611138663839046,-2.1213693152716715,4.150898510231974,1.0140814821024104,1.3446974754333496,-0.4700682798968714,4.0,0.4792114976184001,0.4739454555880983,0.28536522285776494,-0.5420645096452752,0.34953092075888686,-0.16542188111188855,0.7460762722844605
17.2,-9.731223400677731,-3.3860944398313664,-10.997956519729707,-0.14809253214226697,0.2266316397886555,0.44307205692918666,-0.02075073577612692,-0.040555887526092634,0.9989613963939593,-1.861114491815178,-2.121339192817849,4.150905269273869,1.0140835963972952,1.3447357593861735,-0.47008413222736567,4.0,0.47920955275614036,0.47395989065342586,0.28533241849789487,-0.5420731325806195,0.34954651541875936,-0.16540918446888314,0.74606551601463
17.3,-9.809520248378025,-3.5210288952860402,-11.053734575510049,-0.1445052877458427,0.23044202387707646,0.441802743257687,-0.021114534172041968,-0.041562898922932655,0.9989122772819413,-1.8611347645568048,-2.1213722100652754,4.150918138504362,1.014077584743084,1.3447168531419513,-0.47007573667651803,4.0,0.4792053522022181,0.4739572896084399,0.2853630869488989,-0.5420704492477264,0.34953427328047404,-0.16541304968227966,0.7460723442464992
17.400000000000002,-10.072905634184437,-3.3835643570035123,-11.087004850399753,-0.14688315726932602,0.2354002677030498,0.4448417691032278,-0.02114670265209237,-0.04168116735788544,0.9989064643900875,-1.8611191399069176,-2.1213461361327113,4.150901140152557,1.0140557376970958,1.3446989946667633,-0.470049877305311,4.0,0.47921178524666064,0.47393927676034336,0.28531684428291504,-0.5421056979034198,0.3495447728672683,-0.16541537590594457,0.7460412974331322
17.5,-9.97731910266987,-3.768301368644076,-11.198339279201452,-0.15764788115771158,0.23847162893942533,0.4458575050069071,-0.020693337204415064,-0.040498241779926586,0.9989640554258211,-1.8611013534095158,-2.1213518359105583,4.150891825389374,1.014082001020774,1.3447213172912598,-0.47005717372332445,4.0,0.47920685018309084,0.4739594902166115,0.28532983851331223,-0.5420931331606815,0.349539517281853,-0.1654148103752141,0.7460530151047824
17.6,-9.865376946300875,-3.8288026635675325,-11.034157453866133,-0.15110169262489817,0.23053493808118225,0.4404350973366608,-0.020239971756737737,-0.039315316201967695,0.9990216464615547,-1.8610892519654927,-2.1213818989195765,4.1508836970033345,1.014070768542225,1.3447306641096415,-0.4700430644944687,4.0,0.47918837534743686,0.4739658723964737,0.2853463093381536,-0.542096751551566,0.34951942988483514,-0.16540682277803048,0.7460615678807595
17.7,-9.900700576128841,-3.8813813429410544,-11.048204548732926,-0.15593440393598046,0.224143898017392,0.43797604419479647,-0.0206092827759625,-0.040308069972794174,0.9989734550352355,-1.8610930280040903,-2.1213563294757263,4.1508752370749145,1.0140609407970615,1.3446900763189396,-0.4700662574081779,4.0,0.47921737225164956,0.4739554619154314,0.28534816288647313,-0.5420833572331233,0.3495269001454496,-0.16542181152621885,0.7460644772115632
17.8,-9.87101551168132,-3.7914014312042448,-10.995042593049408,-0.15597165196444507,0.22759173156228207,0.44144535402477986,-0.02107328441276967,-0.041551245907723126,0.9989130879760107,-1.8610979148716602,-2.1213699779906214,4.150897856291058,1.014066339407835,1.3447283464033626,-0.4700682798968714,4.0,0.47920411598304596,0.47396268626956384,0.2853428138161397,-0.5420817930405788,0.3495266852183168,-0.16539099722924033,0.7460725460769377
