xiamingqian9007/apple-picking-rnn/training_data/grasper_20191127_133816_noimg.csv
,/manipulator_wrench.fx,/manipulator_wrench.fy,/manipulator_wrench.fz,/manipulator_wrench.tx,/manipulator_wrench.ty,/manipulator_wrench.tz,/ground_truth.x,/ground_truth.y,/ground_truth.z,/joint_states.elbow_joint,/joint_states.shoulder_lift_joint,/joint_states.shoulder_pan_joint,/joint_states.wrist_1_joint,/joint_states.wrist_2_joint,/joint_states.wrist_3_joint,/mode./mode,/manipulator_pose.x,/manipulator_pose.y,/manipulator_pose.z,/manipulator_pose.rx,/manipulator_pose.ry,/manipulator_pose.rz,/manipulator_pose.rw
0.30000000000000004,-0.7935118046634492,0.10187015950720063,-0.7876111892506146,0.0313006197321036,-0.004029549452413229,-0.05540243644697662,-0.10258003880857301,0.400563404763027,0.9105083423418692,-1.731412000495614,-1.713247401563217,4.176061895650553,-2.6128967562178405,-1.3413098494159144,2.0206586136045805,1.0,0.4599008476770013,0.47288095856616347,0.34294847489732994,-0.6069387138435497,0.1511185795582306,-0.3927573996570312,0.6741885474886733
0.4,-0.49836631238072476,0.3075779614891868,-0.46806984766601045,0.018341959217359583,0.004322088662688904,-0.1214960237109105,-0.1022877355929761,0.39973721176418514,0.9109044430087898,-1.7269592561160052,-1.7168392708370657,4.175292859073665,-2.614446396695281,-1.3422093572283555,2.020815372467041,1.0,0.4602579568056357,0.47326205459590964,0.3430978989770803,-0.6069111367697101,0.15112847320778963,-0.39275433159596196,0.6742129423730975
0.5,-0.34426519760216834,-0.08226639528509189,-0.4744369188390057,0.02530452932847215,0.0024795108521762617,-0.18291968174614354,-0.10194524067380542,0.3987385061469693,0.9113802156361644,-1.7224101496556963,-1.7197083863991627,4.174407879548189,-2.6157645153116587,-1.3429772232025272,2.0209712518983354,1.0,0.4616507334723235,0.4747299099966704,0.34334542898930726,-0.6070429916396671,0.15109155914257133,-0.3927140487542272,0.674125969658559
0.6000000000000001,-0.7393423536414256,0.1422858862340563,-0.39491426201178303,0.01610846709072606,0.0058760126249387925,-0.23036629431651418,-0.10170818224310066,0.39801816978087123,0.9117218699243449,-1.7180047073364257,-1.722974123498434,4.173748775939941,-2.617243530770773,-1.3435528322802943,2.0211514668273924,1.0,0.4622908233234917,0.4753465570166087,0.343727850200815,-0.6069178053973092,0.1510770724911797,-0.392735441829509,0.6742294627129469
0.7000000000000001,-1.1371713946442672,0.02894770345926799,-0.6600417365651418,0.03075803708454378,0.011490060153268394,-0.23680476622051488,-0.10201374022382553,0.39880412086951045,0.9113441411266997,-1.7137418532897548,-1.7255844568717658,4.173028410238813,-2.6185275516905726,-1.3441643120753373,2.0212951249683906,1.0,0.46369219033001285,0.4767724295629954,0.34404114325179913,-0.6070116879490493,0.15111853781395673,-0.3927273902074398,0.6741403379141995
0.8,-1.0195929345970802,0.07377615792054337,-0.6524678681970012,0.024196506591729908,0.011141660515502503,-0.21935159150347933,-0.10244965996188975,0.39992937736134104,0.9108014340564604,-1.709674218224316,-1.7287284542557961,4.172321964764014,-2.619825453188681,-1.3448128775557497,2.0214980349308105,1.0,0.4643423819034014,0.47736500242878016,0.3443259410972673,-0.606958248047059,0.1511529615032019,-0.392777602623596,0.674151483150276
0.9,-0.8505066550621794,-0.04108592429006063,-0.5431045802924358,0.03165036569348343,0.010758384998248514,-0.21763866442016688,-0.10287201439707098,0.4010574012515824,0.9102583640587264,-1.7054933952482794,-1.7313650584381373,4.171674768536692,-2.6211847943560547,-1.345497359604269,2.0216285338430375,1.0,0.4653364902695509,0.4783022497541981,0.344651038107668,-0.6068974962425998,0.15118267569044813,-0.39283091795205033,0.6741684489254078
1.0,-0.931614000255716,-0.004640688920819397,-0.5846665286044631,0.02993852496172547,0.010397979691867317,-0.22224251480629229,-0.10289048247588689,0.40133843688387916,0.9101323908995914,-1.7017034629793577,-1.734101614293147,4.171146869659424,-2.6222874121144613,-1.3462049580833628,2.0217969065359527,1.0,0.4665464705777157,0.4795383758113323,0.34501485225496004,-0.6069456871609027,0.15115302804211722,-0.3927984084869427,0.6741506547060554
1.1,-0.8134860831890581,-0.15328843284748117,-0.5375940840063241,0.025961351891534395,0.009544908722432294,-0.21467919104210967,-0.10279322344125352,0.4013121822468524,0.9101549563064213,-1.6979597436245295,-1.7366620810583298,4.170595381615423,-2.623538791928518,-1.3467071802216621,2.0219288302250504,1.0,0.46702627437312527,0.4800847688497433,0.3451525221001841,-0.6069558460490136,0.151124329577367,-0.39276435436825263,0.6741677831922905
1.2000000000000002,-0.7916355262181476,-0.14453849421485296,-0.5467816996774756,0.033634487194110815,0.012788923878246917,-0.21179157285778294,-0.10266464023867314,0.40115269300933554,0.9102397964031291,-1.694132340167809,-1.7391955567289161,4.170068264007568,-2.6248089275755824,-1.3471737957464076,2.022001392899962,1.0,0.46772508373739846,0.48088234902140997,0.34547348504551323,-0.6068854982400884,0.15110518573969756,-0.39274558672330256,0.6742463340484842
1.3,-0.7618136532077328,-0.07380270873748707,-0.5317348406815118,0.02788258905884252,0.005546762895618619,-0.21686815945406523,-0.10273429260688123,0.40120390834466657,0.9102093635414688,-1.6906647170060745,-1.741898046564673,4.169492749768697,-2.625843928233922,-1.3476432005511683,2.0221235085165112,1.0,0.4686904437860043,0.4818972492934616,0.3457851107332427,-0.6069040159385279,0.15111494865610914,-0.39275927609956673,0.6742195034023363
1.4000000000000001,-0.7326380813481688,-0.055005327265743115,-0.5299888461728904,0.029531339108690935,0.009566832663899854,-0.20803338836427943,-0.10279052979522586,0.4012412349814162,0.9101865613145371,-1.6871261573092593,-1.7441078778666173,4.168989318151952,-2.6270206077777667,-1.3481957607095991,2.0222425614360544,1.0,0.4697830928745482,0.4829781191458684,0.34588576757557077,-0.6070120743016507,0.151157247211373,-0.3927659600110402,0.6741088405621845
1.5,-0.7429827855053164,-0.074823783881519,-0.5392294320752828,0.023263201774645727,0.008157722113663297,-0.20461985571754746,-0.10286552977137967,0.401388211869177,0.9101131548470369,-1.6837671758554216,-1.7465357146206382,4.168449352351276,-2.6282217225519244,-1.3487360129481485,2.0223840238473647,1.0,0.470234035461973,0.483435199957866,0.34610045216127544,-0.6069721854654223,0.15117283853691085,-0.3927568058659226,0.6741465941514648
1.6,-0.9838595219756491,-0.14496754023386296,-0.30006711459401714,0.017157885454954957,0.0116201911088849,-0.21436352611615583,-0.10314537040585278,0.4024373546988746,0.9096178116246633,-1.680513792680335,-1.748695430686478,4.167933594402254,-2.6291904430982775,-1.3492420034240582,2.022502733042821,1.0,0.4714008028421418,0.4846651719139959,0.34640377207102646,-0.6070511151289613,0.15111999393893227,-0.3927293804804643,0.674103348723334
1.7000000000000002,-0.8901716571113203,-0.15785188875548328,-0.7216349490702346,0.025653590239748187,0.014012603954403421,-0.20748341992826,-0.10374079618107179,0.40456249628113966,0.9086057458158392,-1.6774603372711314,-1.7505915754321841,4.167444161567447,-2.6302136498267017,-1.3497303686096669,2.0225892066955566,1.0,0.4719281645834513,0.4851641126673646,0.34664078035049556,-0.6069890408481243,0.15111532294891228,-0.39275515811976824,0.6741452730907752
1.8,-0.9294175468893126,0.15831842975155808,-0.4229805297207209,0.025082953645665745,0.013881050840973536,-0.20787083797391823,-0.10378287888680945,0.4047270809218663,0.9085279024170225,-1.674252943656063,-1.753020989265889,4.166953866720033,-2.6312975970689956,-1.35011477747554,2.0226856576460603,1.0,0.47239555571565006,0.4856315576008585,0.34688282696863504,-0.6069356706873335,0.15111773195182682,-0.3927604464941601,0.6741897020918968
1.9000000000000001,-0.7252712635135675,-0.3190564472359226,-0.5694547458528825,0.028669013718882752,0.01197502815453064,-0.20247761062196745,-0.10333203330680424,0.40314277190201914,0.9092845402385108,-1.6714443878536223,-1.7547388024974546,4.166496753692627,-2.6322324083200175,-1.3504881140984824,2.0228283264341353,1.0,0.4730932201347845,0.4863283054686763,0.34703636482642786,-0.6069914736645815,0.15113412153112635,-0.3927503688106824,0.6741416587087519
2.0,-1.072106875862078,-0.2852684631107347,-0.49516234871728826,0.032448643379452344,0.010151980458366835,-0.21111674291532317,-0.10351215582877514,0.40350914577278446,0.9091014845629133,-1.6683256580165544,-1.756569579227751,4.166170785668191,-2.6331926784911097,-1.3508947305177335,2.022923181298074,1.0,0.47394277801816337,0.487150261832254,0.3473781032592747,-0.606931177858046,0.1511590393289416,-0.3927958380161065,0.6741638671793537
2.1,-1.1063335165893884,0.1657746199568536,-0.6083571728291105,0.019317188139993932,0.013354598591563316,-0.21223710855688072,-0.10372657882594077,0.40407355285747254,0.9088261613722287,-1.6658262462567504,-1.7587164677219047,4.165750436275213,-2.6340942537175454,-1.351257693475174,2.0229856804051116,1.0,0.4743938299164049,0.4876049054253875,0.3475951184657638,-0.6068730233461931,0.1511624492131297,-0.39282290450446966,0.6741996834612216
2.2,-0.9939763849320667,-0.2524124538262793,-0.5777016807967724,0.030424871218173704,0.015870921610415076,-0.21138983021186536,-0.10393127494485763,0.40468865722628244,0.908529164192258,-1.662795066833496,-1.7604452634756091,4.1654129415550125,-2.6350824028965127,-1.3517003726363135,2.023090562858473,1.0,0.4749824676625024,0.48823670841962236,0.3476332709183942,-0.60697048341314,0.15118032776011542,-0.3927940195207786,0.6741247651527675
2.3000000000000003,-0.9191162307572456,-0.06054857495241019,-0.339899955273015,0.03133335410801147,0.013528809285045754,-0.21306860257607962,-0.10352168675544994,0.4035706001197928,0.9090727199319822,-1.660380110237377,-1.7622038649832654,4.165046374903277,-2.635885887077992,-1.3520818217293504,2.0231741898070448,1.0,0.47573505857740545,0.48905497994873476,0.34795498955072823,-0.6069404980974851,0.15114592258060713,-0.3927774489693093,0.6741691311811866
2.4000000000000004,-1.0324622077665346,-0.06201394786307604,-0.3781379413770474,0.028051599340843874,0.0156532454176686,-0.21173178308431467,-0.1037189496467661,0.40446442769928864,0.9086521596964926,-1.6577158336314586,-1.764016284968797,4.16471834870993,-2.636690210709524,-1.3524210100676635,2.0231988269373877,1.0,0.476064689319822,0.48942943008042733,0.34806840992084875,-0.6069491332090445,0.15111515855343918,-0.3927705103772666,0.6741722960268689
2.5,-0.976677895986054,-0.008086245675704627,-0.4007437045347438,0.023615926927164025,0.01981631157251877,-0.20750230807837253,-0.10344083387173707,0.4037108695111122,0.9090151501041808,-1.6552840628713932,-1.7656363752546795,4.1643038413967375,-2.6376486491671947,-1.3527912070784525,2.023331838899478,1.0,0.4766110840039383,0.4900585957978518,0.3482089486221556,-0.6069520728789417,0.15110849045744718,-0.3927435639513117,0.6741868422881372
2.6,-0.7755624169241453,-0.07558918913038878,-0.5858840820507277,0.025090242496539968,0.017442953098184638,-0.20541500851990271,-0.1023720672854024,0.4002729043935198,0.9106598085758815,-1.652815750233187,-1.7672664410952235,4.163957130900138,-2.638429396540132,-1.3531532505815773,2.023405656200137,1.0,0.4773557574648144,0.4908195496436973,0.34843399035225936,-0.6069842397546877,0.15109672269713328,-0.3927179174704556,0.6741754596373838
2.7,-0.8349671667531215,-0.19337031298052113,-0.5711474751686555,0.022298846966241917,0.011107948660138497,-0.20602877602336356,-0.10305473354787195,0.4025664045711991,0.909569451054411,-1.650483654961282,-1.7688435283175976,4.163713501915628,-2.6391607957378835,-1.3534399790122835,2.0234875679016113,1.0,0.47775887003121575,0.4911841823849067,0.34856162997477774,-0.606985129852434,0.15110884632684313,-0.39274503430860996,0.6741561441726412
2.8000000000000003,-0.8783654503935391,0.089473970375627,-0.36497656009718965,0.03302705440094686,0.010852267280674146,-0.20412147617546478,-0.10321053128033772,0.40309444772525227,0.9093195418472328,-1.648172400554088,-1.7702966151372088,4.1633673402775,-2.6398725635390803,-1.353772982150462,2.023502653149265,1.0,0.47832277502599924,0.49182784649053896,0.3487899052759269,-0.6069410842663552,0.15109447956692904,-0.39273308569575205,0.6742059788179522
2.9000000000000004,-0.8027471159900417,0.08215971920689719,-0.43942495812983295,0.026992688627907463,0.013218037032644837,-0.20608949087379003,-0.10291078405706561,0.40201103130814986,0.909832832556238,-1.646100193988661,-1.7719194396770273,4.162973017149712,-2.6407109249363954,-1.3540374967864663,2.023620700409577,1.0,0.478657711465062,0.492164847739467,0.348923254467686,-0.6069156490564425,0.15109859397749215,-0.3927432169900101,0.6742220519508093
3.0,-0.8968261152113911,-0.2018429828912558,-0.41527276103624755,0.03337073530979096,0.00922185134344991,-0.20825804393098285,-0.10264614797505216,0.4009613399563721,0.9103261802783218,-1.6438163161008676,-1.7732982354484492,4.16271064082333,-2.6414077840516192,-1.354301922005694,2.0237151742250603,1.0,0.4791788676975451,0.4926533985681479,0.34906378221022677,-0.6069350722651066,0.15113018466274056,-0.39274631110789876,0.6741956840928998
3.1,-0.8070805537285665,-0.20604296860374122,-0.5694706240009623,0.020745303908669733,0.01237311922416766,-0.2036470556041429,-0.10306540920086743,0.402209970831668,0.9097271849295528,-1.6418604816700968,-1.7746085366034126,4.162385845856417,-2.64217533687734,-1.3545767222599383,2.0237280832200266,1.0,0.47980774197029213,0.4932834407915484,0.3491795811591906,-0.6069722168091034,0.15115483295443594,-0.3927515784166645,0.6741536487682743
3.2,-0.8215453884411759,-0.11185693718121419,-0.5769412963977852,0.020906359908032295,0.01482667926404577,-0.20435226643663074,-0.10323448753850895,0.40262927590005915,0.9095229950507592,-1.6399490821851055,-1.775945349885666,4.162083759665517,-2.642768011759289,-1.3548865365593592,2.023824011365563,1.0,0.4801080517130244,0.49355318444044516,0.34932533756840695,-0.6069494705783212,0.1511513751119741,-0.39277436156839163,0.6741616296267514
3.3000000000000003,-0.9651583606622522,0.022763850098533572,-0.5354056453202466,0.025532751163510985,0.019604614703060307,-0.20947151196572372,-0.10312789939441597,0.4021344979493144,0.9097539436979194,-1.637710616411114,-1.7774462891654814,4.161773739145969,-2.643391565774152,-1.3551189734511075,2.023882469134973,1.0,0.48052166399333124,0.49394893959310493,0.34941283353715497,-0.6069769994596422,0.15116611295930543,-0.3927742346348007,0.6741336136307037
3.4000000000000004,-1.082584256297414,-0.10677415081797922,-0.6857472741594405,0.024016553636155357,0.015237334920718154,-0.20413128817014795,-0.10297881155133315,0.4015837970783554,0.9100140511834662,-1.6361276438692585,-1.7787042197156602,4.161569696944207,-2.6441099512008854,-1.3553710580905984,2.0239434242248535,1.0,0.4811471287993527,0.494567535097045,0.34959959824481285,-0.6069383835302105,0.15117063315728105,-0.39279903653354287,0.6741529167532263
3.5,-0.7677263584298437,-0.28120716121243194,-0.5400029083393227,0.02165744942859393,0.017595566579407283,-0.20948696288052196,-0.1027814426878499,0.4009695659773973,0.9103072840441209,-1.634241568063357,-1.7797152422317688,4.161306165225343,-2.6447588406004847,-1.3556362316334398,2.023991107940674,1.0,0.4813922661176682,0.49484335230725335,0.34960197790345726,-0.6069958177096018,0.1511669825874385,-0.39277269446164814,0.6741173719344413
3.6,-0.9763266886380172,-0.18728781185735321,-0.46609358858567573,0.024730577911452806,0.017226973437603245,-0.21000653773818634,-0.10278192580642809,0.4010857292340686,0.9102560626434387,-1.632273481440392,-1.780737627102038,4.161100671839562,-2.6454056505549164,-1.3558864135396507,2.0240400518698034,1.0,0.48176591267950764,0.49526762950721237,0.3498014953830581,-0.6069962951968221,0.15112741575618455,-0.39275235522564506,0.6741376634552462
3.7,-1.097692962515274,0.1262090164189656,-0.3930083783911502,0.03172115950421651,0.023089587737294564,-0.20325877223203967,-0.1028440949223971,0.40138676473279794,0.910116300077747,-1.630788744557071,-1.7821302108321744,4.160862726963565,-2.645947399930993,-1.3561254610535514,2.024122094188291,1.0,0.48225359721785366,0.4957357263301746,0.3501590317684266,-0.6068727073477737,0.15113092982180507,-0.3928000926176025,0.6742203247953766
3.8000000000000003,-0.8899769598995317,-0.23244994336891944,-0.4898834116611196,0.021427278041259892,0.021169356678762685,-0.202305945058335,-0.10298861437699258,0.40190292744284073,0.9098720279581037,-1.6291119966105327,-1.7833417346761005,4.160648822784424,-2.6464353578775794,-1.3563178221331995,2.0241475105285645,1.0,0.48252210117294825,0.4960423147384263,0.3501286445624099,-0.6069416286108686,0.151120991892132,-0.39277400408266466,0.6741757092817833
3.9000000000000004,-0.8681813211422633,0.15003490724057286,-0.35949035961342785,0.03405084896948534,0.01530736607156774,-0.2047621403059181,-0.10315477986870608,0.4024530042539165,0.9096099958840932,-1.6273908434863404,-1.7842574788476833,4.160419940948486,-2.6470417132819604,-1.3565460339184077,2.0242082200945317,1.0,0.48296753068842174,0.4965107674712424,0.35005336063025766,-0.6070549446020814,0.15113407256888262,-0.39273595522673777,0.674092913339882
4.0,-0.8307874158538442,-0.16015640120206615,-0.5563597913106912,0.020620281488917605,0.015624054990522858,-0.2033194407434,-0.10320749675263934,0.40264456568202367,0.9095193879809217,-1.6258219449120923,-1.7852288685240687,4.160213674488607,-2.647627460456175,-1.3567512709118004,2.024267465661015,1.0,0.483212881980716,0.4967480267718722,0.35022021879272236,-0.6069937079365088,0.15114337185269677,-0.39275418191150235,0.67413535158862
4.1000000000000005,-0.872113865779065,-0.1491204811954909,-0.5832044291015264,0.027307179581563305,0.015251289657989085,-0.20000739673513948,-0.10311105996875439,0.4023647781408901,0.9096541556406028,-1.6242497814344596,-1.7861916678817726,4.160043838946242,-2.6481469223252048,-1.3569772227877026,2.0243137729810905,1.0,0.4835096147885929,0.49705656033604584,0.3504381204416403,-0.6069366015338225,0.15113940589413485,-0.3927630928127074,0.6741824638988606
4.2,-0.8169481659489742,-0.29160631065879605,-0.4095931441219103,0.02503314539033372,0.016295659486829536,-0.2079350955207497,-0.10321198871196557,0.4027427894752657,0.9094753427898581,-1.6226162237365587,-1.7873724949469576,4.159807890119931,-2.6487935965552247,-1.3571456114398401,2.0243630409240723,1.0,0.48393598193374915,0.49746541274741174,0.3506437871418983,-0.6069009355313946,0.1511484507074778,-0.3927757228307801,0.674205185277157
4.3,-0.9516158384659087,0.11348465888194151,-0.5049245624219739,0.034762228402850044,0.018096742265508,-0.19923563518444307,-0.10330874933801495,0.403058004756095,0.9093247674591617,-1.6209287643432617,-1.788546782639734,4.1595949230358045,-2.649319804938902,-1.357361141835348,2.0244107246398926,1.0,0.4842370655509152,0.49781228355154833,0.3507240328063687,-0.6069073651362866,0.15112941427515086,-0.3927718991942114,0.6742058925043237
4.4,-1.0959661344787894,0.09780318020122972,-0.6103938568640984,0.03173447267759184,0.02035898755381001,-0.20286052244193592,-0.10337608923913234,0.4032058923176057,0.909251553914554,-1.6193659431706529,-1.7897462572190324,4.159366899723859,-2.6498353745027057,-1.3575423399554651,2.0244494818652266,1.0,0.48462259236377103,0.49821956494468767,0.3507595942785741,-0.6069638160092341,0.1511444395274729,-0.39276443981923886,0.6741560496420056
4.5,-1.120377449090791,0.12394859215989351,-0.4674206960200139,0.035152420641695895,0.02003803424928415,-0.20732190092524033,-0.10334877054788531,0.4031051131618552,0.9092993389536528,-1.617684677894869,-1.7906058585014162,4.159176203772194,-2.650339803231236,-1.3577454725848597,2.0245070209404346,1.0,0.4848618447772,0.49848581012931853,0.35079149963571227,-0.606986876680007,0.1511463366396971,-0.3927509735643557,0.6741427068676933
4.6000000000000005,-0.9496250895844316,-0.35838512679460954,-0.5623564956947331,0.028973521458599858,0.01867398194199589,-0.20571851174121572,-0.10339577351262652,0.4032804450352335,0.9092160698394112,-1.6160900710479689,-1.7915965910474034,4.158970355987549,-2.6509592323939803,-1.357974573283031,2.0245332326768604,1.0,0.4852306879941861,0.49885260038262474,0.3509663923241317,-0.6069410028488648,0.1511511196513614,-0.3927638651204364,0.6741754254974069
4.7,-0.8066390009917872,-0.49489817238992956,-0.6226250457620826,0.01979856656914375,0.01785954330366115,-0.20443953766560471,-0.10357071152031451,0.4039146068113281,0.9089145456260014,-1.6145556955582532,-1.7928250038348075,4.158731983901957,-2.6515401077013645,-1.3581530024810504,2.024613474104243,1.0,0.48559250080385113,0.4992410744257358,0.3511364279619431,-0.6069291654476084,0.15114904860855222,-0.3927528417903448,0.6741929682957304
4.800000000000001,-1.0633511397337685,0.06878001352774274,-0.4272021884353256,0.02974689247023767,0.016972950234905942,-0.20752979684238407,-0.10359671895531657,0.40401903817501683,0.9088651721522694,-1.6127277557164021,-1.7938872398945451,4.1585251335111035,-2.6520902119078578,-1.3584062592170207,2.0246164989540194,1.0,0.4858234571775773,0.4994655259311549,0.3511770162958732,-0.6069501456630655,0.15115447466835769,-0.39275049410364105,0.674174231818943
4.9,-0.8999653355577953,0.13387691898843923,-0.5309198507416295,0.031112100495096443,0.014356508351826846,-0.20682571255787036,-0.10338904537456653,0.4032922906973616,0.9092114383373925,-1.611232338661143,-1.7950332801691153,4.158335072551642,-2.6526083710635926,-1.358598366483815,2.0247208680056845,1.0,0.48619570680950214,0.4998799096827896,0.3513234679421307,-0.606932414597725,0.1511276536149034,-0.3927545532165052,0.6741938425639412
5.0,-0.8394230538171664,-0.13931489970658095,-0.38860275935770117,0.019852049061899853,0.016083163744078238,-0.2047719019991565,-0.10330648998565505,0.403039288679794,0.9093332477481255,-1.6097530155633781,-1.7960121467034666,4.158163941669235,-2.653157324130525,-1.3588247028131646,2.0247751583397573,1.0,0.4866660322790325,0.50032184451862,0.3514015792192713,-0.606961604183521,0.15116327892331058,-0.39275311320704803,0.6741604157901087
5.1000000000000005,-1.0383650418176287,-0.2283263026330039,-0.3176393686601256,0.02414176583054833,0.019426220593211304,-0.21002372351828386,-0.10342682673836409,0.4035545141243385,0.9090910771892948,-1.6078943074340675,-1.7970438155349928,4.157879261657719,-2.653721380914209,-1.3589847859992275,2.0248270230219774,1.0,0.48687732867704847,0.5005716015547418,0.35142491791039776,-0.6069867207487849,0.15114454191283364,-0.39273255945627406,0.6741539772392656
5.2,-0.9169411043858137,-0.18015924344952963,-0.424338064181972,0.0271486118249131,0.018367867606330357,-0.2079791834310219,-0.10352272189837372,0.40382118580564746,0.9089617272601946,-1.6063032150268555,-1.7981006311403551,4.1576877694807335,-2.6542960929583295,-1.359220742039092,2.0248431632180073,1.0,0.48735909089109003,0.5011039378529956,0.35168475985361736,-0.6069271770261194,0.15111898625608977,-0.3927570322371837,0.6741990562202509
5.300000000000001,-0.9792691817229215,0.2660350628485885,-0.427702423206868,0.031707001169755576,0.019388256477357167,-0.20424683566485913,-0.10361508792014308,0.4040519686395567,0.9088486675787705,-1.6048737432904066,-1.7991958605199736,4.157494072491954,-2.654865631506629,-1.3594391207993561,2.0249000412818514,1.0,0.4876177216916903,0.5013095219640191,0.35181066463443383,-0.6068947143871558,0.15115129776967487,-0.3927793779288866,0.6742080176809472
5.4,-1.0968763650698126,-0.19378281298174332,-0.3227944778520324,0.024012530318524152,0.024906552964793452,-0.20740234976596006,-0.10349251991591724,0.40367089435869746,0.9090317927801702,-1.603104442939939,-1.8002535542707543,4.157266166741249,-2.655452011816898,-1.3596671500612816,2.0249514312201766,1.0,0.48802684017349224,0.5017335711431027,0.35179590737740907,-0.6069984600897355,0.15113078838697147,-0.3927454509587224,0.6741389804791386
5.5,-0.9027303979693688,-0.09228189547528014,-0.4102638522545792,0.027137773958686894,0.02148731167906959,-0.20869467098690617,-0.10333481599428938,0.4031897979387339,0.9092633362230765,-1.6013109471747216,-1.8013225852469223,4.15707540512085,-2.6560825522392397,-1.3598928875025011,2.02496336470259,1.0,0.4882572014208697,0.5019787964568159,0.3518954926216698,-0.6069922074204727,0.1511180469040213,-0.3927521275232647,0.674143576960194
5.6000000000000005,-0.8417313965809794,-0.045318968525377853,-0.455503521393089,0.027362682094885855,0.018136683724131242,-0.20593844472975725,-0.10342808856977485,0.40359125016070635,0.9090746275192274,-1.5998825476598835,-1.8024778979494442,4.156835984083081,-2.6565986780875552,-1.360072781786818,2.025035013055036,1.0,0.4886098486805601,0.5023514160826313,0.3520919345009646,-0.6069408428346951,0.15111956552997696,-0.3927509708793417,0.6741901549907676
5.7,-0.8139666724646283,-0.39729885248174546,-0.5456531503316756,0.022806265095441126,0.01314458178670308,-0.20066283468751675,-0.10335374947547653,0.40326983557632645,0.9092255724289089,-1.5983183324287995,-1.8036042652525843,4.15656064665445,-2.6571806356657057,-1.3602882648442811,2.02507293522603,1.0,0.4890675441754983,0.5027963251192179,0.3521280960367966,-0.6069984702839089,0.1511263138994587,-0.39274091530690414,0.6741426167837576
5.800000000000001,-0.9961831382025267,-0.3104120148360825,-0.2903919370610285,0.020792149254648517,0.01782169043902561,-0.20695094747812126,-0.10323868274948368,0.4027796675500098,0.9094560016779213,-1.5965042360993968,-1.8045536480345667,4.1563716691262105,-2.6577751401588237,-1.3604616250256607,2.0251288677037835,1.0,0.4893451008794709,0.5030529552724251,0.3521586345874671,-0.6070126585168427,0.15114776433791213,-0.3927438004769742,0.6741233514149085
5.9,-0.7081438953612812,-0.013815145310421665,-0.35511913464188083,0.029006224957836137,0.01650015794049109,-0.20266609891667184,-0.1032814499254313,0.40291115433505176,0.909392926604846,-1.5948408663385107,-1.805598875085348,4.156154922442248,-2.658385336631271,-1.3606617728030683,2.0251986185036137,1.0,0.48974202156674534,0.5034764544587346,0.3524190743784607,-0.6069430327080266,0.15114068785934026,-0.3927660478702768,0.6741746651728708
6.0,-1.1616012409587575,-0.019445893738386864,-0.45910664632183723,0.02572126942680019,0.021493690534765394,-0.20418156045313932,-0.10335123483070136,0.40313392304360374,0.9092862833866676,-1.5933314802925052,-1.806659985941899,4.155993795128637,-2.659006012550881,-1.3608615662530645,2.0252221581657466,1.0,0.4899800636213053,0.5037133466056831,0.3525348517959869,-0.6069325516055182,0.15114453078038137,-0.3927681404026841,0.6741820203041688
6.1000000000000005,-1.0391348665815174,-0.23139797911119087,-0.3560842016327028,0.02448433724295015,0.01591585113461979,-0.20132228220888054,-0.10341076634380615,0.4032844888507979,0.9092127395299111,-1.5916105818216026,-1.807877548152433,4.155778255257555,-2.659543139813588,-1.3610442136068166,2.0252434719880816,1.0,0.49033712027556525,0.5040832810214343,0.35263880006736825,-0.606951183097291,0.15114805304373918,-0.3927654059414053,0.6741660502380469
6.2,-1.0812878499221004,-0.3350433736377604,-0.4391556682354651,0.020321361592000767,0.0198871220744773,-0.20318661725166523,-0.1034282207519627,0.4032910021658252,0.9092078556425093,-1.5899705245947149,-1.8090492649947199,4.155543001277435,-2.660082372080292,-1.361222974355496,2.0253090858459473,1.0,0.490779286510337,0.5045493973241209,0.35266500004604784,-0.6069972866628414,0.15116071325643285,-0.39275771776777,0.6741261809821716
6.300000000000001,-0.993775548058264,0.050506354541046114,-0.4108810353130003,0.02519884436441279,0.023926717353870895,-0.20576303993262568,-0.10335325513922575,0.4029811121933118,0.9093537795592592,-1.5882982687860123,-1.8099144637935396,4.155359320172728,-2.6606539687505943,-1.361427229117627,2.0253361238796543,1.0,0.4910435025500633,0.5048304895522183,0.3527181145490578,-0.6070042798173984,0.15117102668759483,-0.39275825918895674,0.6741172559818063
6.4,-0.7057066881552976,-0.41826903695388085,-0.46720324132989327,0.020933783733898897,0.015967821027520594,-0.19852129195613671,-0.10327321986596227,0.40271534158840283,0.9094805917315012,-1.586617756398573,-1.8109442362830066,4.155148350243785,-2.661285746547031,-1.3616195676148757,2.0253826792265066,1.0,0.49132322997037625,0.5051197180616842,0.3528297808142005,-0.6069960050413222,0.1511667199509839,-0.39276338022725715,0.6741226889784938
6.5,-0.7295287679457257,-0.21389361162633458,-0.662255859512061,0.016894114391579958,0.01252518974819084,-0.20010462562174164,-0.10327348945939521,0.4027300186815605,0.909473978103028,-1.5850369272138514,-1.8118872309220337,4.154985554582435,-2.661919127074022,-1.361835694200134,2.025465488433838,1.0,0.49178337858402416,0.5055766481647214,0.3531657238400324,-0.6069113389537877,0.15114624735773266,-0.39279390674222425,0.674185720247156
6.6000000000000005,-1.0449506962191595,0.2615100130817496,-0.6946234370040887,-0.0027581338808474153,0.013264432108095133,-0.20696549013633653,-0.10346622321994929,0.40338149207561325,0.9091633283538088,-1.583449617824411,-1.8131547015344265,4.154760244799861,-2.662498249439676,-1.3620284239398401,2.0254640609605574,1.0,0.49199568492255447,0.5057738187338469,0.3532182685965258,-0.6069322946191446,0.1511559162077707,-0.39278298200912015,0.6741710523211099
6.7,-0.7811197859987254,-0.1896932610884397,-1.1651806984684627,-0.008545291951709248,0.017744586406025546,-0.2022044603697424,-0.10345562033456503,0.40337809900858507,0.9091661016969684,-1.5816344569264773,-1.8144076809321306,4.154549244926204,-2.663012483109311,-1.3622322879644464,2.025516858381525,1.0,0.49233241530561045,0.5061174045488056,0.3532761898027472,-0.6069579555529953,0.15117314883557315,-0.3927683408511148,0.6741526160203847
6.800000000000001,-0.7687769729896438,0.1077630048475179,-1.3056886798624463,-0.004969872028467406,0.022179982987238223,-0.207917155373675,-0.10338969412965565,0.403196531533764,0.9092541504011247,-1.5801172256469727,-1.8153563938536585,4.154389875916172,-2.663554062513,-1.3624324660242644,2.02559529548182,1.0,0.4928489559103052,0.506704692611845,0.3533681111023203,-0.6069581969386374,0.15114012542994454,-0.3927779516530661,0.6741542036872874
6.9,-1.1300519350295712,0.26403905483248324,-1.2330330971535925,-0.015091620777328032,0.022526462200764617,-0.20689380291930443,-0.10331968276566987,0.4029528462097772,0.9093701095482691,-1.5785601880221731,-1.8162951746735696,4.1541532294435495,-2.664198426321519,-1.3626366671644063,2.025642141271555,1.0,0.4930607599418258,0.5069516675859399,0.35341859869982206,-0.6069755397293431,0.1511360645755131,-0.39275605940083574,0.6741522542859485
7.0,-0.814052636807216,0.4913761714472796,-1.2338217725587457,-0.014178466942964102,0.020361727272194003,-0.20446643050584334,-0.10329430929631049,0.4028763354048469,0.9094068738474148,-1.5766884770963252,-1.8172245598176973,4.15395975112915,-2.6648377497818756,-1.362827323587509,2.025670022269001,1.0,0.49344724172577953,0.5073046169459394,0.3535810647389777,-0.6069773500320106,0.15114425614673324,-0.3927655104733301,0.6741432816283146
7.1000000000000005,-0.7833405109757641,0.6445722851399248,-0.6993215511669497,-0.01371577611735938,0.0159925089326361,-0.21262464446781745,-0.10339663058589295,0.40331586766313793,0.9092003999502049,-1.5765657424926758,-1.8172417911678689,4.153934936250789,-2.664888539311759,-1.3628538290606897,2.0256800458088953,1.0,0.4936220254931258,0.5074914738639477,0.3537465359620931,-0.6069309165529546,0.15113442028092045,-0.3927713864433314,0.6741838677467178
7.2,-0.9421177275362713,0.2784407216678018,-1.0287579123108126,-0.00494391137650607,0.01947950191927755,-0.20720140458733638,-0.10349810749346022,0.4036496299322529,0.9090407064973839,-1.576555125975464,-1.8173878649972086,4.15392613215798,-2.66490311995102,-1.3628419081317347,2.0256907388074237,1.0,0.4937942254504357,0.507688434508543,0.3539686309481836,-0.6068369596509514,0.15111751652013503,-0.39279583147882285,0.6742579887366827
7.300000000000001,-0.7703645319720105,0.12570759186127697,-0.9511689598583093,-0.010828273478708463,0.014158141197615545,-0.2021522845548008,-0.10359929039749025,0.4039465643788982,0.908897301425742,-1.5765806928218704,-1.8174878627926736,4.15395642011089,-2.6649252376952113,-1.3628521635515596,2.025665290044972,1.0,0.4938292081790763,0.5077041572088756,0.3538332318526751,-0.6069149004728728,0.15114704870614956,-0.39277331999281195,0.6741943283306736
7.4,-0.7926289448021502,0.22215115481698908,-1.0967317396066742,-0.007760299631334033,0.018270409742444326,-0.2034585529110104,-0.10332315505443461,0.40305578295618144,0.9093233917578197,-1.5765841529987894,-1.8174929504309632,4.153921825149899,-2.664945566313063,-1.3628180662738245,2.025672134303291,1.0,0.4938384137031654,0.5077099880763822,0.3537469830488034,-0.6069697026218793,0.15114452748849114,-0.3927700903099955,0.6741474379297647
7.5,-0.5814177930934311,0.10530941495237345,-0.9006559516633714,-0.01072810649645617,0.013546890861104357,-0.20093536960516664,-0.10304132115365787,0.4021458000922158,0.9097588520944809,-1.576591735454601,-1.8174905701496324,4.15397150028751,-2.664916435072763,-1.3628519580767855,2.025659023008888,1.0,0.49382635494665733,0.5077152219371066,0.35372748703740065,-0.6069888953382796,0.1511441207877776,-0.39274050800111443,0.6741474831684319
7.6000000000000005,-0.53126537189902,0.049122715721295,-1.2039410390290928,-0.010436325463727483,0.012078471896316396,-0.20027236925599634,-0.10319022507548457,0.4025998587217735,0.9095411642445579,-1.5766036434826616,-1.817492924400478,4.153927111131378,-2.6649544857374767,-1.3628384469526464,2.0256942627342682,1.0,0.4938269947294847,0.5077273713899326,0.3537477077250034,-0.6069706094700578,0.1511322840769289,-0.39276142461527663,0.6741544150144054
7.7,-0.9138869966387745,0.19222911876817614,-1.070567839568948,-0.010759470394489096,0.01999605275213314,-0.2058422227027373,-0.10320280682264285,0.40267109375849963,0.9095082015406424,-1.5766254883004918,-1.8174839237459728,4.153969846487346,-2.664913316766256,-1.3628622963777681,2.025691357765342,1.0,0.49382556479451056,0.5077329380316908,0.3537225015968499,-0.6069871368268892,0.1511346405640417,-0.3927475687641536,0.6741470784466247
7.800000000000001,-0.8497953561715192,0.20386127562542777,-0.9381412459808232,-0.00880884789460612,0.01877434369412663,-0.21054853184684835,-0.10330782624067773,0.4029803223452148,0.9093592381864556,-1.5766123038071853,-1.817503114739889,4.153937125205994,-2.664924068527179,-1.3628299872027796,2.02564833347614,1.0,0.493839526709461,0.5077108475456521,0.3537519981114565,-0.6069631089331727,0.1511503841547372,-0.39276244466353377,0.6741565158225333
7.9,-0.8971047255166208,0.44994019148873254,-0.9585894706100214,-0.00362802167890831,0.022026447174922872,-0.20466851349836476,-0.10350856048288849,0.4036060923965046,0.9090584764470022,-1.576613426208496,-1.8175083792927091,4.153951635225421,-2.6649342407094956,-1.3628316512968133,2.0256776906412783,1.0988528104825706,0.49383079712291494,0.5077108812566364,0.35375218563765765,-0.6069712713972193,0.15114367506542123,-0.39276859356176097,0.6741470886221176
8.0,-0.8235498790589734,0.49647814876646257,-1.085818238944984,-0.002421516566588955,0.018636741862397787,-0.204666260605678,-0.10394988015902228,0.405144764414814,0.9083231684635436,-1.5766002002160318,-1.8174829851750363,4.153941551956687,-2.6649070385227485,-1.3628075989001012,2.025704860687256,2.0,0.4938284347904627,0.5077114868304867,0.3537637677364621,-0.6069606836568276,0.15114322515075002,-0.39276988205097085,0.6741559713742306
8.1,-0.8227814725543043,0.026677013304656313,-0.9993630465676759,-0.013408570409307057,0.019315274130558002,-0.20428062732186683,-0.10389700285718681,0.4049658109138284,0.908409031542479,-1.5765997700728769,-1.8175115793503718,4.15394710884695,-2.6649121646600986,-1.3628091709104297,2.0256686210632324,2.0,0.4938321488969896,0.5077045628411124,0.35376305792025153,-0.6069554422282206,0.15114750591873996,-0.39276596440743494,0.6741620130259395
8.200000000000001,-0.7740755680353302,0.2636166213117039,-1.0579074939159592,-0.009725275758079042,0.016461066224220486,-0.2041248909901728,-0.10361743308406171,0.40399896758130394,0.9088715729618012,-1.5766344721298253,-1.8174755953789834,4.153950037626998,-2.664935760655876,-1.3628401054341879,2.0256589075610805,2.0,0.49382991777752694,0.5077049261282472,0.35377483533340653,-0.6069505399282686,0.15114501552371148,-0.39277567887819476,0.6741613252366923
8.3,-0.8369068022880848,0.2861611027195823,-1.0397610754571511,-0.006511650797291147,0.020644909223913287,-0.19339542806017926,-0.10348675023683622,0.4035416111415973,0.9090900046747742,-1.5765905380249023,-1.817515035668844,4.1539544413633,-2.6649067056031517,-1.362819812907328,2.025690786152979,2.0,0.4938286589467938,0.5077064062702331,0.35377608410297734,-0.606952507090567,0.15114704073133103,-0.39276191271369776,0.6741671203315351
8.4,-0.8928131222240847,0.2769904649681895,-0.7212506802614991,0.005929346344772152,0.015506637120935881,-0.20336625935482436,-0.10345259186771143,0.403416261994272,0.9091495305379728,-1.5766084234939144,-1.817458497776406,4.153965061716273,-2.6648873304996608,-1.3628401710780604,2.025697743564312,2.0,0.4938402587917678,0.5077018229928458,0.35374813649064096,-0.6069647007350505,0.1511493464390079,-0.39276859028501276,0.6741517348625568
8.5,-0.9716021496235983,-0.007871505045350925,-0.7095409528955552,-0.014981633581342108,0.012863940754568159,-0.20165833621695015,-0.1035152670183688,0.4036325550285607,0.9090463818315582,-1.5765790939331055,-1.817484336932317,4.153981035586476,-2.6649030838540804,-1.3628299872027796,2.0256383316431923,2.0,0.49383964476254616,0.5076905744969953,0.3537522913514395,-0.6069675184941883,0.15114513880598776,-0.3927772110727954,0.67414511862818
8.6,-0.7867796179002629,0.36539511234674915,-0.8245161785587618,-0.023276489366311534,0.01556603991575,-0.20696883587554918,-0.10356312773075152,0.4037693131756016,0.90898020536888,-1.576605599011459,-1.8175048536316003,4.153925319952506,-2.6649066820681035,-1.3628366219009322,2.025672098846655,2.0,0.4938242249174405,0.5077183001854857,0.3537694776819076,-0.6069618687873467,0.15113624497330833,-0.39275741147819393,0.6741637345797298
8.700000000000001,-0.8721997206856446,0.5191115593451598,-0.8118314392955819,-0.015390344403679453,0.020676248304439027,-0.19901715815739482,-0.10356557373142465,0.40374467579790096,0.9089907822336581,-1.5766019821166992,-1.8174895890273652,4.1539483070373535,-2.664935966486413,-1.362840303348166,2.0256587175636613,2.0,0.49384770124559874,0.5077019982211693,0.35375561656844545,-0.6069543544251118,0.15116186590946484,-0.3927700700175688,0.6741573807632448
8.8,-0.9016217538918675,0.7362916335546108,-0.7278200622059056,-0.016322035483843426,0.01847344068284787,-0.20820935115676287,-0.10329874039305233,0.40287687138540323,0.9094059396289877,-1.5766122419622879,-1.8174722863122241,4.15395728394955,-2.664902629427101,-1.3628419081317347,2.0256937458545345,2.0,0.49384556790914347,0.50770328623702,0.3537591575232038,-0.6069480065127731,0.1511705643585369,-0.392761823999107,0.6741659495039681
8.9,-0.6857611184962025,0.3977445415344724,-0.5612165025645286,-0.0357531725559361,0.014135587813569505,-0.19576022246429267,-0.10337258540511372,0.4031947507707928,0.9092564464112806,-1.5765805722326367,-1.817501574844544,4.153991309471325,-2.664956796037386,-1.3628522891653447,2.0256879048309213,2.0,0.4938331237319312,0.507721504034578,0.3537604898464173,-0.6069569784154327,0.15114165650824052,-0.39276447370838785,0.6741628098711219
9.0,-0.8287874689441672,1.917201268825229,-0.7181923947489763,-0.1244903729784106,-0.007546967350862698,-0.18655778997999367,-0.10364883644469342,0.4042036524945038,0.9087773556479373,-1.5766001618667764,-1.817515035668844,4.1539483070373535,-2.6649337674302385,-1.36282809110911,2.025694434858559,2.0,0.49382645849046947,0.5077180083118482,0.353756687597034,-0.6069644381989647,0.15114498799047127,-0.39275265429593886,0.6741622326344532
9.1,-1.1182302129010808,2.633787309128838,-0.9689000202118023,-0.22453427626949413,-0.01647859960889892,-0.18109205043932125,-0.10380462256804457,0.4046775001089077,0.9085486158861706,-1.576629514097957,-1.817525951191732,4.153940241982206,-2.6649295133968223,-1.3628209167415652,2.0256476296730628,2.0,0.4938336967902993,0.507710693004567,0.3537555064380756,-0.6069621387775255,0.15115902417627164,-0.3927574565316633,0.6741583581321735
9.200000000000001,-1.189210235612724,3.4240068131836345,-0.5414167233232015,-0.2849405852534798,-0.02049271864123641,-0.17797453768124274,-0.10378348444411623,0.4045941509537538,0.9085881406104626,-1.5766267776489258,-1.8175239259528895,4.15395975112915,-2.6649303957570756,-1.3628436274856894,2.0256810188293457,2.0,0.4938320358919459,0.5077149337557242,0.3537631930026374,-0.606967729358903,0.15114459244006312,-0.3927599224054558,0.6741551238736418
9.3,-0.956236002710558,3.7431899248776523,-0.5990301993416184,-0.33032856703077523,-0.020397623123906177,-0.17592185447658495,-0.10366260933241865,0.4042006663167545,0.9087771292212106,-1.5766151904298,-1.8175274334349574,4.1539483070373535,-2.6649307948258913,-1.3628267737996902,2.0256825310190347,2.0,0.49383103016204305,0.5077168378567212,0.35375118424984303,-0.6069712145568537,0.1511452433481324,-0.3927566128084844,0.6741537682219227
9.4,-0.9207834480112098,4.148449820375522,-0.6063645205402269,-0.3722653715375225,-0.02545058330899173,-0.16796110853674862,-0.10374748842237991,0.40449713855350067,0.9086354992349257,-1.576621800957316,-1.8175471700238381,4.1539483070373535,-2.6649310007206224,-1.362822171542854,2.0256810188293457,2.0,0.4938287623542133,0.5077241053889309,0.3537175781702495,-0.6069914277989193,0.15114199666063677,-0.3927512307974524,0.67413943226246
9.5,-0.7761268435738226,3.6638245937606078,-0.8217888049702363,-0.33882266437814246,-0.014691947096918408,-0.17935062711885033,-0.10368586473515086,0.40429497662480723,0.9087324050310673,-1.5766246407204254,-1.8175093117532182,4.153946322746603,-2.664971089758031,-1.3628538290606897,2.025674421297733,2.0,0.49383111576606203,0.5077218724990408,0.35372561311151185,-0.6069778591307828,0.15114864716144286,-0.3927505027359797,0.6741505822788502
9.600000000000001,-0.43466871949254404,1.016719754805882,-1.2353437857888365,-0.13169364415585566,0.0042809651713041075,-0.21989167411869678,-0.10355065979080191,0.40384165619506807,0.9089493991303711,-1.5766478045717316,-1.8175215394424624,4.15395975112915,-2.6649074227737612,-1.362801979669197,2.0256686210632324,2.0,0.4938309170887098,0.5077135904066018,0.35371830944565386,-0.6069843413486472,0.15114646123629424,-0.3927498617127618,0.6741456094479151
9.700000000000001,-0.5608476275576675,1.8530074181692413,-1.335204694263451,-0.19852434141744352,-0.013038456862078739,-0.17694657458140692,-0.10388564790792333,0.40497884274708756,0.9084047015827428,-1.5766093628461446,-1.8174673519530238,4.153961952117091,-2.6648558284560386,-1.362885359178439,2.0256469801932626,2.0,0.493838130775275,0.5077062306022811,0.353733100103967,-0.6069631847148043,0.15116410316458923,-0.39275272029174196,0.6741590368887334
9.8,-1.1097638387067497,2.578345042075621,-1.5097849594126536,-0.23024217440239378,-0.016159116079694585,-0.19125838583302548,-0.10408890116384856,0.40567638469582695,0.9080705297827337,-1.5765828960040364,-1.8175011344946124,4.1539578500936845,-2.664971020375566,-1.3628497893603255,2.025690561885677,2.0,0.49383443288131873,0.5077205854694612,0.35375233821227975,-0.6069575610095075,0.15114008295295345,-0.3927563745701377,0.674167356590992
9.9,0.44031388509685765,1.0830290140752963,-1.3812981682644652,-0.115375229985548,0.10043624036565839,-0.2154935058786183,-0.10416732200017764,0.40595823256354685,0.9079355247212136,-1.576595394022944,-1.8174629309953723,4.153957670678491,-2.664886917620528,-1.3628450738308306,2.025675209156988,2.0,0.4938295313352616,0.5077153226498567,0.3537557447895376,-0.6069614337694316,0.15113692800353193,-0.3927587738395178,0.6741631794174834
10.0,0.6971319985281725,0.2858241350544457,-0.9804615858650442,-0.06285496967198492,0.16792646099234715,-0.24815960080017804,-0.1036758550259701,0.4043647250378908,0.9087017297584243,-1.5765811457812624,-1.8174716266366842,4.153967874211603,-2.6649252376952113,-1.3628078913432147,2.0256810188293457,2.0,0.4938121485789118,0.5077231912358999,0.3537477499260524,-0.6069718767779375,0.1511354223566327,-0.3927538570158553,0.6741569792777641
10.100000000000001,1.4028236417432702,1.437814081282511,-1.1075039125132766,-0.13664676734640585,0.23171974994485192,-0.2501577389777478,-0.10366678681951227,0.40430259171218563,0.9087309895052548,-1.5766063593263273,-1.8174596398794804,4.153923511505127,-2.664931238001099,-1.3627997478846436,2.0256613858268473,2.0,0.49381054507575245,0.5077297498638201,0.3537443756370259,-0.6069754258819157,0.1511373185067835,-0.39273951876791413,0.6741617118525742
10.200000000000001,0.6132716932752467,1.7362681063621752,-1.5456074979891048,-0.1672700166484373,0.1262216570133214,-0.22536622390955763,-0.10383754769123221,0.4048313409488518,0.9084763688150748,-1.5765903275143907,-1.8174930913753402,4.153955956000337,-2.6649452257189497,-1.3628256565314496,2.025714483117223,2.0,0.49382784112443623,0.5077048702992119,0.3537814002276483,-0.6069408523168957,0.15115256737721167,-0.3927666651734479,0.674173605158676
10.3,-0.16943106077844322,2.43453141202655,-0.8916632803569833,-0.22280075742531483,0.1022747198031366,-0.22503108246963757,-0.10376348285982345,0.4046021376422407,0.9085869514871258,-1.5766406411895537,-1.817503114739889,4.1539575852148385,-2.664961640607324,-1.3628441642924762,2.025694809328314,2.0,0.49382258906664694,0.507710632017378,0.3537737599726016,-0.6069481976985889,0.1511464550325337,-0.39275466595123765,0.674175353164935
10.4,-0.052415232882215945,2.8223762789165554,-0.29976163673534967,-0.26012187451419244,0.08305188336182914,-0.20210030418224548,-0.10392589521427133,0.4051639442850468,0.9083178828424937,-1.5766092040690969,-1.817500915708952,4.1539416219833045,-2.6649570792573605,-1.3628365842955907,2.0256880648592683,2.0,0.49382524251861304,0.5077074756133185,0.3537691886746118,-0.6069498994426682,0.15115149549652324,-0.3927577312055029,0.6741709053007297
10.5,-0.32386140297223526,2.805097249784985,-0.42150033391438746,-0.27536438048253226,0.0522591833670224,-0.19441005822562574,-0.10406446163654594,0.40565705636815974,0.9080819477960723,-1.5765972374997248,-1.8174867862617086,4.15395975112915,-2.6649570697700096,-1.3628732633693745,2.0256686210632324,2.0,0.4938186833779062,0.5077280075020668,0.35374311515427515,-0.6069743921734799,0.15113968549933596,-0.3927407367701066,0.6741614023318675
10.600000000000001,-0.22027426539421302,3.10347494909342,-0.5791009585960745,-0.3190897968655066,0.05466562968281303,-0.18821183082579857,-0.10417858012051606,0.40607973965255645,0.9078799828271877,-1.576613426208496,-1.8174986813389007,4.153972148895264,-2.6649319764647137,-1.362824716375307,2.0256947682896564,2.0,0.4938216553199312,0.5077264303169148,0.35374034417133304,-0.6069713119596379,0.151146763871576,-0.39273827711375175,0.6741640215250795
10.700000000000001,0.13218362558788618,3.0084921074539115,-0.6177776333337982,-0.33851767543662387,0.0659131586933279,-0.19513099779041096,-0.10421014535208738,0.4060908791680834,0.907871379922111,-1.576629597379212,-1.8174988025591337,4.153942463785988,-2.6649310809465763,-1.362807910841704,2.02567670664859,2.0,0.49381615685000524,0.5077317301395725,0.35372597629742536,-0.6069868807902544,0.15113718256234854,-0.3927358084248264,0.6741535903460949
10.8,0.017454087163735046,3.684377380885329,-0.798763047861421,-0.35312333532792406,0.07087567061255987,-0.1888881227373799,-0.10424043858672692,0.40609567753536874,0.9078657563781708,-1.5765818779806013,-1.817515035668844,4.153954107136303,-2.664933227386123,-1.3628509290112147,2.0256868189282957,2.0,0.4938369052854043,0.5077130336878678,0.35373179444789893,-0.6069713933482769,0.1511594614226875,-0.3927583410587149,0.6741494125251913
10.9,-0.16086394493607267,3.7455456322962033,-0.584222477885076,-0.3775117337314825,0.07231432695663974,-0.1963625068508741,-0.10407855514674376,0.4055798187269301,0.9081146896667603,-1.576613426208496,-1.817512840286479,4.153972148895264,-2.6649252376952113,-1.3628397127493697,2.0256875171611464,2.0,0.49383713280857483,0.5077078573465376,0.35374310011604426,-0.6069700975607552,0.1511563772525231,-0.3927595793052553,0.6741505493188739
11.0,0.11326194399634712,3.8763828610728197,-0.3077182366826115,-0.38618750154569653,0.07203515066685214,-0.1873266253525911,-0.10391195544403148,0.4050511823218485,0.9083698701073732,-1.5766271665873177,-1.8175076616174992,4.15394500302646,-2.6649155456278297,-1.3628419081317347,2.0256686210632324,2.0,0.49382995133966096,0.507713641249034,0.3537579093161029,-0.6069602855701606,0.15115544728011954,-0.39275382580164564,0.6741629438172251
11.100000000000001,0.020544342643844332,3.7508064752618555,-0.2440284740768936,-0.40399729059332506,0.07938333014938173,-0.18883188501100548,-0.10425813755246453,0.4062249446368852,0.90780531304388,-1.5766555927458599,-1.8174814589808888,4.15395975112915,-2.6649619909164826,-1.3628440942306446,2.025683117484299,2.0,0.4938170521994375,0.5077175828152823,0.35374897956062934,-0.6069744313541389,0.15114437362480498,-0.3927510229523416,0.6741543235593572
11.200000000000001,0.07071434196443514,4.3068567066196275,0.011707202957061472,-0.42361072139253075,0.07870072906422017,-0.19197809224789447,-0.10436412619190961,0.406558325614574,0.9076442683304818,-1.5766092812347843,-1.8175128768283693,4.1539576786422945,-2.6649111579257814,-1.3628180662738245,2.0256967806020922,2.0,0.4938463092682178,0.5077081986690466,0.35376590721949736,-0.6069490358538217,0.15114820730395603,-0.3927647457439928,0.6741683334342938
11.3,-0.008239959147074663,4.6650177832313195,0.24915511998671935,-0.4419034207773865,0.08593386930644416,-0.1968801999365359,-0.1041651406276501,0.40582837878206707,0.9079938785104538,-1.576621829614516,-1.8175298122976544,4.153962225146356,-2.6649061535626952,-1.3628347449281737,2.0256810188293457,2.0,0.4938523344347802,0.5077090908193107,0.35375209224118215,-0.6069567406274916,0.15115839663356825,-0.39276461239581023,0.674159189942249
11.4,0.020473886742856218,4.67821273225392,0.3802810144800439,-0.4701248891608357,0.08178305095944684,-0.19054089287596215,-0.10409018784986925,0.40558099460320635,0.9081130199715622,-1.5766240905234326,-1.8175126364496537,4.15395975112915,-2.66494188189555,-1.3628105629148597,2.0256711162511905,2.0,0.49383710880235293,0.5077133935090163,0.35374354854933115,-0.6069664640094138,0.15115216881345317,-0.39276580542835077,0.6741511369990543
11.5,0.11645555308220815,4.840323231978348,0.5633251392387313,-0.49134737955647567,0.07976871540418624,-0.1863092624408701,-0.1044648867032224,0.4068499857871308,0.9074985364939645,-1.5766291217983894,-1.8175294894015865,4.153928590495632,-2.664922795872853,-1.362848945415974,2.0256711605584847,2.0,0.49383239115261124,0.5077164167455313,0.3537325007207489,-0.6069769711139782,0.15113872036431147,-0.3927673161503072,0.6741438118888461
11.600000000000001,0.0033204658323043035,5.182798467937601,0.6091033594131497,-0.5061904993442928,0.08187738796582605,-0.18925943392449818,-0.10544223538680925,0.4101450842768901,0.905903528605264,-1.5766451213554544,-1.8175274334349574,4.153943383853867,-2.6649037627524392,-1.3628251670192386,2.0256686210632324,2.0,0.4938420223357063,0.5077047049668046,0.3537417033784875,-0.6069673271988048,0.15114036820161747,-0.3927724391739318,0.6741491406494403
11.700000000000001,0.23098277998571112,5.082936077530415,0.7792504482773087,-0.5213730122919478,0.08224751687896469,-0.18982476260304834,-0.10535420576637385,0.40991736533767886,0.9060176695705087,-1.5766213426419886,-1.8175230448692865,4.15395674658672,-2.6649056156119846,-1.3628265058231914,2.0256924629211426,2.0,0.49383334581950694,0.5077141197192093,0.3537382911234991,-0.60697890245069,0.1511276423731598,-0.39277276634029934,0.6741413811003408
11.8,0.3910395465820877,5.644790731668257,0.8568507454103866,-0.5277954597555855,0.08243313892948605,-0.18620691395115885,-0.10481539817265799,0.4081163256553386,0.9068906191307338,-1.5766267776489258,-1.817498313062527,4.153969652023036,-2.6649327377504153,-1.3628514282220088,2.0256686210632324,2.0,0.49383141550776266,0.5077246406424328,0.3537490070833907,-0.6069646021580454,0.1511341875072633,-0.3927592385836237,0.6741606704642873
11.9,0.4153177559693063,5.382302021011082,0.9146583617483853,-0.5453193252287195,0.08095631960542321,-0.18520432971936723,-0.10403635761314337,0.4054353609309993,0.9081837059468432,-1.576583728431513,-1.8175175460221482,4.153972187998956,-2.664918240920814,-1.3628253076775863,2.0256734486657404,2.0,0.4938487717732519,0.507711805341484,0.35376125077266424,-0.6069550488626597,0.15112959313970759,-0.3927784675690654,0.6741590985454764
12.0,0.4198690258141277,5.400020150777351,1.055329889182859,-0.5523414531363112,0.08065310937134595,-0.18485681474884497,-0.10366403624769507,0.4041516248556493,0.9087986041136543,-1.5766001298352847,-1.8175296666354261,4.1539483070373535,-2.6649252376952113,-1.3628514311080941,2.0256785249586464,2.1157767903160654,0.4938425751039154,0.5077090138589249,0.3537346017031568,-0.6069712705940665,0.15115717395485895,-0.3927583698553162,0.6741500191678406
12.100000000000001,0.2819067403741197,5.825855472181035,1.711245716892112,-0.5428993857822179,0.08043643614670822,-0.1855044394968472,-0.10380770324198275,0.40463751628224565,0.9085656325605499,-1.576916601031712,-1.8173461174811523,4.1539798250944955,-2.664807341083447,-1.3628394529169563,2.0256810188293457,3.0,0.49384537758313674,0.5076981019501556,0.3537317196700599,-0.6069677219545067,0.15114906766819022,-0.3927629026617484,0.6741523908888196
12.200000000000001,0.279047752954961,5.3998639398500385,2.390555137812075,-0.5240040028959527,0.08380093276047007,-0.18463360958866903,-0.10401416364455396,0.4053387632302269,0.9082294791652792,-1.5783096217046768,-1.8164247766807113,4.154126500061872,-2.6643889983130795,-1.3626532967669205,2.0256468306266044,3.0,0.49380976373381513,0.5076727012304516,0.35373803410037347,-0.6069611634329464,0.15114090772557828,-0.39277382524992993,0.6741537616112145
12.3,0.4887737151064393,5.186114243113077,2.3293013447155646,-0.49434684990662237,0.091747189862395,-0.17608240370736863,-0.10394574490323626,0.4051108723399294,0.9083384690474563,-1.5799776392245513,-1.8155103428446,4.154342802730175,-2.66374986880582,-1.362457577382223,2.0256447792053223,3.0,0.49352225873147293,0.5073691354731698,0.3536100328739237,-0.6069899105184843,0.15114972677578214,-0.3927527844080521,0.6741381601453007
12.4,0.06557643346084419,5.088986871459303,2.2899481336979557,-0.5078566265815531,0.0743516730155789,-0.13921636730071973,-0.10343688906211428,0.40339422981493067,0.9091607091651468,-1.5814795796217929,-1.814307424049866,4.154538934174025,-2.663198369483519,-1.362265796757815,2.025522406158007,3.0,0.4932487561784259,0.5070926258021975,0.3534376302328132,-0.6070424907958147,0.15116857993294316,-0.3927293077968813,0.6741002637641178
12.5,0.0959501959681871,4.802890281575797,2.491431182760552,-0.5194323570549186,0.05371803166322507,-0.11955701869514078,-0.1036224319226575,0.40402153703738863,0.9088609802313442,-1.5831934943915245,-1.8130937740182256,4.154780892235335,-2.662543885407386,-1.3620313124825485,2.025522314213611,3.0,0.49279596618819255,0.506638406974577,0.3534388571263391,-0.6069543009092018,0.15113872546498064,-0.39276844628064245,0.6741635631498734
12.600000000000001,-0.13109040530666954,4.512384522538027,2.4484460918143456,-0.4922130241050092,0.06334466133470294,-0.10874291849130295,-0.10379601734675575,0.4046619756488142,0.9085565867437203,-1.585023940582606,-1.8119128067890877,4.155003070831299,-2.661945774366406,-1.3618487872231697,2.025485962142779,3.0,0.4925470798945958,0.5063809189996514,0.3534435344429279,-0.6068954329107681,0.1511461738786677,-0.39277692320184165,0.6742099496699713
12.700000000000001,0.5039586491353238,4.084203224972471,2.7461879771985815,-0.4775273932454572,0.0635388206912441,-0.07701346819300552,-0.10376067129462001,0.40469210835532343,0.9085472029925005,-1.5865351506867826,-1.8110233385795216,4.155204902893494,-2.6614009844023827,-1.3616737291292271,2.025395248458064,3.0,0.4921124741710671,0.5059558473573292,0.35325640005515396,-0.6069448704404921,0.15113840954099314,-0.3927396764412542,0.6741888844798707
12.8,-0.08988527501371747,4.283358045856199,2.4548603976461174,-0.46284995567137316,0.06670112685820517,-0.07091593672727606,-0.10395980170618636,0.40550424180138794,0.9081618882392899,-1.5881572521115972,-1.8100771288266935,4.1554117954160406,-2.6608166233415194,-1.361474660445691,2.0253989166303032,3.0,0.4918834864970187,0.5057328022409702,0.35317287981480694,-0.6069459661083705,0.1511096025132898,-0.39276173786638224,0.674181503395956
12.9,0.05583854457882568,4.372707383870054,2.52296843547085,-0.44734222412097274,0.057110830303004616,-0.05895182449751871,-0.10401089912922318,0.40574445818378746,0.9080485691603358,-1.5899435655490772,-1.8089737271240665,4.155639171600342,-2.6602334355286077,-1.3612590787594319,2.0253567695617676,3.0,0.49148901705247017,0.5053789722864753,0.35294293200092547,-0.6070073007756216,0.15111063721335438,-0.39270562146358967,0.6741587402066104
13.0,-0.07496476363086715,4.255398262998322,2.659715170242585,-0.4521107384557246,0.04933684904241634,-0.025391118280386097,-0.1036935068067951,0.4046038855360331,0.9085933251554249,-1.5915300478039707,-1.8077485788997991,4.155860222429183,-2.65966692132509,-1.3610511515760668,2.0252296870671427,3.0,0.49107203452310655,0.5049452935639472,0.3527801233189742,-0.6070324537858846,0.15112084783486243,-0.39271498518192705,0.6741283481755674
13.100000000000001,-0.33552151273182046,4.149123802572947,2.817248001925934,-0.44372119025811646,0.043025945503447745,-0.02739290984726375,-0.10362305495222668,0.40428317973530675,0.9087442153774401,-1.5931397299716155,-1.806535230181467,4.156043853265064,-2.6590476679451025,-1.3608699342764752,2.0252146413072043,3.0,0.49082687880820786,0.5046964115896537,0.35282006930820303,-0.6069694012847587,0.1511039027476895,-0.39274566518379495,0.6741710457723447
13.200000000000001,-0.12938766997118373,3.708838497913878,2.6884654778444586,-0.4119458798284634,0.04947042141439611,-0.018541082581901208,-0.10405112676171918,0.40561762194723705,0.9080999689819423,-1.5948392701395344,-1.8056296573601045,4.156229353378068,-2.6584468029584363,-1.3606351057635706,2.0252209235277845,3.0,0.4904976101192335,0.5042987428658922,0.35279498860329805,-0.6069041349516335,0.1511404495427274,-0.3927547431821872,0.6742163207743683
13.3,0.08588042562874115,3.4359509057105804,2.5780215089389538,-0.39957828600271844,0.04607415095686336,0.022333352189099855,-0.10426448698280952,0.40625621487192976,0.9077909735736844,-1.596353523559893,-1.804624813852691,4.15644765325755,-2.657891655448611,-1.3604186216937464,2.0250966579603893,3.0,0.4900710070157826,0.5038538183412781,0.35259188479605713,-0.6069286280408236,0.15115068335694412,-0.3927667656450108,0.6741849740167529
13.4,-0.1886198306469825,3.2830420724648324,2.49462235452768,-0.3840107493872689,0.05325605042481823,0.010728086797052745,-0.10402126233863446,0.40541508210774496,0.9081948904398781,-1.5980663361231733,-1.803580973828592,4.156693935394287,-2.657338550052158,-1.3601792494403284,2.025073393430513,3.0,0.4898858452140525,0.5036661322601031,0.3524931838974933,-0.6069539118873553,0.15114197853160644,-0.3927662435400377,0.6741644674006753
13.5,-0.14636237093823068,3.681629310660457,2.865453918137742,-0.39119404865681834,0.06813782747633806,0.01680176198943268,-0.10384986475445893,0.40476441200019736,0.9085046547450409,-1.599785665275667,-1.8024512730040492,4.156876885156442,-2.656801925838224,-1.359966060245531,2.0250485770509727,3.0,0.48940530962769707,0.5031991399311849,0.35229164351144737,-0.6070028357911874,0.1511383141421026,-0.39275020234390107,0.6741305851973819
13.600000000000001,-0.08542546482828331,3.852668764339606,3.1779838557135704,-0.41435279913912026,0.05684448454283,0.05322266959204904,-0.10375665503218902,0.4044101168930077,0.908673198499174,-1.601193486239198,-1.8012749703026778,4.15709574148436,-2.6561533704327305,-1.3597834745990198,2.0249602083816214,3.0,0.4891622294657824,0.5029176043126959,0.35221665386169587,-0.6069968768143807,0.15115025762850678,-0.39276693535906226,0.6741235240258822
13.700000000000001,0.08887067610012225,3.3508205399422932,2.890743504090411,-0.3853842151120126,0.06000780040083321,0.04946983345410254,-0.1038039799978715,0.40463130902453454,0.9085693041927273,-1.6028727684298314,-1.800300737420553,4.1572879787054555,-2.6555419081212026,-1.3595973801324333,2.024946865474577,3.0,0.48869374917146147,0.5024593104102726,0.35221706461348506,-0.6069012019417652,0.15113171195477654,-0.3927769433126379,0.6742079868447424
13.8,-0.16533836339751742,3.1953211769013747,2.929776150370976,-0.35094152644316057,0.06504868855230689,0.042781783781547025,-0.10382181631334331,0.4047173291415079,0.9085289695720788,-1.6047535714755874,-1.799247279118592,4.1574873368399485,-2.654976127615999,-1.3594152312933967,2.0248948455404503,3.0,0.4885148899508836,0.5022430515805529,0.3521831568527792,-0.6068723632978061,0.1511410784484334,-0.39279109841319715,0.6742235994669233
13.9,-0.10706556567347887,3.3532170032047666,2.874681073565671,-0.36562394523889447,0.06439554612038474,0.06372397489607134,-0.10376932756486223,0.4044809886044601,0.9086402132344866,-1.6062325672367799,-1.7981707805340013,4.157656229533352,-2.6544305274887985,-1.3592381222883185,2.024803638458252,3.0,0.48817889977407647,0.5019073262924575,0.35191511969879613,-0.6069768081650282,0.15114980051499588,-0.39276303212701796,0.6741439703419907
14.0,0.07980106032086176,3.198419226397254,3.2410195697800557,-0.35515305163303085,0.06512319358017273,0.04667451068137121,-0.10341406187378833,0.4032949820270836,0.9092068699208833,-1.6077389146756023,-1.7971292090329607,4.157878414925356,-2.6538533297875233,-1.3590033690081995,2.0247790778017216,3.0,0.4878413236713099,0.5015194797617547,0.35179208517114946,-0.6069680981897131,0.15116867555193683,-0.3927722510584657,0.6741422091148885
14.100000000000001,-0.2501854176747502,3.3227381113855916,3.034003224749443,-0.34608855471896244,0.0826535024491472,0.050938760710085566,-0.10314760565424749,0.40246053107414415,0.9096075818499343,-1.6096284252797943,-1.7960531650203146,4.158098763740654,-2.653309914856024,-1.3587898120396242,2.024761703715065,3.0,0.48732721326280065,0.5010249678697523,0.35172242148062505,-0.6069070062292891,0.15111956744032723,-0.3927801003298909,0.6742036449851714
14.200000000000001,0.02060823934814171,3.3083687053988133,2.9895131467916563,-0.36035220544914426,0.06510837074521336,0.051691453165358454,-0.10327085567823732,0.40297132552182025,0.9093674911574041,-1.6112008583464956,-1.7949815750044178,4.158269483295036,-2.652736606116503,-1.358576879610888,2.0247242475470895,3.0,0.48709822941613873,0.5008095585778706,0.3515450136939156,-0.607003298282705,0.15112580372994577,-0.39273923565612884,0.6741393625187118
14.3,-0.1176871716580051,3.256410147655895,3.247246088214712,-0.35938816489238384,0.05900651673750125,0.04859594701128417,-0.1032579925429299,0.40287161182796416,0.909413125137294,-1.6126584366042702,-1.7939104435879694,4.158507736229885,-2.652156376718317,-1.3584121786462344,2.0246443191667636,3.0,0.4866936163254819,0.5003403943896164,0.35136518442962905,-0.6070111021542787,0.15115916558935075,-0.3927442843816893,0.6741219144971432
14.4,-0.09780105099153805,3.178687294150867,3.1916282679505183,-0.34317341703899157,0.06069659379019357,0.04822320698368058,-0.10324512940762248,0.4027718981341081,0.9094587591171839,-1.6143791806161825,-1.7927175960936488,4.1587348408878,-2.651607669856427,-1.3581782757895298,2.024583548712757,3.0,0.48652109080471184,0.5001481750107091,0.3514370798611036,-0.6069137921494541,0.15114689084326194,-0.39278072844244244,0.674191045365784
14.5,0.29216550609991043,2.8342309520506825,3.301663606738866,-0.33995234994253704,0.05848226702567872,0.04750554936871294,-0.10311066933146945,0.4022908876852852,0.9096866369592628,-1.6161317825317383,-1.7916609249510707,4.158935935089748,-2.6510539312083887,-1.357986730031308,2.024535611664137,3.0,0.4859875526718744,0.499620471581257,0.35129887925374037,-0.6069191729962748,0.15114640035081062,-0.39276327111008524,0.6741964817302266
14.600000000000001,0.03250949874600059,3.086517493215225,3.7036974413795245,-0.3472415504770321,0.0684467383574289,0.04539681840381254,-0.10293649342106787,0.4016853385875912,0.9099740390539517,-1.6176503200376011,-1.7907150240262677,4.159124449744507,-2.6504456243454864,-1.3577432085998695,2.024467303214976,3.0,0.4857790727663381,0.49941125235496664,0.3511390437232657,-0.6069781732288951,0.151151315401616,-0.3927538547778442,0.6741477483706511
14.700000000000001,-0.04489989384831035,2.5478168895803566,3.294245147263208,-0.285582772324951,0.07218316880157274,0.03203489061933809,-0.10274980615591904,0.4011035046818321,0.9102517261083566,-1.6192486389882306,-1.7897372540692156,4.1594075977542,-2.649893416524322,-1.3575461678441187,2.0244336128234863,3.0,0.48545092780857335,0.499066738495025,0.3510376709256479,-0.6069631809305507,0.15114686929822277,-0.3927812614609455,0.6741462760715673
14.8,0.34855864861597313,2.2147750330844658,3.179716841230529,-0.27467625468021795,0.08978185718074978,0.021220468017560536,-0.10266175006732499,0.40083690462299065,0.9103790637790393,-1.620955467224121,-1.7885000178165218,4.159591650014917,-2.64933110130441,-1.3572807715806008,2.0244247897398795,3.0,0.4849423879943959,0.4985911685683466,0.3508179791134253,-0.6069951726234226,0.15113611131006072,-0.39274769907274,0.6741394374630538
14.9,0.5322759872952749,3.1856806025734943,3.312271964022566,-0.33892419440535754,0.07762552195082507,0.024413543226382787,-0.10290918364877351,0.4015711220646515,0.9100272764216774,-1.622511986449287,-1.7873174918548156,4.1598591804504395,-2.6488134796881644,-1.3570418918893972,2.024356703822449,3.0,0.48467269264065993,0.4982574073404152,0.3507756069667547,-0.6069609813859457,0.1511667548634154,-0.39276419116801997,0.6741537431737694
15.0,0.3706737442462859,3.0647295678166016,3.5274215160842304,-0.32926260827077364,0.08612386268030157,0.028703008503601746,-0.10304671755795781,0.40194963059933525,0.9098448272546307,-1.6240741370887795,-1.786317026747485,4.160058005717014,-2.6482792519144933,-1.356834037069457,2.0242905616760254,3.0,0.4844175279406119,0.4979953130873748,0.35075065503715286,-0.6069364809665256,0.15116657917074822,-0.39277968409990155,0.6741668140543303
15.100000000000001,0.3402377759078031,2.502575687439502,3.510313550679229,-0.30139682359966385,0.08935609202894813,0.02811120595645093,-0.10281259261517815,0.40112520229829596,0.9102350461957738,-1.6257271229524906,-1.785341633016903,4.160350322723389,-2.6477339829234317,-1.3565765894171864,2.0242466020367282,3.0,0.48403351410714157,0.4976323228126657,0.3506877785555866,-0.6069119563925763,0.151160857630916,-0.3928006426822859,0.6741779642026319
15.200000000000001,0.46744954093669266,2.687235250693878,3.235458822148016,-0.2937419233852948,0.08961505010890333,0.02555423505681686,-0.10153373891095324,0.39678318524423595,0.9122663839599322,-1.626182518918692,-1.7850533120256142,4.1604361161782135,-2.6475689223980114,-1.3565026366197828,2.0241921351393124,3.0,0.48358751323373345,0.4972440448330464,0.35044288957252046,-0.6069943128561778,0.1511493902300996,-0.3927682147073216,0.6741252817607044
15.3,0.11913706514226546,3.026309002635778,3.0741650519707915,-0.30109647356814057,0.08691779605587681,0.02796502632103372,-0.10025754058549516,0.39247786704198223,0.9142807156329568,-1.6261998872597634,-1.78504047227961,4.1604600549711535,-2.647511628581996,-1.356520954762594,2.0241922735200575,3.0,0.48348159859586326,0.4971618918496158,0.35040138048727215,-0.6069836658137742,0.15115289260677084,-0.39276432711925613,0.674136348103584
15.4,0.1738506008288761,2.9255206041113766,3.2059288066138962,-0.3047491476143425,0.08707499571343388,0.024032958293884934,-0.10047031396658831,0.3932876115884348,0.91390905623718,-1.6262362055333623,-1.7850021631583928,4.160462587171096,-2.6475472242385134,-1.3564874416007056,2.0242195743455524,3.0,0.4834675383444668,0.49717099046279994,0.350428338428978,-0.6069791629841563,0.15113228136425824,-0.39274622614440513,0.6741555689023233
15.5,0.08755049943274963,3.160186427993594,3.4726120770087405,-0.30757055346637363,0.08466388575504477,0.01978453220547665,-0.10057236976799581,0.39371066266623483,0.9137157211207009,-1.6262938483058853,-1.7849023789414384,4.160466902834148,-2.647534078086168,-1.3565136131095408,2.024219036102295,3.0,0.4834735502138136,0.4971512523126122,0.35044351700121346,-0.6069639019426278,0.15114403945550842,-0.3927610671255623,0.674158026894319
15.600000000000001,0.1420578146383363,2.8422828587085296,3.1432710339988468,-0.3101939281304912,0.08443939349496411,0.019068520719924986,-0.10025165757538065,0.39265714947566827,0.9142033058550562,-1.626260714490486,-1.784909178975692,4.160420894622803,-2.647520516949547,-1.356504414582041,2.0242170096888685,3.0,0.4834587888537646,0.49711808604232743,0.35047092808916824,-0.6069498642452283,0.1511403045790904,-0.39276851800740636,0.6741671616792858
15.700000000000001,0.29153580088385633,2.985183495982345,3.2313069292839955,-0.304020971044392,0.07977666396250656,0.01795549850273052,-0.09993094538276548,0.39160363628510175,0.9146908905894113,-1.6262564331166407,-1.7848938588865613,4.160463365925107,-2.6475509769779553,-1.3565115214617847,2.024230480194092,3.0,0.48344691736902434,0.497122586935309,0.35043079266508254,-0.6069714467065385,0.1511490704174775,-0.3927523543481104,0.6741551820975056
15.8,0.011280412407332473,3.0964306002485613,3.1458685728438742,-0.3027166440066584,0.08724522137216313,0.02013409498694165,-0.10049394006071535,0.3935359600743297,0.9137931794709592,-1.626297950744629,-1.784929741439881,4.160451210041313,-2.647541662255758,-1.3565235902141863,2.0241890210557725,3.0,0.4834460184428326,0.49713633175007355,0.3504585739680382,-0.6069701198260593,0.1511330803371817,-0.3927425565201032,0.6741656695235884
15.9,-0.07686780890553194,3.1278921387913563,3.241586027483929,-0.3005541687149407,0.09127583574992075,0.017719251284972686,-0.10144261882036837,0.3967714193624715,0.9122908713117083,-1.6262636184692383,-1.7849093223977086,4.160472523016981,-2.647533523169069,-1.3565147882549018,2.024216109848982,3.0,0.48344829502538855,0.4971337753941973,0.35042838931341136,-0.6069856006430223,0.15114002165696697,-0.3927429567316972,0.6741499420775807
16.0,0.24493393098640137,2.9870886839527735,3.2437409362852927,-0.3048125460657014,0.07958601129619766,0.018772370674467177,-0.10170405215703289,0.39767117939294455,0.9118738400970541,-1.6262810890727497,-1.7848967120767238,4.160466267652428,-2.647541662255758,-1.3565116958046655,2.024201471860754,3.0,0.48344125963476325,0.4971418951793559,0.3504283879031705,-0.6069884903779021,0.15113627207133884,-0.39272726348601195,0.6741573231286017
16.1,0.12216986256019474,2.9878573509142727,3.213033381291887,-0.3043864175764256,0.08320665242721532,0.01385850580974204,-0.10162500844836651,0.3973951084153525,0.9120028942415856,-1.6262599901045711,-1.7849117718138636,4.160466205697547,-2.647535265495388,-1.356511755376666,2.0242221065472727,3.105714476770026,0.4834424859219244,0.4971306762668357,0.3504411770427461,-0.6069813695123544,0.15112598987725723,-0.3927482426922496,0.6741538178418007
16.2,0.2933632553181096,2.9057959741590738,3.263233350780367,-0.3081024195142391,0.07817094554852419,0.01712741499116802,-0.10140959777941133,0.3965688240139241,0.912386388127702,-1.6263001634569592,-1.7848970662028836,4.160458170510278,-2.6475568447038964,-1.3565057723144558,2.0242317392321056,4.0,0.48344547103223084,0.49712759271629786,0.3504419159112743,-0.6069790182367133,0.15113331322690837,-0.3927543356143457,0.674150743461421
16.3,0.000626798520254386,2.993034730325952,3.306649140772148,-0.30632070611432377,0.08844257470868415,0.012139136623053852,-0.10103917734091845,0.3952890375130789,0.9129813888203802,-1.626285518233816,-1.7849266418007144,4.160447968933524,-2.6475628728231233,-1.3565173697977326,2.0242158036494837,4.0,0.4834522056761279,0.49711660030979316,0.35046192753845107,-0.6069581680907743,0.1511331910804064,-0.3927722667040725,0.6741590963933439
16.400000000000002,0.02802058149279014,2.7354065881769265,3.2380743641597522,-0.3112294703340903,0.08799334607683332,0.012763981961835778,-0.10059251153351036,0.39378618484693984,0.9136804243396532,-1.6262567411563882,-1.7848998508849085,4.16046305788536,-2.6475354371330857,-1.3565147821191534,2.024200413213509,4.0,0.4834560056283463,0.49711649550105486,0.35044910478533253,-0.6069652647767402,0.15114272766659806,-0.3927567275574494,0.6741596221862933
16.5,0.19298981942489454,3.0027640253830117,3.275257721448608,-0.3062830170271518,0.07940001975381872,0.014705365405020132,-0.10052824389546898,0.39357356326023357,0.913779937689751,-1.6263171668186944,-1.7849213798508963,4.1604695320129395,-2.6475659809508265,-1.356536642027807,2.0241896147862235,4.0,0.48345951835774936,0.4971166491752473,0.35041138632400787,-0.6069946327941693,0.15115849228903655,-0.39274415620044945,0.6741369695680353
16.6,0.2241696602593096,2.9929278621740796,3.443324167504586,-0.30765471001297817,0.08222928987974518,0.014885294383358685,-0.10049357924126655,0.39346459944286805,0.9138285958210765,-1.626270236268416,-1.7849025804261167,4.16045952400764,-2.64756368310389,-1.3565204779254358,2.0241951942443848,4.0,0.4834554616411355,0.4971135695930208,0.35045580134944937,-0.6069619910808794,0.15114050126146783,-0.39276339377000125,0.6741591850415137
16.7,0.19864899807726016,2.8911442444808766,3.1712586656938453,-0.2903272002246059,0.07405246232515375,0.013751902478928248,-0.09950295709899644,0.39015184199417957,0.9153505124393387,-1.6262695109646321,-1.7848940679719887,4.160450996230791,-2.647547923032114,-1.3565385358441482,2.02420983010452,4.0,0.48346265060066246,0.497106351773492,0.35047370767751873,-0.6069494831098781,0.15114849416537893,-0.3927692548989655,0.6741652394408226
16.8,0.2553464267648872,0.5648391551632135,2.340731552298215,-0.1718141025142522,0.07499424694444286,0.012587790708280368,-0.09863760150252478,0.3872552732284949,0.9166809466416117,-1.6263009162112352,-1.784882841904514,4.1604695320129395,-2.6475093159076506,-1.3565119734352384,2.0242340332903996,4.0,0.4834450814168718,0.4971204906471226,0.3504801374405185,-0.6069493553350793,0.15113080613998806,-0.3927548403192852,0.6741777175935004
16.900000000000002,-0.016787570741090066,0.060022309125118224,1.107235257938424,-0.08491911430984767,0.08863697931953916,-0.0006128954148720137,-0.09855963052460757,0.38697473067575444,0.9168077848788755,-1.6262600111091265,-1.7848484850423518,4.1604726090909345,-2.6475215025245844,-1.3565414631193429,2.024209971837343,4.0,0.4834458628008785,0.49711526591076916,0.3504810178213275,-0.6069409956548699,0.15113367405757075,-0.39275668704661376,0.6741835248205812
17.0,-0.838354841293756,-0.6837376027855344,-0.11595464570563452,-0.03115607388294023,0.026524679779191547,0.005244793797311459,-0.09928311088118207,0.3894512768817627,0.9156737743773683,-1.626280595676319,-1.7848357038507017,4.1604695320129395,-2.647517820397848,-1.3565547731492906,2.0242144159368567,4.0,0.48344836668196145,0.49709788382437925,0.3504828712330333,-0.6069523458856341,0.15114557872318193,-0.39275248287859676,0.6741730868620146
17.1,-0.670213687410211,-0.6540743884014237,-0.294961588446493,-0.02900893565106816,0.021879683443691275,0.0026886786375875573,-0.10030794778673792,0.392968454551241,0.9140644793784868,-1.6262971903449213,-1.7848448297182657,4.1604695320129395,-2.647561088766667,-1.3565253701095954,2.0242076359480894,4.0,0.4834358629735439,0.49711983275728977,0.3504829947730352,-0.6069484409074901,0.15114103219398675,-0.39274305934457554,0.6741831114793415
17.2,-0.801020101250201,-0.5243951506435214,-0.7493672654588017,-0.02263469624997831,0.015407878243974178,-0.002054719782682275,-0.10003901925048889,0.39206435880377755,0.9144816420850491,-1.6263112907090675,-1.7848365547055387,4.160480976104736,-2.647520798845473,-1.3565476605124511,2.024213308318401,4.0,0.48342570403352897,0.4971238330365663,0.35049655253349205,-0.6069491128417834,0.15112301263444658,-0.39274003242655653,0.6741883093041945
17.3,-0.7385784686552874,-0.4177759797715478,-0.6172071220600118,-0.025882304577545184,0.016899158979191732,0.002157073661518622,-0.09979434422762622,0.3912337930850098,0.9148645790754898,-1.6262802244458079,-1.7848760090269984,4.160437215421343,-2.647551479079485,-1.35652311048667,2.0242164551599084,4.0,0.48343424120882206,0.4971170823454644,0.35047267954817135,-0.6069603228653494,0.15113422829598244,-0.39274355399114325,0.6741736514452152
17.400000000000002,-0.9933142245020102,-0.46897782315162884,-0.6908759504479983,-0.02078548301776084,0.022091261491725064,-0.0035967964486744467,-0.09974805507972873,0.3910046791578503,0.9149675608062142,-1.6262636184692383,-1.7848687671981596,4.160457134246826,-2.6475153512511276,-1.356522817475494,2.024221282070351,4.0,0.48343853441593976,0.49711721728212827,0.35046832129335137,-0.6069624622121554,0.15113092112135018,-0.39275526430663404,0.6741656447089217
17.5,-0.9808388446711186,-0.7559664863861228,-0.5565390940917448,-0.027461511488076018,0.017450983266904727,-0.005426428493623919,-0.09974463917321513,0.3909705128633894,0.9149825435345631,-1.626313787769953,-1.7848677003992137,4.160446614877322,-2.647531952068523,-1.3565121692976512,2.0242268678929216,4.0,0.4834465462128661,0.49711458356324545,0.3504647232046339,-0.6069631470183151,0.15114022889382953,-0.39275655050564745,0.674162192210783
17.6,-0.8581550925986652,-0.4843397314842566,-0.6211872919693966,-0.02173504666518924,0.014090140320131023,0.000999498944148678,-0.09976999938276054,0.39106719358498976,0.9149384621608356,-1.6262606081004454,-1.7848850353705756,4.16043769215869,-2.6475431674401544,-1.3565432914361077,2.024219036102295,4.0,0.48344885640847435,0.4971168572549599,0.35046028285309705,-0.6069567789619712,0.1511430881951679,-0.3927500111757458,0.6741710940735949
17.7,-0.8354133406994821,-0.5178309678268226,-0.5565453602216481,-0.023440533746729945,0.020607101745658635,-0.008272510618652333,-0.09970048118693345,0.3908354258417148,0.9150449475498118,-1.6262501183895415,-1.7848874592649409,4.160480505413724,-2.6475542148544413,-1.3565087118290506,2.0242188750764223,4.0,0.48345242576458003,0.4971143248386809,0.35046250299402676,-0.6069591968640972,0.15114836772246593,-0.39274769644528984,0.6741690820660964
17.8,-0.8097993371985475,-0.3323481396517809,-0.4351665493393474,-0.018418776625002783,0.01757067830353048,-0.009843840604662354,-0.09956555639279845,0.3903772346386168,0.9152552295796358,-1.6262832823286217,-1.7848499797629744,4.160451722516502,-2.6475245377399528,-1.3565223228412335,2.0242205385277763,4.0,0.4834496925358406,0.49712223794646837,0.3504775624193783,-0.6069473926657335,0.15113661690613658,-0.39275745777891113,0.674176657060657
17.900000000000002,-0.6960389626232087,-0.4211411650310893,-0.6181638538284643,-0.012647494358141904,0.015286864128629035,-0.007696695859107331,-0.09950584972737474,0.3901590247198916,0.9153548600014864,-1.626270270787843,-1.7848975410520598,4.160447138706876,-2.6475636711179775,-1.3565035655660722,2.0241998139100823,4.0,0.4834410720424674,0.49712075460283245,0.35048923332528037,-0.6069501414775424,0.15112807821711416,-0.3927616938891871,0.6741736286358951
