xiamingqian9007/apple-picking-rnn/training_data/grasper_20191127_133125_noimg.csv
,/manipulator_wrench.fx,/manipulator_wrench.fy,/manipulator_wrench.fz,/manipulator_wrench.tx,/manipulator_wrench.ty,/manipulator_wrench.tz,/ground_truth.x,/ground_truth.y,/ground_truth.z,/joint_states.elbow_joint,/joint_states.shoulder_lift_joint,/joint_states.shoulder_pan_joint,/joint_states.wrist_1_joint,/joint_states.wrist_2_joint,/joint_states.wrist_3_joint,/mode./mode,/manipulator_pose.x,/manipulator_pose.y,/manipulator_pose.z,/manipulator_pose.rx,/manipulator_pose.ry,/manipulator_pose.rz,/manipulator_pose.rw
0.30000000000000004,-0.03821631056186542,0.07453375517443311,-0.43542035925694933,0.021801994237691597,-0.012572678691014957,-0.08133582423802993,-0.025633372535301457,0.03264816098766712,0.9991375927496317,-1.1025048642103898,-1.8626425484437341,4.156055904236668,-3.64371456722402,-1.3576737345124867,1.6604767630831745,1.0,0.4760051052325184,0.4803827751286738,0.4141313005966437,0.8101671638913147,-0.005583158187496364,0.40971984786765236,-0.4191988086341192
0.4,0.08883716890682947,-0.3090555094105111,-0.16629217609941435,0.04850169431050241,0.0013872196433495937,-0.047530347996624395,-0.0263878761013723,0.033367889522803285,0.9990947023332665,-1.0990575263771742,-1.8664230323653015,4.155349944141796,-3.643531986885725,-1.3582282927787417,1.6602267736061171,1.0,0.47677401554403054,0.4810798945405629,0.4138457172868539,0.8101475188625445,-0.005654897366885535,0.40974555500692295,-0.4192106868493479
0.5,0.18462730197839533,-0.6532973794115465,-0.398182540869777,0.04593361322281143,0.006395345136644712,-0.05493939859760903,-0.026461138156265607,0.03345374653026639,0.999089906476954,-1.0954495207086203,-1.8699780172490421,4.154719288612886,-3.643453443821671,-1.3589316922123122,1.6600137308314782,1.0,0.4778920228104782,0.48220971310105304,0.4132305138589246,0.8101818621709621,-0.005639232505282957,0.40975189053107486,-0.4191383273719478
0.6000000000000001,-0.013577970639164189,-0.38816868461476883,-0.26308520709431366,0.04418482458854464,0.007668073099886553,-0.05692423155030015,-0.026521687912035952,0.03352777518562075,0.9990858214837266,-1.0920610427856445,-1.8736015973619051,4.154114242278714,-3.6433757831137163,-1.359612307440424,1.659836697980936,1.0,0.47857798255811396,0.48291736810812075,0.41295393125527957,0.8101557699382883,-0.005651503104535728,0.4097569199504855,-0.4191836775222172
0.7000000000000001,0.40977881868176697,-0.45824512959705005,-0.4885537918148514,0.046649606419386404,0.006073888035023485,-0.06158894256111964,-0.026110398448479812,0.03315850942045595,0.9991083823778566,-1.0885708457289596,-1.8769495942242884,4.153474527676619,-3.6432892826457457,-1.3602673487903412,1.6596310825977207,1.0,0.47971991594276486,0.48410798770737967,0.4123128297632246,0.8102113119616529,-0.005614653282953756,0.4096789441996512,-0.41915303687000605
0.8,0.3600865976915327,-0.4109821003346059,-0.45157397177814945,0.040832728874842926,0.0014767490431784117,-0.06410617242441455,-0.025161409479306826,0.03228407329006357,0.99916130844697,-1.0854187080149393,-1.8800372068859346,4.152988283029197,-3.6433073482909144,-1.360696854464792,1.6594458207007878,1.0,0.4800713037256728,0.484466006520577,0.41222969110811997,0.8101710978717648,-0.005593318145629484,0.4096947267341998,-0.4192156221463728
0.9,0.21662970960837125,-0.3038100965479616,-0.42362260789130507,0.037104865640014695,-0.0043691707912029065,-0.06261453335129544,-0.024808312280717077,0.0319399093206975,0.9991817884429022,-1.0820939461533579,-1.8832488902786084,4.152468303754759,-3.6432220183588906,-1.3611868541942005,1.6592349288524681,1.0,0.4810091439340423,0.4854736495758839,0.4118505194721644,0.8101378365621492,-0.005577740590414373,0.4097153925579612,-0.41925990946116265
1.0,0.415939236834582,-0.7649710309636708,-0.45747448572049293,0.034329062498878155,0.0042116043704420285,-0.061242204762165645,-0.02515482335763665,0.03221831275440719,0.9991641750426405,-1.079024099863107,-1.8863169861193527,4.151813383162234,-3.643228740727507,-1.3616627604071945,1.6590538558403827,1.0,0.4825178295298665,0.48702391101897213,0.41105623168105854,0.8101806645213965,-0.0055769195986953585,0.4097067178081326,-0.419185632132526
1.1,0.4845484169390833,-0.44389875543384794,-0.4903608201624482,0.045567781452004234,-0.0008172081302565636,-0.06375967297535509,-0.02564125921062667,0.03269775557232038,0.9991359682416713,-1.0760661374510472,-1.8893988465338027,4.151329457214418,-3.6431823665058993,-1.362202276923821,1.658886877955316,1.0,0.4833681681336862,0.4878128883330968,0.41077781489542037,0.8101259498256911,-0.0056076319748377575,0.4097745590352699,-0.41922465415348226
1.2000000000000002,0.1415483243089831,-0.31316303423011915,-0.4078378496042279,0.04395075054707236,-0.0010452442904770663,-0.061050016370066636,-0.02631800640847271,0.03345063156376628,0.9990933533823732,-1.0730743825770228,-1.8922297666726673,4.150793552398682,-3.643174128324959,-1.3627484480487269,1.6587261830890474,1.0,0.4838806489185846,0.48835691993621255,0.41051762461833485,0.8101332410415816,-0.00560267318024497,0.40974899520411423,-0.4192356172153277
1.3,0.11518163284054331,-0.20210340170739566,-0.25876292380076193,0.04589830474277979,0.0018638634816050522,-0.05792500194111877,-0.02661258098399869,0.033819293537767185,0.9990735667416398,-1.0702804082073272,-1.895023354267692,4.150308195734397,-3.643201744751064,-1.363241342535251,1.6585432650288567,1.0,0.48490338426276963,0.48941498898421726,0.4100519223598285,0.8101259949334972,-0.005569521618263822,0.40973983968771993,-0.4192590088890597
1.4000000000000001,0.5379497126437184,-0.6819121267807289,-0.4058462809888892,0.03799588106886357,-0.0007452826247109586,-0.05912453465796639,-0.026218051582248502,0.03342913328717562,0.9990970588659609,-1.0674272003741114,-1.8978720683879944,4.14980936050415,-3.643212457696432,-1.363718334828512,1.6584073186203605,1.0,0.485469764754222,0.4900195065824553,0.409822184371036,0.810107560638295,-0.005564952487326068,0.40974157250576265,-0.41929299452887336
1.5,0.3063613002015608,-0.46825555693770055,-0.3480984651118815,0.040631115038057955,0.002390021913497664,-0.061228241256521196,-0.02613806630713383,0.03328942109101166,0.9991036940845082,-1.0648006061192832,-1.9004044073932647,4.149339017941243,-3.643258243354483,-1.364080633843142,1.6582359295383116,1.0,0.48648479264516825,0.49097686333962764,0.40923302176691373,0.8101703731569393,-0.005570697226981424,0.40970863486336095,-0.4192037312686425
1.6,0.07346973281487269,-0.6868054562052034,-0.35326960305936006,0.03828525641037679,0.0047809557949304495,-0.06058555439152042,-0.026836137081870357,0.03399895204071538,0.9990614119258291,-1.0622578637918192,-1.903179191527029,4.1488929957779535,-3.643322091320567,-1.3644269536095583,1.6581130027770996,1.0,0.486943414017858,0.4914357874857872,0.4090597631603061,0.8101456680735227,-0.0055793561748917276,0.40973097551266136,-0.4192295254294742
1.7000000000000002,0.1375550214076417,-0.4832826852846338,-0.30266512570677667,0.04536181176962099,0.007544683671036995,-0.0631535314996134,-0.0259676407763334,0.03304621106317059,0.9991156586551249,-1.0595858801096014,-1.9054512060411306,4.1484551429748535,-3.6433698522509546,-1.3648489923152431,1.657948648367789,1.0,0.48768572515477715,0.4921879200411926,0.40860325705676165,0.8102050286633243,-0.005569229154875673,0.40970609137072633,-0.4191392536007624
1.8,0.37693829418784247,-0.5594822145165018,-0.3148103732026148,0.04344299344444779,-0.0007989619075091693,-0.06764737463573813,-0.024835184444393,0.03183162011605525,0.9991840740341286,-1.057016373167026,-1.9080205318872583,4.148066199003155,-3.6433779715825527,-1.3651822508434885,1.6578407023341108,1.0,0.48867728874095906,0.49316810837650066,0.4082731099769052,0.8101448472618147,-0.0056112655535257225,0.40974904688162017,-0.4192130230964003
1.9000000000000001,0.4826543040124738,-0.5681275976791744,-0.17351658612138182,0.041654396873896014,-0.007040059866824844,-0.06522511925065101,-0.023677898060831787,0.030624161559586947,0.9992501712234689,-1.054747401422435,-1.910235247466624,4.147740549059679,-3.6434865272697117,-1.3656237761126917,1.6577328270283889,1.0,0.4890858046520872,0.4935892037986074,0.408111625747702,0.8101260412074373,-0.005614000883654759,0.4097690863777822,-0.4192297415508134
2.0,0.3560109938578345,-0.5671915268260123,-0.49054585977843884,0.04294561863449226,0.0020294032805192987,-0.06291226584751256,-0.02254617751509426,0.02951100938114133,0.9993094513210259,-1.052184643256231,-1.9123678985161288,4.147341251373291,-3.643527773949092,-1.3659709135638636,1.6575929657200363,1.0,0.48970734888260986,0.4942289525983761,0.40763259480870584,0.8102270245708975,-0.005589396814652095,0.4096861558529104,-0.4191159517373484
2.1,0.2819943252640268,-0.4644067161267515,-0.187611166368451,0.04229825230179603,-0.0049340063972035005,-0.06616299426760767,-0.02191125762964575,0.02890676707852782,0.9993418741523322,-1.0500945973236289,-1.9147860552652256,4.146991486133345,-3.6436196766295375,-1.3663518960844598,1.6574938281270482,1.0,0.4905093112829551,0.4950647941502273,0.40751209238801034,0.8100985579991694,-0.005586482072432364,0.40977252250818397,-0.4192798556370204
2.2,0.21481120083385166,-0.3709421065402059,-0.2722805595931857,0.048666450983213205,-0.0019246165926754774,-0.07076149600449148,-0.02228045996910195,0.02930427730421827,0.999322155576897,-1.0476649358484948,-1.916715225481319,4.146620545778628,-3.64367776291137,-1.3667133490191858,1.6573835008308357,1.0,0.4909357730462812,0.49549893006644136,0.40716519576021454,0.8101729719640619,-0.005570166930258879,0.4097137424868171,-0.419193723660952
2.3000000000000003,0.11678852699963119,-0.34125536192446426,-0.19968281903930588,0.048290739677503754,0.00508531424458425,-0.06715350627720114,-0.022677641239149973,0.029720115376293307,0.9993006695847978,-1.0456242468760077,-1.9188756347763478,4.146320144243002,-3.6437615052981256,-1.3670490083922402,1.6572506731624665,1.0,0.49168293671377994,0.4962648074354984,0.40691064209311256,0.8101230700842805,-0.005562677768204113,0.4097357468628976,-0.4192687511322191
2.4000000000000004,0.2797228550293855,-0.4761784636363657,-0.2486138261006576,0.04145761292011629,-0.004744082748228512,-0.06750206582139909,-0.0230808919308808,0.030139929276818286,0.9992788001900168,-1.0436610417084684,-1.920902214241724,4.145962238311768,-3.643810888329977,-1.3673118261815194,1.6571519986717569,1.0,0.492068264687293,0.4966448216538157,0.4067611040517953,0.8101115688721495,-0.005568005731893706,0.40974346972813686,-0.41928335562817337
2.5,-0.03683083341160037,-0.22572486965720628,-0.3109344194570886,0.04482603092757512,0.005981147837601055,-0.06319917366793835,-0.023484142622611625,0.030559743177343262,0.9992569307952358,-1.04136456390574,-1.9228813299985235,4.145672538950474,-3.643907209435934,-1.3676164185032689,1.657038850422147,1.0,0.4926400612955815,0.49722060445255933,0.40629063517990105,0.8102154081457247,-0.00556159421545128,0.4096701266892058,-0.4191544445326679
2.6,0.22976619631774864,-0.3850125476248344,-0.24419165942957283,0.05009402935359939,-0.004353479868436703,-0.06664190359076395,-0.022880414514025855,0.02993626368697744,0.9992891888723189,-1.0395450592041016,-1.924726654351964,4.145374999753552,-3.643980136651251,-1.3678765507988468,1.6569478656159742,1.0,0.4931554512786138,0.497759051951736,0.4061962828180828,0.8101404137454072,-0.005580168450885252,0.4097182006216532,-0.4192521530246861
2.7,0.3292691185870435,-0.6194944404903051,-0.13131248650594973,0.04727855674586156,-0.005183070610298195,-0.06574289780985576,-0.022038115982420836,0.02906561022877859,0.9993342706690824,-1.037430900757588,-1.9265726119376854,4.1450276374816895,-3.6441056564296157,-1.3681694324955889,1.6568495341240659,1.0,0.4938836342970525,0.4984989456954063,0.40580319891983185,0.8101693277278872,-0.005570396231134119,0.40970876929174604,-0.41920562431844166
2.8000000000000003,0.30458924907565743,-0.5265147508522705,-0.2523286803444478,0.04411378909832871,-0.0062603761210090186,-0.06859237070922874,-0.021313193253534573,0.028280998098265495,0.999372466705479,-1.0354973005654549,-1.92846718756808,4.14478565562238,-3.644188065096695,-1.3683818452359293,1.656768798828125,1.0,0.494142860218856,0.49877723494062864,0.4056863890518896,0.8101663771977172,-0.0055657220659219185,0.4097061881518367,-0.4192139112509308
2.9000000000000004,0.12813335027733896,-0.41409408670938425,-0.441922772599323,0.043770219233870894,0.0023812295601688665,-0.07223181710425793,-0.020999481741924404,0.027923871079314325,0.9993892615178124,-1.033795226666706,-1.9301567165457807,4.144479665821364,-3.6442445288425875,-1.3687017599688929,1.656651411121657,1.0,0.4946513451402518,0.49924662162899286,0.4054933096062772,0.8101417892360737,-0.005609309705608974,0.409745893314558,-0.41922204127389845
3.0,0.22231753898565876,-0.5035654296409388,-0.3719059992638344,0.04340547405620949,0.001378194821763022,-0.06860519080277172,-0.021609562011737925,0.028548618652549842,0.9993584429929714,-1.031945753092035,-1.9317727160776372,4.144192793558741,-3.6443149052061976,-1.3689654509173792,1.656549311965522,1.0,0.4951198990172333,0.49972639396138335,0.40525878547341543,0.8101530958550782,-0.005592480152811148,0.4097413891259353,-0.4192048180535639
3.1,0.23652187378932288,-0.4946215347339944,-0.3227536654625975,0.044685979409369775,-0.008808067481879397,-0.06710231775178574,-0.021963455212633758,0.028905598631929097,0.9993407872750852,-1.030236135591843,-1.9337184311295448,4.143936634063721,-3.6444505150232573,-1.3691932681322916,1.656480391801725,1.0,0.49579424288806534,0.5003961974165324,0.4049271097866088,0.8101679096349064,-0.005572950272346963,0.40973658744115726,-0.4191811414354694
3.2,0.25471262108538745,-0.5824002608948033,-0.35918636623895195,0.04406165649387497,-0.004150304919964921,-0.06699910973029277,-0.021674601420578605,0.028590777272981892,0.9993561556853285,-1.0285212227855138,-1.9350714167795018,4.1436765379548275,-3.644540192202542,-1.3694752812074282,1.6563410468893356,1.0,0.4961777247491175,0.500806086591236,0.40464121378670287,0.810219614755992,-0.005563142891040236,0.4096933316421499,-0.41912361101920925
3.3000000000000003,0.3052169335044101,-0.32671961646192665,-0.416578019321959,0.04797210312061824,0.0036230199539370863,-0.06615659086605316,-0.021412646369309833,0.028341565959170992,0.9993689169570807,-1.0268410237569046,-1.9363884917525422,4.143441181036072,-3.6446121526159416,-1.3696733952280444,1.6562819483189586,1.0,0.4964956992619684,0.5011270411689721,0.404529126152388,0.8102010669373593,-0.005574624251885183,0.40969783246729474,-0.4191549126153904
3.4000000000000004,0.3316002894709275,-0.4484405659312237,-0.4271145378539779,0.04696736502962653,-0.0009450009534347076,-0.06960971446421384,-0.021463772649553663,0.028422010495520417,0.9993655205556672,-1.0252967465371206,-1.9380310527626916,4.143184665249333,-3.64472926123633,-1.3699236844154317,1.6562409400939941,1.0,0.496954614287397,0.5015548348027731,0.4044686999060402,0.8101393346009499,-0.005582883296269787,0.40974370970411966,-0.4192292717646707
3.5,0.25627979662757105,-0.5102146389902503,-0.23726939988606766,0.0470863568823423,-0.006202083439817339,-0.06543223424245923,-0.021612466313709642,0.02860169697021942,0.9993572029539974,-1.0238777867201012,-1.9396733872886613,4.142971927321982,-3.6448198757567347,-1.3701455774708693,1.65617459455831,1.0,0.4973403395855093,0.5019598755195611,0.40427064197548435,0.8101431200752983,-0.0055817111341404865,0.40973374883987573,-0.41923170748059746
3.6,0.5471290080324496,-0.737700807635254,-0.3800884212983191,0.04357339789882854,0.001616569075004258,-0.06973699444373807,-0.021294042430123936,0.02830032339337228,0.9993725845438004,-1.0221631769651356,-1.9407326183714808,4.142766415716296,-3.6449478203981,-1.370331112538473,1.6560868455504112,1.0,0.49793971519665686,0.502622544499588,0.4038172827285557,0.8102201777049359,-0.005566762762730026,0.4096573353753016,-0.4191576581255945
3.7,0.009647253133132905,-0.4816020023799071,-0.4650139242275677,0.04425475462871892,-0.0027595339967545775,-0.06544736048923708,-0.02562830596084802,0.03278409136758813,0.9991257848179297,-1.0208178541150397,-1.9419748484997474,4.142565074774783,-3.6450005970396937,-1.3705249815088563,1.656065824914901,1.0,0.4981631837433493,0.5028284306129995,0.4039227461752945,0.8101185987911687,-0.0055822177354658605,0.40974705896226793,-0.41926607591070264
3.8000000000000003,0.4230160712159462,-0.5777908270754546,-0.3340320569900165,0.04092856609855292,-0.011624115014985345,-0.06924118566360196,-0.02884056001990396,0.03609021793809677,0.9989313804773146,-1.0195866223267038,-1.9434650876459805,4.142377443127218,-3.6451308328002354,-1.370725442159368,1.6559786204406302,1.0,0.4984109356643618,0.5030329936893687,0.40389159050038564,0.8100866375302471,-0.005612214510601174,0.40977125331544756,-0.41930378331170837
3.9000000000000004,0.3758502427791731,-0.8327778618045949,-0.3266179346874498,0.03820170563872241,-0.008607391887780546,-0.06790472327275185,-0.029361213981568164,0.03662211193959466,0.9988977596886887,-1.018130674134634,-1.9448018476478746,4.142131854935778,-3.6451689205565394,-1.3709078718392476,1.6559069404226008,1.0,0.49876090245664206,0.5033905252184085,0.4036417609579789,0.8101313224790883,-0.005593493399145551,0.40973818817416835,-0.41925000932811807
4.0,0.250382873075533,-0.5337228278806437,-0.31320346520235737,0.043228536281165686,-0.005594982119119129,-0.0705343435692034,-0.027862874020849394,0.03506415455633985,0.998992259654016,-1.0165405991653451,-1.9460372094007141,4.141960477236936,-3.6452652416624964,-1.3710745808659788,1.655850561480888,1.0,0.4992819955301585,0.5039477134709077,0.4032643595811651,0.8101887144912876,-0.005565456590225292,0.409695150755751,-0.41918153114267764
4.1000000000000005,0.3746539027683964,-0.47925873679535447,-0.22596231811646225,0.043378485749760116,-0.00789605919175225,-0.06520120340870482,-0.025724196001277917,0.032840823149999344,0.9991269010208733,-1.0152659870499698,-1.9471408174871854,4.141745597298487,-3.6453610859312953,-1.3712533156024378,1.655765317743735,1.0,0.49948407977027287,0.5041203289186991,0.4032988593700562,0.8101273884394042,-0.005589773447485785,0.40974835390807846,-0.4192477255785373
4.2,0.38245844633901793,-0.4459564911961375,-0.2319409223060295,0.044108739786812144,0.0017153633893509939,-0.06915022012503923,-0.025332173379938438,0.03240752697807405,0.9991535539714782,-1.014162216679397,-1.9484520287410234,4.141562061556251,-3.6454693279662074,-1.371425089488679,1.6557227650591115,1.0,0.4999558355874857,0.50457544310066,0.40311379908667444,0.810121989052176,-0.005606777561025148,0.4097539312346387,-0.41925248089580386
4.3,0.39674396819612856,-0.5586632269886774,-0.2898726828746883,0.04383635285469799,-0.004134455596446253,-0.06697751060601397,-0.02561527378874131,0.032669481960777735,0.9991378728998446,-1.0126833273082099,-1.9497726646231115,4.141370235607407,-3.6455547849611065,-1.3715911225976072,1.6556808458296404,1.0,0.5001026942455832,0.504704326347697,0.4030183713979701,0.8101438668457343,-0.005614372739506848,0.4097408083345949,-0.4192229285431509
4.4,0.22552915060294335,-0.27875475601076305,-0.33685635889600507,0.049638687072843406,-0.0018876020534025974,-0.06740169520811208,-0.025223258533809752,0.032260630136503016,0.9991611599810996,-1.0111519430979512,-1.951022287408346,4.141178062618544,-3.645640486657483,-1.3717926184283655,1.6555721372068353,1.0,0.5004433301172139,0.5050837061867635,0.4027820337521325,0.8101737850695666,-0.005598390618522882,0.4097196253400143,-0.4191860262696891
4.5,0.422291174830149,-0.5458445024201695,-0.37103980637327993,0.04255675240318138,-0.0034068067752038704,-0.06555120449241623,-0.025402017040573818,0.03245965287644435,0.9991501784485659,-1.009823201194642,-1.9522113414130757,4.1409985981290305,-3.645761629144186,-1.371948544179098,1.6555442810058594,1.0,0.5008400767119546,0.5054971426437909,0.40265505702716886,0.810139667744787,-0.005599011498743941,0.4097474964463594,-0.4192247117865835
4.6000000000000005,0.3976084807109304,-0.42797468211035067,-0.16792033325983607,0.043574714957720334,-0.005503440148574185,-0.07141761780346154,-0.02552334090403433,0.032573693516873614,0.9991433863646765,-1.0086814076310746,-1.9534546869318452,4.140795191442657,-3.6458536390043084,-1.3721288083363097,1.6554823276282964,1.0,0.5012550003327747,0.5059123634912688,0.4024977567879349,0.8101248940036465,-0.005607122346821002,0.40975610387361444,-0.4192447395410993
4.7,0.2575363588130758,-0.2795277067129603,-0.35866036731825446,0.04931505722648313,0.0008715380194574502,-0.066087802929922,-0.026421648777144483,0.03348462377698317,0.9990779347645491,-1.0072731484823085,-1.954748204605628,4.140618081523546,-3.6459623775877894,-1.3723110744591434,1.6554222650515735,1.0,0.5014988193933966,0.506133214286077,0.40232616360504,0.8101596200883047,-0.00559400407993988,0.40974268541269787,-0.419190921714102
4.800000000000001,0.05374374622573836,-0.31655318134337385,-0.2760299001991339,0.051992684762519815,-0.0046067295415200445,-0.06454582440463037,-0.03232663085081243,0.039618893285146166,0.9986349943416443,-1.005745336445132,-1.9559227533188437,4.140438133436754,-3.646090600137673,-1.372490701070879,1.65532306825303,1.0,0.5019577523253771,0.5066467122287361,0.40211450079792455,0.8101500656440203,-0.005611724246198395,0.40972905532038645,-0.41922247186218187
4.9,0.1942626006121245,-0.2262659970172446,-0.24052338202830556,0.049938628044368105,-0.005672964852675342,-0.07051546570985495,-0.038231612924480324,0.04575316279330911,0.9981920539187394,-1.0044352027214827,-1.9572139525985686,4.1402606311020875,-3.646189623148196,-1.3726885298556317,1.6553200269445163,1.0,0.5021512763605287,0.5068589561856011,0.4020913821055898,0.8101195225086084,-0.005598819799700274,0.40975555342614556,-0.41925576788364843
5.0,0.4434167572133001,-0.30092052171296935,-0.1782553660288577,0.04810069140905034,-0.005748598444051768,-0.06438599027056284,-0.04423218033182353,0.05194853992760609,0.9976605340603986,-1.0031352917097773,-1.9585984708991606,4.14006282738934,-3.646278325902395,-1.372878304575387,1.6552216033076934,1.0,0.5025998110629516,0.5073149001353489,0.40181101823329163,0.8101528050541605,-0.0055817070921723505,0.4097356689463302,-0.4192111145973066
5.1000000000000005,0.23093051299380857,-0.29277960978154693,-0.1303326403311452,0.050824798854255115,-0.0025277474667912895,-0.06851921751218609,-0.06633204505309537,0.07478381607035695,0.9940583684573451,-1.0016929162115176,-1.9598169998042962,4.13992166519165,-3.6463693628660625,-1.3730266729937952,1.6551463651610854,1.0,0.5028551111562892,0.5075506234761389,0.40164174550655507,0.8101799475839456,-0.005599841236457263,0.40971344620673095,-0.4191801358704943
5.2,0.3159789264318593,-0.6624049600850034,-0.37760783016043536,0.03991007568531686,-0.0017589467545446882,-0.06872490155322858,-0.09842094509549862,0.107957364225865,0.9885767608270934,-1.000322333474476,-1.9610177916095504,4.1397175788879395,-3.646491666833395,-1.3732207062484683,1.6550902925625344,1.0,0.5032787731100875,0.5080122929764869,0.4014383352992374,0.8101782213555311,-0.00558569649278789,0.4097069645310354,-0.4191899961242437
5.300000000000001,0.5285859917526542,-0.2516007953393612,-0.3287685358806701,0.04869474461287382,-0.004905904032501194,-0.06609717802641406,-0.10969356847735712,0.11962321818156163,0.9867347208554619,-0.9989170607646287,-1.9621664972156903,4.139525890350342,-3.6466388407042256,-1.373420386473419,1.655038679605112,1.0,0.5034485256577774,0.5081752362488362,0.401393594023138,0.8101605474107475,-0.005587506085281644,0.40971910841263554,-0.41921226055116706
5.4,0.16740903556760803,-0.2647443678959192,-0.2673144654141858,0.05078698884432635,0.0011389768429420528,-0.06348102441414541,-0.10745086777609887,0.11732483337682784,0.9872557325107293,-0.9975427695151579,-1.963595962407727,4.139339358412863,-3.6468161878175436,-1.3736101385674868,1.6549912495172845,1.0,0.5039218853253388,0.5086529408833819,0.40121471116971485,0.8101565799138059,-0.005572616319271879,0.40972770672622527,-0.4192117225347976
5.5,0.2536727654499584,-0.5241989261336041,-0.09957012243494287,0.04588212135996604,-0.0028246203989880413,-0.0698433853373021,-0.10536073966679868,0.11518534981247583,0.9877405067150531,-0.9960377529978796,-1.9650579758806033,4.139163365858559,-3.646932663799507,-1.3738192404765028,1.654909617388017,1.0,0.5041372285891815,0.5088752514830632,0.4010727774831244,0.8101708892042109,-0.0055790742276315445,0.4097009095872611,-0.41921017270599714
5.6000000000000005,-0.037388544841540194,-0.20412445739289004,-0.10281899795853014,0.051428150273166634,0.000246230111653558,-0.07062043876864857,-0.1046548316283968,0.11448750319879963,0.9878965154034302,-0.9947355839319458,-1.9660493915130244,4.138961181313538,-3.647032400170797,-1.3739855472057831,1.654860019683838,1.0,0.5046115953863726,0.5094193670730631,0.40074254867246534,0.8102243374878724,-0.005541687069230465,0.40966190273412584,-0.4191454855954205
5.7,0.18558686766933857,-0.42523073301123904,-0.15483800244128906,0.04585799968211123,-0.0030837570987999998,-0.06862334668841392,-0.10379810644925522,0.11361088976474257,0.9880877716736675,-0.9933502494588909,-1.9672484621777027,4.138746738433838,-3.6471460468579036,-1.3741751532407147,1.6547771602519064,1.0,0.50480189999667,0.509611368543686,0.4007414331498238,0.8101801506560614,-0.005523331892957428,0.4096847627267839,-0.4192087922231841
5.800000000000001,0.12222448016349037,-0.6656251376645548,-0.34534924413752294,0.04262419440687227,0.00036700204935438165,-0.06954582043815462,-0.10292094773792103,0.11269592974930465,0.988284829019282,-0.9917928329675775,-1.9685578843561033,4.138611265791611,-3.6473452053465785,-1.3743307971768322,1.6547751299473534,1.0,0.5051076369162061,0.5098691555038769,0.4006511059094602,0.8101658833462075,-0.005564279760870451,0.4097048081759199,-0.41921623347639386
5.9,0.24714406409783862,-0.5798275001887138,-0.297436795810742,0.043064403201486814,-0.0011509820738195451,-0.07050651186371383,-0.10302409628072873,0.11277700755802866,0.9882648250905236,-0.9903407743662272,-1.9700692389666898,4.13840934302078,-3.647476129486479,-1.3745322152296655,1.654690503682269,1.0,0.5056588860325636,0.5104206879915549,0.40045952821869707,0.8101401376630603,-0.005581761077316026,0.40972352470436896,-0.41924746223964393
6.0,0.3906589525966841,-0.5936784497822928,-0.16570237489033582,0.04911012215577596,-0.005600137110838639,-0.06961524292770635,-0.10318544330720777,0.11291867252473134,0.98823170143519,-0.9890425055998778,-1.9712783298888148,4.138195514678955,-3.6475624913911697,-1.3746552852789748,1.654630518417866,1.0,0.505890993153485,0.5106563232828384,0.4002928974053012,0.8101623678539186,-0.005583580210537037,0.4097137836759887,-0.4192139988255034
6.1000000000000005,0.33934150662584633,-0.509918947636896,-0.2317859835352516,0.046195025864589005,-0.0068824979856082335,-0.07603475854273437,-0.10410471399263206,0.11384936905314276,0.9880277184972258,-0.9877502253479127,-1.97228913869313,4.138035256936822,-3.647742313417562,-1.3747999039571004,1.654540389467139,1.0,0.5063134817999516,0.5110760918010527,0.4000415383578384,0.8101977875863782,-0.0055852226667232815,0.4096931870413948,-0.419165650751306
6.2,0.4852770645722635,-0.5550812802645014,-0.24096294257151119,0.045357252777174846,-0.007882757530882316,-0.07267388161274792,-0.10492313306990826,0.11467989350341332,0.987845943137197,-0.9861288070678711,-1.9735087348832674,4.137801847598813,-3.6478390465070025,-1.3749932687790216,1.65448606000701,1.0,0.5064993014536129,0.5112655948035245,0.4000095307254464,0.8101718848644487,-0.005564152484997765,0.4097201757903216,-0.4191896166803973
6.300000000000001,0.05651340911856638,-0.317550045441932,-0.2284001426869129,0.04697406823291479,-0.007461179838410617,-0.06763772283139227,-0.104353591353794,0.1141298689273558,0.9879699556285017,-0.9846208526365878,-1.975013853010421,4.137645439935434,-3.647964450241675,-1.3751508063723021,1.654414887402716,1.0,0.5069092268181801,0.5116662131389539,0.399987552541564,0.8100853280462579,-0.005599186037241318,0.4097808083392094,-0.41929714942600244
6.4,0.20098946670524542,-0.49986643353086246,-0.103739637287833,0.04969143529144995,-0.0008265822851450705,-0.07147452843919463,-0.10506920473920411,0.11482237490844467,0.9878138057562277,-0.9834664684964993,-1.9762131936329035,4.137435877453733,-3.6480976140205836,-1.3753345244778588,1.6543413977536565,1.0,0.5071684124834007,0.5118977478855573,0.3998604070109687,0.8100956401448878,-0.005598691829992353,0.4097843017486613,-0.41927381805736397
6.5,0.1729910578721301,-0.27576811551826547,-0.2732363487095613,0.049244123015016836,-0.00499589699937721,-0.06548354753529174,-0.10397482316879947,0.11369980499643557,0.9880588901139168,-0.9822060796325548,-1.9774012496222164,4.1373194186042515,-3.6481762000273577,-1.3755197498324758,1.6542846494094814,1.0,0.5075255722437553,0.512289042279422,0.3994786551349802,0.8101986661234605,-0.005579013223823746,0.4096974716121965,-0.41915984752572294
6.6000000000000005,0.3182945317666471,-0.46748036142849253,-0.2868944269570406,0.04639569465215795,-0.005819377414037911,-0.07287386242479515,-0.10370756682402023,0.1134220089623501,0.9881193561731395,-0.9805974960327148,-1.9785546760988069,4.137102086927241,-3.6483500957523507,-1.3756693980240893,1.6542796555107262,1.0,0.5079469229713451,0.5127394692494328,0.3992713598820158,0.810189694150949,-0.005560099888905784,0.40969775035058664,-0.4191771679594264
6.7,0.07538520128016551,-0.34294416276746553,-0.2816798821579153,0.05152842019116531,-0.0017185897663001123,-0.07049946763852791,-0.10415422695038075,0.11387336247799848,0.9880204726682751,-0.9789898763511015,-1.979979444858242,4.136883115048501,-3.648548265496725,-1.3758528710861593,1.6541762351989746,1.0,0.5081447973182002,0.5129027835820955,0.3992896308671721,0.8101371672592879,-0.0055843902331319155,0.40974834545068606,-0.41922890908338595
6.800000000000001,0.15368943098418392,-0.6230273919415003,-0.20032873708711788,0.047910591928182464,-0.0026887107896779606,-0.0717820269258739,-0.10415624966847446,0.11385978120149459,0.9880218845752027,-0.9777190447911588,-1.981332918206686,4.136708695382059,-3.648740430871481,-1.3760221640216272,1.6541418073716891,1.0,0.5086501850918866,0.5133919301621884,0.39911845521242667,0.8101231887073425,-0.005613664541299451,0.40975724673438413,-0.41924683020593323
6.9,0.3649649800347179,-0.6257393977785196,-0.3089405130739238,0.041017379281441696,-0.005637830827651959,-0.06913638745509862,-0.10375778612314386,0.11342810789450561,0.9881135418032696,-0.9764098633530194,-1.982552716413725,4.136528962531217,-3.648800494255055,-1.3761798996082812,1.6540803846503571,1.0,0.5088519853377049,0.5135922262864648,0.3989562831756128,0.8101620605608694,-0.005607827825621949,0.4097276341030401,-0.4192007320451263
7.0,0.2950004017030882,-0.18359942112063338,-0.09238938612760952,0.05347211960248246,-0.00476672851315971,-0.0690309820408242,-0.10324368099127336,0.11291219459536052,0.9882263439486123,-0.9749006681085683,-1.9837175248499301,4.136375683323205,-3.6489321562024197,-1.3763211409198206,1.6540427943813598,1.0,0.5091752729459116,0.5139462127516933,0.3986682943564994,0.8102194753071401,-0.005577629304412009,0.40969082310939453,-0.41912614013481897
7.1000000000000005,0.42174269376858153,-0.3028259247897832,-0.25590489639546926,0.03306435736769098,0.0026471085020858937,-0.056800997209616115,-0.1038391794210421,0.11352299599071992,0.9880926055471744,-0.974235471751448,-1.9842847629054121,4.136314675476948,-3.6490384226370973,-1.3764165083514612,1.654019832611084,1.0,0.5096039924307811,0.5144174909971532,0.3986257989224573,0.8101329127333285,-0.005588604752780017,0.40974971096460916,-0.4192357398499671
7.2,0.13330504248102437,-0.3704362678351119,-0.1986415844205388,0.04463162575629772,-0.006094095738223235,-0.07527657682411701,-0.10550687820356001,0.11522253207895536,0.9877206371414683,-0.9742234215469231,-1.9843043811753405,4.136318869825534,-3.6490209973217715,-1.3764284292804163,1.6540035217039046,1.0,0.5097422007748774,0.5145272972333296,0.3985710708368001,0.8101312884479661,-0.00559759752528942,0.40976440488568217,-0.41922439679516027
7.300000000000001,0.3574164203044271,-0.6820322472682723,-0.017638624577590925,0.04293013914646657,-0.004585541257812611,-0.07661800085817176,-0.10429012727589045,0.11397594256950522,0.9879928645984024,-0.9742574213191202,-1.9843447966312069,4.1363147251433325,-3.6490499150002864,-1.3764380139863523,1.6539968006438204,1.0,0.5097531964388964,0.5145222508579052,0.3985837289083398,0.8101288476831814,-0.005598114729977928,0.409761915313541,-0.41923153986975903
7.4,0.020700489947490564,-0.4616664480409923,-0.22727889181704738,0.04082715236401234,0.003192249332274427,-0.07409153830421067,-0.10307017358578338,0.11272608181550292,0.9882658073412728,-0.9742256399112206,-1.9843458007924701,4.1363139152526855,-3.6490269309463845,-1.3764396617217096,1.6540087189933648,1.0,0.5097429443192135,0.5145482211241433,0.3985473989276092,0.8101363959303447,-0.005609446933706512,0.4097492165920121,-0.4192292136723323
7.5,0.10103046014459714,-0.19257223471153656,-0.17654204393855197,0.05329801470158105,-0.003925637697941876,-0.07503566498128098,-0.10329435693235378,0.1129810899910532,0.988213276871423,-0.9742275835563944,-1.9843802667863828,4.136314472366488,-3.6490501182001003,-1.376393202179899,1.6540316732633955,1.0,0.5097565212679506,0.5145485381107419,0.398510919299989,0.8101602402105497,-0.005594267497390355,0.4097269549275159,-0.419205095101404
7.6000000000000005,0.08629049051364268,-0.23528523520397332,-0.24986675845489284,0.051812228106279216,-0.003283443324251816,-0.07704659261465995,-0.10336884438998459,0.11306522669368603,0.9881958966798712,-0.9742527519655223,-1.9843692040640475,4.136301517486572,-3.649007489850751,-1.3764284292804163,1.653984546661377,1.0,0.5097473163979954,0.5145663739365418,0.39850762396804,0.8101549185333144,-0.005598247153212613,0.4097257065350751,-0.41921654667894914
7.7,0.23035261929293777,-0.5268373398663682,-0.2925459050090807,0.04363574709864249,-0.004874398586950217,-0.07059785359328215,-0.103347901699517,0.11304200912867422,0.9882007449751349,-0.9742475902207479,-1.9843813381590785,4.13632554343181,-3.649037664644365,-1.3764150283764829,1.6540183526361056,1.0,0.5097394991908669,0.51456996116271,0.3985183401106931,0.8101457986224583,-0.00559075168715137,0.4097407784265711,-0.419219540294032
7.800000000000001,0.3922131413648266,-0.3826138477949947,-0.1799595115947905,0.051071371391061,-0.009617422582991177,-0.07199169662448238,-0.10360245732045087,0.11329576213186081,0.988144974905081,-0.9742145823438846,-1.9843785049325597,4.136334886107723,-3.649037995789153,-1.3764074206490249,1.653986435479056,1.0,0.5097591530814469,0.5145676045167308,0.39850493047438684,0.8101519811162394,-0.005598871924035823,0.40972611018391575,-0.41922182047237044
7.9,0.3250669027046867,-0.30329326320627387,-0.33493313953188664,0.04893108502326876,-0.007056965569108735,-0.07159291437931793,-0.10399089333148279,0.11368559668896135,0.9880594052611956,-0.9742702953324512,-1.9843715037601668,4.1363078605379044,-3.6489942874210555,-1.376408760482593,1.654012561579374,1.0,0.5097557000437686,0.5145712683175403,0.39848186962705523,0.8101638568550145,-0.005601408380840682,0.40972830527363097,-0.4191966902631234
8.0,0.17428852072643522,-0.29861967085030194,-0.15633381896858514,0.0510154139781171,0.00012729804818655883,-0.07509397865121456,-0.10428450187007114,0.11399915136007772,0.9879923686940639,-0.974236547568129,-1.9843592733423114,4.136328018978296,-3.6490468801678704,-1.3764385731682283,1.654019832611084,1.0235796327865188,0.509748771571239,0.5145690993166664,0.3985023754650734,0.8101584701731233,-0.0055888020774367345,0.4097306013293958,-0.41920502481761274
8.1,0.2802958710573114,-0.444548200700433,-0.15596940632867015,0.0484807380175187,-0.003183061388115338,-0.07134840200819927,-0.10453750423872432,0.11426909536857151,0.9879344161316808,-0.974236195147683,-1.9843582201640746,4.136337757110596,-3.6490377130181137,-1.3763941142193636,1.6540293349255724,2.0,0.5097445222767398,0.5145876816092348,0.3985020249977975,0.810152978522539,-0.00558209716662033,0.4097307694005701,-0.4192155629132793
8.200000000000001,0.2778997145858124,-0.6060697300685985,-0.23142775313250855,0.04631454050708508,-0.0024309345164243725,-0.07349062314881462,-0.10438864614065886,0.11410957083971253,0.9879685066840663,-0.9742150812723973,-1.9843715534518147,4.136326313018799,-3.648990748260262,-1.3764389260615773,1.654044415025847,2.0,0.5097362409370986,0.5145699433407248,0.3985106690082901,0.8101568254344169,-0.005599855252503481,0.40972821072788224,-0.41921039247245157
8.3,0.25779920411159846,-0.2636730963925996,-0.24924882725250241,0.05364352289469648,-0.006349872940165302,-0.0779896974394471,-0.10387100903581596,0.1135731115094011,0.9880849536805623,-0.9742654641353807,-1.984399146346225,4.136326223941043,-3.649001104984585,-1.3764076042578879,1.6539991282619708,2.0,0.509744882921433,0.5145795502835416,0.3985082469929478,0.8101479475236233,-0.005592237059887189,0.409744463909822,-0.4192117654636849
8.4,-0.026424641439648344,-0.23797270354464894,-0.2823993567221809,0.05429450147935329,0.001910521464404548,-0.07515228998268926,-0.10356013688222596,0.11328087727542374,0.9881511612613771,-0.9742266805479383,-1.9843694172301234,4.136266231536865,-3.6490273073094794,-1.3764264601752232,1.6540103313697443,2.0,0.5097369881123559,0.5145726278882771,0.3984881001360691,0.8101715562549575,-0.005577097694633958,0.4097141076434991,-0.4191960107331846
8.5,0.20123382520032845,-0.5962135188261318,-0.3619396715998553,0.04130686027520043,-0.006951942127062661,-0.07314429139355838,-0.1033882185504091,0.11305816647012074,0.9881946606444666,-0.9742389253888811,-1.9844024211734304,4.136347903660366,-3.649016042748922,-1.376394321799686,1.6539959907531738,2.0,0.5097562483321832,0.514556540382531,0.3985052345920502,0.8101559490874815,-0.005614610031249124,0.40973411785721303,-0.41920611514639317
8.6,0.053888736395011155,-0.2979369176098225,-0.31861088873032384,0.046476361439607004,-0.0029196728176576338,-0.07156228970180308,-0.1033732522474212,0.11301791410064756,0.9882008308219327,-0.9742498397827148,-1.9843813381590785,4.1363225041614795,-3.649003187979432,-1.3764082497853127,1.6539880625296712,2.0,0.5097629004373735,0.5145582400141467,0.3985129288705924,0.8101482347707842,-0.005604739481855211,0.409745158320552,-0.4192103646452324
8.700000000000001,0.2572267839038935,-0.30499887498645817,-0.23449891984841006,0.04796603185201957,-0.005975146412315486,-0.07296190826947788,-0.10356996156298982,0.1132368418229398,0.9881551836932871,-0.9742562692311659,-1.984386561745897,4.136312382547155,-3.6490189902595582,-1.376385701257729,1.6540252651413752,2.0,0.5097643566425429,0.5145549271327902,0.39850353520178217,0.8101499924603942,-0.005605142597944938,0.40973886817045846,-0.4192131104859099
8.8,0.029128195807276713,-0.32168077578462734,-0.28766494784413454,0.05176041802896141,-0.006749885412494975,-0.06982314714564458,-0.10410982183853261,0.11379622311155585,0.9880339874518956,-0.974243661929651,-1.9843915793181248,4.136319620344646,-3.649021528414269,-1.3764348645440245,1.6540155539545427,2.0,0.5097522422771804,0.5145679591764252,0.3984925529026752,0.8101586044103081,-0.005593484515987357,0.4097340351097831,-0.4192013467339607
8.9,0.052921991170691476,-0.09466900012776061,-0.22485744139109673,0.04880510966131551,-0.005011969770624978,-0.08048695372370922,-0.10413618158023581,0.11383359164583565,0.988026897140188,-0.974238395690918,-1.984386504326525,4.136327424775703,-3.649005710414029,-1.376414919757399,1.6540301649459768,2.0,0.509767788117771,0.5145782995818303,0.3984699817718472,0.8101584626937206,-0.005613978428349498,0.4097278071703824,-0.41920743385978154
9.0,0.3231175801291016,-0.16708185277030424,-0.20187004336349484,0.045893929936197835,-0.004073253918492254,-0.072483117245951,-0.10332273554110195,0.11301283712897028,0.9882065555057622,-0.9742864321444596,-1.9843932590880335,4.1363139152526855,-3.6490290235382488,-1.3764051704457196,1.654038147617185,2.0,0.5097395442107571,0.514578397027724,0.3984976687038494,0.8101587873813204,-0.005591514516761779,0.40972469110571014,-0.41921015218213337
9.1,0.07715114825817482,-0.17124641376130897,-0.15085327946675126,0.0477320340857933,-0.0033894994699708043,-0.07013318854618583,-0.1027198824000435,0.11239514647775935,0.988339922722942,-0.9742459806565169,-1.9843933285082402,4.13632592478155,-3.649020062672045,-1.3764085379254223,1.6540121810020865,2.0,0.5097426962670907,0.514575224765564,0.3984975602528151,0.8101590016978298,-0.0055851212527706345,0.40972749511114,-0.4192070826435526
9.200000000000001,0.23529158766884464,-0.5081213169066155,-0.269151472872718,0.037942278940505746,-0.0140806928400211,-0.0745563714489232,-0.10353341469048151,0.11323092326345836,0.9881590269025107,-0.9742612838745117,-1.9843932699126257,4.136326356317167,-3.6490398521330563,-1.3764403069110032,1.6540198109618998,2.0,0.5097442857239909,0.5145745804758961,0.3984947369921627,0.8101586295310969,-0.005589844973983215,0.4097298423273156,-0.41920544478321764
9.3,0.48199805533082074,-0.7845169108973695,-0.02446428289731456,0.036279986293633194,-0.018439587490821648,-0.07453607568552029,-0.10373545189369267,0.1134341397379889,0.9881146843740336,-0.9742611425828701,-1.9844175012501293,4.136349931164943,-3.648992421659202,-1.3764166555302546,1.6540433801114074,2.0,0.509738809741131,0.5145781205615945,0.3985021260077606,0.810158736428662,-0.005574326506552236,0.4097340178381001,-0.4192013636649572
9.4,0.22240944208478314,-0.46149613088425356,-0.2798843257694935,0.047966636161948066,-0.016263957587282656,-0.07418105835442332,-0.10302716367903113,0.11270007856678953,0.9882730308413844,-0.9742136332156014,-1.9844051965454437,4.1363263282758345,-3.6490041694982027,-1.376380317041383,1.6539722124662444,2.0,0.5097577276316467,0.5145757751264436,0.3984718437549083,0.810169353824856,-0.005595465761310696,0.40971999273443904,-0.41919427052337055
9.5,0.31933869182605923,-0.5100193372518649,-0.32550422885546604,0.040480243168677904,-0.013568086443898075,-0.07221345289855127,-0.10381222350941739,0.11351173849488999,0.9880980717772065,-0.9742379102924532,-1.984382047587604,4.136373996734619,-3.649004355184614,-1.3764279625511233,1.6540079217899941,2.0,0.5097558443122949,0.51457555050121,0.3984731615537291,0.8101687339001925,-0.005580981368873169,0.4097264669740563,-0.41918933373653156
9.600000000000001,-0.036642721282512836,-0.3590984175215534,-0.4284872243081942,0.045542058512423045,-0.009560827608662975,-0.06806221919528771,-0.10396174600578403,0.1136776095588534,0.9880634370095709,-0.9742136488655665,-1.9844175611202235,4.136326328399917,-3.6490279636778773,-1.3763803014123144,1.6539959907531738,2.0,0.5097322096020136,0.514590939758449,0.39847822020317625,0.8101660114421452,-0.005575050251681545,0.4097122552618241,-0.41920856456767114
9.700000000000001,-0.056773107239103865,-0.7342736699047618,-0.43296425584513,0.05700588084454686,-0.03906923374341225,-0.06794459716294046,-0.10397466196082744,0.11370467055072106,0.9880589644618211,-0.974251977911332,-1.98439886788662,4.1363146467177385,-3.6490111372821175,-1.3764221171500477,1.654001148705193,2.0,0.5097424236221773,0.5145877448471454,0.39847161996132535,0.8101696129887552,-0.005582043607225999,0.4097124761854598,-0.4192012951277668
9.8,-0.149992193902091,-1.3157069299953073,-0.5605034229688041,0.07274198158370655,-0.05407849236689061,-0.06514975908537225,-0.1038948563068267,0.1136213294521043,0.9880769400652106,-0.9742940642458816,-1.9843813381590785,4.13631939240272,-3.649014241054832,-1.3764331434330097,1.6539757522834444,2.0,0.5097436957178454,0.5145762742551204,0.3984739070174736,0.810168485416824,-0.005577881982504595,0.4097222451552808,-0.4191939817016878
9.9,-0.34317352235278764,-1.74982784529861,-0.6528364749941162,0.08748872642119157,-0.0684127077768836,-0.06897827032540371,-0.10395371102243774,0.11368660356121782,0.9880631392679522,-0.9742736433749992,-1.9844045274249213,4.136337757110596,-3.6490037955239334,-1.3763929927895846,1.6539956775089815,2.0,0.5097391135558013,0.5145726067340277,0.3984873567601723,0.8101631640681757,-0.0055799076050368854,0.4097215563203801,-0.4192049123096808
10.0,-0.38935783598729184,-1.3088951213379474,-0.43517654136639394,0.10733001713758958,-0.0833493999688634,-0.07148439313297919,-0.10438605051032762,0.11415806250739913,0.9879631075700686,-0.9742384243818407,-1.984381397931834,4.136314006107274,-3.649004151706345,-1.3763927262663067,1.6539960816077623,2.0,0.5097371229382542,0.5145763521171709,0.398498341080751,0.8101611227734846,-0.00557961816265501,0.40972348154632765,-0.41920697951861646
10.100000000000001,-0.7030746709168644,-1.298404062694046,-0.5850800958607637,0.12358903351190749,-0.09572005350387515,-0.07635409395339074,-0.10471495361093161,0.11451263319472214,0.987887459017147,-0.9742212512434277,-1.9844051800169886,4.13632785248303,-3.6490231528521573,-1.376414904742888,1.6540322303771973,2.0,0.5097251264405422,0.5146014686191904,0.3984738687576293,0.8101697709293485,-0.005561159224395411,0.4097054580622492,-0.4192081266082169
10.200000000000001,-0.9554859852518265,-1.879655401131422,-0.5215212133342139,0.13557318829372061,-0.10801366446576467,-0.07152317011205028,-0.10478955589052459,0.1145798313144781,0.9878717570066889,-0.974261515756264,-1.9843813381590785,4.136362337324052,-3.649004121819967,-1.3764171294632976,1.6540432603944364,2.0,0.5097391489595617,0.5145890918429549,0.39847489789706075,0.8101653553651271,-0.005581864648941511,0.40971192772587306,-0.419210061940654
10.3,-1.036113374933688,-2.0227965061211908,-0.6192274060757444,0.15010100239188512,-0.11753527004106566,-0.07654320956399341,-0.10456462701604206,0.1143566725105315,0.98792139336554,-0.9742391035631274,-1.9844171027635928,4.136362999720007,-3.649004587525368,-1.376405053127907,1.6539957672145813,2.0,0.509733844136532,0.5145903006587911,0.3984967287265994,0.8101569217550469,-0.005581694774688607,0.4097141977756996,-0.419224144052849
10.4,-1.068066391767517,-2.2763012519732158,-0.8162361820685172,0.1432205527498634,-0.1269286593392585,-0.07394793674847848,-0.10437332392609473,0.11416607482288045,0.9879637165590337,-0.9742272661499695,-1.9843813381590785,4.136373636443379,-3.649015862603302,-1.3764632913391814,1.6539958178133787,2.0,0.5097147339690531,0.5145958332984244,0.39849366582927326,0.8101624270397527,-0.005547603148391734,0.4097192099608952,-0.41920905870625613
10.5,-1.3134814736932636,-1.9477584729581505,-0.6493548248867625,0.16801383051789823,-0.12964374923897745,-0.08321514837060875,-0.1045073228024782,0.1142907201682537,0.9879351397084829,-0.9742602026670313,-1.9843694172301234,4.136350534760418,-3.649015677476125,-1.3764276987348214,1.6540318504934879,2.0,0.5097335683829941,0.5145948917609156,0.39849085073836626,0.8101580823970642,-0.005585517674371867,0.4097191379400344,-0.4192170219882495
10.600000000000001,-0.9324562304107795,-1.9877843549926608,-0.6817798847469584,0.13457291898834467,-0.13671161691270803,-0.08070392350765102,-0.10417711270320563,0.1139465190645938,0.9880096379004153,-0.9742490403181693,-1.9843825533451878,4.136361721199695,-3.649016042748922,-1.376369562984592,1.6540318146556336,2.0,0.5097123795039249,0.5145930864285673,0.39848837365238726,0.810170146409486,-0.005573555821945049,0.4096989408792942,-0.4192136056770063
10.700000000000001,-0.9587349015462896,-1.9065073175466591,-0.8375780845114179,0.13207614574212612,-0.1335495155112551,-0.07768199149587998,-0.10374302914469029,0.11349374529611281,0.9881075287215805,-0.9742612730719846,-1.9844294532514222,4.136337746308069,-3.6490279636778773,-1.3764045874225062,1.654019832611084,2.0,0.5097234959967283,0.514593990102312,0.3984502976256458,0.8101909298447907,-0.005559870572902431,0.40969666887553174,-0.4191758396529302
10.8,-1.1053523759010624,-1.5380593468678996,-0.7226119779500516,0.13571566915709746,-0.13400261270433178,-0.07320228903587399,-0.10344119516290011,0.11316349425378762,0.9881770442472724,-0.9742385179324058,-1.9844047980123392,4.136362287786265,-3.6489800628880604,-1.3764283019455332,1.6539853106706757,2.0,0.5097456623377234,0.514593570239336,0.3984870373480865,0.8101573871317425,-0.005582069748848747,0.4097256410420538,-0.41921205570196257
10.9,-0.8157214237174508,-1.5811566124102228,-0.06000627390245894,0.1106988240673282,-0.1341549756294597,-0.07310109697465199,-0.10405465629696528,0.11379194903090047,0.9880402814194463,-0.9742388056045165,-1.9843816496934135,4.136326313018799,-3.6490279636778773,-1.3764044849441066,1.6540435760897305,2.0,0.5097399428614802,0.5145847648054785,0.39847304365915226,0.8101720881204513,-0.005595807074564059,0.4097057396997313,-0.41920291200184656
11.0,-1.0234427687764596,-1.0918862068322062,0.6386577680525589,0.10451043789675202,-0.13334668004445635,-0.07913327842952224,-0.10419766908438084,0.11394214986401342,0.9880081040893415,-0.9742341128006753,-1.984417577783102,4.136337757110596,-3.6489949424031307,-1.3764413050898525,1.6540322303771973,2.0,0.5097373692329709,0.514593424905796,0.39846170912204854,0.8101740582820265,-0.00558748938451619,0.4097075878427813,-0.41919740900112834
11.100000000000001,-0.7404552552254237,-0.7495336775963676,1.4109077499304015,0.054164841035217494,-0.11346023239853034,-0.08259379519372094,-0.1041457516762716,0.11391122532021064,0.9880171529989532,-0.9742385512059017,-1.9843815001538532,4.136337601595612,-3.6490044458095166,-1.3764042569531656,1.6540427025003457,2.0,0.5097352871927048,0.5145953442461639,0.3984712408846463,0.8101661388385557,-0.005576440422994308,0.4097147948852044,-0.419205817759976
11.200000000000001,-0.6260770015124638,-0.43370393969363313,2.1415481576270987,0.013395234447261008,-0.12025991651980962,-0.08477199552595097,-0.10472607594387674,0.11451398077688761,0.987885953606414,-0.9742498397827148,-1.9843941308201583,4.136337346883713,-3.649004121819967,-1.3764169356711302,1.653985401300715,2.0,0.5097271288427344,0.5146051234812653,0.3984569366207934,0.8101752059223217,-0.005558961005159197,0.4097066383351303,-0.41919649827424993
11.3,-0.7879658852025307,-0.046146092747693324,2.5230924980847673,-0.005112620092195114,-0.11437133282226059,-0.09062913591117445,-0.10495390402466553,0.11471766006865297,0.9878383122697499,-0.9742388845192426,-1.9844526909428517,4.136337602743756,-3.649015881950131,-1.3764163475526703,1.6539847010282163,2.0,0.5097292711801614,0.5146018814163874,0.39844905229217087,0.8101789869684478,-0.005577870654117313,0.40970618755815347,-0.41918938000658956
11.4,-0.5322878256533431,0.6274516344257484,2.7157224033654987,-0.03994219129143599,-0.10726608447853739,-0.0887902580019359,-0.1052193474260735,0.11496515105199145,0.9877811883628135,-0.9742498397827148,-1.984429498712057,4.136337757110596,-3.6490279636778773,-1.3763929282038574,1.653984546661377,2.0,0.5097504197332108,0.5145860647268466,0.3984562499322449,0.8101761839953393,-0.0055823407621707136,0.4097218469162431,-0.4191794323650766
11.5,-0.4917369999910818,1.1075580133045648,3.0001492818513547,-0.07084276867661637,-0.0860982980791921,-0.09542438536877035,-0.10567512615511505,0.11542528083991355,0.9876789230594181,-0.9742505984322151,-1.9844053772658587,4.136337954359465,-3.6489925802157623,-1.3763806556386828,1.6539959907531738,2.0,0.5097487570695994,0.5145883960572863,0.39844904260613534,0.81018166261594,-0.005582322082577216,0.4097137317998735,-0.4191767756157997
11.600000000000001,-0.3141457477633308,0.62199779483459,2.934444173184933,-0.08623021011208773,-0.07141156113222955,-0.0954391234430413,-0.1061806929189596,0.11598097061842616,0.987559535684952,-0.9742605882580517,-1.984394708288992,4.13634940129221,-3.649050079587489,-1.3764053120229853,1.6540293319752803,2.0,0.5097529003866778,0.5145903098215256,0.39843013503662117,0.8101887999170656,-0.005597144764726849,0.4096947666031599,-0.41918131957114985
11.700000000000001,0.23513643296441378,1.0055657055386344,3.000469497110486,-0.12498094669007295,-0.03807278090192027,-0.10136622024879058,-0.10615603746065799,0.11595832688654925,0.987564938485187,-0.9742618223064866,-1.9844171009459437,4.136327274504469,-3.648992681633847,-1.376392666493551,1.6539859696601678,2.0,0.5097408529522875,0.5145804548626558,0.3984726621649654,0.8101738579476077,-0.005590806434495615,0.40970475543954943,-0.4192005202190485
11.8,0.49884575143959153,2.0611357729800166,2.7682216475554458,-0.15681466125543406,0.029425739268042185,-0.11452820637112669,-0.10580848990505656,0.11560152218333974,0.9876440155281667,-0.9742498397827148,-1.9843933133484375,4.136362387691194,-3.649004121819967,-1.3764282100683842,1.654008223567659,2.0,0.5097393122455065,0.5145834375094737,0.3984589625864048,0.810181283455547,-0.0055828613948304615,0.4097078492542523,-0.41918325092544384
11.9,1.0304396629324344,1.868288863260131,2.52482673124733,-0.1962569778315143,0.07675960668331742,-0.11835272258559563,-0.10544250946621114,0.11523318981725528,0.987726255231776,-0.9742388706308969,-1.9843695734603797,4.136314227713198,-3.64903957214632,-1.3763928227238074,1.6539958407721278,2.0,0.5097279536737255,0.5145827740196429,0.3984664110402626,0.8101780566823855,-0.00557940363973891,0.4097035599239236,-0.4191937257534301
12.0,0.734044808566517,0.856246150358345,2.218497085446541,-0.15159127036125064,0.017444429476840072,-0.11008379979541345,-0.10505161461069047,0.11482118305325946,0.9878158713866512,-0.9742507938603615,-1.984393899324349,4.1363368030329495,-3.649016042748922,-1.3764998040086427,1.654019832611084,2.0,0.5097351831696711,0.5145835683922996,0.39843312351441773,0.8101960712285935,-0.005571697051965269,0.40969373462047975,-0.4191686130549813
12.100000000000001,-0.32589759721132605,-0.4301328717615902,2.2374925221661237,-0.05258080221932991,-0.0881494712073641,-0.09859725237181706,-0.10462322458094275,0.11436120116596399,0.9879146293163354,-0.9742499228861692,-1.9843799180355357,4.136350064847967,-3.6489799797197393,-1.3764517943011683,1.6539846297648313,2.9015068206752046,0.5097504828291178,0.5145676362550305,0.39846430878711814,0.8101813821462226,-0.005595637493683965,0.40971154974028173,-0.4191792729538194
12.200000000000001,-1.0230101707159145,-0.5687038543793299,2.3152944963171613,-0.023583056396355127,-0.1262702806113296,-0.0815175928930318,-0.10472610474834912,0.11446600478746775,0.9878916230975127,-0.9751483061935561,-1.9836226305368472,4.136370301444414,-3.6489816507700015,-1.376334775884544,1.6540340780223,3.0,0.509739926571124,0.51457778435913,0.3984834440551696,0.8101656008920484,-0.005568300534113756,0.40971861500585904,-0.4192032319508865
12.3,-1.1301431578789367,-0.3194474992554962,2.8405109394031016,-0.047087842510826775,-0.11627588920364232,-0.10403458683870065,-0.10510532410257518,0.1148116116662631,0.9878112564553712,-0.9765085711394185,-1.9824335422797188,4.136494159698486,-3.6487873675892026,-1.3761520790163853,1.6540593810565283,3.0,0.5095452266791856,0.5142863863764718,0.39857820679864747,0.8101872624072679,-0.005606558243060895,0.40971315623053245,-0.41916619132427585
12.4,-0.7388806377075462,0.3377439062610704,3.782214022312972,-0.08191216596476053,-0.10244581339890318,-0.12335618560922429,-0.10536262536597407,0.1150010024211893,0.9877618331577983,-0.9779537687740565,-1.9812589374203744,4.1367363929748535,-3.6486546001830042,-1.3759854791756547,1.6541608105374948,3.0,0.5094062748939511,0.5141037430426276,0.39865963833227175,0.8101831250212846,-0.005608664124535478,0.4097327376301332,-0.419155019690329
12.5,-0.7777917233893413,1.2528233742602468,3.83151429878325,-0.14082220711700394,-0.11813164916912286,-0.13841493803321944,-0.10486878403697078,0.11454458894457163,0.9878673284831202,-0.97919331203554,-1.979859484859083,4.136919885136335,-3.648551990049563,-1.3758178909003063,1.6541966425235946,3.0,0.5088830772771387,0.5136872374079688,0.398817304597769,0.8102116394589112,-0.005571020894717095,0.4096957510517621,-0.41913655839311686
12.600000000000001,-0.3791617503070593,1.251682745480966,4.328789189522425,-0.17126327849116868,-0.09940569546886717,-0.17221535322533138,-0.10420097436032598,0.11387613821122172,0.9880150063566258,-0.9807009844155494,-1.978608732802367,4.137142658233643,-3.648367941456818,-1.3756561988624585,1.654266205957154,3.0,0.5086751342065011,0.5134618018362846,0.39900846972202925,0.8101641134130184,-0.005591949745006001,0.4097332238336033,-0.41919151318063375
12.700000000000001,-0.13297106271806056,1.334501314439784,4.752487214385182,-0.16499673135380127,-0.07904016803362682,-0.18062274728136699,-0.10344067663246033,0.11308939245118968,0.9881856179585972,-0.9823026657104492,-1.9773904285826625,4.137322564541272,-3.6482222732268403,-1.375470956468565,1.6542870419678246,3.0,0.5083583491925368,0.5131312572253255,0.3991943798436722,0.8101433411817263,-0.005619484462810643,0.4097449299681612,-0.4192198474531808
12.8,-0.2141988611132624,1.232915442035122,4.793842139569975,-0.19147542885812419,-0.08138693475225232,-0.20866680374528496,-0.10339941918927545,0.11308405950856511,0.9881905452784365,-0.9835692246449886,-1.976214255214488,4.1375262783951126,-3.6481022388526925,-1.375301956011628,1.6543800682878158,3.0,0.5078672050138411,0.5126935083534014,0.3992680363847778,0.8102152464219211,-0.005561970827293607,0.40967249065403466,-0.41915244165733057
12.9,-0.27604037090450045,1.853170391527481,4.906808003885264,-0.21928678486151112,-0.09384717977052204,-0.21514645266982627,-0.10336157446046483,0.11308170154589949,0.9881947745234122,-0.9848394393920898,-1.9747764639838854,4.137693008108421,-3.647980028906238,-1.3751324992894054,1.6544532208853981,3.0,0.5076821369309327,0.5124996579551818,0.3993114179084215,0.810232924581641,-0.005567793955253523,0.4096560770406017,-0.4191342340325559
13.0,-0.10706237224434897,2.02331250890329,4.802691263483153,-0.22450881021009836,-0.08165075553848139,-0.23572473872776611,-0.10350959003913465,0.1132413643764444,0.9881609858171163,-0.9863469489745439,-1.9734130513403305,4.137884367340022,-3.6478594390647734,-1.3749427053876255,1.6544784473877936,3.0,0.5073764849909066,0.5121729360579833,0.39962085047969464,0.8101516038753732,-0.005589654254372366,0.4097184602049033,-0.4192301490479904
13.100000000000001,0.19503413947211404,1.8008059516833095,5.150943560129284,-0.22375916095472653,-0.04662818303496437,-0.24742884542494187,-0.10355785987771615,0.11327449991388935,0.9881521400991631,-0.987940751903342,-1.972273988141038,4.138041019439697,-3.647692797369013,-1.3747852706991435,1.6545853169489224,3.0,0.506829424743994,0.511599239967561,0.39992610701126186,0.8101376602580909,-0.0055824687767029035,0.4097473270472571,-0.419228977351914
13.200000000000001,-0.004862100887015136,2.1180505106527883,4.742875013881669,-0.23864761704609033,-0.03554936749986029,-0.26222871353513977,-0.10350984184448564,0.11318549445796516,0.9881673726753004,-0.9891721563835927,-1.9711584908870825,4.138256939386329,-3.647571637407736,-1.374592387757322,1.654632568359375,3.0,0.5066680375506748,0.5114113024433832,0.3999240277175686,0.8101776236995766,-0.005593165745096418,0.40971406244883424,-0.4191841141850773
13.3,0.24260237419070335,2.029887212459408,4.899356495963709,-0.25557155922120667,-0.04197945823289318,-0.2779811872643768,-0.1029676817299169,0.11259674319859628,0.9882910969470708,-0.9905490658822255,-1.969826893811741,4.1384137748262635,-3.6474644146361292,-1.3744144646128722,1.6546699117350185,3.0,0.5063523434061352,0.5111002166274383,0.4000094941204187,0.81019623205491,-0.005587952637290866,0.4097193729585938,-0.41914302543614723
13.4,0.4605340389569098,1.985608363386996,4.507678995819037,-0.2528937090465365,-0.026031610651248392,-0.29443021665465713,-0.1026826642748987,0.11229415328007676,0.9883553478005742,-0.9919515076727092,-1.968305037525496,4.13863867524621,-3.6473214908626392,-1.3742116770189154,1.6547169901573426,3.0,0.505910813362694,0.5106672328463958,0.40030134127323247,0.8101526851982779,-0.0055955657532566205,0.4097387292142804,-0.4192081703542858
13.5,-0.17073232953171114,0.43735423156415565,2.9456835951710083,-0.10504159703026744,-0.08285431874795116,-0.3034555757859732,-0.10267087655170933,0.11229540641346462,0.9883564300402063,-0.9934945340722484,-1.967039247552389,4.138855684013681,-3.647222662735558,-1.3740392854475743,1.6548132616820823,3.0,0.5056699674475162,0.5103950325233404,0.4005267471541058,0.8101049028158439,-0.005610610403700262,0.40978413781460565,-0.41925592169958725
13.600000000000001,-0.9493393240929118,0.7878360564354323,3.225543409162799,-0.09909906903139762,-0.12028810278725688,-0.30670026141019524,-0.1021213114482329,0.11181917616925381,0.9884673450184495,-0.9948084721722502,-1.9660447364591853,4.138999886440532,-3.6470682375387025,-1.373826634526452,1.654895611251895,3.0,0.5051664264927879,0.509950085473514,0.40069350862183556,0.8101279648068187,-0.005572181918685212,0.4097493181533859,-0.41924590361679426
13.700000000000001,-0.5523211534410074,1.0522627683768842,3.1000033378331895,-0.1285309090591779,-0.11297338831717782,-0.2922792825191862,-0.10229501109942338,0.11191832702828979,0.9884381703698781,-0.996155590066532,-1.96486467583848,4.139158092764388,-3.6469331076309053,-1.3736479918109339,1.6549662705086001,3.0,0.505001038854391,0.5097926501930381,0.4006635991228951,0.8101754422678984,-0.005580971831435959,0.4097242692101038,-0.41917851652926874
13.8,-0.5543486216152227,1.5769080464073977,3.048495817257883,-0.14397061464821884,-0.10768175405717235,-0.2857342320384231,-0.10201291292122619,0.11160067783299253,0.9885031833781686,-0.997575470522585,-1.9633805802611413,4.139324897661703,-3.646824940209233,-1.373491612948372,1.654982322588461,3.0,0.5047142914389801,0.5094569399898158,0.4007340951605496,0.8102175570894978,-0.005601006675005799,0.40969803907271485,-0.4191224829189257
13.9,-0.3273429513195076,1.532564033103923,3.1758438918052923,-0.16424310733610367,-0.10043119875235339,-0.286220258990057,-0.1020258718716119,0.11160999465776551,0.9885008043597487,-0.9990094500893917,-1.9619701686917705,4.139540503138216,-3.6467075511653806,-1.373347576597057,1.6550650596618652,3.0,0.5042021721867915,0.508931215639967,0.40108581822479306,0.8101675534650867,-0.005590746974829602,0.40972980778376844,-0.4191882196270973
14.0,-0.4032767467270544,1.4533782407043463,3.2318974248053776,-0.16349314203722204,-0.08929456481033723,-0.2870541159439672,-0.10238509924596856,0.11198127882544413,0.9884216909394633,-1.000340461730957,-1.9609497188128733,4.13974161364278,-3.646586080590719,-1.373158563989687,1.6551348707838933,3.0,0.5040087162880562,0.5086911470927503,0.4012267378138152,0.8101479196558306,-0.005604447377305943,0.4097500133711483,-0.41920623204965474
14.100000000000001,-0.4423387701645687,1.5411336746248028,3.2229788743493737,-0.15535102789927305,-0.08663730821168349,-0.28144966958448747,-0.10246393416799836,0.11207626636245208,0.9884027682979702,-1.0016950186013684,-1.9597512684264125,4.139946519847292,-3.6464462773812074,-1.3729904809436573,1.6551981448028894,3.0,0.5035661928272829,0.5082735496444332,0.4013791172315291,0.8101630367625241,-0.00561062253194832,0.4097311840478931,-0.4191953382341467
14.200000000000001,-0.44609462893748286,1.434319507679249,3.360345854617956,-0.15473784480001218,-0.0895952886883893,-0.2798065415496806,-0.10241359141809332,0.11207269802781204,0.9884083890564374,-1.003117561340332,-1.9584432003569388,4.140117294575648,-3.6464063129820765,-1.3728211561786097,1.6552334869232335,3.0,0.5033400957093946,0.50808566601955,0.4014634364490338,0.810169880280885,-0.005597662881699674,0.409711401903079,-0.4192016202336694
14.3,-0.6430477460950517,1.6558790397319527,3.3326407236253046,-0.15256978792147005,-0.09681075023693132,-0.27942946308711447,-0.10241724569644116,0.1121035669818278,0.9884045032258917,-1.0043881879697691,-1.957105400932637,4.1403090171126635,-3.6462719893006375,-1.3726197003549576,1.6553168296813965,3.0,0.5030098932292684,0.5077571441044257,0.401627174208678,0.8101630041792978,-0.005579378073362587,0.4097232671405917,-0.4192035562386478
14.4,-0.3452329194418679,1.5742154742129661,3.4333155202198644,-0.14782578730774742,-0.10077570808902225,-0.27722661870574405,-0.10236307750568639,0.11206443210397693,0.988414532957117,-1.0057267665813174,-1.9558574822307075,4.140497636790058,-3.646177907983297,-1.372463546659437,1.6553759483142738,3.0,0.5025053389213464,0.5072691486790021,0.4019378199825032,0.8101231972446192,-0.005589807420948635,0.4097490424186971,-0.4192551509237701
14.5,-0.17006926928773952,1.4339590916013079,3.322861873459775,-0.1335825149018601,-0.09165954529284304,-0.2710169992514052,-0.10264857790627208,0.1123523845371846,0.9883522576723128,-1.0072720609471575,-1.9546544650238378,4.1407028009707725,-3.6460098051798715,-1.3722822536758545,1.6554369926452637,3.0,0.5023534497930223,0.5070778013678341,0.40202534478065266,0.8101173966128109,-0.005602304444402569,0.4097521159151703,-0.4192631886932543
14.600000000000001,-0.22660107036748725,1.24383748501587,3.2848022855028502,-0.13769469117232738,-0.08543209086076445,-0.2729830450223275,-0.10218882959087701,0.11185343841866245,0.9884563118816265,-1.0087238735648638,-1.9534308667413731,4.1408811409416515,-3.645932675928443,-1.3721034414085709,1.6554974761174124,3.0,0.5020046891017836,0.5067272473280466,0.4021326141434824,0.8101452847662207,-0.0055894546088538265,0.4097400798903985,-0.4192212333597198
14.700000000000001,-0.49415002139029385,1.4455963256180333,3.4256420418068743,-0.1484017606568564,-0.08736798400651363,-0.28061454117426765,-0.10204692386750654,0.11171579362445207,0.9884865225525117,-1.0099031214689327,-1.9521119949194208,4.141119851184009,-3.6458173172499047,-1.3719236140422908,1.6555324619186955,3.0,0.5015345972997985,0.5062532183176955,0.40222780283893284,0.8102036765671916,-0.005580035677349202,0.4096885100504972,-0.4191589083050109
14.8,-0.36019912412245114,1.1829680216405338,3.529853613328814,-0.15719931198160628,-0.0905279612422844,-0.27529042995146985,-0.1025652383233327,0.11231664709929508,0.9883647021464641,-1.0112296983742621,-1.950935205730431,4.141319616153839,-3.6457210979857386,-1.371739392188683,1.65559898169339,3.0,0.5012272050561295,0.5059796701442922,0.4024588872936064,0.8101536893271091,-0.005560350548465776,0.40971990001858416,-0.41922510146723535
14.9,-0.48819386567775097,1.0735779207287022,3.466546779066001,-0.15126336067740137,-0.08128246468871649,-0.27873190902215683,-0.10288673898800726,0.1126811291117707,0.9882900796952786,-1.0126687890571193,-1.9496928529499429,4.14146431688676,-3.6456462470132336,-1.371583483590332,1.6556705593644603,3.0,0.5008710267329217,0.5056619365380964,0.40264999041887145,0.8101425740707,-0.005536499907717334,0.4097231823965502,-0.4192436888656948
15.0,-0.4703874673699302,1.524540932425993,3.540442268797282,-0.14976861078489878,-0.08732707463525322,-0.2724706481230671,-0.10287850330657759,0.112649600957132,0.9882945313836075,-1.014108905679945,-1.9483544745443937,4.14164759593415,-3.645574094183079,-1.3714182322802095,1.65570525104404,3.0,0.5006822139718543,0.5054287640148747,0.40264212885033906,0.8101969868475825,-0.005556901050275843,0.4096764784164887,-0.41918390520877563
15.100000000000001,-0.2924523155789854,1.6162703139323518,3.5383603265497223,-0.16378441999623233,-0.09788963228677884,-0.27137104865406164,-0.10287382652180432,0.11264013567581196,0.9882960971394534,-1.0151970580065692,-1.9471470921994551,4.141840616602956,-3.6455377653188,-1.3712622771975727,1.6557869307435589,3.0,0.5002860781439027,0.5050194437602186,0.40283809494195877,0.8101858334512244,-0.005553373165586449,0.40968882935746154,-0.419193437950955
15.200000000000001,0.4988649104261874,1.410128943093592,3.205951551795841,-0.15007860284249805,-0.052534781674248236,-0.2618912419433266,-0.1028713568829639,0.11263612939542034,0.9882968108254354,-1.0160512213206199,-1.9463389669704945,4.14194917678833,-3.6454786344857784,-1.371109437973048,1.655808925628662,3.0,0.4998482791751949,0.5045422539684573,0.4031922666242245,0.8101208414223346,-0.005593837127036998,0.40973827655943684,-0.4192701706554707
15.3,-0.19998181450747343,1.6031670444177555,3.2830876241229134,-0.1498604474842817,-0.08103184193648497,-0.2682036405168197,-0.10287187357168286,0.1126358177775856,0.9882967925584656,-1.016098976135254,-1.9463474374804668,4.141951138102476,-3.6454807720580042,-1.3711044192667898,1.6558415968399969,3.0,0.49968207407104503,0.5043717964094911,0.40327470682080874,0.8101249600209407,-0.00558339248802114,0.409737698635192,-0.41926291655300346
15.4,-0.36973754524956326,1.2796933816304579,3.307686720816138,-0.14621845470305694,-0.08296622456695468,-0.2711754008171329,-0.1026783570307432,0.11242992554144879,0.9883403275284408,-1.0162301845909392,-1.9463378610585758,4.141981645499922,-3.6454779548198895,-1.3711088339435022,1.655845676542189,3.0,0.4996590679713267,0.5043590636075638,0.4032555637157818,0.8101387905482096,-0.005577684494486933,0.4097290459960275,-0.4192447237019795
15.5,-0.3905145393426855,1.148968415362557,3.5611288087407607,-0.1588009619223534,-0.08993418135144896,-0.2691808387305273,-0.10272258832955965,0.11246980782925599,0.988331085041922,-1.0162793570857838,-1.9462764401521964,4.141969884613832,-3.6454807720580042,-1.3711076983403299,1.655818098514114,3.0,0.49965541991310924,0.5043472028352004,0.4032315307064709,0.8101515982458098,-0.005575748465764648,0.409718740488543,-0.4192300711796434
15.600000000000001,-0.561423671303113,1.379663791677323,3.5437447055093028,-0.1598792814905126,-0.08717709521887046,-0.2703406968685417,-0.1033003976853717,0.11306303871457456,0.9882032252834659,-1.0163118030484204,-1.9462315044798792,4.141947327037254,-3.6455143081996866,-1.3711207548724573,1.655820369720459,3.0,0.4996331033609285,0.5043299404271069,0.4032079509900472,0.8101702384874875,-0.005569041271236333,0.409705395793532,-0.41920717921585277
15.700000000000001,-0.5043640637884563,1.3103713799111585,3.804063940574267,-0.15698625252895654,-0.08916854383905133,-0.26696440188119813,-0.1035655281518978,0.11333514339870165,0.9881443792085041,-1.0162384990145048,-1.9461986830524047,4.141940412927479,-3.64551134467196,-1.3711099583502617,1.655822618533978,3.0,0.4996261454712924,0.5043105166542644,0.40325888696752005,0.8101512988438784,-0.005575857499371392,0.40971720275372403,-0.4192321511554036
15.8,-0.4697570050141874,1.3223234808463082,3.5810014977800493,-0.15706367963389736,-0.08883934259005273,-0.26601503990973385,-0.10309783606606956,0.11281521071595911,0.9882527074849511,-1.0162446602684947,-1.946228972762783,4.141959405655921,-3.645446275129687,-1.3711288782257682,1.655842996354163,3.0,0.49963265236082677,0.504299105593809,0.4032286517894033,0.8101649432788312,-0.005595341390268101,0.40971243066468965,-0.41921018713238156
15.9,-0.4313979435432975,1.380798311837913,3.396777857901355,-0.1553362991611715,-0.08946524139891339,-0.2597898607712425,-0.10338645504030948,0.11309757979742537,0.9881901829785774,-1.0162810244260456,-1.9462394482175256,4.141969519569487,-3.6454595816609667,-1.371131350070976,1.6558163394999328,3.0,0.4996224893066078,0.5043039324683036,0.4032390764351576,0.8101623944490465,-0.005562894328641168,0.4097280609084135,-0.41920026828654067
16.0,-0.3722861750752914,1.376170630992815,3.554060645516624,-0.1503816220871811,-0.08954398334894945,-0.26714421199317195,-0.10371881501279277,0.11343911428021611,0.9881163567837651,-1.016279232790931,-1.9462205896802915,4.1419243812561035,-3.6454470215298738,-1.3711187426137226,1.6557995864958257,3.0,0.49964029781870994,0.5042956106619843,0.40321922474500743,0.8101706247986443,-0.005581563114160951,0.40971630025022876,-0.4191956084882584
16.1,-0.6006526786215285,1.375649723234365,3.7082801821510794,-0.14967634870905547,-0.08655544519603957,-0.2660735342863495,-0.10351105459672941,0.11323913957335062,0.9881610592965491,-1.0162680170171239,-1.946232748440486,4.1419358253479,-3.645494413784724,-1.3711339197620191,1.6558165880802147,3.002257714170203,0.4996419243707127,0.504298090501058,0.4032288209957859,0.8101622631954526,-0.005590930487271902,0.40972145161058204,-0.41920660882245875
16.2,-0.7271323687201479,1.3435214762313503,3.482499111817558,-0.1495075899635303,-0.08233669784221022,-0.26106996225042717,-0.10340347654575213,0.11313798682832624,0.98818393873322,-1.0162897109985352,-1.9462183730456215,4.141959458795037,-3.6454618206415175,-1.3711076234381996,1.6558113466392677,3.988257253412188,0.49962433758349334,0.5043033641316629,0.4032381157658171,0.8101655798661529,-0.005564935405314992,0.40971802528448836,-0.4192038936496818
16.3,-0.5902015274726654,1.2200992722061197,3.572512566958959,-0.15155258845725234,-0.08435372202307817,-0.2609703573871394,-0.10357535189807585,0.11331249271377694,0.9881459438544855,-1.016309773193176,-1.9462364350398642,4.141929114593689,-3.6454807720580042,-1.371106774134517,1.6558467482245125,4.0,0.4996259147765041,0.5043025317831785,0.4032296047694162,0.8101650763082767,-0.005574906192806961,0.40971431395157054,-0.41920836167058934
16.400000000000002,-0.5013767244427924,1.2208860271156687,3.645052349058447,-0.1521563989819704,-0.08737847800531842,-0.26382326930135835,-0.10350879836746484,0.11321874885014649,0.9881636566078511,-1.0162482165135716,-1.9462195835509242,4.141901796585711,-3.6454379236787906,-1.3710874097538954,1.65580020271837,4.0,0.49964632367743705,0.5043062844798787,0.4032284878072174,0.8101622131958964,-0.005571422760499736,0.40972775317752114,-0.4192008060989998
16.5,-0.4101471689102704,0.9713848184183763,3.417630387441263,-0.13882275806407104,-0.08777085513328711,-0.26030202574237254,-0.10343357881915793,0.11311252072672119,0.9881837061114498,-1.0162833445436579,-1.9462289656614196,4.141946536417132,-3.6455012317490136,-1.3711301369829527,1.6558442115783691,4.0,0.4996440155878506,0.504300855122197,0.40323621733691056,0.8101582132184582,-0.005585235809616205,0.4097301592258149,-0.41920600105009775
16.6,-0.7827574064498559,0.533969202955107,3.126937050217891,-0.08827422867080738,-0.08291562206378124,-0.26438596591567975,-0.10357174733440683,0.11323793924825472,0.9881548605132204,-1.0162900211214951,-1.9462313553823023,4.14191308029798,-3.645469000226626,-1.3711441494376368,1.6558442115783691,4.0,0.4996357679886927,0.5042985953639547,0.4032440694074831,0.8101587032540978,-0.005578452346629516,0.40972424206587765,-0.419210927666011
16.7,-0.17971251902719687,-0.11372488548164675,2.5641563856829035,-0.04526073631269511,-0.05989506092712151,-0.26307045870764745,-0.10356091810541634,0.11322891388973241,0.9881569512956443,-1.0162897109985352,-1.9462241564617773,4.141946719231133,-3.645479977670794,-1.3711134068543553,1.65583982158395,4.0,0.499676348663234,0.5042670999313232,0.40322992830847526,0.8101586455004802,-0.005604208952668609,0.40974170427317425,-0.4191936279837238
16.8,0.47057169016236977,-0.83806874561694,1.972508226252634,0.017148050455375752,-0.005626682507071024,-0.26637029274700313,-0.10306752475453024,0.11278446051010431,0.9882592367987382,-1.0162691763745715,-1.9461738746225603,4.141917644283566,-3.645498073073347,-1.3711088339435022,1.655825272969688,4.0,0.4996180909312369,0.5043099033644942,0.4032636492424558,0.8101442769691505,-0.005574226594980718,0.4097223296274534,-0.4192407316765069
16.900000000000002,0.3838733438199868,-0.5742628683903825,1.6838540423926696,-0.0033090829307608483,-0.030441212569910926,-0.2616649704692988,-0.102980135692713,0.11274031125552907,0.9882730840669415,-1.0162350736583767,-1.9462172934125201,4.141926716299182,-3.6454558075832293,-1.3711337984182772,1.6558226149541884,4.0,0.4996205005071904,0.5043028462051778,0.4032729245448692,0.8101417904201909,-0.005585228995874771,0.40972223958119486,-0.41924547823966035
17.0,0.2803366028141453,-0.489706001714604,1.0833920538570116,-0.010674369324120173,-0.022403551428718513,-0.2636276771322523,-0.10428100062153861,0.11406492537128662,0.9879845337107404,-1.016288296483739,-1.9461609755219034,4.141918830975958,-3.645483777901946,-1.3711539886525388,1.6558327674865723,4.0,0.49962860537133735,0.5042911653556996,0.4032571424618416,0.810156035249816,-0.005580915016266941,0.4097168987807782,-0.41922322787429317
17.1,-0.12730866245523392,-0.3330045271775248,0.4794300362623336,-0.0017182152128743765,-0.020811319489356807,-0.26439281249358676,-0.10454431312845107,0.11431947337020124,0.9879278898190624,-1.0163240950550294,-1.9461720333820014,4.1419262368236325,-3.6454931698241175,-1.3711201444884016,1.6558179281842362,4.0,0.49963363095451346,0.5042763800530343,0.40327847983310133,0.8101442327286699,-0.005584821311864952,0.40972485063963676,-0.4192382123753953
17.2,-0.022870684907276284,-0.5652806976227718,-0.13520011858231135,0.010243092334594904,-0.020492777762307998,-0.2620710061173791,-0.10435765295286951,0.11411417867866526,0.9879713405874135,-1.0162331962785218,-1.9461634217003962,4.14195043107038,-3.6455037842092706,-1.3711194483286555,1.6557868477075435,4.0,0.4996408226165479,0.5042729016294852,0.403274799293798,0.8101445484518978,-0.005594756120011042,0.4097341537548587,-0.4192283775752993
17.3,-0.0009680240692171611,-0.18750317841968012,-0.0646758323082026,0.02643756652926887,-0.02434492003086539,-0.26071135448062743,-0.10401999784796231,0.11376928043290788,0.9880467111028759,-1.0162689462214254,-1.9461952648558558,4.1419266816131275,-3.6455039848121955,-1.3711088339435022,1.6558181578387048,4.0,0.4996318989168641,0.5042778074612498,0.4032651478523535,0.8101586463212987,-0.005578557954522199,0.40971856576827537,-0.4192165840550406
17.400000000000002,0.13635712324359173,-0.5095036329734031,-0.21949706557855775,0.016276893601964233,-0.025091936981187377,-0.2550053352424106,-0.10440437642292531,0.11415323824500126,0.9879618139452336,-1.01629202002122,-1.9462042878965067,4.141960620880127,-3.645490905205715,-1.3711218649795174,1.6557965278625488,4.0,0.49963812385771583,0.5042685181593055,0.403268605603958,0.810155261032996,-0.005592757521174083,0.40972660121442633,-0.4192150836278941
17.5,0.09126253977180225,-0.42719936384472684,-0.1621400812350164,0.018904721992664405,-0.022442335711113908,-0.25962590539597863,-0.10446387168885699,0.11421934650085143,0.9879479830233883,-1.0162724686675704,-1.9461952648558558,4.14194917678833,-3.6454793605948472,-1.3711088339435022,1.6558442115783691,4.0,0.49963322426883494,0.5042831775748821,0.40326521184788083,0.8101518587011941,-0.005582341818166985,0.4097291217284999,-0.4192193341324057
17.6,0.10818339216357623,-0.3882417672512158,-0.05954673547929119,0.01823495632216529,-0.0221762489734439,-0.2623218151916935,-0.10467354366548946,0.11445281281043983,0.9878986718089225,-1.0162585665363486,-1.946207662621969,4.14194917678833,-3.6454717053974752,-1.3710983121657365,1.655845666695606,4.0,0.4996273510363384,0.5042919652342837,0.40326447369309876,0.8101529185976631,-0.0055804158133349905,0.4097248430279719,-0.4192214933096129
17.7,0.17200919526518174,-0.3342266518355795,-0.08161507743707816,0.024950999225373405,-0.019924169600457533,-0.26236599708822766,-0.105001120678341,0.11480029343845224,0.9878236949463264,-1.0162676286249797,-1.9461965407217499,4.141936295403756,-3.6454692708217773,-1.3711088339435022,1.655785842442767,4.0,0.499637674624976,0.5043011732622477,0.4032440002732603,0.8101588475681614,-0.005593670083877373,0.4097088612271469,-0.4192254782261879
17.8,-0.12959147296738444,-0.7425200955223873,-0.28527571681633823,0.021824827664461668,-0.012210463967950596,-0.26077481210528136,-0.10488372095049378,0.11464891387501315,0.9878537442436414,-1.0162746384827017,-1.9462094768339875,4.141928154817101,-3.645474366333585,-1.371090434721647,1.6558652335495976,4.0,0.49964382862784673,0.504301701672896,0.4032551838824333,0.8101489410603482,-0.0055866738922730995,0.40973388087037244,-0.41922026339446106
17.900000000000002,0.08219241900832436,-0.7010285172767544,-0.2162726445241782,0.02166506732887595,-0.01942805679305428,-0.2556722420047145,-0.10473901418802248,0.11447217088062238,0.9878895886587472,-1.0162950845087473,-1.9462209005877409,4.14194917678833,-3.645456930200094,-1.3711194378356406,1.6557895036066477,4.0,0.49965332717815936,0.5042875154013426,0.40323252966053624,0.8101596370852975,-0.005600333218422427,0.4097316227417991,-0.419201617400308
