xiamingqian9007/apple-picking-rnn/training_data/grasper_20191127_135024_noimg.csv
,/manipulator_wrench.fx,/manipulator_wrench.fy,/manipulator_wrench.fz,/manipulator_wrench.tx,/manipulator_wrench.ty,/manipulator_wrench.tz,/ground_truth.x,/ground_truth.y,/ground_truth.z,/joint_states.elbow_joint,/joint_states.shoulder_lift_joint,/joint_states.shoulder_pan_joint,/joint_states.wrist_1_joint,/joint_states.wrist_2_joint,/joint_states.wrist_3_joint,/mode./mode,/manipulator_pose.x,/manipulator_pose.y,/manipulator_pose.z,/manipulator_pose.rx,/manipulator_pose.ry,/manipulator_pose.rz,/manipulator_pose.rw
0.2,-0.01143571775756308,0.2860268762260804,0.1669463643889769,0.005645612026248179,0.0017193147486708337,-0.011430987686809462,0.06580381666616143,-0.45404606916840795,0.888544411816615,-1.6685063740786383,-1.6902987908731009,4.189041879597832,-3.0139322898783627,-1.3203849919818098,2.256018536932328,1.0,0.4440950022647143,0.45368105284224797,0.31526424221766647,-0.6982511522929022,0.23618314957099948,-0.29306994121715113,0.6089112067742988
0.30000000000000004,0.13627013915648828,0.08233466630027866,0.20432559274324258,-0.013146989282222826,-0.005776213642815479,-0.0033684127455892252,0.0658144107526982,-0.45386217040590254,0.8886373521590961,-1.666359035492516,-1.6923286960232637,4.188586752522886,-3.0139915154916883,-1.3209375623521211,2.255972593918087,1.0,0.4441002082699935,0.45368129597569856,0.3153021072283911,-0.6982347009168142,0.23617173422307872,-0.29308306128777106,0.6089281842515253
0.4,0.1463106638503224,0.015458240443668052,-0.12938214694655276,-0.0002687817923145504,0.0005162138715678069,-0.0018702389017818963,0.06606362091465884,-0.4552529030204605,0.8879077933889148,-1.6622901717381346,-1.6960798006956945,4.187683582305908,-3.014096759517709,-1.3219772869182893,2.255877531738336,1.0,0.44484165622854716,0.4545241394961341,0.31525388122089726,-0.6982132686662628,0.23611864201529348,-0.29304757347480387,0.6089904252381609
0.5,0.040122712469095795,0.22821906261290414,-0.24545166172868732,0.0006778154999831163,0.0017501099232221035,0.0017210763032948456,0.06606560679710267,-0.4554807354218812,0.8877908500154632,-1.6586394494165415,-1.699672186112958,4.186695856411327,-3.0142463554246848,-1.322746684243767,2.2557964178416596,1.0,0.4454998540079914,0.45521721224981626,0.3152944539506034,-0.6981459835648277,0.23608600380722575,-0.2930488410769425,0.6090796016795296
0.6000000000000001,0.44894946497036164,0.059790838863759715,0.025190008459929025,-0.00426819303431419,-0.005404325437287126,-0.007706332103123178,0.06605776332773834,-0.45566233225398384,0.8876982635226114,-1.654993748135457,-1.703301128701743,4.1858257760517565,-3.014392001870564,-1.3234317816719565,2.2557015175577386,1.0,0.44670456407195736,0.4563449472545506,0.3149816778842446,-0.6982309675446596,0.23613738324128153,-0.29307195518178564,0.6089511320980807
0.7000000000000001,0.25762668943565725,-0.139539570340078,0.004671824545896694,-0.0021536044737182525,-0.0009500161404642392,-0.005976450894520704,0.06594003837216005,-0.4557455312043018,0.8876643004308326,-1.6514082076997136,-1.7066845280980878,4.185049416406858,-3.014557477128295,-1.3242908361901105,2.2556406716825403,1.0,0.4474216681055705,0.45699744220132954,0.3149179832581498,-0.6981889736402908,0.23620748889243393,-0.2931131802253727,0.6089522500626925
0.8,0.029031320670866056,-0.09680993541397942,-0.03722473576553669,-0.003071085350301295,0.0020234871171046043,-0.007051211636448845,0.06590210479308951,-0.4556175290690944,0.8877327795861939,-1.64777907590195,-1.7101451005386386,4.184321769976399,-3.014730245536651,-1.3251804660667126,2.255600471665495,1.0,0.44891333544024875,0.45851433157580335,0.31469132255907206,-0.6982113036841324,0.23621351924774817,-0.2931089531249429,0.6089263422864031
0.9,0.21785541187225535,0.06033400983208739,-0.02075130032221363,-9.33018535682174e-05,0.000189553190402688,-0.003058764478122946,0.06597216712301476,-0.4552278217626606,0.8879275217518278,-1.6444992435691974,-1.7132512488374765,4.1836866206851875,-3.0148980825918787,-1.3259375306419048,2.2555174827575684,1.0,0.44958228316522597,0.4592517788698258,0.3146084265391315,-0.6982206711711074,0.23615977753002473,-0.29307736693875497,0.6089516489957015
1.0,0.029272726088172697,0.39016272980827627,-0.021744419964804536,-0.0001346889661325875,0.0033329014319034697,-0.01215015270467792,0.06622611283443945,-0.45583517258356954,0.8875969515049043,-1.6413716382908456,-1.7164362959522446,4.182944374267919,-3.015071485548073,-1.3264470825997055,2.255448971161571,1.0,0.4505173994439699,0.4603463518743837,0.3143229182988171,-0.6983383872761472,0.23610027349890328,-0.2929824679329714,0.6088854007070611
1.1,0.22703623758624172,0.07578306363788409,-0.017142399030142086,-0.0049842523409426515,0.002251493501323856,-0.013304448108638116,0.06596971707837876,-0.4548125573810405,0.8881404079892647,-1.6380423443790197,-1.7190929490162423,4.182193931952529,-3.015239484027806,-1.3270869626865727,2.2553667132529727,1.0,0.4516235471842831,0.4614351192837538,0.3142089537359309,-0.6983023333198479,0.23615055753335618,-0.2930572694484577,0.6088712526307632
1.2000000000000002,-0.26477528198843847,0.5597454588178581,0.06025001776322597,-0.0016682574481704615,0.0028228507283714803,-0.01865641555852001,0.0660014396717342,-0.45595045375984516,0.8875543821657412,-1.6351775916860833,-1.722233636093007,4.181573404763916,-3.0154627529846088,-1.3278758283563297,2.255308325101213,1.0,0.452257700662669,0.4619935649626409,0.31407818256571063,-0.6983161162770868,0.23621060058053966,-0.29306697061058545,0.6088274834944636
1.3,0.19140869298639462,-0.03184795515811534,-0.049980321478118095,0.006873525732855902,0.0010481028408042348,-0.015205947935659799,0.0660124851807779,-0.455572496989104,0.8877477186649303,-1.6318117457499943,-1.7247338285039377,4.180882778018422,-3.0156196738450323,-1.3285991742491368,2.2552690869908045,1.0,0.45302715090417256,0.46282240595648155,0.31406228306597206,-0.6982799396343801,0.23617322909672825,-0.2930507271907331,0.6088912900142469
1.4000000000000001,0.06923587313634909,0.15681993899800664,0.17903775482279377,-0.008900057295937978,0.001593601144693166,-0.014352822842207036,0.06610600949776549,-0.4560679387592342,0.8874861977444037,-1.6292373688764168,-1.7276209898221575,4.180274717099344,-3.015819612854877,-1.3292125509720278,2.255189607425081,1.0,0.45418791358882393,0.4639847904286393,0.31413012995865863,-0.6981672762735611,0.23612745084137732,-0.2930696971966698,0.6090290911647506
1.5,0.07244443827310637,0.15362949790322866,-0.11882836031395565,0.0070587468396911286,0.002855262131088648,-0.011473284903104397,0.06611878336457551,-0.45623993210569586,0.8873968928899424,-1.6262903951054855,-1.7300323668342195,4.179646015167236,-3.0159916648531486,-1.3296960920328629,2.2551395033332082,1.0,0.45466134633183214,0.46445816163330417,0.3140278403394482,-0.6981919567204872,0.23613802834252318,-0.2930454565579356,0.6090083608063802
1.6,0.12535474019891968,0.32123139978342535,-0.08973946879899525,0.012495563684172855,-0.0032721378517811418,-0.01076091748112149,0.06598466649829245,-0.4556853579759312,0.8876918275588355,-1.623601941511243,-1.7327144073704692,4.179076392625668,-3.016202387986854,-1.3302272921014262,2.255109889708054,1.0,0.455429688263756,0.46521178227159066,0.3139087576028517,-0.6981968352707888,0.23617533054200893,-0.2930691671126083,0.6089768926233163
1.7000000000000002,0.2445898163332575,0.0393918972756409,-0.005836069101394669,0.0013255017735834531,-0.0027367201139136647,-0.012505312586678247,0.06585555166703518,-0.4550722941107845,0.8880158646411265,-1.6209040128117298,-1.7350965388955149,4.178532123565674,-3.0163938337755662,-1.330748614740307,2.2550408028937006,1.0,0.4565517447027803,0.46632359864138845,0.31369455477055286,-0.6982273292355992,0.2362000528794692,-0.29310207349738265,0.6089165018619493
1.8,0.358105238895824,-0.007580359844173162,-0.05974915518178222,0.004327173170278029,-0.0045830724649341915,-0.013780761745315749,0.06575686758233537,-0.45418668136748647,0.8884764002196726,-1.618330955505371,-1.7375393681286255,4.178011541453539,-3.0165540643980897,-1.331348721181051,2.2550123427983633,1.0,0.4569703288484756,0.4667542801760724,0.31364265746660147,-0.6982153098327013,0.23620183385335483,-0.2931132511076961,0.6089242127100991
1.9000000000000001,0.28209175075236725,0.02331027191379828,0.15133566870685364,-0.004809190820709506,-0.0011635875769718754,-0.013241590787999285,0.06587203170875691,-0.4546029129279582,0.8882550021131368,-1.6158995003040177,-1.739724706980908,4.177568446464681,-3.016773556589321,-1.3318749134623367,2.254979071074281,1.0,0.45785316045449564,0.467705454405966,0.31355237627775173,-0.698217308970029,0.23616134117604795,-0.2930795551477834,0.608953844509548
2.0,0.003184283738647764,0.22978031355822753,-0.2109345799851974,-0.0020170697554418534,0.0028325444885300803,-0.015074042676410935,0.06598422910812597,-0.4550006153154397,0.8880430423930009,-1.6135092388385237,-1.742132013075909,4.177060265978386,-3.016974727153822,-1.3324192256066794,2.2549491028759148,1.0,0.45829355352571005,0.4681887191601849,0.31347092355932066,-0.6982338411999038,0.2361570811914535,-0.2930454419646286,0.6089529579122808
2.1,0.41044141366377124,0.036175018237622425,-0.13263825811366528,0.00019536492316745064,-0.008367176503669865,-0.013467658663940363,0.06604432752343457,-0.45523318739423585,0.8879194165959627,-1.6110666365861352,-1.74416495625356,4.176625558673973,-3.0171607783275336,-1.3328835966345418,2.254862296784232,1.0,0.45892272887025976,0.4688363224771391,0.3132414350638109,-0.6983331568320023,0.2361378944064027,-0.29302335493311277,0.6088571346039267
2.2,0.30270501775624714,0.17740179687258362,-0.06797768613536809,-0.006112457178932577,-0.007946330283381667,-0.013248314637985552,0.06600890885140133,-0.455272102662731,0.8879020968757473,-1.6089557694923762,-1.7464449320700226,4.1761618193521235,-3.0173553695545006,-1.3332448907905845,2.2548601215617246,1.0,0.45975343513590455,0.46967746844873415,0.3132992158363883,-0.6982288134117489,0.23615527266064962,-0.29303646569826725,0.6089637436557809
2.3000000000000003,0.31891980660047536,0.1716710514221827,0.011418093909156254,0.0034782475909104545,-0.006689143759012794,-0.013327031273071773,0.0659378760631804,-0.45494238285467,0.8880759522232579,-1.6065184542614042,-1.74835895261284,4.175687801922485,-3.0175486883667206,-1.333632845998705,2.2547974586486816,1.0,0.4601534451525085,0.4700669264520315,0.3131669923603667,-0.6982799615085505,0.23617472949402776,-0.2930537964183101,0.6088892057746266
2.4000000000000004,0.29516374731095696,-0.08871175803073852,-0.052097901488054515,-0.0030992092123139714,-0.006156383243855093,-0.01851240007131249,0.06577482689957903,-0.45366021870111334,0.8887437475776618,-1.6045528211987197,-1.7500631740977473,4.1752770823645236,-3.0177665954727075,-1.3340859341656075,2.2547860145568848,1.0,0.46075105782158665,0.47071941431195047,0.31310624376965485,-0.6982619235123885,0.23617496744127747,-0.2930547759552822,0.6089093275822686
2.5,0.17096140390814715,0.0993720317834056,0.05893653993872287,-0.001444080333140169,-0.004586678500750687,-0.01567959724241903,0.06581019720930512,-0.4540336790032282,0.8885504358451438,-1.6022856280894724,-1.7522467028945463,4.174844158670487,-3.0179764233031214,-1.3345422211083557,2.254690647125244,1.0,0.4615195823869701,0.47144947911398927,0.3131022510329237,-0.6982252151227883,0.23616809676733114,-0.2930805565409013,0.6089416773498986
2.6,0.12420579072603778,-0.04021094870586989,-0.23425219883732382,-0.0036168576966164154,-0.0030595399779932914,-0.014652418727371237,0.06590216486412122,-0.4548590630704846,0.8881215821844671,-1.6002974998417803,-1.7539998005468889,4.17442925145095,-3.0181532810766742,-1.334934848252705,2.254668682572948,1.0,0.4619099175930764,0.47184629962160823,0.3129804058237083,-0.698264427313178,0.2361780558026788,-0.2930683660498789,0.6088987176264379
2.7,0.24531047721137955,0.14783792963195755,0.12863454629740556,-0.0034902505352541286,-0.0022897786590568114,-0.0249806156820809,0.06598403679860901,-0.4555414574282038,0.8877656775909935,-1.5985297666640912,-1.7554854241216307,4.174070488120345,-3.018338410863678,-1.3353099209616437,2.254659159536224,1.0,0.46260143812110976,0.4725543706106475,0.3129228962749539,-0.6982362950263196,0.23617186261577727,-0.2930691701063601,0.6089329923314075
2.8000000000000003,0.209597026738013,0.23276277950255905,-0.024752832427570988,0.003503215939608599,-0.001300273634370921,-0.0179687916804322,0.06594473701334,-0.4550581689429771,0.8880162142726975,-1.596458185447374,-1.7573921937080965,4.1737107595830105,-3.018503328362936,-1.3357202087770783,2.2546658515930176,1.0,0.4628865943928137,0.4728153997128711,0.3129218604599993,-0.698230166763847,0.23617062928968324,-0.29307445510853125,0.6089379540188663
2.9000000000000004,0.18138594408507824,0.34895182214422543,-0.11170751684143741,0.0015435339070114312,-0.003376921502491968,-0.013699274280064622,0.06585920602193382,-0.45417971412094765,0.8884722409951101,-1.5946455001831055,-1.7592297993102015,4.173353672027588,-3.01867463379725,-1.33606756264742,2.254581928253174,1.0,0.4634562291521192,0.47343301019277345,0.31291475517111816,-0.6982080146369314,0.23614913805772905,-0.2930586459779857,0.608979295960787
3.0,0.1682887820891814,0.17689728445618078,0.015673315067865776,0.0037760287655250937,0.0008880867948301875,-0.01627369382971022,0.0657557455217468,-0.4532879143616434,0.8889349103434216,-1.5928624303043977,-1.7605899126748954,4.173013484450453,-3.0188336761492467,-1.336385148671167,2.2545676965636026,1.0,0.4640955252195919,0.4741094489459686,0.31267931760238693,-0.69828383601767,0.23615844346653342,-0.2930430124807868,0.6088962693038096
3.1,0.16362163475169256,0.07134809842691035,0.07083050575215004,-0.0043925547603221125,0.0007506787930072356,-0.019027799921264785,0.06566367104186897,-0.4526470478943245,0.8892687535932501,-1.591099739074707,-1.762211081801734,4.172650402024475,-3.0190377879255643,-1.3366664840610498,2.254522420186845,1.0,0.464419368472842,0.4744073270065164,0.3126792597927622,-0.6982593201464186,0.2361672699921192,-0.29305765177462073,0.6089139143996266
3.2,0.19956487399031503,-0.17767383764259745,0.13971440895507575,-0.0030097342310834614,-0.0027957663061256403,-0.01774277041869947,0.0656100157596554,-0.45285289129432843,0.8891679063008572,-1.5894371821824584,-1.7637723003361123,4.172295071559856,-3.0192095241942347,-1.3369744459735315,2.25449640012345,1.0,0.4650224757637891,0.47497970461630834,0.31268799489153914,-0.698200427683481,0.23619146961572968,-0.29308427683972393,0.6089592425874677
3.3000000000000003,0.17644407214319338,0.1443264745974669,-0.06654221414434149,0.004816202682764894,-0.005169118036960068,-0.017737752285310465,0.06569258359908385,-0.45373543059384175,0.8887115924919887,-1.5877252784828768,-1.7651677539234008,4.172017412192233,-3.019341131249899,-1.337279342806685,2.2544831419023907,1.0,0.4653525242648344,0.47529288186921465,0.31263578828028943,-0.6981965907898662,0.23620458825061838,-0.2931021626258515,0.6089499448746283
3.4000000000000004,0.49096346709357674,0.17020211083400236,-0.013578088364478616,-0.0031604968243610226,-0.010308855955596195,-0.014855891727606544,0.06569509341113491,-0.45365698222580597,0.8887515174210767,-1.586202623758746,-1.766558790940939,4.171730040354514,-3.019526860428204,-1.3375628630267542,2.254432679372049,1.0,0.4657887308494906,0.4757672210894704,0.31257976068466975,-0.698210018818203,0.23617568888254536,-0.2931072624961352,0.6089433030051002
3.5,0.3290458412487202,0.10773600999738006,-0.01723485348319135,0.004037321990515235,-0.005987818967255405,-0.01752942706362714,0.06565225292950125,-0.4531090647498308,0.8890342451740887,-1.5846571218571377,-1.7679898299541275,4.171470790111303,-3.0196882687010707,-1.3378883947843476,2.254392069415837,1.0,0.4662934324339406,0.47631397699011746,0.3125259744622268,-0.6982018283634687,0.23618879502884488,-0.2930773107364981,0.6089620266520677
3.6,0.0020506165112311354,0.2032546766550771,0.08344984569356048,0.0006539516349511274,0.0018433269684013454,-0.025108102438902675,0.06564226400017889,-0.45265836789677305,0.889264527875038,-1.58319911796594,-1.7693030153639002,4.171190997403006,-3.0198331239054252,-1.3381627241717737,2.254414019400171,1.0,0.4665304752477554,0.4765630657694795,0.312445847048944,-0.6982338634752152,0.23617428004234695,-0.29307052697116176,0.6089341898463243
3.7,-0.10842249328998188,0.11410668529380198,-0.033844780727071505,0.008302858541321219,0.0012263488766579606,-0.022267146482293325,0.06566555378211804,-0.45280857016294673,0.8891863185705106,-1.5815429989160992,-1.770558702470392,4.1709804384081615,-3.0200105804539166,-1.338415462948671,2.2543430479199635,1.0,0.46690703566365027,0.4769826400416197,0.3123870156380813,-0.6982418930156253,0.23615190189187518,-0.29306487848062773,0.608936380151442
3.8000000000000003,0.2366770594112235,-0.09386147316701751,-0.0080782786378462,-0.0027680425392658144,-0.006435346946911127,-0.021424333377951903,0.06571601364181051,-0.4532382959831056,0.8889636356716762,-1.5802997426258065,-1.771981149056005,4.170666718633891,-3.020157648618891,-1.338717174134006,2.254360066445748,1.0,0.4674365159441975,0.4775359669461792,0.31244795237319967,-0.6981741392675592,0.23615903583985828,-0.29307328148533834,0.6090072517865504
3.9000000000000004,0.2529644495432047,0.13681961755665514,-0.006419968930702805,-0.0018807958069406838,-0.0008124547757923559,-0.0190536014661965,0.0658211452380544,-0.45372731140108796,0.8887062473367852,-1.5791282630680772,-1.7731232073157648,4.170431618547683,-3.0202819332758155,-1.3389718348508708,2.2543187141418457,1.0,0.4676689551131352,0.47779245004255794,0.3123052908648693,-0.6982403241844648,0.23614551945809267,-0.2930551399361701,0.608945340962252
4.0,0.08247312478199936,0.14442909072535817,-0.025143757184587855,0.0009538778488752241,-0.002178072738951789,-0.018550621151623772,0.06587119274028587,-0.4538229245896278,0.8886533674935725,-1.5776045822298164,-1.7742119200840658,4.170223338820862,-3.0204471400658446,-1.3392398693671421,2.2542800603870186,1.0,0.468013141568957,0.47812631873485223,0.3121081847421495,-0.6983373600159188,0.23615159154986298,-0.2930340051802085,0.608841875385152
4.1000000000000005,0.04673872943705671,-0.09750138396107866,-0.03835649941833506,-0.0004966049538184759,0.003312886491178804,-0.02078594165926202,0.06566044208737729,-0.452055956982276,0.8895687424305543,-1.5760533839452144,-1.7753629391533419,4.169957884525911,-3.020616922728578,-1.3394869571492718,2.25425527815887,1.0,0.4684678709535001,0.47861009682469424,0.31217892478003867,-0.6982616963731328,0.2361380414883653,-0.29304090085220497,0.6089305864939633
4.2,0.09523676684305135,0.0333242848424716,0.07670728849302091,-0.004309903654743474,0.0015033027939176657,-0.017110988218630278,0.06528177264980152,-0.44881235450593177,0.8912281705655706,-1.5748806078146032,-1.7766909527107122,4.169675688369655,-3.0207842095808446,-1.3397033545964174,2.254214649746332,1.0,0.46873682815229845,0.4788772613755306,0.31227515872221173,-0.6981922108956066,0.23613626517055272,-0.2930478711771908,0.609007591179719
4.3,0.13262988492008407,0.12851353370942079,-0.09576233499577119,-0.004830123619639669,0.0024369641816612596,-0.017170838549901958,0.06481890356134462,-0.44482832182283916,0.8932606898924724,-1.5736443775362081,-1.7780747897705793,4.169459882515139,-3.020944152704517,-1.339937364653522,2.2541891398776897,1.0,0.4691772083867045,0.47932779447743423,0.3120954716183196,-0.6982645540831903,0.236135044132659,-0.29305008664568377,0.6089240512251328
4.4,0.1371020709076732,-0.14751136106197812,-0.03090900218877706,-0.010328252815525392,0.0004199370072636764,-0.021502548229084636,0.06257964588187852,-0.4259780736255129,0.9024525774588216,-1.5721549437668028,-1.7790297173724414,4.169156858820439,-3.0210501312730247,-1.3401593950828476,2.2542338252695644,1.0,0.4694003203093677,0.4795591021239471,0.31195245407619226,-0.6983308077853448,0.23613783555691767,-0.2930386351868224,0.6088524975757318
4.5,0.14606119863829128,0.0990053769217403,-0.08673616677427368,-0.00011506081283606077,-0.0029573910093223434,-0.01643489385613197,0.057461855313089796,-0.3834581104187843,0.9208189139009259,-1.5706655134663972,-1.780114921987186,4.16894711698153,-3.021264637345908,-1.3404266150140765,2.254203055579869,1.0,0.4697670918704208,0.4799281471698755,0.3119508555650352,-0.6982970464671426,0.2361608122056083,-0.29302810999324413,0.6088873725307826
4.6000000000000005,0.03406817453220444,-0.039549596360334366,-0.02428770876696911,-0.0010646263072263571,-0.000287074889173084,-0.027058977032189912,0.052085385962840895,-0.3389184771279501,0.9393728593408066,-1.5694332122802734,-1.781276279289192,4.1686564054765425,-3.0214008872380815,-1.3406455292240065,2.254172449375119,1.0,0.4702474296485736,0.4803849792679884,0.31214734558436263,-0.6981544946875927,0.23615914306116473,-0.2930877386125014,0.6090227731137303
4.7,0.4535013570417504,-0.2512676059305716,0.005699606254543507,-0.007262972270161796,-0.007214445574680627,-0.02184774649465747,0.052072418966939676,-0.33870209147799685,0.9394516131646563,-1.568234317797288,-1.7827912293615644,4.168427137354173,-3.0215682230021716,-1.34089854831761,2.254150468882493,1.0,0.47048732374127517,0.48060964071247575,0.3120752982833017,-0.6981823099570766,0.23616874862273382,-0.2930894377908808,0.6089863427798673
4.800000000000001,0.3856094937485505,0.08660207848636277,0.12083952390691999,-0.0023641907352574725,-0.012343913207058408,-0.01982411202458741,0.052136460927468105,-0.33925496509103575,0.9392480029109661,-1.566682958705894,-1.784032772317997,4.168191073151953,-3.0217484334884124,-1.3411499261631743,2.2541158097763554,1.0,0.4709304254330677,0.48107577070702223,0.31173961343448503,-0.6983343229850612,0.23618199965437514,-0.29304290656338006,0.6088292792673027
4.9,0.3567177535526683,0.2847492434983451,0.06537852408170376,-0.0029310512192335203,-0.015038321741410473,-0.01661504004304852,0.05224800099919206,-0.3402823076971088,0.9388702342090327,-1.5653075376944439,-1.7849968215678889,4.167927702257867,-3.021922556520454,-1.341414753590719,2.2540908165171913,1.0,0.4711832581494183,0.4813085210456544,0.31169715605938797,-0.6983380127448555,0.2361938852694905,-0.2930506163250496,0.6088167251220826
5.0,0.3382650338997143,-0.2884924667143605,0.074868183053252,-0.003767562532471535,-0.007793810988700829,-0.019088268323544055,0.05232981779240821,-0.34109145455158324,0.938572284761831,-1.5638992125634232,-1.7860237488859076,4.167660236358643,-3.022095045360663,-1.341690124216755,2.2540432889674307,1.0,0.47153119825277,0.48165785436056185,0.31186575505453595,-0.6982288993658898,0.23617126636390376,-0.29307010019483504,0.6089412561209473
5.1000000000000005,0.27321622584262495,0.4035019343744363,0.02035256019161555,0.010388879978068899,-0.004612419326079557,-0.02412280726493311,0.05239185320599992,-0.34172198274087057,0.9383395796513759,-1.5626302570663781,-1.7872860431032993,4.167433261871338,-3.022265177226189,-1.3419060789108164,2.2540661886054827,1.0,0.4719928304416545,0.4821031859440004,0.3119319190260903,-0.6981661271645576,0.2361684855072403,-0.2930951665097855,0.6090022403093935
5.2,0.08921638093164988,0.07589243590844927,-0.29528649800493323,0.004848326189594387,0.0026743174919864024,-0.02003157693101289,0.052452999828714056,-0.34201719780786294,0.9382285820640421,-1.5611906567781653,-1.7886562231438128,4.167168192025968,-3.0224077682879553,-1.3421229044148886,2.2539831716558907,1.0,0.4722086948414907,0.48234048336229673,0.31186808563805635,-0.6981943388695907,0.23616865759591935,-0.29307268123985725,0.608980651458384
5.300000000000001,-0.024843839932465778,0.17505933819310748,-0.06799250437562847,-0.0019562200187748786,0.0011477144816655909,-0.02451172405140985,0.05243109507475269,-0.3418297478842742,0.9382980473545803,-1.5598249435424805,-1.7899449540035226,4.166891887964013,-3.02259701197059,-1.3423951496532402,2.2539951265615064,1.0,0.4725608472089665,0.48272209352265544,0.31170826192455053,-0.6982434090577269,0.23617083445156123,-0.29305068670593803,0.6089341291823567
5.4,0.04837300341242952,-0.041514495102744894,-0.04735743545160802,-0.006309213069891728,-0.0013170729873086574,-0.01960002788396713,0.05226805343463283,-0.34058858098207706,0.9387518228171473,-1.5584248689850806,-1.7909506536413717,4.1666533752172885,-3.0227439852481854,-1.3426387225571519,2.2540187533950253,1.0,0.4730775981493801,0.48323844367880453,0.3116317776681555,-0.6982372897384043,0.23618234995819004,-0.2930672588277088,0.6089287040288116
5.5,0.16666047093411462,0.03310169973304619,-0.21752188338129064,-0.0019505856306565907,-0.005983514470593811,-0.0224148258842833,0.05108125841718039,-0.33047309671513136,0.9424025687424608,-1.5570347946558987,-1.792080759198736,4.1664614146601915,-3.022900501045795,-1.3429023814004994,2.2539592810067304,1.0,0.47331289473211324,0.4834768228538343,0.3116642273904973,-0.6982168864544787,0.23616330508379396,-0.29307685410991086,0.6089548672822565
5.6000000000000005,-0.13088889975370097,0.33816769182353074,-0.24198076952392733,0.009104713712161434,0.003484204757912177,-0.024878509365326488,0.05018144124198672,-0.3230881951842527,0.9450287993491283,-1.5556573490896624,-1.793402366163799,4.166245937347412,-3.0230800176890567,-1.343106095242133,2.2538991100060013,1.0,0.47370163620227784,0.48388302505979114,0.31167985282828037,-0.6981873413573664,0.23616138596912228,-0.293070674056298,0.6089924598495968
5.7,-0.07796847663607118,0.16819242052638184,-0.12062867739200264,0.004206640599336154,-0.0006528861261776622,-0.025200175649475725,0.04945326440574975,-0.31737770383740377,0.9469956061231982,-1.5543512118322378,-1.7946510892542986,4.166016628932217,-3.023259910789777,-1.343345730791813,2.253864238072177,1.0,0.47392643482287566,0.48410199831081235,0.3116186416807107,-0.6981903985496292,0.23618145510463776,-0.2930875570208782,0.6089730466591273
5.800000000000001,0.12393724926561031,0.27433795797426064,-0.15020791517069723,-0.0008756133974552128,-0.004281586795160374,-0.02440193771133928,0.0476356477547724,-0.30210111274357754,0.9519470493943478,-1.5530349460729282,-1.795829625814535,4.165790916497243,-3.023464532583334,-1.3435262430816626,2.253922884746117,1.0,0.4743171889478934,0.48453638998469106,0.3114565421169732,-0.6982561139206481,0.23617292876996215,-0.2930645242308855,0.6089120886679605
5.9,0.19666909650946335,-0.10519181981537198,-0.27169883659149324,-0.005401994000121333,-0.0058137274701023775,-0.020164489077910012,0.04593708956203239,-0.2878297582298586,0.9565764546949763,-1.5515343096276348,-1.7969834670815155,4.165527038454005,-3.023632579903145,-1.3437543774314313,2.253887392608262,1.0,0.4747758303901117,0.48500299305797856,0.311430173187089,-0.698239551300953,0.2361696306824803,-0.29307208345190844,0.6089287219728611
6.0,0.2101687447134894,-0.0828465064638745,-0.31279034880283896,-0.003433315506997591,-0.002315664576733563,-0.018127237222689312,0.04697388151495912,-0.29665356273747245,0.9538070861275675,-1.5500517247353653,-1.7981256687620248,4.165299009926053,-3.023812984259978,-1.3440068774529363,2.2538627836781533,1.0,0.4749782694174766,0.485195420246727,0.31140599010087994,-0.6982377724010542,0.23618053196236674,-0.2930744605527279,0.608925389588999
6.1000000000000005,0.12203473754668429,0.026805219089325462,-0.2463123979095,-0.00010614553304582176,-0.002308053860870248,-0.02437070601326548,0.04781276360469405,-0.3037242794500873,0.9515549573594457,-1.5488297799722608,-1.799399038354391,4.165118441929048,-3.0240172158364973,-1.3442342917071741,2.253827693009555,1.0,0.47535515296382097,0.4855912698480368,0.3114805624252103,-0.6981661022771845,0.23618283019985462,-0.2931008917285317,0.6089939503950839
6.2,0.2993429901816711,-0.05307733524235596,-0.09515162357468829,-0.009238971474983513,-0.007272150125854447,-0.021063514667997513,0.04836415956751522,-0.3081667104782266,0.9501003161738323,-1.547601359330673,-1.8006003425824773,4.164870106984625,-3.0241640325171795,-1.3444353467387216,2.253809111558456,1.0,0.47580790512966264,0.48606660029734594,0.31126547752691774,-0.6982652185113987,0.23618116894748406,-0.2930671692970499,0.6088971787847627
6.300000000000001,-0.003182478058085303,0.08196314025436355,-0.2220295086628891,-0.0007097136475939288,-0.0011508806381830064,-0.025296758267770884,0.04874604182452389,-0.31108220002287856,0.949131229560444,-1.5459653161365459,-1.8017309346048633,4.164627877126189,-3.0243900391259384,-1.3447383085833948,2.2538033919135194,1.0,0.4760565109479595,0.48633280840324666,0.31121773490413923,-0.6982702803188248,0.2361706454608924,-0.29307547303176396,0.6088914590904217
6.4,-0.029498425703410804,-0.04837353423633929,-0.10556969602841285,-0.0058861559502153046,0.00033025655205184295,-0.025946290353713115,0.04897820898043104,-0.31293010782410413,0.9485121999287071,-1.5445167224540564,-1.8031234546370154,4.164389355840018,-3.0245938898654,-1.3449543158160608,2.2537802695782543,1.0,0.47648534946215343,0.4867917704394935,0.3112985367679688,-0.6982049872797087,0.2361575507719332,-0.2930662904057145,0.6089758257755201
6.5,0.22640935441056653,0.06596508911390297,-0.3567734418113472,0.004846714565840099,-0.0049992909320856265,-0.02040321352824995,0.04914554691458668,-0.31416101505185906,0.948096424110811,-1.5433069387829217,-1.804253611164834,4.164184093475342,-3.0247382433896863,-1.345206686186062,2.253707784385497,1.0,0.47677692779555053,0.48709396607832317,0.3112315096550188,-0.6982258713688893,0.23615574849959875,-0.2930748984538397,0.6089484369780589
6.6000000000000005,0.2501359050338943,0.3423186728528022,-0.190564912090263,0.0026678519805867803,-0.007396573658110544,-0.021749623225439885,0.04933559329951957,-0.31530775540247624,0.9477061520761961,-1.5420126407753167,-1.8053832153860059,4.163931940716461,-3.0249551099675913,-1.3454466703709953,2.253719672195155,1.0,0.4771620246110233,0.48752074985388033,0.311064037263362,-0.698290296003125,0.23614300609077396,-0.29303884872562996,0.6088968519542847
6.7,0.3484882918505204,-0.012310682752047379,-0.2752543290091583,0.002160338901893934,-0.00403709785611924,-0.025649838637525776,0.04911293751745367,-0.31380546597535564,0.9482161913897028,-1.5403223487450375,-1.8064666737402129,4.16367983224481,-3.0252422804100387,-1.3457233451227337,2.253683754556901,1.0,0.4773985089847958,0.48771381494407634,0.3110702638935171,-0.6982689771790085,0.236157669833918,-0.2930533363876714,0.6089086405365338
6.800000000000001,0.4321757392477012,-0.2227072202329234,-0.2527701588651082,-0.004528317333801272,-0.008162026949288316,-0.02558578491272143,0.04867130739444741,-0.31067637636185147,0.9492685649116435,-1.538826222879807,-1.8078483526592897,4.16344091608032,-3.025471346315995,-1.3460105101214808,2.253683074713828,1.0,0.4777612784359273,0.48800642933404936,0.3111749253151813,-0.6981955700104666,0.23617104668722746,-0.2930894712153398,0.6089702329236887
6.9,0.17283770056743347,0.022185208476112384,-0.13188005658775032,-0.0009211624800615006,-0.003229898444121683,-0.02152710430420354,0.04881569543774477,-0.3113069626006489,0.9490545557248884,-1.537658924554021,-1.809140327901172,4.163230323243168,-3.025638503208667,-1.3461843911524554,2.2536535781640032,1.0,0.47814454497257064,0.4885213138775998,0.31111358866688055,-0.6982270788491474,0.23611199996066726,-0.29305078965754294,0.6089756189844144
7.0,-0.06649916507072033,-0.02300064036621787,-0.006187203895346837,-0.0034554118889868683,-0.0005390380952610904,-0.025043770796614982,0.04890067676490894,-0.3116948546631668,0.9489230688834006,-1.536329809091866,-1.8101635639949896,4.162926197052002,-3.025780524511036,-1.3464543798829485,2.2536349296569824,1.0,0.4786063306876046,0.4889582040361903,0.31080038558960577,-0.6983575823654451,0.23616621036504445,-0.2930186095279771,0.60882041909318
7.1000000000000005,0.04284147206062153,0.17636849437049698,-0.20522776857997108,-0.0102164146822908,-0.008539102090181255,-0.02306199572692859,0.04883821402037066,-0.31137197057396643,0.9490322973515255,-1.5363537172066588,-1.810098340826482,4.162924995751328,-3.025829931298727,-1.346439365883311,2.2536123391539413,1.0,0.4788089150568585,0.489131716460584,0.3108392939472232,-0.6983170172084483,0.2361635631373021,-0.29303154372336276,0.6088617489270388
7.2,0.1175365192724683,-0.025740610372465778,-0.2350970571066483,-0.006142236019600221,-0.0004803168814835751,-0.022864178963054767,0.04878154566776299,-0.3110140597660851,0.9491525333520383,-1.5362465396829736,-1.8100885290288808,4.162950867815781,-3.0258412602196496,-1.346416900148717,2.2536233607967384,1.0,0.4789061831397488,0.4891916570710194,0.3109155745570833,-0.6982732971932701,0.2361724949671829,-0.29305667621992676,0.6088963290829927
7.300000000000001,0.41654741061980743,-0.21393890680117988,-0.18355250984414606,-0.010521717287533688,-0.007560890158715799,-0.02255877922615485,0.048753262653256815,-0.31100932940660797,0.9491555215130003,-1.536210060119629,-1.810100790984914,4.162938694958644,-3.025817826251083,-1.3464166790912995,2.253587438519103,1.0,0.47891594012993205,0.48925191166535575,0.3109608179269046,-0.6982576214793147,0.23615476679507225,-0.29303634405944673,0.6089309658953872
7.4,0.15303461461739926,0.39719578926654364,-0.312956658931782,0.008197999978597055,-0.002413786767265117,-0.023933461650137357,0.048755646117426395,-0.31129585058036896,0.9490614806546646,-1.5362097432043587,-1.8101488552489222,4.162938169484463,-3.025841639560856,-1.346429173146383,2.2536349296569824,1.0,0.4789514764505434,0.4892338385283234,0.31098885064367565,-0.6982306534179932,0.23616807875284712,-0.29307805650480095,0.6089366518785353
7.5,0.13648997956816572,-0.2251299681761577,-0.3516690904706501,-0.0055932795659245915,-0.0006382638733660693,-0.02541985525095317,0.04871874438990934,-0.31085564216177575,0.9492076721852225,-1.5361965185588664,-1.8101193898620134,4.162913190516742,-3.0257920641294294,-1.346386159285245,2.2536110877990723,1.0,0.47894293372797525,0.4892457912530068,0.3109768996168929,-0.6982388971387297,0.23616145045669865,-0.2930713342686534,0.6089330052400427
7.6000000000000005,0.2573856678146085,-0.18100317160328602,-0.12021004094335219,-0.008982978410893678,-0.0053109187010296315,-0.027443334090577646,0.04876960873805181,-0.31127350039127166,0.9490680231085168,-1.5362096244779762,-1.8101479246183758,4.162926886817952,-3.025771220272826,-1.3464167753802698,2.2536464198363193,1.0,0.47896111049780166,0.48924707741958906,0.31096250627345706,-0.6982343466073323,0.23618603605840055,-0.2930674203073035,0.6089305713653027
7.7,0.3355809184968585,-0.08250852485237076,-0.2178803800665428,-0.007990524982379864,-0.009552971874916752,-0.023494636514616495,0.04883706476970401,-0.3118257842763829,0.9488833039294187,-1.5361625394790281,-1.8101607761778773,4.162903118613985,-3.025805272863618,-1.3464048544513147,2.253611767279154,1.0,0.47893616203125267,0.4892551846686218,0.3109761070182689,-0.6982376336376125,0.236164809621988,-0.29306924093647574,0.6089341587440102
7.800000000000001,0.21130814574476636,0.08191578377354186,-0.1066261061786718,0.00266824836044002,-0.005409886346820182,-0.028743283700244395,0.04890221286868693,-0.3122977272491977,0.9487247450576309,-1.5361872792591507,-1.810184278179255,4.16292631331871,-3.0258056126036585,-1.346429173146383,2.2536237091550095,1.0,0.47894446670426394,0.48925669244021625,0.3109903902211338,-0.6982261538176684,0.2361649328258933,-0.2930609639411219,0.6089512575257786
7.9,-0.10938393047967732,0.28850517741783,-0.23473638198854302,0.00227230607247727,-0.00030418599487222323,-0.028923987309319475,0.048812701841667944,-0.31180020058707436,0.9488928416391867,-1.536198616027832,-1.8101368389983796,4.162950731547259,-3.0258175335326136,-1.346429173146383,2.2536349296569824,1.0,0.47894983977552913,0.48925707222726417,0.31095828997937686,-0.6982408617714544,0.2361660162645498,-0.2930713320712347,0.608928982749533
8.0,-0.08388599860435997,-0.018276438419232027,-0.36367491731534657,-0.004850083969296635,0.00205967442758922,-0.020962115972018965,0.04873347949873774,-0.31123008528839574,0.9490842201940812,-1.536198616027832,-1.8101364663019186,4.162926197052002,-3.0258175292095206,-1.3464048544513147,2.2536473101307237,1.298598727299359,0.4789610603532469,0.4892430288362618,0.31097137747342446,-0.6982294901462089,0.2361747364998591,-0.2930818123568327,0.6089335958830174
8.1,0.21567984203348528,-0.03721595545768101,-0.2831388784622428,-0.004006645194533029,-0.0038607188344885104,-0.024536090365295173,0.0487548020191884,-0.3109840679326962,0.9491637694333148,-1.5361871719360352,-1.8101726657090733,4.162914731477528,-3.0258175335326136,-1.346381033249825,2.2536587095456313,2.0,0.47894154873548767,0.4892660323554616,0.31094231526992905,-0.698248342006304,0.23615519335924579,-0.2930593817132656,0.6089303542481219
8.200000000000001,-0.0025479193218007623,0.09406882232694483,-0.2822691834197069,-0.00020211499337852374,-0.0009113015154879186,-0.029668498965503668,0.04858286659849259,-0.3097695622329851,0.9495694393103338,-1.5362217913883478,-1.8101371373101514,4.1629036287871575,-3.0258292514713845,-1.3464045212026174,2.2535892454333455,2.0,0.4789591975739965,0.48923944215913096,0.31094022564017565,-0.6982548972243389,0.23616976569875647,-0.2930755151415892,0.6089094207651206
8.3,0.3755876281485604,0.13398347630339336,-0.16423659655230916,-0.0004886100827411716,-0.01067571185248982,-0.021641549949208028,0.04868761419139045,-0.3105308301219293,0.9493154187552901,-1.5361988577289538,-1.810148745797469,4.1629146369436665,-3.02578201244687,-1.3464048544513147,2.253646844020852,2.0,0.4789508755482477,0.48926199745495236,0.31098158835320416,-0.6982266268641407,0.23616188855519724,-0.29307229843296645,0.608946440849427
8.4,0.21727251561715766,-0.022610156722792762,-0.18350742019183128,-0.010894869379493388,-0.0038806692404558924,-0.026434456543082654,0.04865755491058023,-0.31013819352931066,0.9494454104687498,-1.5361864496777942,-1.8101734098616755,4.162914752960205,-3.0257586494788167,-1.346416537795322,2.2536005940470663,2.0,0.47894485206275555,0.48926786432084973,0.3109526226286401,-0.6982468665470446,0.23615619151913936,-0.29306431143617223,0.6089292864749172
8.5,0.1144331042579365,-0.05503830401837694,-0.17693734653732957,-0.005199818483191298,-0.003443147931375839,-0.026021214533728743,0.04873801462547865,-0.3107754877488561,0.9492325546713841,-1.5361511747055858,-1.8102077024137784,4.162890482614055,-3.0258291637190755,-1.3463926810290532,2.2536473274230957,2.0,0.47894021105621726,0.4892700536188968,0.31095597488444093,-0.6982454060235674,0.23615307865776736,-0.2930673447459742,0.6089307085793804
8.6,0.17681404996004885,0.16636328867062464,-0.352602887992361,-0.0019936778723848355,-0.0059612635000824855,-0.028348773223895157,0.048808529913924974,-0.3114118454127345,0.949020673819306,-1.5362083040558687,-1.8101726971068324,4.162904417961309,-3.025838363206264,-1.3463935111749123,2.2536234855651855,2.0,0.4789503013618133,0.48926678532764944,0.3109542182645181,-0.6982447847086641,0.23615529258140566,-0.29307003447795776,0.6089292678990148
8.700000000000001,0.4508587635811343,-0.08831225533338569,-0.31965947129894573,-0.009226529104723916,-0.006556284256260607,-0.02664765030765279,0.048707100015289634,-0.31077698336725856,0.9492339760820624,-1.536162469516664,-1.810148770261697,4.162903200236744,-3.0258060044535915,-1.3463934223648504,2.253623679550301,2.0,0.47896236668653996,0.48924903180733076,0.3109635285845222,-0.6982407742403185,0.23616675101484058,-0.29307755799355095,0.608925801640817
8.8,0.1370703840656473,-0.13278541142700936,-0.27872892046374986,-0.007798749543079277,-0.0023401171731937025,-0.028487224720088217,0.0486820081046306,-0.3106379102631865,0.9492808596082528,-1.5361871719360352,-1.810196051507603,4.162924247223444,-3.0257946665889826,-1.3463934209794992,2.2536583035560387,2.0,0.4789566147488865,0.4892559073195026,0.31095654892541996,-0.6982385799293316,0.236175151613665,-0.2930690318681808,0.6089291632188262
8.9,0.23034557446909465,-0.20749717471807888,-0.23144621398869678,-0.007170908090018356,-0.006535140620659755,-0.026020826096413943,0.048673123409338936,-0.3106328703938515,0.9492829626399725,-1.5361405303639215,-1.8101837562052776,4.162904148019168,-3.025829931298727,-1.346405137948193,2.2536231907284323,2.0,0.47894957787306325,0.48925584346187284,0.3109552963779937,-0.6982397616009147,0.2361827976266422,-0.29305635581813705,0.6089309433255495
9.0,0.2086911620864726,0.03501891500534117,-0.36998407052780935,-0.008875643132664443,-0.009312732783737548,-0.035955498535256133,0.04863576391509123,-0.31053438083983004,0.9493171001622638,-1.536210060119629,-1.8101709787092255,4.162933508361199,-3.025798915603428,-1.3464202809113877,2.2536587715148926,2.0,0.4789684443161728,0.4892440595021387,0.31094860732249086,-0.6982418975321245,0.23618573324629583,-0.2930751154353892,0.608918326751775
9.1,0.006796565567356805,0.06209952511273244,-0.4628352072527184,-0.012347811551743262,-0.005843336719829675,-0.02871662424935611,0.048597017240880794,-0.3102168293102289,0.9494228493709891,-1.5362186363136736,-1.8101846180357875,4.1628899574279785,-3.025804321532014,-1.346415484308625,2.2536234855651855,2.0,0.47898048070075955,0.48923344282320586,0.3109698657920534,-0.6982250050850551,0.2361988454099211,-0.29308307330642963,0.6089287805993844
9.200000000000001,0.011634804709427456,-0.12483728630106647,-0.41153622172124366,-0.016433909404084297,-0.0049368022033573645,-0.030513344434565878,0.04858984635863846,-0.3100838678812906,0.9494665891730917,-1.5361865646110093,-1.8101613184323646,4.1629043499970235,-3.025816449023639,-1.3464167753802698,2.2536132568170215,2.0,0.4789698968730612,0.48925548731502766,0.310969302086718,-0.6982296339366321,0.23617622775213828,-0.29308047241223223,0.6089334975414883
9.3,-0.11234249637661586,0.010943436102721388,-0.3659537449100864,-0.019033916950005413,-0.002193622489018828,-0.028450632443181308,0.04869869889637468,-0.31091329566316644,0.9491896971952077,-1.536173858458674,-1.8101846273404611,4.162914733606484,-3.02581752422794,-1.3464048637559884,2.2536111064084197,2.0,0.4789741485599512,0.4892480765828409,0.31095399308830984,-0.6982371768156385,0.23617984537797584,-0.2930770825672341,0.6089250768556349
9.4,0.021655535778597027,-0.13843204003002513,-0.29009400642907873,-0.017121875851734022,0.0015290781403776734,-0.027296903058113494,0.048762697032352004,-0.31117196990865176,0.9491017875202513,-1.5361742062285162,-1.810173068003862,4.162914367227295,-3.0257936916747035,-1.3463931189708744,2.253623856462215,2.0,0.4789584499943841,0.4892460920804214,0.31095164142778065,-0.6982433620993947,0.23617070496990478,-0.293073322198837,0.6089233393568423
9.5,0.096472240998366,0.1647541894175593,-0.09924020769395021,-0.014386810720650744,-0.004867878623355354,-0.026085222395769166,0.048796996259232235,-0.3112020946824735,0.9490901474810672,-1.536162321118341,-1.8101607761778773,4.162914868138262,-3.025793866745351,-1.346416717791241,2.2536236007432433,2.0,0.47895470000960183,0.4892645589642269,0.31097322017970624,-0.6982348600253061,0.236157806869186,-0.2930591307822993,0.6089449206334678
9.600000000000001,0.09967649907006504,0.06462964247997177,-0.24237595985834978,-0.014162631356662882,-0.005123424456607683,-0.026748229522683332,0.04878699501692148,-0.31127048313204386,0.9490682343510936,-1.536210060119629,-1.8101726971068324,4.1628899574279785,-3.025805668014438,-1.346440981037348,2.253647269795885,2.0,0.4789573487415152,0.48925180602585344,0.310957496977889,-0.6982438342581219,0.23616804672508548,-0.29307212452687254,0.6089244053672666
9.700000000000001,0.08754202946098436,0.43031075550795705,-0.2555014814741833,-0.01998600098417813,-0.006319347909404463,-0.02126840327690771,0.048706937869859544,-0.3108943951734206,0.9491954959033921,-1.5362211807015314,-1.810150883657716,4.162905666746951,-3.025796147798186,-1.346395389645842,2.2536448712996133,2.0,0.47893966577801467,0.48927589018508033,0.3109201124057098,-0.6982745112774665,0.23615236257611527,-0.29305694957662476,0.6089026136048172
9.8,0.5254737273033093,1.0025687482603216,0.014373557496312972,-0.11918416576666377,-0.009514695976691634,-0.020493154188510585,0.048594236125172274,-0.3102067679340759,0.9494261385904482,-1.536176087905433,-1.8101717936857293,4.162915638667169,-3.025829931298727,-1.3464052973047966,2.2536115483666936,2.0,0.4789666391461262,0.48924347154310527,0.3109603761973888,-0.6982349364061888,0.2361804436822471,-0.2930874251998914,0.6089224357778256
9.9,0.18129940528196758,1.0025333248630492,0.023161391371891812,-0.1068145923982934,-0.010047131517703837,-0.02621403511139904,0.04848045478297478,-0.30901926376656996,0.949818990672228,-1.5361999526344232,-1.8101846180357875,4.162912721318186,-3.02584073381936,-1.346438394130024,2.253648664029687,2.0,0.47895403707063494,0.489258520143142,0.31095465152277396,-0.6982383766227469,0.23616465314029125,-0.29308070056395896,0.6089278520278868
10.0,0.6075047356248755,0.9968038724248031,0.08276233737065508,-0.12108097783573281,-0.023673589607125938,-0.011043912159838206,0.04848904365345301,-0.3090951784663355,0.9497941090409094,-1.536153225357812,-1.8101726971068324,4.162890802234326,-3.0258183179956504,-1.3464048544513147,2.2536234855651855,2.0,0.4789573642962671,0.4892430631365943,0.3109545846704837,-0.6982485246452012,0.23616789369920693,-0.29308468545737176,0.6089130405623067
10.100000000000001,0.4540646155818889,1.326134480109346,-0.05809560098264142,-0.12400329737393105,-0.005484099746166766,-0.017881650935246775,0.048528965804795064,-0.3092504390404435,0.9497415963181413,-1.5361617627938104,-1.8101939566893333,4.162903308868408,-3.0258279882003993,-1.346406158372561,2.2536336513028195,2.0,0.47896637969171796,0.48924431191416234,0.31095279569818385,-0.6982443214167416,0.23617823995887804,-0.29307628418310416,0.6089178912042453
10.200000000000001,0.3459284635306854,0.7420863116829083,0.015125005332770683,-0.10632208989143632,-0.03372990303246505,-0.023728619480189804,0.04854392555046399,-0.30941616980340275,0.949686838383852,-1.536198616027832,-1.8101730494114174,4.162926027945801,-3.025817357380321,-1.3464164230756848,2.2536114401036573,2.0,0.47895746967217556,0.489253815185974,0.3109513736015301,-0.6982474286254459,0.23615710374461032,-0.29308077243042535,0.6089203655655603
10.3,0.028119502349973284,1.8123242804248798,0.2434667238983124,-0.14240414373984947,-0.005433754379638323,-0.013088396430190344,0.048552018099990484,-0.30956101350316406,0.9496392366616778,-1.5361750082761423,-1.8101851890841225,4.162879701116719,-3.0258146554490053,-1.346427437159445,2.253602476107017,2.0,0.4789637404381198,0.4892475604779086,0.31094431408687473,-0.6982464871900904,0.23617318637206458,-0.2930871863381552,0.6089121203999379
10.4,-0.12594300469271383,1.1932868549349829,0.7772260718359721,-0.10516628698030758,-0.014631707419838384,-0.013749643348871472,0.048564943367772284,-0.3096262376016744,0.9496173026644674,-1.5362089089602295,-1.8101965389647425,4.162913965324827,-3.0258291588101827,-1.3464163967094147,2.253623849089206,2.0,0.4789606718838154,0.4892621775720042,0.31094637019503213,-0.6982470381536767,0.2361701765912325,-0.2930725274951081,0.6089197114777228
10.5,0.21731384250618052,0.7053016285550628,1.1030340869937802,-0.09163141077138631,-0.01772242716046439,-0.01097338351333877,0.04862036476375864,-0.3099238623034064,0.949517359064756,-1.536198616027832,-1.8101622247830476,4.162903308868408,-3.0257936916747035,-1.34639637836571,2.253640437736395,2.0,0.4789560948613523,0.48926809567693436,0.31094876886256556,-0.6982443663049283,0.23616571866209765,-0.2930701541068963,0.6089256465480856
10.600000000000001,-0.1431304946901624,0.6316010823044464,1.233574672347309,-0.08151635923426694,-0.015444340422339574,-0.014582309092071173,0.048609371014774576,-0.30985313850461177,0.9495409959270632,-1.536210060119629,-1.8101846180357875,4.162903308868408,-3.025794478405203,-1.3464072461120336,2.253646509223376,2.0,0.4789514224312471,0.4892671295824936,0.31096329401613176,-0.6982355025504651,0.23615158436249042,-0.29306954935591417,0.6089415829301745
10.700000000000001,-0.19265639102462245,0.7779390220672393,1.7321755847048461,-0.07427580045245101,-0.024026675965989668,-0.018196051523509203,0.04854865961832275,-0.30948632943440785,0.9496636788981169,-1.5361899297016623,-1.8102036763492493,4.162898643754148,-3.025805005177561,-1.3464048544513147,2.2536265774202806,2.0,0.4789596808792153,0.48925710467884337,0.31096326976892374,-0.6982376786511646,0.23616422186715075,-0.2930810658399352,0.6089286438227746
10.8,-0.32825215264038116,0.32346560506680433,2.20189789514083,-0.06982148548488917,-0.061223396074655295,-0.024655449701086435,0.0484211835333703,-0.30856524298382965,0.9499696972665195,-1.5361979931559444,-1.8101839692109043,4.162914752960205,-3.0258162358828473,-1.3464061780540761,2.2536208383596628,2.0,0.47896339339140276,0.4892503581986622,0.3109565676497194,-0.6982344512164926,0.23618621353209515,-0.2930673614204274,0.608930410918886
10.9,-0.7452940060063218,0.22790845961177936,2.316146796521717,-0.06174756557880805,-0.11848991408991733,-0.03642942755322011,0.04842748994772166,-0.3085191840352567,0.9499843871526796,-1.536153174759051,-1.810148378411764,4.162890783592677,-3.0258056126036585,-1.3464167753802698,2.2536110877990723,2.0,0.47896725119946687,0.48925449953306577,0.3109204566116734,-0.6982524097859728,0.23618158403322373,-0.29306274910417923,0.6089138335422674
11.0,-1.3235422636054994,-0.027623397958304152,2.617907275017312,-0.06060699395129602,-0.17501457540839446,-0.048761661037381665,0.0485351071719979,-0.3091357659058941,0.949778459808307,-1.5361611507632413,-1.8101739227473996,4.162905122816448,-3.025771688277644,-1.3464167753802698,2.2536129507727343,2.0,0.4789467301894669,0.48926614558269116,0.31094706500907743,-0.6982419465102684,0.23616594042868613,-0.2930480864905158,0.6089389556591309
11.100000000000001,-1.7458163183853743,-0.040226284600290124,2.667570203009417,-0.0760937623819827,-0.2123087867871397,-0.058108037156861074,0.04858959726950138,-0.3095105394374961,0.9496537618061482,-1.5361738204956055,-1.8101852825758629,4.162879895579539,-3.0258069682654125,-1.3464305022265342,2.253632962618359,2.0,0.47895144237102233,0.48927473032958957,0.3109529015572013,-0.6982446175925363,0.23615874859508376,-0.29305284098109685,0.6089363939345097
11.200000000000001,-2.121958948862245,0.30182071056908827,2.5429098207151557,-0.06857888936622623,-0.24435584405640293,-0.06476416546186349,0.04859409305466321,-0.3094974282414578,0.9496578004711603,-1.5361627615304094,-1.810208058720155,4.162904496342094,-3.0258167311855284,-1.3463953566105566,2.253634127309897,2.0,0.47894954792080857,0.48927247778866595,0.31097505170494477,-0.6982340939889646,0.23615371401429675,-0.2930663232526167,0.608943924777854
11.3,-2.3070429862290736,0.46765314802130864,2.623895193522851,-0.08675773765268151,-0.26956492121157744,-0.06678092176023381,0.048588871603616295,-0.30932044674133036,0.9497157362399496,-1.536173064935775,-1.8101730906275775,4.16291437518029,-3.0257936916747035,-1.3464283703640632,2.2536234855651855,2.0,0.47893480968806457,0.48928209684025764,0.31096462946869036,-0.6982460579520661,0.23613710998532758,-0.2930681684714043,0.6089357572609725
11.4,-2.5449263127031903,0.4004107840176919,2.933453035863793,-0.10611835270478626,-0.2919042701181134,-0.07285622533602128,0.048519280966803593,-0.30911691021887727,0.9497855496207511,-1.5361755305133566,-1.8101846180357875,4.162938594818115,-3.025841433105684,-1.3463933526443574,2.253634091412987,2.0,0.4789721564365457,0.4892517891298258,0.31093925395718114,-0.698249051327534,0.23617884619895846,-0.29307709503994317,0.6089118419699815
11.5,-2.968954925221211,0.47857401156072343,2.607111033374927,-0.10588930875490761,-0.2928581425117802,-0.07892753786103653,0.04854602456610929,-0.3094741294052149,0.9496677526566645,-1.5361747486706085,-1.8101726971068324,4.162927920805579,-3.0258282406942567,-1.3464377460155055,2.253631614746257,2.0,0.4789643742632822,0.48925776403252264,0.3109538551945754,-0.6982402347948313,0.23615826088839886,-0.2930850525839799,0.608926105762983
11.600000000000001,-2.5625179243366167,0.6877676793342995,2.9748937344017894,-0.1146506922381523,-0.29885572528395266,-0.07457455449298869,0.04856331410618221,-0.3094990846231314,0.9496586858537354,-1.5361725320898099,-1.8101616467223338,4.162949669356655,-3.025828608071153,-1.346369962208906,2.2536331885680694,2.0,0.47896356480995395,0.489264706578515,0.310958771750305,-0.6982410550705268,0.23616512046267,-0.29307885859638094,0.6089254860282107
11.700000000000001,-2.4717927576151975,0.6735329391616895,3.051977747728282,-0.11279989867055214,-0.3118691962496238,-0.07456523468998187,0.048496502518343344,-0.3087872985751221,0.9498939379909103,-1.5361738204956055,-1.8101846180357875,4.162914752960205,-3.0258049117529895,-1.3464182051156346,2.2536349296569824,2.0,0.4789489572096335,0.48927590144259203,0.3109527163026852,-0.6982500546989492,0.23615685224378832,-0.293063908659288,0.6089255682696862
11.8,-2.2227073565841247,0.34642695879155844,3.2923299763508975,-0.12093760193422601,-0.3154770617235397,-0.07681295458593553,0.04850242203982337,-0.30874172985900017,0.949908445662663,-1.5361861813445308,-1.8101846180357875,4.162938099522363,-3.025806088849574,-1.3464167753802698,2.2536473274230957,2.0,0.4789497974677739,0.4892843853774843,0.3109707621609649,-0.6982362810365976,0.23615506656753799,-0.2930557679563738,0.6089459723540037
11.9,-2.55565643699789,0.578753348350286,3.2402572869754955,-0.11609865940941277,-0.3115986624404618,-0.07732883529920502,0.04855480262827683,-0.30940523368945394,0.9496898608518213,-1.5362054374609648,-1.8101775123762742,4.1629576214065835,-3.025827427358617,-1.346409552476107,2.253642512153654,2.0,0.4789512682912864,0.4892777742809092,0.3109572070854243,-0.6982354907730964,0.23616427585587071,-0.2930653745237621,0.6089386836862744
12.0,-2.4197485288320495,0.8231343542417388,3.2989008568885283,-0.11230461628005849,-0.3176251786226466,-0.07240585680341734,0.04862443628967467,-0.3098304188383975,0.9495476681622116,-1.5361632478385265,-1.8101726971068324,4.162906939846399,-3.0258065203481563,-1.3464057621958125,2.2535996437072754,2.2741646558234634,0.47893329744129304,0.4892737624418235,0.31093122381729893,-0.6982632214145266,0.2361617787142931,-0.2930545951605969,0.6089130415334916
12.100000000000001,-2.5505133363423633,0.5595009510250151,3.303791154066713,-0.1342161281921328,-0.3299117669040006,-0.06977229996748914,0.048644408820118716,-0.3100154858521648,0.9494862200974022,-1.5362949254715421,-1.8100748405615135,4.162915256614064,-3.025829385673713,-1.3463820618722777,2.2536462781442226,3.0,0.47893256282535585,0.48927156851055287,0.31092391295075156,-0.6982613479543678,0.23616594959437293,-0.29304794265831613,0.6089167738770755
12.200000000000001,-2.293887193476448,0.5158338794901118,4.0932653391289335,-0.1332036794737276,-0.3170785811053158,-0.0764041946051866,0.04866397975008793,-0.3101986147713945,0.9494254237995047,-1.5371999740600586,-1.8091818768539256,4.163021878267323,-3.02567256455254,-1.3462471677598098,2.253623212981707,3.0,0.4789417203778137,0.48926126089804634,0.31093810965515783,-0.6982616127690461,0.23615541229572404,-0.2930696616319795,0.6089101040445332
12.3,-2.550818436059111,0.8983713911244949,4.730882219759149,-0.1368709702677995,-0.31438284437035197,-0.07442440885400717,0.04852898034527349,-0.3099341410867565,0.9495186748218644,-1.5384945002297319,-1.8079755132193447,4.163180494633994,-3.025503800524759,-1.345970737576195,2.253634309443155,3.0,0.4787040209058818,0.48889664118724757,0.3110767048714603,-0.6981909441352054,0.23618970860830085,-0.2931268577956713,0.6089503036487894
12.4,-2.406384851398127,0.7741954964678953,5.289242092281577,-0.13919039114078144,-0.3100109603275354,-0.0798246655374987,0.048447979086290296,-0.30961539886017486,0.9496267809339266,-1.540066914899838,-1.806584974328512,4.163515567779541,-3.0252190950950117,-1.3457445767260616,2.253671169281006,3.0,0.47850963998769835,0.48866588546682893,0.31113091459669223,-0.6981710171604709,0.23620190538245564,-0.2931395845298095,0.6089622933092832
12.5,-2.5932111864707297,0.5939128436692644,5.200606944557325,-0.11961376193158293,-0.3144420954050407,-0.11442856883242752,0.04842897672958168,-0.30924434421636166,0.9497486840120519,-1.5416106911538874,-1.8055741194824466,4.16378736727446,-3.025047918359274,-1.3455055505659752,2.253715035984817,3.0,0.47812549088818085,0.4883109420787837,0.311228252057071,-0.6981546884220605,0.23617838145916686,-0.2931337878961076,0.6089929273475219
12.600000000000001,-2.125185757997703,0.6843418680188446,5.185071519332798,-0.13314771831920855,-0.3193564113752049,-0.11059052327606667,0.04853518964494095,-0.3100859787984136,0.9494685661938032,-1.5430569861572063,-1.8044687688400258,4.16395952300318,-3.0248900632501763,-1.3452980933973928,2.2537894219890657,3.0,0.4776133594845408,0.48783934393583384,0.3111054721418792,-0.6982444063285971,0.2361823576537176,-0.29308748448384186,0.6089108057859463
12.700000000000001,-2.4562186454564716,0.9850343140875141,5.563773034035985,-0.16570577889007063,-0.31346895754623627,-0.11058637243980253,0.048560762603080496,-0.3101975305773029,0.9494308747775727,-1.5441941024219923,-1.803268743635406,4.164234693171614,-3.02467497445416,-1.3450359145074084,2.2537797141209834,3.0,0.47735984466737524,0.4875477204095511,0.3110550155365824,-0.6982761837926192,0.23622850862612027,-0.2930645141815851,0.608867517106806
12.8,-2.254040240238857,1.15370166627366,5.294386097384037,-0.18174049642959578,-0.3159164458460935,-0.10682210593163052,0.048484069044940806,-0.3093801443639099,0.949701614892894,-1.545588333286409,-1.801957606365914,4.164463985842005,-3.0244495241433382,-1.344809113378787,2.2537550926208496,3.0,0.4769672759804892,0.48719471474475756,0.3112374721886123,-0.6982129123177827,0.2361872443760087,-0.29308752760962586,0.6089450023002608
12.9,-2.6110087262433535,1.5056212793073738,5.392192284417254,-0.1667513756707933,-0.31891807236010344,-0.1118451526402257,0.04850488637748538,-0.3092516238542221,0.9497424432579256,-1.547204122298329,-1.8007551359580674,4.164737249634189,-3.024300196783831,-1.3445695355036442,2.253779888153076,3.0,0.4767061647959281,0.4869541651868246,0.3113141225694066,-0.6981944666581981,0.2361679003571372,-0.29308598888630305,0.6089743941146568
13.0,-2.336857302625689,1.3130341155584837,5.427873847593957,-0.1803018906878076,-0.3187387566071898,-0.11029118444099889,0.048476281943167485,-0.3086092367767478,0.9499528124556753,-1.5485791822460617,-1.799651320592502,4.164991717343782,-3.0241307939793587,-1.3443626300415086,2.2537939842274235,3.0,0.4763357342344892,0.48657907056775257,0.3113022660066816,-0.6982316915534609,0.23615925691467393,-0.29305464401587195,0.6089501505908612
13.100000000000001,-2.5083705071291296,1.3854455601227367,5.5042965007929165,-0.1986154364727954,-0.33284391852333534,-0.12144235913211582,0.04858950298384368,-0.30957433472256285,0.9496329112040824,-1.5497682198643796,-1.7984347859013075,4.165239504431064,-3.023931165734762,-1.3440993467914026,2.2537934491685956,3.0,0.4758479594576733,0.48610250069715494,0.3112475699755069,-0.698289694907303,0.2361548840275362,-0.29306979886020007,0.608878038470964
13.200000000000001,-2.5982274416624023,1.3556052782655765,5.550214004118358,-0.20033763279165756,-0.355107293545799,-0.14271558857955657,0.04866039962296602,-0.3102410775648187,0.9494117119232673,-1.5511118069889076,-1.797198084277524,4.1654793443660125,-3.023741177715903,-1.3438687644367264,2.2538620196523755,3.0,0.4755910868037639,0.485848559381387,0.3113715727927145,-0.6982319272185987,0.23615847789881358,-0.2930761836064042,0.6089398161820451
13.3,-2.5211939585041754,1.2350051665953803,5.791556500702369,-0.1915540454488008,-0.35569801347714647,-0.14699972034239764,0.0483851420752559,-0.3079850908377737,0.950159610635776,-1.5527227217368327,-1.7960525903895639,4.165733814239502,-3.0235814704424984,-1.343608423266939,2.2538662849006403,3.0,0.47520082783526213,0.4854554225302607,0.31147261334616266,-0.6982047707957635,0.23616170206269246,-0.2930623855774067,0.6089763432815494
13.4,-2.237344971133237,1.478284817555669,5.738268806764833,-0.19958117452164678,-0.36078027849649685,-0.14821226353574668,0.0483693302409962,-0.3080636842817964,0.9501352869159864,-1.5540666839019228,-1.794888990668779,4.1659619801478565,-3.023402234452948,-1.3433332384890742,2.2538767591456716,3.0,0.4749752755725921,0.485196907394086,0.31143043274555016,-0.6982391748125589,0.23618325427535938,-0.2930617770679429,0.6089288299783131
13.5,-2.5736437996157235,1.58374962641328,6.0614243700213315,-0.2161879318257831,-0.36146986587819097,-0.15929074657672992,0.04831795164069996,-0.30778048654708484,0.9502291953827041,-1.555423640803833,-1.7936035567029962,4.166246838891621,-3.0232234900924753,-1.3430912869739076,2.25391051546937,3.0,0.47460252788060364,0.4847985001379063,0.31135299167193686,-0.6983127297475105,0.23619217760540437,-0.29306632642621044,0.6088388251628205
13.600000000000001,-2.305015213312121,1.538341181107577,6.235953912490206,-0.2321589357466293,-0.36981799238204616,-0.1659614564193258,0.0481422503191204,-0.30631351778737526,0.9507123186831278,-1.5567255172073533,-1.7923427599201613,4.166454318597986,-3.023089540553937,-1.3428624084132341,2.253947788780657,3.0,0.47426445611880186,0.48448699093966363,0.311527648767897,-0.6982345104372006,0.23617686066639967,-0.2930800342333032,0.6089278713066862
13.700000000000001,-2.5439116540923905,1.5603513151541877,6.177674787242359,-0.2190517092479136,-0.3750372996735886,-0.17753553828884167,0.048102462272133675,-0.3060239106600744,0.9508078173997139,-1.5581788113657964,-1.7912114036808344,4.166728735325142,-3.022896667164991,-1.3425877729998987,2.253994226100639,3.0,0.47375850750042475,0.48394607018916946,0.3116709091858105,-0.6981962381849004,0.23618504978315977,-0.29309616612349054,0.6089608137204652
13.8,-2.4877121623437435,1.0964329044552494,6.1499392528705465,-0.21721962891368257,-0.37223661649271506,-0.1822053251908759,0.04808341698351699,-0.30591398964458527,0.9508441577809209,-1.5595759172669126,-1.7901561917381426,4.166994289548444,-3.022703045652967,-1.3423368742255033,2.2540042837547785,3.0,0.4735136882049649,0.4837142795867291,0.31166504328118544,-0.6982213457104521,0.23618884817642463,-0.2930761021243793,0.6089402095074354
13.9,-2.685702102545212,1.4763282602140424,6.157814313556337,-0.22326036727487153,-0.37886803228328436,-0.18765209418367557,0.048096146805767154,-0.30573282704249116,0.9509017700076212,-1.5608987320862346,-1.788941795515029,4.167256559245612,-3.022560271089058,-1.3421443428093167,2.253995418548584,3.0,0.47307787721388417,0.48331418267700255,0.3115788064655108,-0.698290690341338,0.23618124551858993,-0.2930550492103464,0.6088737711383424
14.0,-2.7896091143833877,1.6804388560430845,6.415462443472363,-0.23999590689646885,-0.3902531691277633,-0.1934447422959694,0.048105132021103184,-0.3055324088784997,0.9509657362636316,-1.5622856329728798,-1.7875367603697718,4.167483262685992,-3.022346979726039,-1.3419035787648348,2.2540320020405935,3.0,0.47279501646597116,0.4830465303357558,0.31162154311792317,-0.6982867877963198,0.2361616386877468,-0.29305622148479094,0.608885287595679
14.100000000000001,-2.731073225824652,1.7762223387848952,6.301390603211733,-0.2442923122301972,-0.39471139964605906,-0.20000575490472722,0.048101071423645024,-0.3054097863486963,0.9510053354184003,-1.5636469687271362,-1.7863243262766397,4.167687265837961,-3.0222374401488246,-1.3416757588779138,2.2540427756659454,3.0,0.4724634156534651,0.4826928121010002,0.3117672407549619,-0.6982417923353429,0.23614456430603298,-0.29306770811623545,0.6089379793086803
14.200000000000001,-2.8345012780859813,1.8568742575415131,6.40327148602913,-0.22830875859899674,-0.3909730839082316,-0.2091780680556708,0.048103151372323946,-0.30546480331083437,0.9509875603843062,-1.564914086450561,-1.7852802641173915,4.167951640365547,-3.02204660246578,-1.3414380157917078,2.254076686505005,3.0,0.4719890140988706,0.48218269567839744,0.31186729608961095,-0.6982259823503387,0.23614498924186667,-0.29308163744558346,0.6089492387868455
14.3,-2.824413296471496,1.276180851611357,6.231678709757483,-0.23311057339335586,-0.3891067022780998,-0.2096050939630668,0.048026792150329595,-0.304634445014227,0.9512573823142528,-1.5664046357584358,-1.7841965680257834,4.168191726059949,-3.0218783019370568,-1.3412086281575102,2.2540933834414436,3.0,0.47175447860535874,0.48198963475652823,0.31187592445996254,-0.698232077484421,0.2361423326722721,-0.29305653372286977,0.608955361856864
14.4,-2.558783573568867,1.872616165267433,6.506884986035649,-0.24852675868881088,-0.3873819315592375,-0.2146817264119043,0.04793442256082773,-0.303709563942328,0.9515579819837501,-1.5678281784057617,-1.7828708846539365,4.168420815748794,-3.021712514726633,-1.34101232707255,2.254136918729408,3.0,0.4713293666644179,0.4815504478713142,0.3117801803493563,-0.6983142567958047,0.23615152941311834,-0.293032908037329,0.6088689257293021
14.5,-2.7166219274996135,2.2502084532236553,6.40162247257746,-0.2668469334274628,-0.39997645381582,-0.2167483723995563,0.04784202632458675,-0.302999110022219,0.9517891131373823,-1.5691053441152956,-1.7814772573889766,4.1686577796936035,-3.021622659757504,-1.340742792134878,2.2541316896273984,3.0,0.4710944247621963,0.4813001607539253,0.31182196810084517,-0.698303480127754,0.2361517736078072,-0.29303840505561907,0.6088785450529633
14.600000000000001,-2.57955280660388,2.2311794164976444,6.358575693037894,-0.2587739122694033,-0.394408712248727,-0.22309502163114084,0.04774884785115746,-0.3024809653484376,0.951958598730859,-1.5702416348732031,-1.7803018781346553,4.1688618659973145,-3.0214912958077558,-1.3404851512533031,2.254150867462158,3.0,0.47077148719510253,0.480948957774759,0.31198111743797996,-0.6982553574293622,0.23614497440478704,-0.293047864770099,0.6089318154261956
14.700000000000001,-2.709346850935767,1.8842094464743349,6.46160295740249,-0.2442838139689741,-0.3805159271976917,-0.2305284907522842,0.047656804954992964,-0.30196146328724777,0.9521281075495984,-1.571709213239632,-1.7793308697142542,4.169093099216775,-3.021297464800543,-1.3402425585463924,2.2541904121440215,3.0,0.47028624122080637,0.48041597023220306,0.3122106174497397,-0.6981639280764262,0.2361570275717507,-0.2930748125610295,0.6090189997887483
14.8,-2.4684280534941503,1.6891049184913534,6.19481294008103,-0.2289744388473371,-0.3809098207662515,-0.22880007984869694,0.04756849958817455,-0.30128517837970065,0.9523467439496643,-1.5733188192188459,-1.7782089688551999,4.16936439589012,-3.02103914837026,-1.3399579175110399,2.2541985511779785,3.0,0.47007644863328607,0.4802011231616691,0.3120940969189558,-0.6982399406997546,0.2361663849362219,-0.2930684467883517,0.6089312845755445
14.9,-2.4585158442297375,2.2079303431378388,6.569940867430221,-0.27929224190283813,-0.397450856296993,-0.23282890964789685,0.04758635213893615,-0.3016093325984324,0.9522432784134814,-1.5745725809296323,-1.7768298588194789,4.1696162875450415,-3.020873629592037,-1.3396375622390553,2.254211911497531,3.0,0.4697425606820523,0.47982869830211944,0.3119601772762132,-0.69831516923009,0.236177019660395,-0.2930671358396936,0.6088415177188584
15.0,-2.5283861314532765,2.4094770870666538,6.37577735770534,-0.3047343446326255,-0.40537889643253366,-0.242462411887781,0.047532331234281466,-0.3014597084221627,0.9522933806585743,-1.5757226493627174,-1.775483661430839,4.169868405664376,-3.0208489764351696,-1.3394299851562126,2.254258415443592,3.0,0.46926998594142716,0.47933352924130684,0.3121350701211392,-0.6982427534740897,0.2361879011849578,-0.2931037201162785,0.6089027359182778
15.100000000000001,-2.616060317809035,1.8256124139238148,6.473212173074809,-0.2740285487651995,-0.3964591858632712,-0.25006924959209986,0.04768064515005323,-0.30271268607452434,0.9518880338160043,-1.5771101402232968,-1.7744384453190667,4.170171295317518,-3.0207048276122253,-1.3391302674340135,2.2543057643865505,3.0,0.46900400207845794,0.4791246019810915,0.31232672271074935,-0.6981656985502213,0.2361688518958208,-0.29310064232843375,0.6089999542107958
15.200000000000001,-2.511276278312998,1.456596762290397,5.967069350719316,-0.2565804202779235,-0.3963485880701798,-0.24602363967689517,0.0476327260414067,-0.30222707733072246,0.9520449074194918,-1.5771604046359988,-1.7744299299607458,4.170166492462158,-3.0207187175206958,-1.3391230779291432,2.2542572855629652,3.0,0.4686061778636769,0.47873309808521425,0.31235248973970775,-0.6981871964794237,0.2361822324965157,-0.2930928989447502,0.6089738453442206
15.3,-2.4330509052524087,1.7995355995311944,5.858439052148606,-0.25071648539565516,-0.3978467368095787,-0.24411011115063028,0.04776379765864059,-0.30319757171531686,0.9517295008692812,-1.5771544293544475,-1.7743993884899907,4.170226915876976,-3.0207048855223597,-1.33911999043393,2.2542836509436546,3.0,0.46853247317391594,0.47866607776888603,0.3123075841798951,-0.6982232678611406,0.23617244702509113,-0.29308350576837366,0.6089408034694428
15.4,-2.573583407896407,1.610407039426676,5.809971082139083,-0.25175976651222665,-0.40142224738607274,-0.24472128127729145,0.047831228919405826,-0.30372586736786567,0.9515580754493221,-1.5771766316688267,-1.7744327984251917,4.170202732086182,-3.0206941875710673,-1.3391104689084694,2.2542746504399065,3.0,0.4685385957862649,0.47866487101609945,0.3122703249371184,-0.6982424503436633,0.23618424557274142,-0.29307526255848215,0.608918199069127
15.5,-2.5231746617211157,1.7036188617672972,5.8843852370559775,-0.24968930692178287,-0.4062699199119465,-0.24222696028261137,0.04782847878079101,-0.3036643276464997,0.9515778439181221,-1.5771743286115347,-1.774402266838497,4.170183282369696,-3.0207138728385043,-1.3391159356595914,2.2542513183672344,3.0,0.46852017451385086,0.4786697566900815,0.3123098368455221,-0.6982211029738565,0.23618397405427513,-0.2930629681693443,0.608948699357897
15.600000000000001,-2.3343943930990867,1.54282129144883,5.752988326241849,-0.25482407050623634,-0.41049065380698685,-0.2398285073118663,0.04782378725000359,-0.3034055262504254,0.9516606247335868,-1.577199401075474,-1.7744108203840219,4.170232031276152,-3.020690811591912,-1.3391286856633202,2.2542899933213802,3.0,0.46852907618812706,0.4786660050390697,0.312289016654234,-0.6982405549355909,0.23616093336092742,-0.2930764388896135,0.6089288480316204
15.700000000000001,-2.476521562383376,1.8301733033294316,5.66975210806651,-0.24629311215618635,-0.4082781629417219,-0.24126790263063122,0.04778684746424209,-0.30307466259360577,0.951767899046877,-1.57717826369416,-1.7744092297863978,4.170203016234063,-3.020728646850431,-1.339109245930807,2.254271576864258,3.0,0.4685193000859785,0.4786873575431575,0.3122857636175312,-0.6982300519613029,0.2361617526039022,-0.29307656231055024,0.6089405141468248
15.8,-2.7723880235243317,2.1303255242793306,5.547343149694077,-0.2392109112916698,-0.4013742985994326,-0.2403854501881416,0.04772999552282423,-0.30266068995023476,0.9519024668271161,-1.5772327420036414,-1.7744194343357813,4.170207119293966,-3.020736737938599,-1.339124110907091,2.254304930941695,3.0,0.468523124610026,0.4786724471357981,0.31229024367327046,-0.6982340738041029,0.23616439470804043,-0.29307465967587876,0.6089357935833459
15.9,-2.576174639465718,1.5634547574366633,5.479399817943998,-0.24976741314653764,-0.40547455686965733,-0.24016680597219342,0.04765340736562392,-0.3021632263027807,0.9520643184621574,-1.5772003174569995,-1.7743953668628292,4.170226907810472,-3.020730992124937,-1.3391110576770826,2.2542692186797497,3.0,0.4685194147055352,0.4786600279065527,0.31229422435563864,-0.6982349096127886,0.23617231871704633,-0.29307508729627524,0.608931556150702
16.0,-2.7355332705020596,1.7176049327537308,5.50982755306417,-0.24489266059120654,-0.4012693466563633,-0.23614993786608016,0.047663108924348205,-0.3021980915812732,0.9520527900686357,-1.5772237807741691,-1.7744002942480315,4.170184456776538,-3.020682874765853,-1.3391436544534268,2.254300896315578,3.0,0.4685205043053155,0.47865966933424525,0.3122927591401839,-0.6982360617524599,0.23617105499676477,-0.29308176717456885,0.6089275101356167
16.1,-2.6099825719532745,1.7494053671818233,5.422188747736576,-0.24466188982591813,-0.4034120208489536,-0.23829219251013095,0.0477351840584545,-0.3026801834192583,0.9518959893966216,-1.5772008895874023,-1.7744311192313271,4.170211195223259,-3.0207189624823374,-1.3391194876658974,2.2543169677802264,3.2945336791892412,0.46850745090635915,0.47866941541895924,0.312295410764908,-0.6982395413198789,0.2361554917199756,-0.2930822972353293,0.6089293010811391
16.2,-2.481984944669292,1.7193215854972113,5.474182738735076,-0.24771617906706786,-0.4072495670377667,-0.2325559709184815,0.04784816395053256,-0.30359875726169727,0.951597618056641,-1.5772553398786595,-1.7744089565672816,4.17020441058118,-3.0207362187763884,-1.3391351785633736,2.254304766995734,4.0,0.46850874093956124,0.4786759160009027,0.3122619751036009,-0.6982531459025805,0.23616311686404903,-0.2930791540738006,0.6089122563371451
16.3,-2.686590568024926,1.934531226874142,5.304259276801184,-0.23861241941965589,-0.4060242836804581,-0.23545746799261977,0.04773910518074549,-0.30267422912191466,0.951897139538722,-1.5771877072270633,-1.7744052627466296,4.170229265886951,-3.0207085793430117,-1.3391371860186714,2.254302694982936,4.0,0.46850893124791176,0.47867703378452797,0.3122992100627592,-0.6982355043120009,0.2361601815106206,-0.2930754767280882,0.6089353940506663
16.400000000000002,-2.803045422942007,1.8093191005394624,5.404915823282679,-0.23775061136785836,-0.4074981483311833,-0.23438534166035796,0.047817446754840634,-0.30333700320108836,0.9516821007417872,-1.577202162185827,-1.774397831399593,4.170227527618408,-3.020719730593136,-1.3391224394581867,2.2543038690710695,4.0,0.468510564157387,0.47866827955074137,0.312295262805125,-0.6982362310201183,0.23616695352172964,-0.2930630339693653,0.6089379228425142
16.5,-0.5145882986053725,2.4984917471211907,4.712270409750183,-0.2604998012608705,-0.19636320527692747,-0.1985707123828994,0.04788008719897481,-0.3039792988260948,0.9514746378830601,-1.5772132873535156,-1.7744163263885877,4.170242990310575,-3.0207064424802397,-1.3390541325106853,2.2542994233915845,4.0,0.468511494916334,0.47866619351151274,0.3122858990790923,-0.6982393047737666,0.2361683577209583,-0.29307737414720414,0.6089269519765176
16.6,-0.17128539040055726,2.4368607842212735,4.053434431557988,-0.25533404993802594,-0.11702852970420778,-0.1877678392090354,0.0478221179490965,-0.3036669988879104,0.9515772850178629,-1.5772274769008747,-1.774380904994618,4.1702131887559455,-3.020708693057507,-1.3390652950925819,2.2543149812642502,4.0,0.46851652402911365,0.4786592023891427,0.3122773868314048,-0.6982451207724134,0.2361747754875438,-0.2930854870455782,0.6089138888415853
16.7,0.09883991761734964,2.3449167754652986,4.056146628869706,-0.26404935925100326,-0.12163887557096478,-0.1847971890094261,0.047795061841934154,-0.3034784470867412,0.9516388290044138,-1.5772353928571068,-1.7743690995384267,4.170200995731863,-3.0207048855223597,-1.339140059447583,2.254274647830857,4.0,0.468520211667563,0.47866375878208844,0.31230891871879224,-0.6982264599161613,0.23618366365162127,-0.29308263727835093,0.6089332109706364
16.8,0.1468382756360909,2.396434906482582,4.035566311947199,-0.26453899267157965,-0.12192563507137281,-0.18484504098484333,0.04780249068897873,-0.30334848640005935,0.9516798859180053,-1.5772388762430123,-1.7743846378722132,4.170225635000856,-3.0207429449709524,-1.339137204275014,2.254311434843568,4.0,0.46851428830169767,0.47866400125328895,0.3122929157757485,-0.6982337749364591,0.2361722909314971,-0.2930754303866562,0.6089327028808902
16.900000000000002,0.05094648034517003,2.522220417141383,3.845695052418735,-0.2632126769437714,-0.12176023907707964,-0.1796068960289273,0.04781811938913701,-0.30322195990177014,0.9517194283580164,-1.5772371292114258,-1.7743905700030154,4.170181884627348,-3.0207350764602485,-1.33913805622449,2.2542754621366585,4.0,0.46851320853893935,0.47866114870646514,0.3122636926606716,-0.6982588013526675,0.23616769000234378,-0.2930552873732871,0.6089154843449566
17.0,0.03564789331296556,2.4205897193488966,3.9659938948689253,-0.27016637287119144,-0.11584599737543218,-0.18139707383559717,0.04781587344739635,-0.30325823821229103,0.9517079817528057,-1.5772066030416403,-1.7743689580917859,4.170200927837475,-3.020717283288473,-1.3391473649805665,2.2542747892774977,4.0,0.46852076470422543,0.4786582206183506,0.31229512666255865,-0.698234706854544,0.23617187652668384,-0.29306644804219134,0.6089361180892024
17.1,-0.06096621703238445,2.6239661848144413,3.832997843450854,-0.2632206660841547,-0.11654549541117101,-0.17601826226282682,0.04773954443660275,-0.3027788680038468,0.9518643205181827,-1.5772456113703026,-1.7743535031055355,4.170213525471963,-3.0207276615440324,-1.339140795827707,2.2542963532503957,4.0,0.4685180285464094,0.47866799671378507,0.31227142591619766,-0.6982499128599735,0.23616132325336606,-0.2930731550436164,0.6089195467243921
17.2,-0.10666814137830435,2.6516281671905015,3.8378661972948964,-0.26099675227045166,-0.11154850598394295,-0.1829572294469916,0.04759931949381963,-0.30173258555922716,0.9522034227569776,-1.5772028954531094,-1.7743727169432582,4.170202732086182,-3.0206929645934046,-1.339123172725469,2.2542928664182287,4.0,0.46853257013904215,0.478643089898411,0.3122905855874196,-0.6982390696250367,0.2361814536660867,-0.29308337970994347,0.6089192517330476
17.3,0.08586363367564576,2.4143705161471694,4.176071782800873,-0.2663227377305166,-0.11028165504789995,-0.18174210308426733,0.04752703149598411,-0.3011250429728466,0.9523995319778815,-1.5772044420770954,-1.774329032527293,4.170222980431601,-3.020693852715828,-1.3391110577005505,2.2542728066708717,4.0,0.4685212620596882,0.4786536867412799,0.31228784439988144,-0.6982427872652089,0.2361604069247313,-0.2930838062938228,0.6089229464567604
17.400000000000002,0.01851520871650686,2.554182283984218,3.809798011418883,-0.26318519092150383,-0.11133331456128673,-0.1860719212956997,0.047513332924274634,-0.300971581161478,0.9524487241781715,-1.5772352689248477,-1.7743746547417771,4.170213114541835,-3.0207127142283765,-1.3391415324458518,2.2542928569734757,4.0,0.4685172531679127,0.4786400674093114,0.3122824631271978,-0.6982398500603988,0.23617552119628904,-0.29308000593304645,0.6089222816563528
17.5,0.2706737916831846,2.4942055977867286,3.839736680478468,-0.26453391351964817,-0.11712339801701407,-0.17628085680946973,0.04744968983302591,-0.30036709404986195,0.9526424199787551,-1.5772560994907863,-1.7743507912869487,4.170221702365542,-3.020708794573625,-1.3391674112111398,2.2542690375763605,4.0,0.46850500473443946,0.4786489287093619,0.3122869251235828,-0.6982486679535904,0.23616296444908536,-0.293078596980563,0.6089177185101131
17.6,-0.09190017559353292,2.3407463291150723,3.59226944689054,-0.26951325177518476,-0.10476591628362839,-0.17967396614610648,0.0473476742252272,-0.2994305872471324,0.9529425584804496,-1.577225685119629,-1.774342751253793,4.170202732086182,-3.020741125146383,-1.339133617753514,2.2542887484523804,4.0,0.4685116739090031,0.47865477657274574,0.3122849117621976,-0.6982434041158776,0.23615969834828632,-0.2930766339967905,0.6089259660170759
17.7,-0.014171360136120914,2.3885796538338453,3.818355348990729,-0.2709735322857727,-0.1062153834142045,-0.18516205935761332,0.04729846541932998,-0.2992962862920469,0.9529871863318221,-1.5772240528012025,-1.7743742864802068,4.170216762170721,-3.0207048855223597,-1.3391407141625067,2.2542856135917195,4.0,0.4685351440775174,0.47863073352166996,0.3122912901655729,-0.6982342684931109,0.2361931528482849,-0.2930901116733635,0.6089169789788855
