xiamingqian9007/apple-picking-rnn/training_data/grasper_20191127_133411_noimg.csv
,/manipulator_wrench.fx,/manipulator_wrench.fy,/manipulator_wrench.fz,/manipulator_wrench.tx,/manipulator_wrench.ty,/manipulator_wrench.tz,/ground_truth.x,/ground_truth.y,/ground_truth.z,/joint_states.elbow_joint,/joint_states.shoulder_lift_joint,/joint_states.shoulder_pan_joint,/joint_states.wrist_1_joint,/joint_states.wrist_2_joint,/joint_states.wrist_3_joint,/mode./mode,/manipulator_pose.x,/manipulator_pose.y,/manipulator_pose.z,/manipulator_pose.rx,/manipulator_pose.ry,/manipulator_pose.rz,/manipulator_pose.rw
0.2,-0.04201154668526219,0.0607361716281658,0.035826961927567263,0.0009046755975063887,-0.0051150067262098475,0.030182392942709226,-0.10281880310683313,-0.1703293524788429,0.9800082678479415,-1.1272330731452693,-1.861041522242207,4.168617733521854,-3.7099650790017744,-1.3616938798437423,3.058676242828369,1.0,0.4629979623998232,0.47600725888549744,0.39224403200630115,-0.6432185451220644,0.5324207462771793,-0.04404082244666957,0.5485056591348236
0.30000000000000004,-0.23346023933370452,-0.2866766044060111,0.2918267904344277,0.016190149611809104,0.0033153391293468514,0.1070020501842116,-0.10323042497506212,-0.17083017472532014,0.9798774684820584,-1.1246429191314116,-1.8638326912731753,4.167913663537095,-3.709554010345761,-1.3622408432386592,3.0585353023666673,1.0,0.4630923877637285,0.47611376115758125,0.39217645226027065,-0.6432308764057655,0.532420054487102,-0.044056107833216354,0.5484906421998558
0.4,-0.14343701415703303,-0.32421397269869945,0.41696000455524607,0.01332764807868784,0.004427492774403996,0.200242866819756,-0.1036490284672732,-0.1713389647968393,0.9797445404520534,-1.1219491552475878,-1.8672838893947776,4.167324340084034,-3.708946346986507,-1.3628706096652867,3.058191492170921,1.0,0.4637459878580977,0.47668653095262076,0.39188198516655337,-0.643147716318817,0.5324649276544176,-0.04406406329048118,0.5485439582551238
0.5,0.23718995142033839,-0.5664371351154631,0.3464870829273943,0.011234213920861144,0.0014278082865968995,0.27426858125439085,-0.10389690107312145,-0.17170344007249852,0.9796546991173042,-1.1189688757786955,-1.8705678232423832,4.166734655566749,-3.70849783111749,-1.3635398301513508,3.0579075813293457,1.0,0.4651272519975465,0.4781230204494036,0.3908861537188289,-0.6432126596418594,0.5324782707106427,-0.044039151274269134,0.5484568523161065
0.6000000000000001,0.03879987488981873,-0.7500523628526767,0.23161306603418919,0.018968906203559996,-0.002731992377251696,0.26449482604371477,-0.10395291266907482,-0.17190573975669726,0.9796132770055842,-1.1161952121008796,-1.873826178873238,4.166135944091651,-3.7081026277463836,-1.3640664259540003,3.0576434364515137,1.0,0.4655238565647863,0.47856995325943535,0.39070131521275464,-0.6432002689583429,0.5324331210757484,-0.044015187523597704,0.5485171363418972
0.7000000000000001,0.32122475993214544,-0.36889581404827637,0.15806886818124277,0.0030115044358333134,-0.009319838390502653,0.25636282127364046,-0.10388952312211149,-0.17185927106794255,0.979628115365965,-1.1133568650675285,-1.8769851351539142,4.165514726918113,-3.7076372409787983,-1.3645697082216786,3.057403504266566,1.0,0.46696960708892365,0.48002339814344186,0.38981135531699,-0.6432061542027008,0.5324338063718534,-0.04404783113115132,0.5485069494553309
0.8,0.16072419184474865,-0.2600705928401119,0.15986829992115925,0.017679588568606554,-0.005747334631193228,0.25242077813951525,-0.10368812278813076,-0.1715252614218932,0.9797079828528927,-1.1108147168938778,-1.8798209535713475,4.1650106237150375,-3.7072788677611292,-1.3649891152292313,3.0571996308457283,1.0,0.46740691692132175,0.4804717494557495,0.3895882825134518,-0.6431814457613003,0.5324285425471751,-0.04404819486186168,0.5485410025138562
0.9,0.12016802683517472,-0.6693530720907747,0.14004174122530438,0.008475128321716648,0.00025827939412525775,0.24616165235839002,-0.10320336513842725,-0.17082612470513722,0.9798811043790835,-1.1080461249674847,-1.8827273993635105,4.164554742332743,-3.706847917120674,-1.3655404355240066,3.0569844245910645,1.0,0.4685362385632161,0.4817068248655986,0.3888214798887396,-0.6432212508711508,0.5324160213089121,-0.04407007110408169,0.5485047233289987
1.0,0.35705354855784327,-0.8134958961236989,0.22551579473629296,0.005441445066445938,-0.011324312673530812,0.24505609840283837,-0.10287515300185161,-0.170416005525484,0.9799871608273037,-1.1057071278781732,-1.8856241525626445,4.164026448905749,-3.7065253532607474,-1.3660548369037073,3.0567899564323744,1.0,0.46901459496513304,0.4822208019162468,0.3886277765446169,-0.6431701490920146,0.5323920581258994,-0.04404020283174022,0.5485902991267381
1.1,0.19088110237795736,-0.7074496246639103,0.11134277992603163,0.014647811727688212,-0.009713305122240959,0.25057455283427127,-0.10317502349682152,-0.17092607853811054,0.979866771314872,-1.102926338328062,-1.8884593561282796,4.163450443309589,-3.706141431802796,-1.3665723005007753,3.056516170501709,1.0,0.4698129528604623,0.4830776537891737,0.387938060754932,-0.6432676695172901,0.53241075602679,-0.04403418943039716,0.5484582777039514
1.2000000000000002,0.6455720710582431,-0.46219037154402354,0.10824271375457166,0.006887548980173411,-0.013238614966726478,0.24490936696527427,-0.10292921929832821,-0.17064994127959987,0.9799402345588171,-1.1007075211746018,-1.8912767617545563,4.162888030613829,-3.7058290297484846,-1.3671091141277365,3.0562780245757946,1.0,0.47092905034935145,0.484211668612939,0.387382450977256,-0.6432016853300871,0.5323861683162414,-0.04399918911831512,0.5485623311265706
1.3,0.14664172332199754,-0.6011867708099046,0.08694607427369615,0.010443987571363505,-0.005216202093345295,0.24266986570843255,-0.1019526955183583,-0.16932098033848114,0.9802732883733069,-1.0982218852224783,-1.8937596986465206,4.162478544735044,-3.7054816067571825,-1.367469100748471,3.056131424669718,1.0,0.47138507165327986,0.484685458978622,0.386975482622196,-0.6432729773408475,0.532390763622733,-0.043996837891219484,0.5484744567323246
1.4000000000000001,0.06993139875667488,-0.3208203595507186,0.1260418368668679,0.013327094754148667,-0.0051939567572185374,0.2390556228898167,-0.10188212750987079,-0.16903648441593155,0.9803298826089129,-1.0959916722090406,-1.8964572009029335,4.16189023648904,-3.705264251010497,-1.3678758577681092,3.0559061999253947,1.0,0.4721524237755949,0.4854440723559521,0.38659673429300084,-0.6432107876956925,0.5324008065292287,-0.044009433110691436,0.5485366292201365
1.5,0.3554349392280525,-0.5029650320108339,0.22195558816513922,0.008906145721860121,-0.006183928675430484,0.24019877305770812,-0.10210711569876622,-0.1691518087321308,0.9802864500135811,-1.0937192740505688,-1.8989505098098474,4.161390739924287,-3.705000125362828,-1.3682468780591175,3.05570289435452,1.0,0.47325025117182834,0.4864293879001074,0.3858719680672889,-0.6432136561642247,0.5324665390245489,-0.044087908080240136,0.5484631561957264
1.6,0.29169996700691475,-0.3838046044210877,0.05453899589687117,0.014876760560949867,-0.008020892182397477,0.23961046415972395,-0.10264156852446794,-0.16970932904172334,0.9801343609331605,-1.0915141559857546,-1.9012430089898151,4.161030051468958,-3.704760023516939,-1.3685835296873918,3.055544617415319,1.0,0.4737398788885792,0.48686926222066407,0.3855886658215747,-0.6431923158522315,0.5324895892998407,-0.04412892133248396,0.5484625059363327
1.7000000000000002,0.19513622146760273,-0.23344590199459794,0.2787435111927418,0.014929276351342169,-0.007790632666034645,0.2391579997786026,-0.10255616136175265,-0.16967893497337294,0.980148598051284,-1.089341710632593,-1.9038158039291384,4.160599650289599,-3.704495545881971,-1.369002603388591,3.0554233881628177,1.0,0.47455709419368186,0.4878026817965816,0.38507734854901354,-0.6432063247177728,0.5324608408288704,-0.04408394979597854,0.5484776040981557
1.8,0.31789178352170505,-0.5511207704231958,0.0012627452252771884,0.010937592859290642,-0.009451366155479798,0.241004800994428,-0.10204781372148466,-0.16906016987847036,0.9803078302217995,-1.0873613357543945,-1.9056846053206475,4.160225973569908,-3.704334493482544,-1.3694337050067347,3.0552449226379395,1.0,0.475032699476093,0.4883223917464106,0.38467678789968524,-0.6432502587266308,0.5324815392504129,-0.04408017104833786,0.5484062850897894
1.9000000000000001,0.44458178098901807,-0.33439512065979726,0.1609917584450673,0.012304066747259564,-0.012347065287777929,0.2483026216764841,-0.10098421266140709,-0.1676216815562024,0.9806653753872548,-1.0853177589888308,-1.908173155209972,4.1598656982318305,-3.704133445609584,-1.3697920822936658,3.0550429479388987,1.0,0.4754994537721939,0.4888026635276326,0.38451238581446523,-0.6432174579827865,0.5324308500443619,-0.04406217444405018,0.5484954115126786
2.0,0.0581122751745497,-0.39926939282929474,-0.012944840245709327,0.019086067927656165,-0.0006196224758099958,0.24681450907532415,-0.1008373259409796,-0.16752075172073008,0.9806980282461418,-1.0832304737657938,-1.9101573174721924,4.159495763746351,-3.7039653322026167,-1.3701666391764438,3.0549091900299548,1.0,0.47645905485651063,0.4898295412943669,0.38384054831998704,-0.6432602370096115,0.5324444625806457,-0.044050183960711864,0.5484329886527372
2.1,0.5098750473651861,-0.47438608151679007,0.04047606559079576,0.01365619730870685,-0.01621813691584852,0.23440820756132902,-0.10082242596306167,-0.16761240094718835,0.9806839037444534,-1.0815375821109279,-1.9120199659692019,4.159185951102338,-3.703796514003003,-1.370462719594137,3.0547890015954158,1.0,0.4767734136094272,0.49021690587352673,0.38371503718056527,-0.6432541623733099,0.5323782850700984,-0.04402750129739378,0.5485061743542549
2.2,0.02768276760055863,-0.14173337020480686,0.14725353260805982,0.01909127114957643,-0.0008240098173139587,0.23715851177734668,-0.09923563451395781,-0.16536329470313818,0.9812243279820216,-1.0796131976334364,-1.9142016673183684,4.158862223725219,-3.7036307208783716,-1.3707876043556004,3.0545837579073605,1.0,0.4772911693537429,0.49070030597315806,0.3834610703047617,-0.6432153330710719,0.5323866936220335,-0.04401168014485476,0.5485448165531202
2.3000000000000003,-0.10055897630083907,-0.20500404155966212,0.08656949087038565,0.021128574177542214,-0.005504268988516109,0.23740534878417716,-0.09860227051785389,-0.1644566227552073,0.9814409864254428,-1.0776372382282546,-1.9160704043293977,4.1585373878479,-3.7034736847238157,-1.3710519166167112,3.0544743779417756,1.0,0.47801164646808847,0.49150787165989873,0.3829099159705537,-0.6432845590263376,0.5323745864756807,-0.044026048985606456,0.5484742316680473
2.4000000000000004,0.24564920337578067,-0.22723184739483165,0.10778669413703656,0.020023856515658807,-0.008346094889008504,0.23620942048192733,-0.10030186180417086,-0.1668763007383949,0.9808586554956006,-1.0761617069802776,-1.9179173665830682,4.158189570560435,-3.7033061451579132,-1.3714054206537585,3.0543456077575684,1.0,0.478408491363072,0.49187284676694726,0.38278622473964574,-0.6432020698653146,0.5323892397067632,-0.04402274794662968,0.5485570092785773
2.5,0.4195817018204456,-0.36189426651645207,0.30601167923610506,0.0131735179677102,-0.003427009524388351,0.23898128473228344,-0.10176676210952788,-0.16891885292524356,0.9803615995311817,-1.0743584117137654,-1.9198829136290492,4.157829614323722,-3.703196569241935,-1.3716031020457373,3.054225826023042,1.0,0.4790984438782403,0.4925813602268618,0.3822270335444406,-0.6432664405122416,0.5324063732921615,-0.04402160178398063,0.5484649840828231
2.6,0.2781124009253272,-0.3683725719357346,0.13629545586150157,0.019667692929198097,-0.008561104605003266,0.23515282990679193,-0.10276247109491515,-0.17020745986266173,0.9800350242278587,-1.0725502764480244,-1.9214769802489222,4.15760244857557,-3.7030642143111567,-1.3719128915836174,3.0541169463044002,1.0,0.47943683295264916,0.49287378304945745,0.381978467027766,-0.6432665111384548,0.532454408052063,-0.04406541159530701,0.5484147504349456
2.7,0.2244840564953108,-0.4470512121953142,0.19000847465246867,0.014129342979185406,-0.010204803799559795,0.2326137021965601,-0.10286818327270515,-0.17039164376620072,0.9799922545246025,-1.0710961003021446,-1.9232654991926232,4.157242644777657,-3.702922256061345,-1.3721646949302333,3.053985059251469,1.0,0.4798835797124052,0.49337340632251564,0.38184204536807465,-0.6432272816413588,0.5323887899714231,-0.04405185419137033,0.5485255459933789
2.8000000000000003,0.3181036484015145,-0.16277613373398805,0.19204232466516952,0.018811417832148274,-0.008123505395732089,0.2381562550749517,-0.10286924884154253,-0.17043377899990433,0.9799847992830615,-1.0695952678165843,-1.9248799705208024,4.156950385244169,-3.702828738333331,-1.3724369189357017,3.0538517124466544,1.0,0.4805376386556894,0.494030840912122,0.38134458523422965,-0.6432543628475554,0.5324361563767918,-0.04404457398934872,0.5484483927977098
2.9000000000000004,0.165418917584138,-0.36382472597581483,0.04351178729231969,0.011896514469665373,-0.006620834996423462,0.23479956679500438,-0.10305812948322322,-0.17068207879735106,0.9799217437282903,-1.0679054555103402,-1.926487460058373,4.156672773259647,-3.7026941789631627,-1.372718616532963,3.053735833510383,1.0,0.48084963474515213,0.4943253552238858,0.381189349719979,-0.6432421664147727,0.5324305467788972,-0.04404348587250664,0.5484682302147976
3.0,0.12957534308429283,-0.32896843105604645,0.18604367496026117,0.02095236186438921,-0.004599583261040594,0.23354483249092017,-0.10313182312531634,-0.17078218345148743,0.9798965604700465,-1.066398786748903,-1.928166004866899,4.15634228236262,-3.7026111412779645,-1.3729421715903298,3.053655566487011,1.0,0.48151791477836614,0.49495828459463737,0.3808913629361767,-0.6431949311739369,0.5324119734051188,-0.0440754404004951,0.548539083968065
3.1,0.2828103256814958,-0.3574264705833163,0.19246233222118747,0.017839390550674825,-0.011172695003493528,0.23759468500862999,-0.10263194147116898,-0.17006076539045648,0.9800725623481583,-1.0650842369856184,-1.9296293492723584,4.156092166900635,-3.7025120425609352,-1.3731837385666832,3.053533088568873,1.0,0.4817476708822906,0.49526996859518724,0.38067927019184616,-0.6432337149133833,0.5324025368161702,-0.04404666515013731,0.5485050757099574
3.2,-0.08957009328570177,-0.0947681715974872,0.19691681633494992,0.02613560413365563,-0.0026373489541767353,0.2348191655370766,-0.10080310832237133,-0.16742591942358098,0.9807162085193969,-1.0636299129776052,-1.9309729693623918,4.155853869008272,-3.7024393845848493,-1.3734230478733078,3.0534576112536413,1.0,0.48233311935059225,0.4958176980806921,0.3803272825390625,-0.6432119311937253,0.5324241288497725,-0.04405056296742396,0.5485093495017677
3.3000000000000003,0.2291546521419558,-0.4781011980870334,0.17215137034904998,0.012552663276618189,-0.008428985735266495,0.23318164615550635,-0.10119527402245293,-0.16798285779159056,0.9805798745280647,-1.062333106994629,-1.9324948193137967,4.155627725438919,-3.702344506001092,-1.3736508019869318,3.053361415863037,1.0,0.48253070922665753,0.4960646749725023,0.380215085168312,-0.6432265857089265,0.5323944476305821,-0.04403337016669338,0.5485223549511246
3.4000000000000004,0.057698779720420874,-0.014955388736928699,0.24495556892594875,0.02088006315206003,-0.0013051271408760171,0.22814199186356432,-0.10220697713673717,-0.16943012972034246,0.9802259686576239,-1.061001319409193,-1.9340911579879667,4.1554208173767355,-3.7022592215941503,-1.3738672468350412,3.053277987957777,1.0,0.4829594534845278,0.4964595774291979,0.37996002856222505,-0.643211351732984,0.5324133176976995,-0.04404440373079245,0.548521017500656
3.5,0.2017485110982933,-0.18788000840381264,0.2031598618311551,0.023094413272711473,-0.0055377092852377935,0.23268088562993788,-0.10252905963798742,-0.16989767530734906,0.98011229134553,-1.0597043912072468,-1.9351448356684293,4.155181407928467,-3.7022222145816124,-1.3740571180926722,3.0531455260478064,1.0,0.48351136219004803,0.49707127793432904,0.37943982235932394,-0.6432787315385613,0.5324636020840027,-0.04404400713161115,0.5483932087851376
3.6,0.3257189885029648,-0.41480064910909153,0.18718727379315242,0.016749683767909026,-0.01306180341686644,0.23673888144685953,-0.10099250316199533,-0.16772470010454402,0.9806460688129938,-1.0584075073062358,-1.9362965397546565,4.15498985196786,-3.7021152847900023,-1.374261204396383,3.0530855277835305,1.0,0.48371901699359693,0.497260268627709,0.37943845853799263,-0.6432312199577425,0.5324210492636248,-0.04403589890499653,0.5484908965336838
3.7,0.346836790730943,-0.26272726630173765,0.2665203520697673,0.02074499071033279,-0.011977924285347353,0.2350030063059284,-0.10140579299555963,-0.16830936413775188,0.9805040573726127,-1.057251395673765,-1.937696062819231,4.15477882089974,-3.70205946475625,-1.3743976363524415,3.052961530778531,1.0,0.48405416277721164,0.49759448731114037,0.37935169985649,-0.6431820628085427,0.5323954275334672,-0.044037604695825905,0.5485732696691106
3.8000000000000003,0.21233627559658474,-0.17568973324712522,0.09331147945343828,0.018227553599111355,-0.009407339604631226,0.23664751591575442,-0.10222552979092492,-0.16948430272115686,0.9802159449329199,-1.0561688515240784,-1.93913099697948,4.154594898223877,-3.7020217576728585,-1.3745820348310838,3.052887345524461,1.0,0.484576829186801,0.4981321378205935,0.37892183834157056,-0.6432279184002994,0.532435411967058,-0.04404484532450824,0.5484801078199893
3.9000000000000004,-0.07032518582205993,-0.07790387883172309,0.17634651604469848,0.016921228077134712,-0.0019865086774302886,0.23127343851914622,-0.10297848157433634,-0.17056988935182305,0.979949250850619,-1.0550205598285547,-1.940144601872328,4.154400425217846,-3.7019607026642625,-1.374733348651811,3.0528101921081543,1.0,0.4847687717909262,0.4983811126700104,0.3786957602450046,-0.6432784189583575,0.5324402398802005,-0.044039129805999375,0.5484166497332854
4.0,0.13926004907376616,-0.5005278161224888,0.14286885279271394,0.013611418790360198,-0.0065482987340802455,0.23330500914895047,-0.10265601816404302,-0.17002482160757476,0.9800780375641868,-1.0537392981855103,-1.9410919746851107,4.15420282120329,-3.7019364505743404,-1.3749155418539816,3.0527256729013046,1.0,0.4850910694612099,0.49866702798442236,0.3785301170292826,-0.6432588904767087,0.532449692024898,-0.04406949753632612,0.5484279393613722
4.1000000000000005,0.15403449618699663,-0.6794274614118253,-0.053089157240783474,0.016919128864139592,-0.005950982010770888,0.2372551405040297,-0.10273989432211966,-0.17013234009253517,0.9800506398652845,-1.052570736119749,-1.9422830121190755,4.154005247210265,-3.701837313308577,-1.3751135085443684,3.0526525555598747,1.0,0.48546778123086476,0.49902780296414084,0.3785473474108187,-0.6431492829709162,0.5324029816575193,-0.044062952013340026,0.5486023342969385
4.2,0.12293876695616987,-0.24448878166327104,-0.0960327050697185,0.02282033433069531,-0.008574677581998319,0.23799479907742474,-0.10312907873569457,-0.17071199877536036,0.979908910403447,-1.0515406047005615,-1.9436377897169226,4.153832764987505,-3.7018262348570765,-1.3752780511623743,3.052563996676958,1.0,0.4856947314324198,0.499270207978821,0.3784527439244582,-0.6431400174824079,0.5323828249364078,-0.04405179551940375,0.5486336527565323
4.3,0.20270100162743657,-0.3986856885973776,-0.033580499202519445,0.010074770155856208,-0.0034722183512259797,0.23763586765338598,-0.10362624380486776,-0.17144323084664162,0.9797285554852054,-1.0505472595228584,-1.9448438518281779,4.153633934782562,-3.701747466637368,-1.3754522535289695,3.0525215690599055,1.0,0.48612127949606887,0.4997558967197997,0.3779713013380355,-0.6432308145557468,0.5324215725185942,-0.04405703954123005,0.5484891663375315
4.4,0.18540982080282253,-0.13956715255520247,0.023455947182017406,0.015446123918044112,-0.004633479553685904,0.23475140972051936,-0.10422972010781816,-0.17232915566038648,0.9795088512466934,-1.0492817376325254,-1.9460064643331836,4.153470711367852,-3.701709604916335,-1.375638786946432,3.052441569992887,1.0,0.4862661360377052,0.4998948948676941,0.37783076027043544,-0.6432482342730493,0.532435741373858,-0.04405766313951914,0.5484549322696982
4.5,0.25721243636991475,-0.22605555067789246,0.1276770494505634,0.016226581046523924,-0.0075095610546697476,0.2330155068870916,-0.10520123045001988,-0.17375060426431768,0.9791529253807357,-1.0479726577418085,-1.9470462476283414,4.1532853212623255,-3.701630265355274,-1.3758200868272996,3.05230438021427,1.0,0.4865615326161301,0.5002042220220254,0.3776725419490023,-0.6432349941023499,0.5324328526169737,-0.044046292669848434,0.5484741779868438
4.6000000000000005,0.21146356230690513,-0.5989523435174209,0.17041264579228327,0.013773326281746191,-0.002282491495311604,0.23574682199944852,-0.10621206053791853,-0.17522402172193785,0.978782076164849,-1.046858874621979,-1.9482686454557878,4.1531301415592345,-3.7016031506278706,-1.375982830718338,3.0522598349422303,1.0,0.48698804463160633,0.5006661599590557,0.3775286769301962,-0.6431891400427343,0.5323987718563787,-0.044026206825445585,0.5485626408802101
4.7,0.3601172490683563,-0.4704814076204982,0.22289726879658983,0.011589392244653624,-0.005977755914100116,0.23229372460619846,-0.10736805555327157,-0.17688930346407813,0.9783561312973644,-1.0458649694737052,-1.949551962777474,4.152913877545593,-3.701571434118979,-1.3761492171139367,3.052190664457629,1.0,0.48734971389935977,0.5010395843030165,0.37730602300249094,-0.6431984159856651,0.5323902659516582,-0.04403260067161594,0.5485595067734655
4.800000000000001,0.06494460006684073,-0.04976767794598608,0.060158166590912374,0.019377672663345825,-0.0016465542783736554,0.23471999839195537,-0.10723651735791748,-0.17673796221557442,0.9783982925964732,-1.0447938108752213,-1.9507938824095667,4.1526978767135185,-3.7015103735555086,-1.3763471270049519,3.052142338352349,1.0,0.4877306960144118,0.501415157497229,0.3769125949016357,-0.6432587015418813,0.5324397733402044,-0.04405086081796362,0.5484392877222428
4.9,0.0871459635552732,0.19618291117253214,0.06041107707632676,0.02774525537164947,-0.0005194627903002845,0.23660617479173823,-0.10655787061121011,-0.17579916360634712,0.9786417123443109,-1.0434900936064953,-1.9518981136050284,4.152534308926403,-3.701511292821378,-1.3764840777504006,3.0520521638046016,1.0,0.4880509624611662,0.5018065179533595,0.37664129732986856,-0.6433000610223063,0.5324227538212917,-0.04403509134610458,0.5484085643315476
5.0,0.2000947289147399,-0.20614068953296036,0.17128346414035867,0.017425583870534608,-0.007366078113991694,0.23889924405102428,-0.1058866696455597,-0.17479425476918112,0.978894009092331,-1.0422162350120447,-1.9530557686159962,4.152306574994646,-3.701445027378756,-1.37670293072485,3.05198787728234,1.0,0.4882443824171763,0.5019708488116114,0.3766037358561906,-0.6432514717530563,0.5324283884754267,-0.044042670263922716,0.5484594774721381
5.1000000000000005,0.44207609687985816,-0.285074434185766,0.23455261426490615,0.020768781521698153,-0.008675045394819465,0.23502028251252816,-0.10544190412199674,-0.17412532989357046,0.9790618533391533,-1.0410820738921662,-1.9542746462661598,4.152090247915713,-3.7014299831786097,-1.376862028412214,3.0518735389016767,1.0,0.4885834328014799,0.5022991592388569,0.376530713705864,-0.6432016910333586,0.5323951063040261,-0.044042911516142605,0.5485501411726499
5.2,0.11048663288168127,-0.26065454276764666,0.13951244680096034,0.018777293795769912,-0.007635893062877753,0.23406944644081487,-0.10608122365417406,-0.1750705195723352,0.9788243361417278,-1.0400370750628205,-1.9554220331319982,4.151926243116806,-3.7014056644835414,-1.3770689730132974,3.051802158355713,1.0,0.488962386964859,0.5027131765824191,0.37625255308164535,-0.6432260013642057,0.5324014349517827,-0.04403703028399708,0.5485159643930736
5.300000000000001,0.27515742002289684,-0.4308384599939267,0.04959347636715611,0.013024533902021455,-0.009948414588680808,0.23344349693049563,-0.10597265139097888,-0.17493819586929538,0.9788597509000733,-1.0388027934890227,-1.9566234449673128,4.1517415046691895,-3.7013352380366915,-1.3772330976246583,3.051695969121998,1.0,0.48921205397135215,0.5029498144325573,0.37605370612178407,-0.6432526302759773,0.5324045476830904,-0.04403862850708151,0.5484815862438921
5.4,0.09245849702972342,-0.3146577355039033,0.07510833404099679,0.016519021032645766,-0.003682074227850147,0.2336734225328868,-0.1060476233194126,-0.17505661985498683,0.9788304186533253,-1.0375194511836416,-1.9578933693925629,4.151573514637805,-3.7013100088353963,-1.3774236355847496,3.0516468037524653,1.0,0.48964936611881965,0.5033966370867674,0.3758247230072997,-0.6432304553405133,0.5324109486990825,-0.04401989311245663,0.5485028824337634
5.5,0.17749974851461248,-0.18339092764766868,-0.0784792342124321,0.01680787920547165,-0.005578401307986694,0.23838787794109123,-0.10622887147974651,-0.17532023241504577,0.9787635964284576,-1.0363588333129883,-1.9591768566132022,4.151358127593994,-3.701318002854402,-1.3776022688875165,3.051573186529408,1.0,0.4898366460201357,0.5036019388982309,0.3757342611357439,-0.6432229804589227,0.5323920598584259,-0.0440271775974113,0.5485293972450784
5.6000000000000005,0.11629150242217924,-0.4933702883369225,-0.06713138674458095,0.016200589553943455,-0.0009075014781051273,0.23549999321365098,-0.10616529996671209,-0.1752180698756874,0.9787887781822636,-1.0352449417114258,-1.960234698555525,4.151133672708747,-3.701295252374761,-1.3777603668258953,3.051490306854248,1.0,0.49015443168302325,0.5039372763595514,0.37550387142609454,-0.6432389024449542,0.5323987834753608,-0.044034475196214964,0.5485036141444836
5.7,0.13894796356263736,0.06714093389057967,0.16888202793443471,0.027429676319217486,-0.0051132950456373675,0.2378249076533803,-0.10599906131237226,-0.17495617492559803,0.9788536775544128,-1.0341305689079838,-1.9613732734081335,4.150973796844482,-3.7012273317510944,-1.3779271284686487,3.05143852663449,1.0,0.4906310640323384,0.5044022542965945,0.3751940652954574,-0.6432388501603409,0.5324164802177318,-0.04403183899890658,0.5484867094026423
5.800000000000001,0.3182580906340793,-0.5214884184590639,0.16349521878468984,0.019708537749526925,-0.009682438987064848,0.23214671857459143,-0.10616180402568114,-0.17513807339125326,0.9788034861956796,-1.032900055516361,-1.9624705152651352,4.150775743535689,-3.701194736571477,-1.3780617520217717,3.051334857940674,1.0,0.4908190349278813,0.5045732942878468,0.37506451975338667,-0.6432296246020032,0.5324436408698405,-0.04403307756480925,0.548471063422498
5.9,0.4549240473671603,-0.395425392346482,0.207317046085786,0.012786765036715948,-0.011221100169399176,0.23611076697622854,-0.10632052355281556,-0.1753221523005519,0.9787533297093038,-1.0316529454988566,-1.9639581303879798,4.150599312675565,-3.7012373409666957,-1.3782628218280237,3.051235031974881,1.0,0.49114350599613843,0.5048904394270406,0.374965896289793,-0.6431846090641435,0.5324221278231696,-0.04403717877443049,0.5485444041760359
6.0,0.46366945595488746,-0.03831804546338792,0.2146057597061052,0.01792167810292104,-0.008858593395000744,0.23752847380855865,-0.10644528432277345,-0.17552463581580585,0.978703467572199,-1.0305014272554724,-1.9652323888302015,4.150434970855713,-3.7011930349523587,-1.3783820311175745,3.051168228483715,1.0,0.49162395660557673,0.5054429094460767,0.37448782335635045,-0.6432660671808321,0.5324448237878052,-0.04404982476956521,0.5484258285065075
6.1000000000000005,0.268505560876631,-0.00023076782711729804,0.15620406366490158,0.021339451852650973,-0.005398451940741512,0.2336013196958119,-0.10659465587666477,-0.17573983379938876,0.9786485565559472,-1.0292976230749205,-1.9662002846991011,4.150229304356282,-3.7011684381704884,-1.3785841211651657,3.0511183738708496,1.0,0.4918210524955824,0.5056443630843646,0.37433125065276046,-0.643287307727295,0.5324436034873016,-0.04405398787754437,0.5484017641971175
6.2,0.12293906501581109,-0.13114296940294878,0.1713790338320108,0.021990911208421948,-0.003358747129755417,0.2333047036828377,-0.10676054687480607,-0.17596356608855485,0.9785902565912648,-1.0280145660263842,-1.9672850511745839,4.150034403911387,-3.701208707005768,-1.3787461022207215,3.0510420561941016,1.0,0.49223025893888617,0.5060129133323028,0.3742739199152405,-0.6432072282431491,0.5324253033440025,-0.044049385439539825,0.5485138189118041
6.300000000000001,0.5202637545744015,-0.485433875837332,0.06217083474210219,0.012994990658803853,-0.013621484205275987,0.22996672535908114,-0.10693448553828583,-0.1761990217685972,0.9785289446729183,-1.0267835913005676,-1.968576274060455,4.149835109710693,-3.701200397728702,-1.3789200516770181,3.0509856095101577,1.0,0.4924276619463834,0.5062060477676749,0.3742341548127285,-0.6431704070650167,0.5324075515509826,-0.04404120688662848,0.5485748796867005
6.4,0.23100369458240355,-0.1957261666396055,0.07097633457977315,0.014765244698711431,-0.004252467914039428,0.2341684794789561,-0.10719788400358138,-0.17656479750797266,0.9784341511463631,-1.0256734021839236,-1.9700103373692326,4.149679660797119,-3.70119986936913,-1.3791091950347252,3.05088877040462,1.0,0.49276766686994067,0.5065463722208526,0.3740187052110694,-0.643187090356905,0.5324041151415625,-0.044053147315017936,0.5485576954069554
6.5,0.06358263935957685,0.022909056391829122,0.1186491123061494,0.022899556137128553,-0.005174888032359317,0.22825021348278293,-0.10720976896390143,-0.17657813695228444,0.9784304653479915,-1.024601500198517,-1.9710885548743158,4.149484768834375,-3.7011286220946253,-1.3792350520982568,3.0507827742510925,1.0,0.4932150526645438,0.5070408632841963,0.3734843697768779,-0.6432940053124969,0.5324594176377365,-0.04407954821319714,0.5483764990653851
6.6000000000000005,0.1496610551304199,-0.2593078834262796,0.04221290805937139,0.01999605117035807,-0.005989314219031214,0.22659023824738952,-0.1070556209725386,-0.17635871092738067,0.9784869404451583,-1.0231719259757843,-1.9721318854534893,4.149282611829906,-3.7011171780028285,-1.3794248739825647,3.0507250492716653,1.0,0.4934122952578311,0.5072478794301568,0.37336667391030953,-0.643289648932444,0.532463028574076,-0.04406349772550869,0.5483793932546058
6.7,0.2050983038699704,-0.35659862400172226,-0.006784715011344852,0.016500894682634826,-0.007211196560330884,0.23339111205997662,-0.10718409746321628,-0.17653380619735123,0.9784412783231785,-1.021681633043818,-1.9732940730962174,4.149070764776529,-3.7012264721061756,-1.3796025054330576,3.0506858284228002,1.0,0.49370031008385645,0.5075440809283086,0.37336531111495125,-0.6432178969216499,0.5324093453417688,-0.04405868533571497,0.5485160511041838
6.800000000000001,0.21443901049160533,0.016744192664256335,0.30871721188742396,0.01618521463706899,-0.005992722083987243,0.23352046997682555,-0.10726465773604398,-0.17663941152121748,0.9784133509631757,-1.0206731711337194,-1.9746940440260434,4.148942292296725,-3.7012974224486292,-1.3797476927386683,3.050614833831787,1.0,0.4941973516438658,0.5080148471736553,0.3732696444099834,-0.6431368130768544,0.5323891427184432,-0.04405158162773583,0.5486312956229924
6.9,0.46089349763054116,-0.23557370031661123,0.10391124151041699,0.020310267413447422,-0.011196270677256495,0.2386214821138002,-0.10660456949681699,-0.1756708998238681,0.978659552607075,-1.019901329911847,-1.9757985989796898,4.148804187774658,-3.7011175812555415,-1.3799252233304105,3.050507719959007,1.0,0.4943836102482032,0.5082317619058176,0.3729828505352321,-0.6432204560473301,0.5324237199043376,-0.04405799991080332,0.5484991522776969
7.0,0.3199986898873999,-0.057764345653358265,0.1065354103973723,0.02291145854541042,-0.004107180089164551,0.23086879269550994,-0.10649565629267435,-0.1755280862757931,0.9786972148777653,-1.018823371360196,-1.9767910629644492,4.148650075104829,-3.7009491746684677,-1.3800224292691299,3.050470446440581,1.0,0.49477270744492324,0.5086552613409111,0.3725699949063295,-0.6432471041898251,0.5324713324448622,-0.04405939499354861,0.5484215648464236
7.1000000000000005,0.16051056521244858,-0.1399036866247023,0.07679271679877853,0.019105845717657582,0.0007075264725562047,0.23264487941342807,-0.10683309371842448,-0.17605393670117533,0.9785659985261225,-1.0188987610075209,-1.97678455624299,4.1486496925354,-3.7009725833175917,-1.3799990989473423,3.050483226776123,1.0,0.49491653093797794,0.5088363946412973,0.3724764112896668,-0.6432515794340355,0.5324363801691816,-0.044052863649637224,0.5484507743017814
7.2,0.5446435876474809,-0.42199649737034006,0.25190991780332456,0.014186152377226022,-0.007060253425202621,0.23177001504919853,-0.10700959199137645,-0.17633819021073385,0.9784956733481075,-1.018850337318979,-1.9767731601861454,4.1486382484436035,-3.7009488544859828,-1.3800345129845506,3.050482510177121,1.0,0.49501340787500653,0.5089234031079998,0.3724188460222378,-0.6432337811984724,0.532443455303676,-0.04403772439821495,0.5484659957182618
7.300000000000001,0.32376681918845096,-0.21373966219518703,0.19297295500329975,0.019957269518071565,-0.003742339065521666,0.2280463559874629,-0.1070516807133094,-0.17642067222827906,0.9784762018944103,-1.018767666873962,-1.9767729244627894,4.148638842603216,-3.700960775414938,-1.3800454318043367,3.0504708290100098,1.0,0.4950190386102735,0.508933176247228,0.3724810507435117,-0.643206850388125,0.5324265875859849,-0.044034654078316415,0.5485141982533679
7.4,0.41400355626743846,-0.3106425379012758,-0.055043888624380255,0.014197636456456072,-0.012387186637076828,0.23367491250321204,-0.10703396779264028,-0.17639947888351543,0.9784819590984375,-1.0187929021925568,-1.976821085015768,4.148651254593258,-3.7009623687139523,-1.3800355297368352,3.0504477994221855,1.0,0.49501618960640686,0.5089591486217769,0.3724764316719899,-0.6432157155606771,0.53240429045317,-0.0440283620024183,0.5485259502541396
7.5,0.12186723184612908,-0.1852017563648177,-0.017493074869418868,0.0258370372724827,-0.00511048263932117,0.22658277776987382,-0.10697474992628123,-0.17630231634279558,0.9785059419910918,-1.0187700936901987,-1.976806978740745,4.148624897003174,-3.7009766648332847,-1.3800452236646068,3.050462736904357,1.0,0.49502985524538856,0.5089603375119788,0.37247893057898473,-0.6432066660955941,0.5324148516553908,-0.044036625637637467,0.5485256475584437
7.6000000000000005,0.056091480451736564,0.29679029806229723,-0.03440669452384762,0.02855895876878512,-0.0018544197274432419,0.22420883831255115,-0.10735863537328898,-0.17679341770522272,0.9783750816622774,-1.0187809796044716,-1.9768097292774032,4.148649963826884,-3.700995873353969,-1.3800347487079065,3.0504472810512064,1.0,0.4950408322631037,0.5089475285587124,0.37249177973437037,-0.643195227739663,0.5324129637455431,-0.04404296346081455,0.5485403835800965
7.7,0.40658424585886094,-0.37770864487490396,0.05929815305678465,0.016674704501309433,-0.009985838182617696,0.23408311859337663,-0.10772922649698655,-0.1772668252715232,0.9782488738769318,-1.0187560559860878,-1.9767970472234544,4.148649406124748,-3.700973173181051,-1.3800463942420038,3.050482808175939,1.0,0.495043122123358,0.5089317987830615,0.37245440269923114,-0.643221959738563,0.5324331438774402,-0.0440780075644447,0.5484866334378773
7.800000000000001,0.33365658882522414,-0.139364695947387,-0.014644573475349906,0.020604052274256858,-0.007399508695239256,0.23582298743174343,-0.10676222124624415,-0.17596001825484278,0.9785907721373401,-1.0187808180037643,-1.976833005944723,4.148625024975746,-3.700984746755882,-1.3799987421767823,3.050459494608989,1.0,0.4950346624428167,0.5089477228984538,0.37248985900955794,-0.6432027778272429,0.5324196514067472,-0.04404522380227416,0.5485248578245512
7.9,0.40209308891518414,-0.4166652322720267,0.14104879140752163,0.01532228612005066,-0.0090246502854112,0.2326802003170689,-0.10719573691341619,-0.17656293549902632,0.9784344755756698,-1.018770831380848,-1.9768091640868128,4.148660319059422,-3.7009480028528836,-1.3800228277789515,3.050489561069326,1.0,0.4950359771326216,0.5089545494969249,0.372458346584187,-0.6432211214542805,0.5324165434453361,-0.04404554880104125,0.5485063379867486
8.0,0.3917485066740325,-0.35465521509055953,0.05570422945807946,0.019446474053007062,-0.006456844469233168,0.22849525708883126,-0.10762925258058824,-0.17716585274320987,0.9782781790139993,-1.0187935108477038,-1.97681489456913,4.1486496925354,-3.700985094110006,-1.3800333160873273,3.050466588453095,1.9110377693204992,0.49504565219632696,0.5089358870765285,0.3724809530606194,-0.6431995305146226,0.532425010419662,-0.044054741161239065,0.5485226996274706
8.1,0.28103015265537906,-0.26923571420778475,0.23819777182900884,0.019200315533287236,-0.0058348979555567886,0.22543955282370234,-0.10763296167920318,-0.17719721884997713,0.9782720942765923,-1.0187773918997798,-1.9768314115152958,4.148642967954708,-3.700952107122014,-1.3800331542784794,3.0504676401511555,2.0,0.4950298173859479,0.5089408833224538,0.37245062773695525,-0.6432253767823335,0.5324267810867305,-0.04404850789773336,0.5484911725787674
8.200000000000001,0.29134891748146263,-0.09155701274392747,0.1679320351070647,0.02423550563335081,-0.006547110157883148,0.226430178257456,-0.10763325815871365,-0.17722404690062005,0.9782672022053257,-1.0187348154539704,-1.976809769106003,4.1486382484436035,-3.7009387728153653,-1.3800228277789515,3.050483226776123,2.0,0.4950364985850152,0.5089427662046648,0.3724823279617557,-0.6432054822629882,0.5324177546395015,-0.0440427904305589,0.5485237230444625
8.3,-0.054199353110758075,-0.3250662718222917,0.2711395355951203,0.016024061074654063,-0.0032398577717723262,0.22705744517578813,-0.10769732755831078,-0.17729479238679619,0.9782473267685993,-1.0187460182512362,-1.9768200451779279,4.1486492031999465,-3.7009623249772092,-1.3800466696368616,3.0504604043670756,2.0,0.4950359383393699,0.5089542683447704,0.37245660740412206,-0.643217305311275,0.532419481925771,-0.044042018326823314,0.548508244273225
8.4,0.33913849193369006,-0.3607524106860393,0.23001043434462906,0.015027318501743466,-0.008879826090767953,0.23298671163268408,-0.10776261063486592,-0.17736637367568434,0.9782271661800342,-1.0187559127807617,-1.9768448454403873,4.148638163752981,-3.7009850110480498,-1.379986588154928,3.0504708290100098,2.0,0.4950397473368579,0.5089424257268265,0.37244744069913555,-0.6432076076697554,0.5324427193562631,-0.0440403881669553,0.548497190740629
8.5,0.2633057861829402,-0.3057987019932999,0.08077056201061075,0.016205775511751605,-0.004710351482225598,0.2276685063947813,-0.10778309842106942,-0.17740017104303343,0.9782187799800052,-1.0187916611622723,-1.9768212078263963,4.1486382484436035,-3.7009727998367414,-1.3800110296606247,3.0504945529697167,2.0,0.49504603556196436,0.5089449892409389,0.3724570149457272,-0.6432151379730201,0.5324240897663266,-0.044064852694953645,0.5485044791757125
8.6,0.04714400433837342,-0.7133263923019016,0.17981086483224176,0.00736227539946129,-0.0038599095064188265,0.23218740863313247,-0.10780219187513539,-0.1774327923194214,0.9782107602785122,-1.0187578427938768,-1.9768247965794508,4.148623115452606,-3.700973173181051,-1.3800109068499964,3.050472759023125,2.0,0.49504081737838784,0.5089429972862561,0.3724726771675004,-0.6432078850454861,0.5324259530363715,-0.04405022927561493,0.548512350316189
8.700000000000001,-0.28608184838203365,-0.8229385603915224,0.023105308132944036,0.04469855369544703,-0.03298170598274045,0.23158085615244492,-0.10756868918402941,-0.17709625302667303,0.978297395352092,-1.0187446353777931,-1.9768213350490105,4.148613786289034,-3.700996678327528,-1.3800348320523208,3.050459384918213,2.0,0.49504080120845173,0.5089369859748544,0.37248175099790376,-0.6431858807024392,0.5324442620745646,-0.04404136025827802,0.5485210927899675
8.8,-0.9483963823123736,-1.6433803883772373,0.1339023941400139,0.09811813801909441,-0.12494321122284589,0.22437763167266378,-0.10745466150913666,-0.17695052088831784,0.9783363428392385,-1.0187446695019,-1.9768095824470946,4.148625750458149,-3.7009727464535636,-1.3800351670681883,3.050447204699446,2.0,0.49503758959664124,0.5089459491010974,0.37246207002377885,-0.6432110012012446,0.5324279438548638,-0.04403738385016529,0.5485077951677695
8.9,-1.7292541092545985,-2.27951051826719,0.006671199124498713,0.1715153788189892,-0.20370211691002246,0.21887091822343968,-0.10749745902799125,-0.17705360384760643,0.9783129903790191,-1.018733024597168,-1.976819655269493,4.1486292434318495,-3.7009644803237,-1.3800137663425462,3.0505079140502454,2.0,0.4950381176762079,0.5089555020162159,0.3724851801710452,-0.6432047122466741,0.5324120344603168,-0.04404835079524145,0.5485297316442554
9.0,-2.364592484930382,-2.9623266320258455,0.017077747768038436,0.22984568544741604,-0.2508145931627267,0.21502739368885054,-0.10792212170036883,-0.1776719365985488,0.9781532308008944,-1.0187091857066275,-1.9768091640868128,4.14862585364486,-3.700947910431687,-1.3800228277789515,3.0504701996404795,2.0,0.49502592086859043,0.5089608139848556,0.3724773918067097,-0.6432142558951093,0.5324060787947449,-0.04402821154357641,0.5485259381870459
9.1,-2.628002403811909,-3.192249551425771,0.018451979461099822,0.27799822995622353,-0.3009467318872449,0.2113680955062427,-0.10882739850932059,-0.17893876092158423,0.9778217897048578,-1.0187074589434333,-1.9767864818999494,4.148650462656908,-3.7010162303452274,-1.3800458674269571,3.0504700588885014,2.0,0.4950410550880089,0.508946980114063,0.37248633133022746,-0.6432022824186379,0.5324154502507085,-0.044051318338206816,0.5485290271065477
9.200000000000001,-2.4298908413368543,-3.497602313851685,0.007455984838011063,0.2770092994439483,-0.3144387604458195,0.21268192596935048,-0.10914809359558202,-0.1793833791169083,0.9777054846473924,-1.018744448408296,-1.97680916915698,4.148661136627197,-3.7010332595303455,-1.3800466645666944,3.050459405198882,2.0,0.49502890404532585,0.5089395990793869,0.3725014670839769,-0.6432048248079415,0.5324216813744952,-0.044041367577111946,0.5485207967689817
9.3,-2.6381005883043276,-3.3103460677015364,0.06894881096491355,0.28648559647702976,-0.31990631969382055,0.2130976566624897,-0.10871037718885691,-0.178761302010863,0.9778682879470223,-1.018697157481086,-1.9767966731937143,4.1486493200274595,-3.701032971556949,-1.3800229209059367,3.050494112106008,2.0,0.49503292104896757,0.5089376254192721,0.37248468289964126,-0.6432147537118319,0.5324282601173419,-0.04404221617841936,0.5485026997471762
9.4,-2.747593845783962,-3.4793965494256383,0.12175307458533323,0.2874644886855194,-0.3254421472843807,0.2118696224508682,-0.10855687091780215,-0.17855913068824278,0.9779222958354641,-1.018719918999745,-1.976821085015768,4.1486382484436035,-3.7008889925067336,-1.3800347487079065,3.0504710572928015,2.0,0.4950311888202975,0.5089429997437548,0.3725027247291505,-0.6432021948155475,0.5324248002798729,-0.04404346621032744,0.5485206848566245
9.5,-2.8113587944591134,-3.3480129742191003,0.1896845013825236,0.29554092748908867,-0.336982173589593,0.2096233864298971,-0.10826471555959913,-0.17814667910025392,0.9780297128843096,-1.018768310546875,-1.9767755174113135,4.148648873709551,-3.7008926616155815,-1.3800449637496746,3.05049467086792,2.0,0.49503638786963655,0.5089710876072471,0.37249539480187055,-0.6431984627349455,0.5323937687364371,-0.044038888185725704,0.5485555476643924
9.600000000000001,-2.9167152448728872,-3.163750461908773,0.11957979125317075,0.3053027703677653,-0.3355362765843832,0.20824385566079281,-0.10775135111490625,-0.1773999178164676,0.9782222692429916,-1.0187540740433272,-1.976833005944723,4.148671619041816,-3.701046133267687,-1.3800476273126088,3.05046030428693,2.0,0.4950425997102051,0.5089631734857323,0.3725066129947452,-0.6431841161156843,0.5323948211614113,-0.04404725873651387,0.5485706756424313
9.700000000000001,-2.893714935251018,-3.2038992267847477,0.08566282008562379,0.3055682484620025,-0.3372096556061405,0.20947138900506593,-0.10745998379737809,-0.1769665395859003,0.9783327967877649,-1.0187435206276123,-1.976821085015768,4.148640144566309,-3.7010540943266115,-1.3800347487079065,3.050459384918213,2.0,0.4950358555481297,0.508942880782162,0.37247356573057644,-0.6432111385827253,0.5324368346677134,-0.04403657124826999,0.5484990689917678
9.8,-2.716652886638309,-2.9026427845373544,0.24887616539383492,0.2644340342174454,-0.32465747633962705,0.2175248461471871,-0.10730507849713432,-0.17674497305230794,0.9783899188501979,-1.0187377653991578,-1.976801635252473,4.148659599069795,-3.701000218283549,-1.3800498728814494,3.0504657914073885,2.0,0.49503130644684246,0.5089526194023465,0.37244561746628463,-0.6432293135209627,0.5324390249555376,-0.04404536645490892,0.5484749225129624
9.9,-2.1546887602296674,-2.877796194753276,0.47230377918724603,0.2652771668888687,-0.27069548575537944,0.21093809819754497,-0.10732255960770923,-0.17679549745310152,0.9783788733551884,-1.0187406489092394,-1.976848905810892,4.148642060599639,-3.700872396300722,-1.3800466696368616,3.0504790969404176,2.0,0.4950280092353505,0.5089497148397777,0.37244338552026457,-0.6432293668550196,0.5324355512356249,-0.04402936965362276,0.5484795164849924
10.0,-2.0115564926487592,-2.5305290857992064,1.0270010228093485,0.2504841662562928,-0.2803908227394349,0.21627129673612294,-0.10782775789018995,-0.17749428722341473,0.9781965150727918,-1.0187494739259104,-1.9768235876342408,4.1486306404834465,-3.7008866471179958,-1.3800134094684693,3.0504519923890454,2.0,0.49504160612857034,0.5089530129923798,0.372453466036536,-0.6432125613751623,0.5324324282625681,-0.04405322165304032,0.5485003408254333
10.100000000000001,-1.831142970630502,-2.391767084580644,1.3378841477810473,0.23844497610995008,-0.27864706207488976,0.2217945209138999,-0.10814325757131843,-0.17792969719980015,0.9780828438289916,-1.0187807083129883,-1.9768588632322335,4.14864018325602,-3.700969934761799,-1.3800367641375069,3.05044150873192,2.0,0.4950419690620127,0.5089566668279958,0.37247516193591695,-0.6432047810239023,0.5324109612025446,-0.04405455941135394,0.548530194113731
10.200000000000001,-2.2192906155834797,-2.246806483423006,1.979829734242248,0.23828601299247823,-0.28637308417298607,0.2212200545933582,-0.10805785783362457,-0.1778141423721946,0.9781132993567411,-1.018746634832949,-1.976833005944723,4.148651858679385,-3.701058122031091,-1.3800347487079065,3.0504390303500735,2.0,0.49504481666785877,0.5089657950379487,0.37244567276716767,-0.6432084805606708,0.5324339237777894,-0.044037611420976105,0.548504928077912
10.3,-2.470960229248009,-1.9856070405937527,2.4452893797033557,0.2343630473594229,-0.2937904496331899,0.22193814028212555,-0.10793935441364383,-0.17762555106735595,0.9781606348550111,-1.018766131313496,-1.9768413876115656,4.148659125027155,-3.7010051381549847,-1.3800291140290835,3.0504688174099677,2.0,0.4950439297332194,0.508948061836938,0.3724257632179375,-0.6432477088572763,0.5324242104927068,-0.04407179386235851,0.5484656070501014
10.4,-2.2618207548601137,-2.2064146002523883,2.8999398926680695,0.225780091974817,-0.2971354374929537,0.22250035207871968,-0.10765631625262224,-0.17721197803070032,0.9782666435391106,-1.0187710646991026,-1.976871416954884,4.148661136627197,-3.7010013622062554,-1.3800321004846108,3.050485769070487,2.0,0.49503410857555014,0.5089591026395502,0.3724387620137182,-0.643221311242896,0.5324387910821212,-0.0440551428688863,0.5484837489851281
10.5,-2.2910222370267572,-2.2758388134671375,3.1252320967721463,0.2215027942104991,-0.2957036299863971,0.22533923756875876,-0.10709575784710954,-0.17642587228251255,0.9784703472191167,-1.0187824367164182,-1.9768655727814675,4.148655000402965,-3.700966653442805,-1.3800402777366203,3.050501318444171,2.0,0.49504044345157733,0.5089557534803671,0.3724471454164684,-0.64321790255587,0.5324362452414567,-0.04404704842011273,0.5484908678458408
10.600000000000001,-2.459107147472852,-2.270422946163842,3.3825548892565567,0.21727147396567859,-0.2927643242235915,0.22447539950506468,-0.10683987922415576,-0.17609119587896518,0.9785586682800607,-1.0187411009541927,-1.9768687687315882,4.148636029279072,-3.7010038466671253,-1.3800347487079065,3.050492051508885,2.0,0.49503581260618196,0.5089690723963439,0.37242908802488933,-0.6432299844522938,0.5324220446862481,-0.04404124450452175,0.5484909499856037
10.700000000000001,-2.0890414326207525,-2.224382426964977,3.3471999371378565,0.2172885957746758,-0.2962134246196402,0.22673841199732683,-0.10652795801176979,-0.17565609947897987,0.9786707955664383,-1.0187771367087293,-1.9768470901486423,4.148659059883231,-3.700994851763997,-1.3800466696368616,3.050512890044255,2.0,0.49503000260333424,0.5089678809809239,0.37242072451502195,-0.6432381509098837,0.5324289501552536,-0.044042880952177114,0.5484745380489788
10.8,-2.085737880602383,-2.1907493941447282,3.2012564356507265,0.2101520011199663,-0.2919920956558027,0.22486507229015568,-0.10637458025127712,-0.17542213041567717,0.978729434719792,-1.0187664539340529,-1.9768431416690415,4.1486496925354,-3.700960775414938,-1.3800317538021345,3.0504893866621954,2.0,0.49504033312671925,0.5089593555209955,0.3724133354459197,-0.6432402602555727,0.5324339247775542,-0.044052020522877475,0.5484665010920586
10.9,-2.3278020823754635,-1.8365521448285895,3.2592348381907277,0.220630666396991,-0.286775908086355,0.22346761268621723,-0.1067948998407971,-0.17604001680673448,0.9785727977226487,-1.0187950902670593,-1.9768547212452525,4.148677425929901,-3.7009948884815804,-1.3800368752652872,3.050457173298537,2.0,0.4950324961436145,0.5089637755038432,0.37244062484414125,-0.6432356558397431,0.5324148324921302,-0.04405173130002667,0.548490457682049
11.0,-2.388013082160079,-2.0930574221777385,3.082443389312177,0.21164690634603045,-0.28524659779852113,0.2196028081718636,-0.10697106128096145,-0.17630531530981441,0.9785058012212585,-1.0187665120195062,-1.9768381940044406,4.148670075686832,-3.7009749025342904,-1.3800364780611458,3.0504691688309,2.0,0.4950245091029443,0.5089645210031059,0.37244984539714726,-0.6432380624899431,0.5324120479471487,-0.04404900387905989,0.5484905572771235
11.100000000000001,-2.3336494494540303,-2.156719847628596,3.124184447744589,0.2119571803950605,-0.29321754281172663,0.224002435795221,-0.10719141873717905,-0.17661476290405748,0.9784257769077636,-1.018726521172054,-1.976825590289002,4.148640410974756,-3.7009488544859828,-1.3800347487079065,3.050478721502889,2.0,0.49502767461121366,0.5089624396839939,0.3724465379719427,-0.6432289678168099,0.5324221680130169,-0.0440517939356544,0.5484911753352929
11.200000000000001,-2.268567738418743,-2.2748710785227018,3.110735501510965,0.21084103887471228,-0.29366626741361945,0.22107924303706053,-0.10742120746854561,-0.17693363175984214,0.9783429725047601,-1.0187674315306599,-1.976821085015768,4.1486496925354,-3.700955492877147,-1.3800130905313004,3.0504614812522646,2.0,0.49503964282355944,0.5089575056564845,0.3724504822355695,-0.6432203950851013,0.5324191735171595,-0.04404941860954214,0.5485043260887118
11.3,-2.0189517591409256,-2.198668757426305,3.292315968775539,0.21150701722588874,-0.300351644091898,0.22100488928108997,-0.10754787410388993,-0.17710608683867746,0.9782979458370847,-1.0187712131169215,-1.976828206412818,4.1486539202781865,-3.7009632441659153,-1.3800562167668,3.05049467086792,2.0,0.4950334369458233,0.5089420430075,0.3724472935071868,-0.6432268439358079,0.5324308358689357,-0.0440397383761442,0.5484862201551167
11.4,-2.4792474144383796,-2.3144411706978643,3.1464970576426756,0.21001337810713522,-0.28586766503352945,0.22252975057572422,-0.10744782361969046,-0.176956646697653,0.9783359746896795,-1.018768444025494,-1.976821085015768,4.148663627810595,-3.700968286629003,-1.380030013884905,3.0504708290100098,2.0,0.4950223989514862,0.5089651554808083,0.37245556267273344,-0.6432215198004502,0.5324221473247905,-0.044045420472465,0.5485004416033425
11.5,-2.3854719183427684,-2.0667430620293614,3.078759072285398,0.2138687818913462,-0.2904367805229018,0.2220524426914912,-0.10721253135818991,-0.17661121649807673,0.9784240353969464,-1.0188059544066974,-1.9768156056084814,4.148643165126776,-3.7010122682013136,-1.3800271221267304,3.050483226776123,2.0,0.49503884767394624,0.5089464228416624,0.3724528682117759,-0.6432194744136073,0.5324306554170992,-0.04404370409644451,0.5484947192422787
11.600000000000001,-2.2095425506063995,-1.9775450924240001,3.176304695738819,0.21559546041784783,-0.29172065623458104,0.2217861317384186,-0.10666268257923338,-0.17580993640134338,0.9786284643321502,-1.0187559127807617,-1.9768426598730688,4.1486518688559855,-3.7009465874853738,-1.3800421356356434,3.050459384918213,2.0,0.4950348428193547,0.5089452767573134,0.37244097571272156,-0.6432283382178868,0.5324320783152404,-0.04405378055947353,0.5484821339959829
11.700000000000001,-2.170449695777388,-2.2047914102493253,3.09521573538633,0.21186869404943742,-0.2948710971829377,0.22641251572098445,-0.10627436086472078,-0.17525699121684601,0.9787699093101768,-1.018768310546875,-1.9768544708169473,4.148656591594729,-3.7009994769315484,-1.380013274054407,3.050473290902597,2.0,0.49503786210489686,0.508960976937945,0.37245012574378245,-0.6432222916766565,0.5324164939836006,-0.044046754170747424,0.5485049169072805
11.8,-2.1089530922594806,-2.140720695877881,3.137692587422765,0.21214048913308312,-0.2966585286140594,0.22603184777324545,-0.10596055288579702,-0.17480654702302797,0.9788845388194912,-1.0187559127807617,-1.9768619623640924,4.1486735343933105,-3.700965403744835,-1.380015444428327,3.050442258676232,2.0,0.495034621980725,0.5089676284848783,0.37244736763964653,-0.6432223788794355,0.5324194298044113,-0.044059074241984714,0.5485009754342872
11.9,-2.2552339399393215,-2.1163402599895127,3.0539346250385364,0.21533297457090445,-0.2896971033956649,0.21678433054319976,-0.10572810193404478,-0.17445053693087934,0.9789731368346993,-1.0187807083129883,-1.9768564159565032,4.148658764894381,-3.7009658153471725,-1.3800158479600304,3.05049467086792,2.0,0.49505088969639527,0.5089480620242904,0.37242678096803583,-0.6432304574725147,0.5324316443255026,-0.04406745489969847,0.5484789714466765
12.0,-2.1375084528069697,-2.0028241989872906,3.161872983978378,0.21402307832114847,-0.2925061113910755,0.21858016812173436,-0.10561053668419573,-0.17426627748232126,0.9790187128188443,-1.0187761316191013,-1.976825485682967,4.148640360763859,-3.7009753735146504,-1.3800488699704612,3.050468716689754,2.905249083768071,0.4950511876108384,0.5089425068685364,0.37243499114890816,-0.6432254465653061,0.532432046220897,-0.04406208226033469,0.5484848894498138
12.100000000000001,-2.2808259427678665,-2.2482370329448047,3.596058034317465,0.2183452076333797,-0.2971028565220583,0.21933248397742608,-0.10579974286895617,-0.17454063203408324,0.9789494100150253,-1.0190343856811523,-1.9765961555134852,4.1486382484436035,-3.7009872168644953,-1.3800419472907257,3.050449194816768,3.0,0.4950543705147909,0.5089414489510226,0.3724482498046288,-0.6432104623403196,0.5324356159308591,-0.04406355516540536,0.5484988779664594
12.200000000000001,-1.8904784689568834,-1.2383701036771777,4.054811302213801,0.17047565178672758,-0.2665738679116267,0.21002215248180517,-0.1061100886883469,-0.17494322521396033,0.9788438732521012,-1.0199643493049244,-1.9755910476393272,4.1487496846312,-3.7009564120268026,-1.379882709508151,3.0504809578142926,3.0,0.4949477721368266,0.5088466003778677,0.37251712746801174,-0.6432148584722259,0.532418842878407,-0.04404083303562273,0.5485118290557647
12.3,-1.8402901734831278,-1.14657181628502,4.759128537577235,0.13594232084010055,-0.2251709061016382,0.18031680294752966,-0.10641051867791926,-0.17533364352806183,0.9787414818163003,-1.0210064637033562,-1.9744090157426408,4.148905138824125,-3.700988853066197,-1.3797343412982386,3.0506157875061035,3.0,0.49487757073280014,0.5086754910866743,0.37259483211674177,-0.6431878497358631,0.5324474085065893,-0.04408519128024873,0.5485122086485932
12.4,-1.993372683933998,-0.7138625406528518,4.783171708378501,0.1316539472537298,-0.20364480284571296,0.15556862819487075,-0.10656985536113228,-0.1755697006681548,0.9786818272342428,-1.0222447114789268,-1.9731489620604457,4.14922571182251,-3.700969797948702,-1.379575040315157,3.050700532158211,3.0,0.49456822186307725,0.5083716656604965,0.3728671711750798,-0.6431492323357478,0.5324325652761596,-0.044056494387945316,0.5485742007072806
12.5,-1.7430963755610205,-1.4183784770736547,4.680035876209705,0.15233818927217033,-0.2209835246960247,0.12482939851691477,-0.10667460559898857,-0.17579084500732178,0.9786307144453994,-1.023649618223116,-1.9720927329211424,4.149345874786377,-3.7009970150389613,-1.3793872038470667,3.0507266227301066,3.0,0.4940338860057308,0.5079342800628683,0.37320419172413105,-0.6431702876460035,0.5323775700312338,-0.04403290915470308,0.5486047820866764
12.600000000000001,-1.6534435521344475,-1.212207718921599,4.977892814186147,0.14910954012742583,-0.2110193457478174,0.10110092134385437,-0.10683046795793698,-0.17608684982557452,0.9785604086627192,-1.0248969874001495,-1.9710233578700591,4.149582838134231,-3.700958459159588,-1.3792074362384241,3.0508605161093723,3.0,0.4938378826498341,0.5076977669008824,0.37318372210719875,-0.6432260006783685,0.5324297995753089,-0.044044477462320035,0.5484878344873104
12.700000000000001,-1.2175391987885433,-0.5457969923523555,5.475714705014584,0.10427470467567726,-0.19194857108242194,0.08166454201565754,-0.10721469384362517,-0.17664406298731783,0.9784178183107008,-1.0259628432597117,-1.969670669992466,4.149797432740261,-3.7010003597340027,-1.379050690601177,3.0509759471629563,3.0,0.49344823615526767,0.5073145269706868,0.3732850284822199,-0.6432720389877409,0.5324645499415237,-0.04405173905967766,0.5483995178680805
12.8,-1.340788768727934,-0.46953888896861423,5.526528182317487,0.07179880822101797,-0.1746983834464646,0.05713709976984061,-0.10748062930811152,-0.17703930508038274,0.9783174228469929,-1.0271423398115351,-1.9683017783870163,4.149956226348877,-3.7010053622526975,-1.3789165247978963,3.051004937574606,3.0,0.4932187799907207,0.5071033537258234,0.3735012073909943,-0.6432528318335047,0.5324337679356194,-0.04403869295274749,0.5484529794094201
12.9,-1.5982642483484906,-0.6826911277461076,5.392100486934011,0.09784549378969375,-0.19044477557353495,0.03823788404129004,-0.10734105905649514,-0.17687930192598772,0.978361673654947,-1.0283300080074682,-1.9671563303332578,4.1501118144961024,-3.701031744769358,-1.3787064995452019,3.051053008663116,3.0,0.492893686008171,0.5067516596806358,0.37385011580588745,-0.6431940855259115,0.5323958937071191,-0.044026875213477694,0.5485595819664637
13.0,-1.6287092247360329,-1.0031976628666488,5.288760435608906,0.11203100232661277,-0.19908253043456697,0.018190325841080573,-0.10723724243526925,-0.1767531977082968,0.9783958711875469,-1.0296240349872259,-1.9661439291465643,4.1503167152404785,-3.701140325248538,-1.3785467989992704,3.0511241456134464,3.0,0.4923900253653402,0.5062702579283828,0.3741447367057022,-0.6432131834456847,0.5323839587200265,-0.044033616440683536,0.5485482310266033
13.100000000000001,-1.6815231918903668,-0.659197356749671,5.478001231557768,0.09230336954125136,-0.18294195745143838,0.006542846377954558,-0.10726197044488975,-0.17674896996180967,0.9783939242907534,-1.0307356745873006,-1.9650237124972683,4.150473777779827,-3.701153417626852,-1.378368890289422,3.0512032508850098,3.0,0.4922482700849493,0.506112214195143,0.37414893354727796,-0.6432432251912865,0.5324255837795022,-0.044037583854972695,0.5484722802391971
13.200000000000001,-1.311094162123825,-0.4048031008261702,5.828041479610072,0.06053143685364015,-0.18029446348998923,-0.007648878879534894,-0.10689761551942759,-0.17617635926171685,0.9785367869834907,-1.0319313084065374,-1.9636661540697082,4.150685747882841,-3.701153417626852,-1.3782080939050676,3.0512770687519963,3.0,0.49194111218924885,0.5057912069365165,0.37429255450276144,-0.6432714710651612,0.5324291961439933,-0.0440348063413664,0.5484358681173241
13.3,-1.4931339081432617,-0.18128095362472774,6.070457457227585,0.04841308628576347,-0.17687272986597596,-0.0006409210587321895,-0.10652160914283557,-0.17559248174538009,0.9786829731834549,-1.0330358232843864,-1.9623141834575821,4.1508649932782395,-3.701153417626852,-1.3780444893239092,3.0513726293376005,3.0,0.4914854294169531,0.5052737967283194,0.3746468864493704,-0.6432289224056914,0.5324290836091639,-0.04407108009325699,0.5484829661961551
13.4,-1.366706321361954,-0.4420060017373724,5.7581013512634875,0.06921809994158812,-0.18867099699708942,0.0058218344334751764,-0.10673403610946709,-0.17589102456909955,0.9786061377039852,-1.0342161935723904,-1.9613209988739455,4.151014122607645,-3.7011896572508753,-1.3778640502428294,3.0514756381525023,3.0,0.4912707171729306,0.5050324806799508,0.374913385647313,-0.6431706243791264,0.5324076554899178,-0.0440396293310915,0.5485746506719694
13.5,-1.5765841156845815,-0.33585286779956025,5.8827295320543715,0.057657641795669796,-0.17996199845911204,0.012260995987379583,-0.10694646307609863,-0.176189567392819,0.9785293022245156,-1.035370765812319,-1.9602056890405202,4.151189429730141,-3.701237817803854,-1.3776654317659665,3.051536072826116,3.0,0.4908620188340238,0.5046119585285777,0.3750636670521176,-0.6432143077082764,0.532428089320315,-0.04406022907793624,0.5485019419069368
13.600000000000001,-1.5787584257675469,-0.35546711442979156,6.121628964820885,0.048715453773077656,-0.19190579091122445,0.008576566114925854,-0.1070948497232183,-0.17639931761993435,0.978475318227046,-1.0365266799926758,-1.9589789922365288,4.151409311880237,-3.701249738732809,-1.3774784433508245,3.05161877605621,3.0,0.49068270042464546,0.5044524200446197,0.3751625344299714,-0.6432189396421324,0.5324218482456571,-0.04406571396345765,0.5485021276615253
13.700000000000001,-1.388103235059992,-0.308201395558319,6.131616788618018,0.03863827483544889,-0.1922523571476839,0.013707251215989641,-0.10708056237793195,-0.17637636579063978,0.9784808286923464,-1.0377521885146093,-1.9577130741963749,4.151567972968955,-3.7012808847940577,-1.3773048744898693,3.0516857360384084,3.0,0.4903627023792904,0.5041265871688728,0.3753633002628139,-0.6432115791423348,0.5324359841600532,-0.044052911292035715,0.5484980658447537
13.8,-1.5922885474194448,-0.17166907765287626,6.059405384428961,0.04119007235466791,-0.19393888365301282,0.01899573959072937,-0.10647449419145526,-0.1755013511003436,0.9787038895587021,-1.0390114568780264,-1.9565299825430045,4.151764708370666,-3.701363269068553,-1.3771379414257767,3.0517463468621573,3.0,0.48988604007785874,0.5036418871273121,0.37566853292591046,-0.6432075630953882,0.5324260260748439,-0.044043158115708164,0.5485132247797097
13.9,-1.5813158542611847,-0.5231165429365241,6.082011567153138,0.03224436468337384,-0.20664408554290686,0.017883737814098997,-0.1059667080736936,-0.17476984579439683,0.9788904717902664,-1.0401199153518517,-1.9553693749698564,4.15195894241333,-3.7013843921491834,-1.3769767646675652,3.0518173671018234,3.0,0.4897140347429598,0.5034522042899885,0.3757642614736125,-0.64320721415966,0.5324339317223711,-0.044060301019324136,0.5485045832786751
14.0,-1.7546985216476125,-0.1267927023492073,6.141736533629534,0.032939054663903115,-0.21776678251438517,0.021295534176676116,-0.10591847999615261,-0.17470937735496228,0.9789064832337531,-1.0411302741234332,-1.9542102980994582,4.152172981871134,-3.701384660114154,-1.376821997080196,3.0518994331359863,3.0,0.4892767613586911,0.5029927729475335,0.3760296390767803,-0.6432151027963917,0.5324305030440944,-0.04405806470193153,0.5484988403794125
14.100000000000001,-1.9772277337804023,-0.02013786437153827,6.357754970306553,0.030609945685040232,-0.21890944850983757,0.01682290628664385,-0.105756979756295,-0.17448386907140945,0.9789638940460775,-1.0422749882084288,-1.9530002079405726,4.152354717254639,-3.7014771537836575,-1.3766506958197293,3.0519732663395,3.0,0.4890763399720269,0.502794716134096,0.3762046589958843,-0.6431997877039948,0.5324126606821494,-0.04406618753327595,0.5485334656692994
14.200000000000001,-2.039598021560292,-0.4547562830279447,6.071690533436629,0.027214076490213335,-0.2230127739572796,0.015545569439405015,-0.10501345663658651,-0.17341034161527857,0.9792340259664154,-1.0436089349727562,-1.9518253265339076,4.152499810503956,-3.7015120704470887,-1.3764632383929651,3.0520750517647413,3.0,0.48878877657249703,0.5024893454888956,0.3763992216401291,-0.6431867872689399,0.5324272121798339,-0.04406780478292128,0.5485344556130308
14.3,-2.0547100266795586,-0.2580889004182031,6.488928147614138,0.029491331110714687,-0.21641396543369265,0.024508944754985714,-0.10441586733663451,-0.1725490131416418,0.9794509411333291,-1.044856966535597,-1.9506985149779261,4.152720091739598,-3.7015263042845667,-1.3762863899635536,3.0521397590637207,3.0,0.4884579506628762,0.5021584974248737,0.3765351426668796,-0.6432163042093245,0.5324362660736431,-0.04405266706388195,0.5484922707690723
14.4,-1.9518172695040799,0.4278602106203973,6.519698519230506,0.017738372298006223,-0.20155301653939253,0.02107677748159497,-0.10449060153424859,-0.17266986322458225,0.9794215273099421,-1.045810916718357,-1.9494542912904795,4.152912610612755,-3.701590411602251,-1.3761367604812906,3.052229190252487,3.0,0.48797558074246394,0.501662516427478,0.3767612893341744,-0.6432486858414104,0.5324434276282834,-0.04406301762920252,0.5484465106244656
14.5,-1.9140834918272904,0.1752532541859359,6.405618106685009,0.014643242111825066,-0.20907001097468636,0.026527795528476287,-0.10377559617507062,-0.1716701066841004,0.9796730782335071,-1.0468261126414022,-1.9482130789037677,4.153091764215728,-3.701640656039678,-1.37595424775813,3.052294432628693,3.0,0.4877970448062439,0.5014766376624993,0.3769136816309246,-0.6432415600255518,0.5324327879365968,-0.04406426435017066,0.5484650967866924
14.600000000000001,-2.0464136515009694,0.07650662886176209,6.4551963026302595,0.016500035216783046,-0.21784521131784815,0.02461474930733087,-0.10362878755282239,-0.17147436168185562,0.9797232037608846,-1.0479636972237631,-1.9470984321810205,4.153295199908511,-3.701731024706802,-1.3757897468001585,3.05235811273465,3.0,0.4873331619383003,0.5010126458687824,0.3773665067926613,-0.6431776742531315,0.532389485366037,-0.04403870902828094,0.5485840932082713
14.700000000000001,-2.064694991891131,-0.33500126129229857,6.422535474789729,0.036228928222046757,-0.2279269787114424,0.024952621137112184,-0.1037794573322055,-0.17169366410398595,0.9796688744178795,-1.0493688583374023,-1.9460362239343958,4.153463374133594,-3.7017364547978175,-1.375598509935763,3.052466283528961,3.0,0.48717093318897586,0.5008396134658455,0.3774573043912667,-0.6431740820871912,0.5324106969945902,-0.04403162572184916,0.5485682872654273
14.8,-2.0287865737817667,-0.06687874460361319,6.5585162079536135,0.023849790481394486,-0.21664281955563724,0.02461764438558818,-0.10370317381595258,-0.17155051593108764,0.9797020184878654,-1.0506277084350586,-1.9447910422071621,4.153661251068115,-3.7017333934628853,-1.3754209777910587,3.052544080548144,3.0,0.48682232629612693,0.5004750883058274,0.37751172217964646,-0.6432359354718268,0.5324486838678596,-0.04404649330724797,0.5484576891542343
14.9,-2.0234997343833254,0.07824800825879533,6.557108882757341,-0.0006409294799814454,-0.20828539743435193,0.026772780203364818,-0.10357529825582078,-0.17134434798632425,0.9797515749253153,-1.0515438997508242,-1.9435268422275722,4.153870852319198,-3.7018038654016197,-1.3752797692791001,3.0526132793073057,3.0,0.4863865522759932,0.5000211154496684,0.3777241630670775,-0.6432420389146835,0.5324642616093342,-0.044043695115081154,0.5484356319590454
15.0,-1.7479790653538807,0.42250729782322116,6.894922621850956,-0.003913259521018708,-0.20905449585415342,0.029132239599875133,-0.10306147411605272,-0.17066674317626773,0.9799239086252063,-1.052470702264044,-1.9423486880459726,4.154071702890926,-3.70198977178981,-1.3750799155844875,3.0526994427045184,3.0,0.48617264002752736,0.49981057560304004,0.3779933947013861,-0.6432082438621056,0.532400577168721,-0.04404554554633401,0.5485369362000744
15.100000000000001,-2.060634328350944,0.38411513892136,6.632514703305909,0.017919338896953865,-0.23549909477462122,0.02534412480634444,-0.10237596573731335,-0.1697166678348923,0.9801606613167374,-1.053613146409363,-1.9412764708870143,4.154311200384771,-3.702049169564079,-1.37492092834136,3.05280205280432,3.0,0.4858744123844797,0.4995229092765578,0.3782678779544519,-0.6431800280192351,0.532397005836815,-0.04403873272607126,0.5485740330648652
15.200000000000001,-2.4546911499135837,-0.03361391664401725,6.239551415942999,0.031732463187381196,-0.25776920111850743,0.021377446400286815,-0.10206882054899909,-0.1692773213261005,0.9802689133458073,-1.0541013927146332,-1.9409190617003382,4.1544124503890165,-3.7020823372367926,-1.374816847293023,3.0528133491715304,3.0,0.4853971802946261,0.499095188848407,0.3784923619177493,-0.6432160864402918,0.5323967574900199,-0.04401617347127547,0.5485338050033876
15.3,-2.365335304823768,-0.4612950754212464,6.231807335176191,0.04379277364351297,-0.2711739577861719,0.03353385268166814,-0.10209960141598805,-0.1693121727652617,0.9802596890861096,-1.0541276931762695,-1.9408898761509872,4.154409786923793,-3.7020770350229903,-1.3747851007091971,3.0528643869373897,3.0,0.485324616085252,0.49899191142979554,0.37847845428110494,-0.643239832350925,0.5324301327163558,-0.0440377990257482,0.548471826176847
15.4,-2.3278812045215838,-0.14993979018091666,6.090400325077872,0.052968255452457744,-0.267592262708866,0.02675326565903863,-0.10198738162468433,-0.16917458666763455,0.9802950927467787,-1.0540748925262686,-1.9408560649901656,4.154397055872662,-3.7020733115115956,-1.374816914768269,3.0528194678980194,3.0,0.48531652876291637,0.49899435684229226,0.37849899396803666,-0.6432330913608094,0.532424249064504,-0.04403402804963742,0.5484857459954995
15.5,-2.485211190004461,-0.056970290491880266,6.158776505070004,0.049507115767192376,-0.2670275796899383,0.02569676157638935,-0.10182265264393743,-0.1689809776379228,0.9803456034609548,-1.0540928888901175,-1.940804379950592,4.154382458891489,-3.7020794353880824,-1.3748045579249573,3.052801839079478,3.0,0.4852999496257119,0.49901129879477557,0.37848066262809976,-0.6432584997363594,0.5324122559384756,-0.0440353751405946,0.5484674812417402
15.600000000000001,-2.497581609656715,-0.35045366884614537,6.185516846776194,0.048905482073248914,-0.27189082591786673,0.030677284021301165,-0.1022993080055874,-0.1696534478908663,0.9801796897557363,-1.05413407613857,-1.940775056878561,4.154381728473815,-3.702073297834995,-1.3748021454427115,3.052816452410517,3.0,0.48529041168478043,0.49900198882951413,0.37849675765039686,-0.6432473623649547,0.5324091670697657,-0.04402177410237351,0.5484846333631296
15.700000000000001,-2.176868706458506,-0.582318586792989,6.136800281570141,0.04529273769702708,-0.27932319816138645,0.022587784652072958,-0.10253420553840356,-0.1699386259809465,0.9801059120537097,-1.0541276931762695,-1.9407844103121916,4.154367923736572,-3.702073224949818,-1.3747960323783537,3.0528101921081543,3.0,0.4853138377227772,0.4989557751086801,0.3785260022591133,-0.6432209004522133,0.5324233011377844,-0.04405078199136492,0.5484996173498552
15.8,-2.3376485072239492,-0.4430942389254799,6.010253846738401,0.05193867310833042,-0.2768978135107205,0.030345761298030054,-0.10256417803590398,-0.1699035847221376,0.9801088460557525,-1.05415571710483,-1.9407926497479338,4.154402155801002,-3.702084495974828,-1.3748076347269436,3.052805473842053,3.0,0.48531817116887616,0.49896604785312937,0.3785261247467982,-0.6432088481387735,0.5324290075699636,-0.044053298379678744,0.5485080094911349
15.9,-2.3398166089208177,-0.271013844244133,6.019199134571774,0.053958252811152796,-0.278118075915659,0.028488237764447477,-0.10232574769457682,-0.1695964444676004,0.9801869267972767,-1.054130805615937,-1.9407726435931705,4.154334351917978,-3.702052337729025,-1.3748237236417455,3.0528043059443353,3.0,0.48530414470722794,0.49897068981708714,0.3785206228836361,-0.64322055190819,0.5324237831279925,-0.04404538399454126,0.5484999917150166
16.0,-2.2519668837980027,-0.12856553202447846,5.9803236422190755,0.056814996231555025,-0.2794132407180466,0.03568092020716459,-0.10219771580051878,-0.16943111576680248,0.9802289122695725,-1.0541314780085298,-1.9407805608430575,4.154379367828369,-3.702093004129858,-1.3747990767108362,3.052789864737343,3.0,0.4853080222463011,0.49896608779496415,0.3785233120655778,-0.643218648487174,0.5324250460644757,-0.04404419222954285,0.5485010936109621
16.1,-2.3350955116989067,-0.36037648557797636,5.867508369408137,0.05234006034255882,-0.2782873187639981,0.03440966434497803,-0.1021638466223718,-0.16938674312451785,0.9802401108180832,-1.0541461431492143,-1.9407619431828176,4.154374056857,-3.7020697993270812,-1.3747964212251513,3.0527891119553563,3.0,0.48530638828516753,0.498958637317557,0.3785202188822153,-0.643223354488691,0.5324267766637967,-0.04404114076746409,0.5484941400339809
16.2,-2.263949347798429,-0.4613809988015136,5.848858030549447,0.05224686891800982,-0.2755325210941311,0.03493027849538401,-0.10211494250809346,-0.16932108102164156,0.9802565331167038,-1.0541670484339747,-1.9407700047146603,4.154365492413872,-3.7021084640915607,-1.3748109976397913,3.0528225898742676,3.917372904776202,0.4853122694255956,0.4989592869789216,0.37854081978874743,-0.6432144468418446,0.5324189346437957,-0.0440395273356129,0.5485123275175874
16.3,-2.2109459379725123,-0.37404407152319924,5.841060863567732,0.05123245225276467,-0.27980401405495586,0.03388668171970874,-0.10158244053148711,-0.16857064463423974,0.9804409770393963,-1.054152488708496,-1.940775533715719,4.154350706943634,-3.702067037621969,-1.3747871557818812,3.0528176038615777,4.0,0.4852978146743079,0.49896154541748716,0.3785581868008719,-0.6432239603827028,0.532393399206787,-0.04404395207057026,0.5485256015507747
16.400000000000002,-2.2611375121597246,-0.46935428059898454,5.857773555266932,0.05112284215493938,-0.2772041148412383,0.03275663641574237,-0.10191681869155218,-0.16905320999218043,0.9803223214950291,-1.0541380596416987,-1.9407781988719695,4.154388253370166,-3.7020821005443327,-1.3747789346305652,3.052821065945656,4.0,0.4853097642673855,0.49897076237425964,0.37849820379304105,-0.643225480108014,0.5324338653246726,-0.044045697959062984,0.548484400221686
16.5,-2.3101121378320415,-0.25789880597857273,5.779620738831654,0.059543266289396414,-0.2759032115041522,0.03382881188153429,-0.10305120894982812,-0.17067365792720873,0.9799239506803681,-1.054154127002239,-1.9407853455048738,4.154381130954866,-3.7020913563170375,-1.3747969675710359,3.0528135935283944,4.0,0.48530370393169997,0.49897812730165697,0.3784994727249988,-0.6432265139234002,0.5324256775068916,-0.044036753727737576,0.5484918541221921
16.6,-2.2346767766814857,-0.48629641861012285,5.774737536538803,0.05494804928703006,-0.27985879986153617,0.034933890051354353,-0.10239894063137171,-0.16974510429800752,0.9801535829964477,-1.054163932800293,-1.9407476589930008,4.1543747513096605,-3.702055116693014,-1.3748122504857965,3.0527916359610576,4.0,0.4853034365414149,0.49896798258078545,0.378527459253951,-0.6432201488793825,0.5324184521168744,-0.044036323582109516,0.5485063665322658
16.7,-2.385427229739915,-0.48471422774958733,5.8772575961448545,0.05601808958347786,-0.2780493596313535,0.03222716286624752,-0.1022046589149429,-0.16944003134973212,0.9802266145035353,-1.0541350970538073,-1.9408029351301377,4.154346830143115,-3.7020694973013084,-1.3747871557818812,3.0527792311372273,4.0,0.4853086388012122,0.498967576795909,0.37851586540125615,-0.643232439576577,0.5324170344720374,-0.044042008782054685,0.5484928728277226
16.8,-2.4371273755067997,-0.24843106239063942,5.459168751510142,0.058277212544877575,-0.2766474251933217,0.030062572844338383,-0.10144359985065972,-0.1683530746567598,0.9804914813091036,-1.054185293901887,-1.940757324852516,4.154366115464909,-3.70206346009006,-1.3748074201078826,3.0528101921081543,4.0,0.48532128586813156,0.4989393060652348,0.378553587871202,-0.6432102827648682,0.5324194999966986,-0.04405095635210836,0.5485157439976256
16.900000000000002,-2.2193855162982463,-0.6412201577727565,5.742078015853924,0.050623661307908775,-0.28116878363142755,0.03463040252644483,-0.10006984178856826,-0.16642095304917404,0.980963739509595,-1.0541738013400186,-1.940781918735546,4.154337903578092,-3.7020730915332285,-1.3748109976397913,3.0528340339660645,4.0,0.4852989006322415,0.4989648831997658,0.37854702880157143,-0.6432175668452069,0.5324147661800153,-0.04403033597876582,0.5485134528603731
17.0,-2.471902643541168,-0.5332103344375229,5.582098064636315,0.05655651368287829,-0.2752353895561964,0.03245186994694034,-0.09952143344793898,-0.16560531810268783,0.9811576456232834,-1.054137210781437,-1.9407789567829175,4.154378056015479,-3.702058539760212,-1.3748453290012888,3.0527729145166167,4.0,0.48530675846542154,0.49897381758795145,0.3785262267055453,-0.6432197957448755,0.5324144364386068,-0.044043669243916825,0.5485100887250967
17.1,-2.3488849134925256,-0.38085142406571826,5.718435569019555,0.058493044750336634,-0.2778925828707022,0.03411504285006437,-0.10039803688895022,-0.16686463115972272,0.9808535022338193,-1.0541823446020437,-1.9407631359496058,4.1543468662961125,-3.7020743700327428,-1.37484316610765,3.0528059366543707,4.0,0.4853035983288425,0.49897806278629475,0.3785170227056484,-0.6432292208945203,0.532412626810503,-0.044044100560140714,0.5485007578901024
17.2,-2.3353827600654817,-0.2451321925782793,5.610231236191305,0.06263450998352678,-0.2795552357981156,0.03292051886540901,-0.1013352465298498,-0.168212295219063,0.9805281644538624,-1.0541543666122792,-1.940775533715719,4.154380234553192,-3.70208033822644,-1.3748082891247195,3.0527881559269585,4.0,0.4853091503217601,0.49896891980751434,0.37849622186605947,-0.6432349688389951,0.5324281494297328,-0.04403806662844821,0.548479433748573
17.3,-2.3701368517445003,-0.3656841880206154,5.751539381474711,0.06195462476987087,-0.27614052665685573,0.031162023580309593,-0.10121328561044289,-0.16804225934480668,0.9805700449160373,-1.054163932800293,-1.9407874546446742,4.154379367828369,-3.7020913563170375,-1.3748328651611952,3.05282127364993,4.0,0.4853027938361235,0.4989680777006196,0.3785237122284828,-0.6432257431568856,0.532414457024147,-0.044040895257706394,0.5485033170700564
17.400000000000002,-2.6498391715604885,-0.43189051405072776,5.617238514861567,0.057467766077324824,-0.27241070865601524,0.03679127514056111,-0.10082450566033907,-0.16747193434185584,0.9807073485843193,-1.0541679094862306,-1.9407793574521977,4.154375544091891,-3.7020609287724615,-1.3748229185687464,3.0527967596733885,4.0,0.48530865360497977,0.4989724043054107,0.378531718556841,-0.6432116298605496,0.5324163133708285,-0.04403634962177053,0.5485184303017907
17.5,-2.4641947602245358,-0.2770135793601234,5.5258303796920885,0.06500511684843635,-0.2775840548072627,0.03744770108885442,-0.10017090329811668,-0.16649874735917342,0.9809402654674891,-1.0541379014077648,-1.9408012225899247,4.154372651886596,-3.7020653249245092,-1.3747905137527676,3.052783126598193,4.0,0.4853162881562712,0.49895577663661805,0.37854054861339115,-0.6432046227437405,0.532419936575074,-0.04404806857279128,0.5485221892261819
17.6,-2.1513082693719383,-0.654758025529481,5.558254193117242,0.05349931422030319,-0.2832531759732326,0.03472089072204867,-0.10037984749608424,-0.16685137654748355,0.98085905251448,-1.0541852367614775,-1.9407631359496058,4.154372093722031,-3.702051479639845,-1.3748109976397913,3.0527914739100197,4.0,0.48529800991378014,0.4989694423506203,0.37853600111018587,-0.6432210544286474,0.5324162033203098,-0.04403248922165417,0.548507795272438
17.7,-2.2695191285104284,-0.6800097893029831,5.504826354589109,0.05429144722587049,-0.28100290524677485,0.04052799610818872,-0.099433203268053,-0.16545696717646294,0.981189742714181,-1.0541554027650415,-1.9407723768211282,4.154355525970459,-3.702064344538741,-1.3747871557818812,3.052774650294606,4.0,0.48531247873425276,0.4989580666727778,0.37854814897224526,-0.6432115788482745,0.5324121472376618,-0.04405640088060685,0.5485209238039509
17.8,-2.2818471753647542,-0.5945589905628252,5.502307398395504,0.05605432416797574,-0.2799492493959382,0.032372553552585295,-0.09837348594469306,-0.16389144972993924,0.9815607868956974,-1.0541483072847218,-1.94078031107007,4.154323871354763,-3.7020755014429034,-1.3748191359291513,3.052802626828964,4.0,0.48532321269300976,0.498953148398183,0.37852069288132856,-0.6432125709173163,0.5324277868825484,-0.04405478164642872,0.5485047097184975
