xiamingqian9007/apple-picking-rnn/training_data/grasper_20191127_135127_noimg.csv
,/manipulator_wrench.fx,/manipulator_wrench.fy,/manipulator_wrench.fz,/manipulator_wrench.tx,/manipulator_wrench.ty,/manipulator_wrench.tz,/ground_truth.x,/ground_truth.y,/ground_truth.z,/joint_states.elbow_joint,/joint_states.shoulder_lift_joint,/joint_states.shoulder_pan_joint,/joint_states.wrist_1_joint,/joint_states.wrist_2_joint,/joint_states.wrist_3_joint,/mode./mode,/manipulator_pose.x,/manipulator_pose.y,/manipulator_pose.z,/manipulator_pose.rx,/manipulator_pose.ry,/manipulator_pose.rz,/manipulator_pose.rw
0.30000000000000004,0.05153212680323105,0.012458463206649728,0.04870677121137501,-0.020992016984635625,-0.012123711494754903,-0.006425083264060303,-0.0402256938797534,-0.054972945334080994,0.997677226836004,-1.835678663581416,-1.6904759553917172,4.187620548595404,-2.6142556587958525,-1.3232620398150843,3.106073686162299,1.0,0.4444863468662003,0.45405568050586903,0.29717861567553566,-0.466785269031758,0.4617054343222988,0.0038861512989894795,0.7542708415153593
0.4,-0.1745282682986729,0.3757733063511712,-0.06867100954661395,0.011574447564023439,0.009260935417727736,-0.0013808612345789085,-0.040584672926929674,-0.05533917534168169,0.9976423763338149,-1.831557361699566,-1.6935565656680616,4.186714024724088,-2.615207458275448,-1.3240665169433865,3.1062309951745704,1.0,0.44483744125149866,0.4544750304623392,0.29734152721154866,-0.46676948680683555,0.4616571922659433,0.0039022862867276018,0.7543100524167403
0.5,-0.12309867557026208,0.23369556712326692,-0.17324416491749153,0.006422307303460386,0.010265778780171599,0.0012022006180875625,-0.040365361624330985,-0.05513885826532612,0.9976618970348383,-1.8272752718655567,-1.6971448052640083,4.185807876227037,-2.6162811718382777,-1.3250711419994519,3.1063625997867224,1.0,0.44617365729136893,0.45576314835234205,0.2976163242520301,-0.46671125001244135,0.461683285507113,0.003890626041846876,0.7543301770605394
0.6000000000000001,-0.23571471663931676,0.318507304195656,-0.03223396245261165,0.013140837038831715,0.007372784872015919,-7.735704186562827e-05,-0.03948978325736355,-0.054294714124104033,0.9977431887241779,-1.8229295528318397,-1.7001655496318278,4.18495815161724,-2.6174015714272905,-1.325948738930931,3.1064768662313953,1.0,0.44688632167495607,0.4564996886679367,0.2976384421383485,-0.46677878275511814,0.4617038653722168,0.0038949459738305023,0.7542757705679437
0.7000000000000001,-0.3244005125521732,0.16786662908896124,0.11482268701288452,0.018937589022413215,0.006212551465112898,-0.00233671228151106,-0.03984643356037044,-0.054623601760210014,0.9977101947337091,-1.8188292803600636,-1.7033495282540312,4.18424408169364,-2.61837392367495,-1.326561148979337,3.1066212247287033,1.0,0.4478340473279922,0.4574789881674234,0.2979254495037798,-0.46676501495120987,0.46165890795145836,0.003938816568203672,0.7543115796875357
0.8,-0.5788929471045035,0.025091969361536556,-0.1974533157471082,0.012336153633575368,0.013602401821527055,-0.008134003538195505,-0.0416149031224993,-0.0562964841394576,0.9975462585506694,-1.8150061674553084,-1.7063295902204216,4.183597498188333,-2.6193558565667137,-1.3272415175733348,3.1066975593566895,1.0,0.4493101418892193,0.45897263888448797,0.2981481349046359,-0.46675397709414695,0.46171298972381486,0.003882768920238053,0.7542855984921129
0.9,-0.034440878723423204,-0.3048330745684571,0.03789987226368851,0.012894436487307946,-0.001786222053627337,-0.00118353552326587,-0.0406726638486561,-0.05547880405644402,0.9976305861671644,-1.811090239144389,-1.7091951921708357,4.182821750640869,-2.620344016913486,-1.3281258639415037,3.106833439574273,1.0,0.44982425019541966,0.4595725525389764,0.2981756069757115,-0.466809250272699,0.46171990201267143,0.0039038473849750416,0.7542470523116709
1.0,-0.0005032304104270469,0.2592662181567311,-0.01983814850129803,0.017555675589731243,0.007048935353593716,-0.0042312949626098165,-0.04073080283337676,-0.055618280519882136,0.9976204574367479,-1.807453839886307,-1.7120355049802327,4.182061141488145,-2.6213765249745125,-1.3288926406285637,3.1069242416007063,1.0,0.4510575326384039,0.4608464943736425,0.29848891490232937,-0.4668015699236902,0.46165919832199864,0.003929949957463271,0.7542888269189725
1.1,-0.24386579060893082,-0.14303184435375393,-0.0749795188863069,0.018570152775451924,-0.005336317429604099,-0.003608080791909515,-0.041390044401260775,-0.056276010233681194,0.997556886180773,-1.8038570025462364,-1.7146580111445706,4.181389208995083,-2.6221535918747008,-1.329493487525998,3.1070173773623284,1.0,0.4515991138498094,0.4613451526646322,0.29847801131431007,-0.4668599710927595,0.4617159518743802,0.003908525553933861,0.7542180524251572
1.2000000000000002,-0.2583087318818911,-0.0713361376801164,0.0517781038756793,0.01333729777770764,0.005274605949568135,0.0016826867106079814,-0.04109354589375187,-0.05595507097018861,0.9975871856013523,-1.8004259939968368,-1.717477153621913,4.180688223957077,-2.623097882974829,-1.3300728585851318,3.107136895937688,1.0,0.45246977372431063,0.4622598652259659,0.29873015709203415,-0.46682286066199274,0.46167347811598114,0.00392722659806265,0.7542669244099824
1.3,-0.4420391920424076,0.16572539324478655,-0.05627402186488839,0.010843893679478125,0.007737496597125592,-0.004273175700383185,-0.0408007303182986,-0.055590612412744767,0.9976195981978375,-1.7969787653864953,-1.719706605853398,4.180037790572011,-2.624068268877341,-1.3306694511917976,3.1072134971618652,1.0,0.45368274590233293,0.4634574048712016,0.2988436530568881,-0.46684075875715664,0.4617487857261355,0.0038869330089358763,0.7542099552480506
1.4000000000000001,-0.32873775822806883,0.5710462484763831,0.1470657320998748,0.017012157603855185,0.010637019602026076,-0.003854164161691625,-0.04051277634386394,-0.05516870684281011,0.997654800261514,-1.793603294616123,-1.7224556903921797,4.179447143433763,-2.624911642083711,-1.3313249860433278,3.1072840119008536,1.0,0.4541993931575417,0.463932688400619,0.2991451470910282,-0.46673116185103813,0.4617160375361522,0.003886496538354802,0.7542978313529425
1.5,-0.35362970050558074,-0.06957274651941658,-0.06414993885694256,0.010674492109144004,0.012978965912467524,-0.0010020351769373303,-0.040170710036447684,-0.054928115448222,0.9976818750328033,-1.7905977033194402,-1.724417885816285,4.178846884810764,-2.6257050194844673,-1.331949538633937,3.107377158472116,1.0,0.45497997781572624,0.46476779516725714,0.2991271028812278,-0.4668225340913595,0.4617479040437256,0.0038925196304937884,0.7542217466147964
1.6,-0.3192746657605776,0.04324119295573861,0.23925668260572897,0.014093966724881942,0.01126725374204034,-0.008519376367963885,-0.03978121941424674,-0.05464000467286971,0.9977132690186609,-1.7873047953028742,-1.7269273920653103,4.178320176363481,-2.6265576933019266,-1.3326006640545422,3.107485021372096,1.0,0.45596750001490943,0.4657659621307075,0.2995280543831034,-0.46675083653916605,0.4616491558690815,0.003950681467198651,0.7543262593807125
1.7000000000000002,-0.11307900851039052,-0.22575613231214064,0.08381811161695055,0.011568067209689385,0.004063000858552495,-0.006151824852861346,-0.0393318413603741,-0.05426518053792873,0.9977515976071537,-1.7845245518795534,-1.7290586568113577,4.1777691620364505,-2.627398813043276,-1.3330363589981045,3.1075732822026185,1.0,0.4564796776697974,0.4663060582602982,0.2995963920308575,-0.4667755847677503,0.46165900987593433,0.0039616091663291055,0.7543048572811328
1.8,-0.3315045141995854,0.23861728077199862,0.003576349675854979,0.021873130983118647,0.011673539753138854,-0.001496158531724098,-0.03830067188168256,-0.05317990134386406,0.9978483126550816,-1.7814431447328218,-1.7311905694730874,4.1772807306199855,-2.628190557136669,-1.333466242212279,3.107591730559852,1.0,0.457405578963151,0.46725554630894656,0.2996641493727533,-0.4668448480106499,0.4616985600703234,0.003910800811397274,0.7542380480669991
1.9000000000000001,-0.3991830856590606,0.26263086148003445,-0.03933495765933747,0.017886005644768752,0.011783595936057472,-0.0015785356849723105,-0.037209040655435704,-0.052020789238894034,0.9979510954228493,-1.7786822834608413,-1.7333487762819637,4.1767493583082445,-2.6288831563540005,-1.3339443584728472,3.107701250016942,1.0,0.4578276034262737,0.4676992109199328,0.2998586716198426,-0.4667703256064184,0.46169329104560436,0.003933887104610772,0.7542872746301673
2.0,-0.13926073840937236,-0.050275211928746524,0.11892243544265745,0.01527161559193632,0.0039442443879640875,-0.003798460555009418,-0.03588100280217145,-0.050664892784344905,0.9980702688006199,-1.7759689566672336,-1.7352722821622886,4.176295057230889,-2.6295979810569263,-1.3344768997446155,3.1077482548418653,1.0,0.45855490562927226,0.46839978394496196,0.2998822257327581,-0.4668002173306861,0.46173591838237465,0.0038803806357853915,0.7542429591462763
2.1,-0.33321370381654314,0.27346900683163766,0.13177799078636832,0.02080869671640746,0.0088492772199832,0.0030303755565386243,-0.035254418153668414,-0.05007348632123833,0.9981228459079218,-1.7731514869795286,-1.7372655705683193,4.175810607880695,-2.6303936443724574,-1.3350002623582058,3.1078248023986816,1.0,0.4594089066204248,0.4693119567814402,0.30012793752041983,-0.46677606638730623,0.46168677596623886,0.003932541091026197,0.754287716900163
2.2,-0.13589765020514954,0.29533090661856853,0.06490698090527929,0.017676737709599495,0.0068455329124107725,0.0030318944422398704,-0.03671429753584079,-0.05156960205147174,0.9979932147381035,-1.7707531983190539,-1.7390837118667861,4.175396175152832,-2.631149962790872,-1.335471950316535,3.107905081128512,1.0,0.4598043671441324,0.46970453240066035,0.30021939264076103,-0.46677317053168155,0.46168318336595043,0.003919144718767387,0.7542917776123225
2.3000000000000003,-0.47593725231115175,0.38014993256363294,-0.09662401925767913,0.023591255449509085,0.009090684802173662,-0.002326500941104272,-0.038640367502511264,-0.05353493279536945,0.9978174174526743,-1.7681044370893666,-1.7410824735200159,4.174944309147714,-2.631789438374158,-1.3359082636563238,3.107984836404558,1.0,0.4603589738195005,0.47028806307683146,0.300288792779299,-0.4668304501587258,0.4616818012795432,0.003916599966524456,0.7542571878454853
2.4000000000000004,-0.14322280443674298,0.08819626416137447,0.07056838186655315,0.01841573288675603,0.0012891948486021508,0.0019810153721196546,-0.039678614693723566,-0.054592063274968704,0.9977200517156978,-1.7658531239367659,-1.7427663422145951,4.174503974490106,-2.6323944469537244,-1.336295417591144,3.1080288887023926,1.0,0.4612707770549492,0.4712601224219676,0.3004528715699406,-0.4668146122485359,0.4616892577733384,0.00394403660159185,0.7542622830443256
2.5,-0.22735416498504984,0.19726916481751258,0.13058217641861739,0.01749101978213494,0.004892123082374348,0.002525746022367645,-0.039577570496433206,-0.05444467831241036,0.9977321210486659,-1.7634360977867165,-1.7443932607634225,4.174114015075265,-2.6330874148011074,-1.3366425822982122,3.1080517768859863,1.0,0.4616012263644275,0.47155013382911926,0.300499095941564,-0.46680899330047226,0.4616988423066948,0.0039275686522415075,0.7542599797092112
2.6,-0.052024946138391565,0.36692303269275744,0.09225246495631112,0.018780673784124496,0.002817462981429265,3.543358952085712e-05,-0.0402969672598493,-0.05510441945859004,0.9976666828091665,-1.7611397133858666,-1.7462248473405857,4.173713207244873,-2.633739329254504,-1.3370080935712363,3.108113950330929,1.0,0.46208613448802804,0.47203132012200827,0.3006434281164667,-0.466786815333913,0.46168809167637914,0.003914730409558313,0.7542803523362299
2.7,-0.16540050382676594,0.35990587587346023,0.22846887383163506,0.021490917876487443,0.008459342439412623,-0.0021336383239242123,-0.04094675876995207,-0.05572185939912052,0.9976063471852739,-1.759072431951846,-1.7478705925564397,4.173365116119385,-2.634385460672234,-1.3373912096787541,3.10820038978366,1.0,0.462937425930268,0.47286726536274015,0.3006562549655627,-0.46684873773255214,0.46175948604150485,0.0038622261820040085,0.7541985921076274
2.8000000000000003,-0.20386164059640297,0.17333181901531605,0.11070204521430069,0.023462838749741984,0.005934498533692254,0.005368854209081884,-0.04106212914182283,-0.05587055763915677,0.997593290475139,-1.7567429009443094,-1.7491241894164027,4.172942770933966,-2.635013040082279,-1.3377264883141182,3.1082410201805013,1.0,0.46317387997660897,0.47314125997620515,0.3006541639582602,-0.4668926524355888,0.46176113347559217,0.00387166935985531,0.7541703500465693
2.9000000000000004,0.01285189407695278,-0.06792403447066894,0.0007474534324130866,0.01284763445360118,0.002420226263315513,0.005415663226329765,-0.04059500556016188,-0.05537139030062797,0.9976401769000105,-1.7548558204582145,-1.7506057834448183,4.1725754737854,-2.635545393029684,-1.338123373793869,3.108296500575435,1.0,0.46363885166740454,0.47360285644470274,0.3009555901541032,-0.46679407445258914,0.46170188134733225,0.00389557245702922,0.7542675184120795
3.0,-0.1367347184938637,0.09672948636682949,-0.02601950280958051,0.021349650746150067,0.0041972576818203695,0.0008357397608981893,-0.04095424899334756,-0.05569355784570039,0.9976074276453277,-1.7527668576613697,-1.7523859208662054,4.172205882009595,-2.63606148468435,-1.3384712062731363,3.108364522832262,1.0,0.4643106335121313,0.47423514649329146,0.30102742313235015,-0.46681724622557963,0.46172572022465846,0.003877972646615115,0.7542386752464628
3.1,-0.25431680832725184,0.3689495453699466,0.041700360437746525,0.024696310590246056,0.011421467310957407,0.0020020269784958486,-0.040773722024932874,-0.05550978872583243,0.9976243428865154,-1.7507542733384942,-1.7536697341283958,4.17190408706665,-2.6366393534153736,-1.3388229166729446,3.1084009176305627,1.0,0.4647989133429936,0.47473043254338143,0.30104656086169107,-0.466832480846529,0.4617541944690639,0.0038644642170550278,0.7542118831158892
3.2,-0.2893589173154316,0.17495112661407755,0.19259029217785423,0.02385943889820489,0.010391280465216734,-0.00020696996337611628,-0.039161388431991816,-0.05396001060410817,0.9977748646575676,-1.7489816239369185,-1.7548185787596644,4.1715922355651855,-2.6372064330681892,-1.339155759755827,3.108440473223342,1.0,0.4651297339492287,0.4751098354201393,0.3011581760260069,-0.46682995192965254,0.4617299467612719,0.003908641982131266,0.7542280654835422
3.3000000000000003,-0.303244134705691,0.3814103664670763,0.08436093093482258,0.028377359401497132,0.008245412887685516,-0.00012198021171044675,-0.03879327422528368,-0.053622876502697175,0.9978073358861442,-1.747078729068143,-1.7561029879425234,4.171353400097202,-2.6377803887384585,-1.3394587675677698,3.1084674123872347,1.0,0.4654891828423409,0.47546916992047134,0.3013326274043709,-0.4667992654721536,0.46169516027505525,0.0039056859618126125,0.7542683675923422
3.4000000000000004,-0.3133924907097588,0.12287194801300087,0.15605567561234285,0.029177827864713096,0.004090597611472545,-0.005395311184688315,-0.03837800808008083,-0.05322788287745777,0.9978445969602788,-1.745253562927246,-1.7576604732093934,4.171057934400499,-2.638300026279462,-1.3397229353534144,3.108527526848698,1.0,0.4660898658082354,0.4760976452166931,0.3015219201119566,-0.4667762106559591,0.4616742244449511,0.003926193505874559,0.7542953431205651
3.5,-0.17360509226494888,0.6196436775371126,-0.04278277686246602,0.02579204845965301,0.0061266689909379776,-0.00669187780093243,-0.03902186027315313,-0.0538817775777807,0.997784283165265,-1.743566534254286,-1.7589394054808558,4.1707892417907715,-2.638747046288653,-1.3399839049585232,3.108551486814865,1.0,0.4663639614752612,0.4764201032478626,0.30146728785917276,-0.46682419886068427,0.4617146132115459,0.003918060476336185,0.7542409642197228
3.6,-0.14208431168613184,0.1871540133068035,-0.1397299801945966,0.018871325879564745,0.008961549024390787,0.0002807127212206312,-0.03959562616464437,-0.0544711668702266,0.997729493160804,-1.7418782872814076,-1.7599129842999688,4.1704849999930795,-2.639208780722083,-1.3402388731585901,3.1086039543151855,1.0,0.466736542814961,0.4768166915386479,0.30145533354577364,-0.4668747129037003,0.4617335774704341,0.003911893611545763,0.7541981191807721
3.7,-0.03778180842229435,0.14345942144765136,-0.10984418881120167,0.020561234562743603,0.0016884290717011315,0.0003971495704144334,-0.03823419625529697,-0.05309088023882576,0.9978573784943031,-1.7403385343030964,-1.7609960504705957,4.170228545820385,-2.639641947382217,-1.3404867176267856,3.1086416707770934,1.0,0.4670951615181629,0.4771640736383546,0.30161758211146766,-0.4668186911235843,0.46171248914824364,0.003915809398702275,0.754245685051595
3.8000000000000003,-0.2454086417129472,0.270534016799751,0.055715938732768804,0.028043951069848125,0.008206972178332245,0.003366120514094124,-0.03772798924805689,-0.052549217400027506,0.9979052978411082,-1.7387143834075929,-1.7622952385382593,4.169985294342041,-2.6401383593916834,-1.340730764641897,3.108657498840332,1.0,0.4676434040614051,0.4777132586088014,0.30174976899409717,-0.4667972150648748,0.4617130527477947,0.003917264548095322,0.7542586240597117
3.9000000000000004,-0.2701399697665462,0.40111652116430113,0.10392876115610733,0.027324014849697233,0.0037373428638572443,0.0014041606236494405,-0.038652524609098925,-0.053431638960921436,0.9978226784500347,-1.7369824818915127,-1.7634327818479714,4.169697958722067,-2.64062561611318,-1.340994660054342,3.1087258883172275,1.0,0.4680269285644582,0.4780997210307893,0.3018166796541896,-0.4668021760913159,0.4617184959941429,0.0038927021980732406,0.7542523488348685
4.0,-0.5238971563186727,0.5533412629191808,0.21409385375012366,0.030965237275814454,0.008237485761224204,0.0028467975831211463,-0.03846655230277891,-0.05324838486980495,0.9978399187226537,-1.7356532910527163,-1.7644624267794813,4.169470310211182,-2.641065113479028,-1.3412271729679415,3.1087644648178965,1.0,0.46825077273822757,0.47832069638601404,0.30192432377275596,-0.46676198952751163,0.4616916142038291,0.0039012941820922033,0.7542936287745553
4.1000000000000005,-0.367074840221574,0.4268548549456738,0.06252354019656872,0.025736590587679097,0.008815553782069637,0.0029386156798572906,-0.03765681844476481,-0.05249160846178855,0.9979109935503212,-1.7342585399202857,-1.7655078080131772,4.169210644425262,-2.6414667568602503,-1.3414986769305628,3.108775852742069,1.0,0.4685620265718216,0.47866731190857914,0.30193258771686105,-0.4668099762018806,0.4617057694175776,0.003913813801239931,0.7542552026114581
4.2,-0.37098354538543954,0.43412479927323294,0.09967469930835737,0.030579245756827654,0.005866933147624713,8.83778121396543e-05,-0.03780704515157529,-0.05264132616613141,0.9978972872466836,-1.7325624815290253,-1.7665536958661883,4.168986206503849,-2.641958852807516,-1.3417539662329023,3.108855724334717,1.0,0.4690766531343345,0.4791551487162587,0.3019925834637758,-0.46684042765219547,0.4617258050590288,0.003900970963104576,0.7542241566521534
4.3,-0.09611657496903589,0.32296221425049826,0.21351665963045666,0.028109340030828437,0.0027836603349716605,0.0042863017508401,-0.03859079974761535,-0.05338943780037449,0.9978273862637752,-1.7310025127058528,-1.7676950568246343,4.168745582841008,-2.6423430487404174,-1.3420178503343831,3.108855724334717,1.0,0.46929431546796835,0.47935001704156216,0.30208541250349247,-0.46681003751404065,0.46171800004055497,0.003895916690247051,0.7542477703963286
4.4,-0.2916485564822955,0.09814199254029635,0.1205435330131539,0.021888664355884255,0.002764180756810385,0.0032988100542712113,-0.03998681086710647,-0.05482854134107844,0.9976927681787323,-1.7296871246004033,-1.7687470382102595,4.168518654426373,-2.642758124003628,-1.342243816166387,3.1088961661958625,1.0,0.4696549498977061,0.47977809626056417,0.30220853174920725,-0.4667761237436126,0.4616801271244553,0.003920445034872505,0.7542918139765029
4.5,-0.1576760969175692,0.12059522913956836,-0.04127891181629846,0.016340454542960813,0.0008287741191977172,0.00565972234879397,-0.041292829016663306,-0.056170897250647854,0.9975668735250169,-1.7281430309391363,-1.7698161015080214,4.168254456354868,-2.643204652721002,-1.342503197241998,3.108926075874976,1.0,0.4700896659085318,0.48022382203312175,0.30220253514202383,-0.46683284747550885,0.4617028564560294,0.003922439171238627,0.7542427854008278
4.6000000000000005,-0.18293549887053762,0.45317555677799215,0.08963517337044347,0.026114232030091528,-0.0021593317242840963,-0.002885131408815145,-0.04178637062326215,-0.05663979403401031,0.9975197359490261,-1.7264851830647843,-1.7709155708727424,4.167976702884603,-2.6436365885927477,-1.3427353346654785,3.1089748643086805,1.0,0.4703067568522652,0.48041978612199376,0.30222856254858194,-0.4668442627228238,0.4617003424140445,0.003904687356097982,0.7542373509673117
4.7,-0.16862202839033302,0.4606759790786078,0.18339217587868129,0.024877227717601213,0.00809633874641506,0.005156722748138569,-0.04203267474542587,-0.056861079288321174,0.9974968996879809,-1.7250160559405305,-1.772167821923727,4.167718141933386,-2.644133230248922,-1.342972824551641,3.109029243873332,1.0,0.4706694271776914,0.480775153860723,0.3023889863175687,-0.46676704437488187,0.46169101049037464,0.003916726851088567,0.754290790324718
4.800000000000001,-0.17319035887503714,0.3795710776216369,-0.016166471474762682,0.03016497451138731,0.0052269624942177925,0.0038204435089033042,-0.042108012827174954,-0.056911139848368195,0.9974908679159582,-1.7236875317345026,-1.773105693377442,4.16750676466962,-2.644647854581314,-1.3431950836402158,3.109027815386056,1.0,0.4712135773393538,0.4813287009732575,0.3023633536509686,-0.4668457800365379,0.4617427781484023,0.003906892420238395,0.7542104220186094
4.9,-0.38391318263046387,0.2866885377494077,0.046959043325151446,0.021707896263285467,0.00997446886567684,0.002955434729010271,-0.04226798736319555,-0.057039300273840896,0.997476748423456,-1.721994888448055,-1.7741551784346128,4.1672375958285945,-2.6450789863699655,-1.3434147966685497,3.1090598106384277,1.0,0.47138749239171174,0.481469970881456,0.3023887351640983,-0.466854556206037,0.4617521040686528,0.0038813746179984458,0.7541994117399663
5.0,-0.15139530741048057,0.14728329380954666,0.014240098823665196,0.027843187605402445,-0.00011939608302555786,0.007430999848145655,-0.042496286992755095,-0.05723050895265215,0.9974560998973001,-1.7204113627583417,-1.7751694552218844,4.166975282600818,-2.6455193282822256,-1.3436259808557793,3.1091151127759176,1.0,0.4718674137154473,0.4819707694055384,0.3026205758777523,-0.4667792027780507,0.46170996124430347,0.0038977252140158566,0.7542717648698163
5.1000000000000005,-0.29698123589627545,0.2518677566305667,0.015798068775961207,0.025194491041376207,0.011185550344133436,0.0022165837464770514,-0.04243930559559143,-0.05715455180846105,0.9974628409878242,-1.7189676444764164,-1.7763831502965972,4.166743965089506,-2.645931278298041,-1.3438593928263611,3.109147176712844,1.0,0.4720687827739963,0.4821666504940103,0.302714208442894,-0.4667369834444357,0.4617150140170105,0.003912520343161661,0.7542947211143831
5.2,-0.16093276751627428,0.0013463202869389364,-0.0487667146230239,0.01710790992998061,0.003950933669310441,0.003516090943535866,-0.042142506375308135,-0.0568540051539884,0.997492606807065,-1.7174892383447922,-1.7775790831878437,4.166537678051599,-2.6463676693153335,-1.3440778891192835,3.109192371368408,1.0,0.4725516306507308,0.48268131170747075,0.3027097005544373,-0.46679137685419314,0.46173115898423567,0.0038844423170642005,0.7542513231181812
5.300000000000001,-0.098645119504541,0.34600934706685194,0.18127577722337757,0.023488281276476456,0.004137258886671518,-0.006829093453648044,-0.041862133447806656,-0.05656561598657013,0.9975208349072341,-1.7159030562882034,-1.7785866728918562,4.166284705589372,-2.6468307190485327,-1.3443152095919235,3.109229876076106,1.0,0.4727549916906712,0.48289321476460567,0.30267611985637843,-0.46682616104895525,0.46174482882742274,0.0038700387833450777,0.7542215000987739
5.4,-0.23718273113312593,0.16862283833695296,0.21970319918019315,0.021303013438060295,0.005529031174519656,0.0024024426829937257,-0.0416025944875229,-0.056295094219013415,0.9975470345400432,-1.7143955041943906,-1.77950907291948,4.166065692901611,-2.647316461225144,-1.3445431388552982,3.1092616749636375,1.0,0.47310339275312274,0.48325107521578264,0.30275295369024086,-0.4668203071408805,0.4617542928833748,0.0038697102243497126,0.754219330955822
5.5,-0.2861542970244766,0.28477587887031347,0.051913836011493616,0.020051673361056097,0.010607491180519873,0.0024579566072824824,-0.04165464962327258,-0.056379244354954124,0.9975401049712628,-1.7128959587708712,-1.7804670292149058,4.165855597657309,-2.647779414055236,-1.3447861315515133,3.1092796367634077,1.0,0.47358680099976846,0.48371909059264584,0.3029796648211446,-0.4667454600595455,0.4617204124549282,0.003889176784064658,0.7542862921598118
5.6000000000000005,-0.09982967158984365,0.4906062276783493,0.0037212598846178115,0.030046115251527443,0.004653409140222837,0.005304519162142914,-0.04170495940479652,-0.05646159508814491,0.9975333498805687,-1.7112145374952765,-1.7816542070448746,4.165627904527169,-2.6482343202317473,-1.3450229544352363,3.1093218065847674,1.0,0.47375047298089923,0.48392131979704517,0.30307763367058926,-0.46675011596848626,0.4616864370071799,0.003911363759621099,0.7543040927640258
5.7,-0.008959405591475934,0.4607358922234247,0.033564875450862536,0.027237779247095563,0.0021101908003035245,0.007945802526907889,-0.04155041787602966,-0.05633275086410347,0.9975470731913941,-1.7098009890499888,-1.7829472027220667,4.165393010088959,-2.6487213573851527,-1.3452593574768332,3.1093856230524843,1.0,0.4742590854084189,0.4844731436753325,0.30317728504002234,-0.4667379411890171,0.46169346164184144,0.003919909978699969,0.7543072822381935
5.800000000000001,-0.1598091018540981,-0.24475617917368414,0.06476524072063487,0.013857676367934443,0.00670808720776107,-0.0044464355431849956,-0.041748953347038334,-0.056564965852235354,0.9975254837039185,-1.7083905371999353,-1.7839881069587926,4.165173551645844,-2.649155787315907,-1.3454995372932195,3.109392134858064,1.0,0.47445000657766756,0.4847281264200705,0.3030452796675557,-0.46684634458663266,0.46173286143643594,0.003917022720547871,0.7542160911494973
5.9,-0.3037023793964545,0.09210171780343862,0.024309104861898162,0.024293374818236967,0.00460058877942383,0.004811411150923509,-0.04230800406093734,-0.05716584645624479,0.9974678374864242,-1.7066519249854777,-1.7849218770433932,4.164947491040513,-2.6495520264398547,-1.3457581341653597,3.1094110001502724,1.0,0.47478358397955883,0.48507260561777477,0.30305489435691385,-0.4668821273876925,0.46173758023266886,0.0038958303238766853,0.7541911618634298
6.0,-0.39381301499493127,0.6112255791881077,-8.557110718332081e-05,0.03340553003977137,0.011483991081126025,-0.006092403264564303,-0.042015577816900705,-0.056877769239081534,0.9974966245972304,-1.7051871819134252,-1.7858454114134068,4.164689823226992,-2.6500158012489967,-1.3460225519499323,3.1094641279836215,1.0,0.47527925490408657,0.485593402602307,0.30339214994566527,-0.46676409122602913,0.4616409992661454,0.003939259580124245,0.75432310926582
6.1000000000000005,-0.12387761250856516,0.25217236874855625,0.14090120307594872,0.024764123967237144,0.002841280017739381,0.0002885464096124644,-0.04158136119072345,-0.056472854713651696,0.9975377220875906,-1.7038216413260858,-1.7869996651899998,4.164483547210693,-2.650458174854964,-1.346262280141012,3.109489140620446,1.0,0.4754988646455757,0.48577168351135847,0.3034907690466436,-0.46672865757202203,0.4616460393963328,0.003941977214181721,0.7543419352828934
6.2,-0.35867190795883375,0.6690841340004064,0.1407505351133892,0.028230228190843445,0.0089970343706244,0.0004373280387768815,-0.041000918508478076,-0.05594994004982097,0.9975913486697648,-1.7022472004975833,-1.788228582774121,4.164238044386423,-2.650912628389573,-1.3464926030947926,3.1095062774492814,1.0,0.4757772965179844,0.4860975402168782,0.30345798961075404,-0.4667941673469436,0.4616617613365404,0.003957225117693967,0.7542916967724653
6.300000000000001,-0.23517063630196836,0.26615535028780457,-0.005066841117713281,0.026715918783632397,0.005572532749651514,0.011517398239828672,-0.040972851305451724,-0.055864915170188545,0.9975972817233896,-1.7005572992470201,-1.789415564606395,4.163993899771881,-2.6513595664702057,-1.3467201081355487,3.10955994698408,1.0,0.4763337649158442,0.48664018479894366,0.30343939946902665,-0.46683581672260543,0.4616964310379426,0.003917627332863897,0.7542449058414945
6.4,-0.6197304558925336,0.259215817771155,-0.0864518201908997,0.024991218289770432,0.010574538992614894,0.0027506066449723594,-0.041384432621773194,-0.056206064558525656,0.9975611184919492,-1.6991304344917573,-1.790392484284025,4.163724999925967,-2.6519344473456044,-1.3469062721270402,3.1095995903015137,1.0,0.4765717346961696,0.4868677314319206,0.3035044693681693,-0.4668040724186812,0.46169650621543995,0.0039059276725344795,0.7542645675429862
6.5,-0.4804859014020939,0.4857067863785873,-0.14171674859881433,0.02440122453348907,0.013052816001417203,0.0016033077086714416,-0.04093939036563707,-0.0557619356239337,0.9976042760814856,-1.6977483141884058,-1.7913320696782695,4.163536862629216,-2.652353902856344,-1.3471233180644226,3.1096355159108233,1.0,0.4768871629323987,0.4871846579998446,0.3035535966101999,-0.46682336414252323,0.4617223120244395,0.003913029722286327,0.7542367940294717
6.6000000000000005,-0.27118271006303896,-0.13103734333032457,-0.05462404118819009,0.020043033158456368,0.0058342317847315675,0.0065974334208311345,-0.04120361833253244,-0.05601092470703027,0.9975787952151398,-1.695912994162473,-1.792425138735375,4.163284778594971,-2.6528097591795863,-1.3473612782673408,3.1096790659266382,1.0,0.477340156502864,0.4876405588338355,0.3036568714659218,-0.46682010902302945,0.46173109855027816,0.003924126026013947,0.7542333721589175
6.7,-0.10393269846251435,0.056195833490121444,-0.15381458148859262,0.024574055554171803,0.0027255055809190507,-0.0015739774789278512,-0.04254010609545859,-0.05730217069970495,0.9974499347992559,-1.6943461876821024,-1.7935647209584094,4.163054444411145,-2.653253741880299,-1.3476021234127238,3.1097132923105324,1.0,0.4775787965067643,0.4878710789854737,0.3038476832880028,-0.46673032437114326,0.46167837633485653,0.003926936102317951,0.7543211917413338
6.800000000000001,-0.2530254484190882,0.44102145711512974,-0.13891947040030334,0.028432160669868624,0.007666406035672373,0.004741023384383867,-0.04072743144207872,-0.055542356266272776,0.9976249628823136,-1.693058069748804,-1.7947266614031883,4.162811962328851,-2.653740795547133,-1.3478308477890764,3.1097383262822405,1.0,0.4779225605212825,0.48824814706854813,0.3039219793486431,-0.46672889292857256,0.46166463040537586,0.003941802817431457,0.7543304128357049
6.9,-0.31271963713922324,0.3509450250806274,-0.13762939769016866,0.025299883868003376,0.0008034012839121074,0.0010772939477617107,-0.040330879577806546,-0.0551275541748555,0.9976644300809476,-1.6914796829223633,-1.795753384777688,4.162557923161351,-2.6541787487326465,-1.3481031928043161,3.109755915182608,1.0,0.47842034462615013,0.48872207815734003,0.3037958520539791,-0.46684777960852497,0.4617507745363452,0.00389244842627825,0.7542043633756865
7.0,-0.32410440758409337,0.46594021603674063,0.026864049301359244,0.02996695654319115,0.00015927234184144856,0.0019473517181510622,-0.040279042452067745,-0.0550531154306574,0.9976706478360371,-1.6911837545755646,-1.7959474051934639,4.162487079901106,-2.654250237861569,-1.3481413043541852,3.109767436981201,1.0,0.47863409038637045,0.48893535497081414,0.30387481485454676,-0.4668246258492059,0.46173252138345966,0.003893935638466976,0.7542298619538113
7.1000000000000005,-0.2773265535334525,0.38560424630878104,-0.09460955434195051,0.02116226041885519,0.014831095722322538,0.006802706003757346,-0.04047611225087776,-0.055233806651045506,0.9976526950755941,-1.691165146659792,-1.7959744820150974,4.162471294403076,-2.654274740155264,-1.3481463909201585,3.1097628839076266,1.0,0.47880704831726983,0.48907682460089846,0.3039670946237476,-0.4667830364729171,0.46170855512488357,0.003892458815798184,0.754270280304072
7.2,-0.20298279657629714,0.39960122342048254,0.11035737847936455,0.03123545427280216,0.0008263224080818921,0.00376931243984985,-0.040277891279214266,-0.055075881358389,0.9976694257725396,-1.6911475927857322,-1.795963210209756,4.162464840047902,-2.654250987381977,-1.348156272388135,3.109767441926461,1.0,0.4787858370351599,0.4890849909680968,0.30394084370718444,-0.4668009826855629,0.4617174966322598,0.003934853211779021,0.7542534804676967
7.300000000000001,-0.21758046093446057,0.1869706782785295,-0.049163705961202286,0.022187485300816667,0.008569414823021305,0.0035768423081866075,-0.040414276120980454,-0.05522502766714267,0.997655248494193,-1.6911431405748976,-1.7959468977159323,4.162456284358665,-2.65426307048007,-1.3481658861057717,3.1097819024828794,1.0,0.47879339530432863,0.48908437409704547,0.3039422475805337,-0.46680843952991313,0.46171139924591337,0.0039123938555324375,0.7542527147875222
7.4,-0.4806185085958671,0.3239823906847709,-0.20302634206844794,0.031311907342625844,0.009451334555197696,0.002500442211831828,-0.041171057458200724,-0.055938729765295694,0.9975841273591274,-1.6911125015840887,-1.7960039577879847,4.162497841421741,-2.6542506747773498,-1.348141365940001,3.109776003323591,1.0,0.4788293350997512,0.4890737372084344,0.3039735836117594,-0.4667772519411194,0.4617131141776723,0.003888114757116849,0.7542710917371073
7.5,-0.2571695005496759,0.3026700286302207,-0.17606105690812293,0.027322982924974655,0.004561975684581102,0.005020197356302309,-0.04192783879542099,-0.05665243186344872,0.9975130062240618,-1.6911431247011552,-1.796003111243047,4.16249381287889,-2.654257436791891,-1.3481898019261032,3.109778881072998,1.0,0.47882588076043026,0.4890767337406436,0.30396138703608755,-0.4667796370727938,0.46171498761361285,0.003888098599152725,0.7542684689925963
7.6000000000000005,-0.17541588568726274,-0.04757868224838205,0.06194127756046111,0.01467977647113362,0.007717452362746808,0.0046062357044690735,-0.04127937092040505,-0.05603805680996118,0.9975742027101236,-1.691117286682129,-1.7960039577879847,4.1624778206338595,-2.6542211971678675,-1.3481329123126429,3.109755039215088,1.0,0.47881383632617897,0.4890863485927769,0.30397610793189866,-0.46677942261317273,0.4617074898507473,0.003907509348857352,0.7542730910030689
7.7,-0.21516124719997629,0.12633725558973644,-0.021939334718931024,0.020662827673153132,0.00822762569569793,0.004921963451962523,-0.040403450820481884,-0.05520872052371949,0.9976568159933327,-1.69115645178249,-1.795998353435709,4.162480777906006,-2.6542756742975255,-1.348144833241598,3.1097705866316296,1.0,0.478806542831548,0.4891026863674964,0.3039630983920462,-0.4667903411158376,0.46170623595626437,0.003918698996905447,0.7542670435053023
7.800000000000001,-0.16560162192719144,0.2783606764501585,-0.0344323326533455,0.02629193796630793,0.006197131223676177,0.0076513466917369774,-0.04052273087148996,-0.055337304425705384,0.9976450174926313,-1.691125622515241,-1.7959983254683145,4.1624683655968475,-2.6542604324041825,-1.3481725117397225,3.109755039215088,1.0,0.478807842905805,0.4891074197126864,0.3039406684679651,-0.4668025382215077,0.46171266884931406,0.003912434980851741,0.7542555896952452
7.9,-0.021140795706455717,0.18930802114716133,0.037645376620104434,0.022747084301770384,0.002664017788113014,0.008767708244744944,-0.0404410717487225,-0.05523522581053869,0.9976538471489619,-1.6911400329618358,-1.7959892113120521,4.162471294403076,-2.654275627555846,-1.3481181658367103,3.109767436981201,1.0461146936296843,0.47880046677509297,0.48910992797968494,0.303991732632786,-0.46678479181424143,0.4616853112723111,0.003921094497092497,0.754283273382268
8.0,-0.33341897558488054,0.3314274544185082,-0.06708618556000898,0.02919937445047252,0.008652333966948447,0.010050929804128864,-0.040270867549991686,-0.055016534962104076,0.9976722302431504,-1.6911448226153254,-1.7959965058490321,4.162468192136168,-2.6542527890422885,-1.348153771221603,3.109777693109504,2.0,0.4788334272227205,0.48908017811162563,0.3039562233470202,-0.46676791309586957,0.46172541339943063,0.0038960530859203295,0.7542693011753847
8.1,-0.2770926857524265,0.44545685595485773,-0.0935483575248407,0.02993596635236365,0.007068858940715898,0.010346090542550616,-0.041699655663206846,-0.05643933195607314,0.9975342569010037,-1.6911039352416992,-1.7960030176266246,4.162456287345654,-2.654246456024296,-1.348144833241598,3.1097925871171586,2.0,0.47882490439932196,0.48908229307109014,0.3039482736509797,-0.4667829904848707,0.46172486573949967,0.0038993546579807062,0.7542602887499074
8.200000000000001,-0.49440240780610256,0.5558231304629362,-0.0034112096055177177,0.03053203186305353,0.010568368503628495,0.0023993477142787694,-0.040858924908526065,-0.05564514239431136,0.9976138796988229,-1.6911100581426814,-1.7960039577879847,4.162456401400448,-2.654239123249709,-1.3481389174655294,3.1097792117907823,2.0,0.4788009077696198,0.4891001503500661,0.303956137286734,-0.46679512908288784,0.46170690467909536,0.003912780496459313,0.7542637017548475
8.3,-0.32131784346182984,0.29765246279850754,-0.03607675235703286,0.022166031282654097,0.005050620080906873,0.009069554370677968,-0.040480283860290865,-0.055249401627994736,0.9976516593854202,-1.6911128288805233,-1.7959868546364002,4.1624677902757865,-2.654257436791891,-1.348148508400403,3.109782727263319,2.0,0.4788219026644841,0.48908963387707544,0.3039523248022974,-0.46680161917086693,0.461705304544495,0.0038856859633032864,0.7542608047217663
8.4,-0.35603135501810956,0.31864022513488,-0.15589315421597053,0.023786905310242832,0.010468598673610437,0.011473855292083461,-0.04040882980530553,-0.05513865670437534,0.9976606876800809,-1.691140913560889,-1.7960239140225924,4.162475390833409,-2.6542533403615582,-1.3481527109922378,3.1097838246736123,2.0,0.4788354012976265,0.48907852880372693,0.3039668956012808,-0.46677471038512697,0.4617207672784743,0.003887860445426325,0.7542679811246232
8.5,-0.22904377237991266,0.005645466379378683,-0.1557336666614349,0.026138407313123325,0.016574440131976693,0.011769116111700536,-0.03985284913552794,-0.05459727015708184,0.9977123739138983,-1.6911401748657227,-1.7959813702981333,4.162505777557225,-2.654267208392943,-1.3481107596703854,3.1097444313686635,2.0,0.47881989489700383,0.4890977593216923,0.30396218142122833,-0.46678694507761015,0.461708001962694,0.003899553757180546,0.7542681633936463
8.6,-0.4123725190868697,0.40410020025972404,-0.20846277581341338,0.023736633115737118,0.009901689852871313,0.010986207585693563,-0.03914868703396413,-0.05392418167549907,0.9977771061070261,-1.691109531237918,-1.7960055963883295,4.162500517026581,-2.6542730998860966,-1.3481236817664854,3.109770019748687,2.0,0.4788026216609819,0.48910028658247784,0.30395381414109124,-0.4668011247869588,0.4617089646691752,0.00389307983454508,0.7542588320803081
8.700000000000001,-0.3308845268798064,0.2990872678332929,-0.0453310844010146,0.021432095599134296,0.015320384626505701,0.009140504965320137,-0.0395522134323964,-0.05435539438695369,0.9977376547367237,-1.691117286682129,-1.7960046487010124,4.162452842952812,-2.6542387331047865,-1.3481434514155428,3.1097742092149017,2.0,0.4787947963039665,0.48911198248538046,0.3039234118514165,-0.46682865342179414,0.46170363800508485,0.0039039535631584217,0.754244998752952
8.8,-0.4207584902279702,0.25344269805413056,-0.12557336336890318,0.025391655615227833,0.012464385438977862,0.012844862173753083,-0.039777723624575025,-0.054597189689988584,0.9977154480435987,-1.691109869742993,-1.7960039577879847,4.162492397260389,-2.654254469541244,-1.3481542637570643,3.109764469730554,2.0,0.4788143466390839,0.4891075384626679,0.3039547854552733,-0.4667998215972357,0.4616931451139352,0.00390110731602501,0.7542692806109105
8.9,-0.347690391473034,0.5036186624819313,-0.12929069191757295,0.03065798717046231,0.01455008036661814,0.013426567771962156,-0.038959380155003574,-0.053762426416237685,0.9977932269623366,-1.6911070472937033,-1.7960158787169398,4.162446391539924,-2.654218418550007,-1.3481477230041732,3.109767436981201,2.0,0.478811201720555,0.4891032222298098,0.30395028493776544,-0.4668006544383344,0.46170200721231835,0.0038995860303434734,0.7542633484273588
9.0,-0.07428463185490264,0.12068235309490305,-0.13051237572886287,0.017565184515346062,0.014632597035773978,0.01418463611119801,-0.04023956921501593,-0.055019013446909217,0.9976735227667539,-1.6911287307739258,-1.796034667898402,4.1624888964172895,-2.6542634597919172,-1.3481476522093188,3.1097728580729718,2.0,0.4788176760981718,0.48910109711334604,0.30394866958145816,-0.4668078105564182,0.46170507575743175,0.0038858973296516702,0.7542571118824738
9.1,-0.4448035933372346,0.262379771462391,0.005891967622492028,0.03362290708601698,0.0003460330911514379,0.013181965712629804,-0.041536520126738176,-0.05628941901612347,0.997550004869985,-1.6911238556844912,-1.7960149088174953,4.162495136260986,-2.654260775942362,-1.3481382804643638,3.109787357423993,2.0,0.47882490624924035,0.489086938550813,0.3039573582800337,-0.4667846361201819,0.46171970149449376,0.003900865647722523,0.7542624238162627
9.200000000000001,-0.6683673506034825,0.3678742553993808,0.17460290538381085,0.021070834770289523,-0.012454242496534594,0.008408431453270533,-0.040611334035760505,-0.05538390370526868,0.997638532104666,-1.691117286682129,-1.7960104953302167,4.162474093764172,-2.654257436791891,-1.3481384033671004,3.1097830960912924,2.0,0.4788098041692469,0.4890957467784437,0.30393965524238103,-0.46680028918207206,0.4617274571415583,0.003910780036131463,0.7542479374453956
9.3,-1.1529962728570025,0.2840164111085542,0.27626955434971084,0.015617438159469244,-0.06360179828381632,0.004520699218743614,-0.03947957401548886,-0.054286967570989365,0.9977445890632326,-1.691116013214967,-1.7960158787169398,4.162446668214887,-2.6542510780124116,-1.348174714086142,3.1097733066237976,2.0,0.47880102945659514,0.4891131600032586,0.30396909869270583,-0.46679278429400817,0.46169649694491927,0.0039067119047263826,0.7542715551059388
9.4,-1.3183624791816875,0.039165344609230414,0.2621674352800626,0.031113112250512342,-0.10557475166133076,0.0035029664151826883,-0.03965407746175847,-0.05446929761554398,0.9977277122433748,-1.6911443772955457,-1.7959961345271749,4.162463843217747,-2.654224922760532,-1.3481572310077112,3.1097713707426204,2.0,0.4788175888503906,0.48909449453610354,0.3039197704804095,-0.46681422049650745,0.46171633794357486,0.003899045033349481,0.7542461827984555
9.5,-1.6576779499540797,0.5510304497192692,0.22834177690639704,0.005263649497060881,-0.1267506945622282,0.0031908135053270023,-0.040023000012849384,-0.05484209315331444,0.9976923721924195,-1.691135337478236,-1.796006477260634,4.162481071917634,-2.654247659277333,-1.3481734136687678,3.1097626984119415,2.0,0.478803983793927,0.4891114579627953,0.30395498939203847,-0.4667911118987611,0.46169822717936126,0.003918882679256934,0.7542714678617369
9.600000000000001,-1.610841180800829,0.6728571135897135,0.44716720938469384,-0.014426802904631018,-0.14870589727174577,0.005262637701065054,-0.040771298290772105,-0.05558408003020952,0.9976207979454745,-1.691125669266724,-1.795985658719026,4.162467977770274,-2.654268394806994,-1.34817199173231,3.109743953637185,2.0,0.47881481046094093,0.4891159960216725,0.3039584000101598,-0.46679230817257633,0.4617028398943245,0.003914172344275627,0.7542679284705757
9.700000000000001,-1.632939030836718,0.911514543367168,0.5755483056292133,-0.0379271475603531,-0.16095237785211963,-0.0019491734664700278,-0.03963717902033783,-0.0544710323018699,0.9977270791099864,-1.6910924911499023,-1.7960281766719777,4.1624836921691895,-2.6542451292279483,-1.3481544241060643,3.109776937643497,2.0,0.4788052365150338,0.4891160732546475,0.303950392143913,-0.4667967515103988,0.461703880645099,0.003910348992194003,0.7542645613757509
9.8,-1.8566657198760943,1.0970930129275858,0.5512384253529986,-0.057479813334457085,-0.17678810680989962,0.0008899217501287821,-0.03867179736511174,-0.053525289147787015,0.9978173816420705,-1.6911282596192534,-1.7959915460729126,4.162494665106314,-2.6542509827000536,-1.3481572310077112,3.109773394604436,2.0,0.47880595927241065,0.4891114794988379,0.303931467741784,-0.46682183007927663,0.46170197946048985,0.003909685604260384,0.754250207479041
9.9,-2.0508724397432045,1.3146088601238606,0.5070341360117104,-0.06772512706758875,-0.18837350061636715,0.0024748252594087765,-0.03854762070877819,-0.05340658056120853,0.9978285471408401,-1.6911118138288883,-1.7960209606520918,4.162495136260986,-2.6542501209609295,-1.348135846271055,3.1097796670546702,2.0,0.47880243598455147,0.48911742273967057,0.30394944158093007,-0.4668121155842163,0.46169624255148795,0.0039191072522425175,0.7542596827061427
10.0,-2.039044557440353,1.0453248943583815,0.8363417154291539,-0.06403406699831686,-0.19182882074369273,0.002998481481779115,-0.03868103404177766,-0.053507734495089235,0.9978179553581588,-1.691121124899515,-1.7960041912140854,4.162503132547207,-2.654241284293725,-1.3481530729388764,3.1097791244840556,2.0,0.47880569626769154,0.48910940304859385,0.3039271694176447,-0.4668137558580146,0.4617145822088593,0.003904066827307622,0.7542475191736729
10.100000000000001,-1.7448604482427748,0.864172332764656,0.7208765652799072,-0.06019482082993856,-0.20154772075229027,0.005498608092174739,-0.03891549768805534,-0.05371413596191458,0.9977976287615181,-1.6911322132990911,-1.7959987199152008,4.1624976504399225,-2.6542409749059983,-1.3481581993539402,3.109773643200214,2.0,0.4788111503684268,0.48910539965938893,0.30397214502284386,-0.4667893740998401,0.4616892372568589,0.0038949733068831373,0.7542781699158461
10.200000000000001,-2.0055723916406696,1.2016845861739267,0.7986394399217606,-0.05111017696221583,-0.19901186166357987,0.008074304273883073,-0.039729340970908196,-0.054523982142662,0.997721486870586,-1.6910974065429614,-1.7960039577879847,4.162504311709833,-2.654257436791891,-1.3481472909381276,3.1097766124300477,2.0,0.47882016700595803,0.4891006543389102,0.30394406775137983,-0.4667966115283513,0.46171101595495156,0.003907699097724789,0.7542602939962156
10.3,-2.1682933335838634,1.2740939484000002,0.7820595538369963,-0.045551040850895626,-0.19715434630417553,0.0028104623088856437,-0.03964108839288559,-0.05446811585052538,0.9977281404617764,-1.6911061629259836,-1.7959903697621356,4.162472568413044,-2.654251874913818,-1.3481398849184443,3.109782435734779,2.0,0.4788059253950033,0.48911416416214176,0.30394806341328057,-0.4668038831201766,0.46170479562084715,0.0039045620630836463,0.7542596176382056
10.4,-2.20888476399328,0.9185169452352835,0.8107701052549809,-0.052036472452533025,-0.19454108194908334,-0.001549648879694763,-0.03907562588151883,-0.05394487399113497,0.9977790251859283,-1.6911279814649698,-1.7960150981867773,4.162505831043827,-2.654256625040522,-1.3481241135043374,3.109778881072998,2.0,0.47879232832545787,0.4891265785548694,0.3039338670388405,-0.46681428022692517,0.461699369963566,0.003927912259176501,0.754256382841238
10.5,-2.15155063274011,1.199295470349878,0.7972826235052436,-0.05690788061717728,-0.2006096061673095,0.001449248534789518,-0.038732438800381644,-0.05357192305522933,0.9978124029834071,-1.69112433988503,-1.7960122051737621,4.1624836921691895,-2.6542211971678675,-1.3481724955844128,3.1097715339866427,2.0,0.47880762485813894,0.4891083913930211,0.3039377001315893,-0.46679616734291707,0.46171806647990055,0.003914414556963163,0.7542562181372465
10.600000000000001,-2.0804187464940633,1.2197877833185107,0.8074410853086326,-0.06322235033551567,-0.2058142288815066,0.00451211392808103,-0.03841470582901691,-0.05322976961914676,0.9978431220800766,-1.6911252288248646,-1.7960121422067252,4.162512543873529,-2.6542652938338818,-1.3481410967313834,3.109782767043621,2.0,0.47880174410870174,0.4891174766797172,0.30397865368820604,-0.46678942796384343,0.46169484835510216,0.003915760944195521,0.7542745944016512
10.700000000000001,-2.0013968593625626,1.3499403782146375,1.0388249668968899,-0.05925437588386138,-0.2051106714319646,0.005470785641633301,-0.03827871792041075,-0.05310751362155998,0.9978548577689682,-1.6911214629740985,-1.7960007374672997,4.162529595052236,-2.654268880883688,-1.348144833241598,3.1097716132731708,2.0,0.4787977502392417,0.4891123232250866,0.3039327236965891,-0.4668119897678162,0.4617158388559675,0.003917771543386892,0.754247771905676
10.8,-2.0962966081745953,1.0509142528428395,0.9122305739495801,-0.06798154765990118,-0.2036234871353607,0.009424703454587383,-0.03810795195230931,-0.052943050189892184,0.9978701202406332,-1.6910940755507526,-1.7959834167651791,4.162498437096091,-2.654257436791891,-1.348155514573457,3.109767436981201,2.0,0.47879873926336847,0.48911393677991305,0.30393539041661266,-0.46681363141334975,0.4617119040242379,0.0039131370741174384,0.7542491886420786
10.9,-1.9497751418477967,0.9012808780091679,0.9012663939487393,-0.06564380575233963,-0.20574854143317206,0.007393157565563515,-0.0379763205544265,-0.052813927741072075,0.997881978350795,-1.6910992301375087,-1.796018857284588,4.162478501237757,-2.654266379153198,-1.3481378134628415,3.1097934822128117,2.0,0.4787996677552275,0.4891154515738147,0.3039404866245848,-0.4668150600070895,0.46170580433341263,0.003906807451276786,0.7542520711611954
11.0,-2.2408700084370325,1.2129152633961622,0.858166989606483,-0.058954942933314644,-0.199685084378894,0.0075113473384438205,-0.038362127989767486,-0.053209788038833326,0.9978461451161268,-1.6911165851608123,-1.796003283248257,4.162484339727328,-2.654256411491505,-1.3481800475652355,3.109767436981201,2.0,0.4787981750531771,0.48912017631870985,0.30394751809138,-0.46681224479348965,0.4617020071960313,0.00392057175021949,0.754256066451686
11.100000000000001,-2.117185146930565,1.0563173444124196,1.0025153264849,-0.05873753575555625,-0.20288850189052812,0.00796313467595706,-0.03870526420344095,-0.0535445411799667,0.9978149767672455,-1.6911039352416992,-1.7960027750294867,4.162514435507246,-2.6542269225380157,-1.3481372802084606,3.109804557242397,2.0,0.47880353058659025,0.48911737969380653,0.3039679725024205,-0.4667845117196544,0.4617047519463557,0.003920215629203997,0.7542715516034117
11.200000000000001,-2.2302019249428704,1.3245402726998217,1.0354762864608344,-0.05624162570562918,-0.2002945412254163,0.008219708322607122,-0.03901974949387223,-0.05383826487817167,0.9977869405828391,-1.6910947444592337,-1.796033061932459,4.162502073734121,-2.654268880883688,-1.348147274326707,3.109776627763667,2.0,0.478802215916599,0.4891152348387272,0.30396063500032894,-0.4667930099751221,0.46170624478954314,0.003914988829464281,0.7542654056916365
11.3,-2.261172083186582,1.186130451172207,1.0564483771969417,-0.056852145242598434,-0.20000383275234984,0.004746996183925079,-0.039792950470872064,-0.05460746560501371,0.9977140085831016,-1.6911168395300848,-1.796017092415345,4.162484458715551,-2.654291586637455,-1.3480987464973633,3.109778881072998,2.0,0.4788046225276816,0.48911933295546023,0.3039594486398012,-0.4667818344320742,0.4617025807132877,0.003920759003835142,0.7542745346727223
11.4,-1.8133757365446435,0.9152556041438316,1.0633428644016836,-0.061712247911859655,-0.21051279735992556,0.010439763651174007,-0.04064601545579521,-0.055467449250610354,0.99763246505112,-1.6910963593810169,-1.7959801159300746,4.1625189781188965,-2.6542706514007883,-1.3481329123126429,3.1097647012537326,2.0,0.4787977125568962,0.4891118384858058,0.3039291839477299,-0.46681260406453307,0.4617094195730178,0.0039109125190866095,0.7542513568614277
11.5,-2.059582900797471,1.4081854568868102,1.0372471013333757,-0.053020833828513914,-0.20481817091146556,0.010589228287081578,-0.0389066966417413,-0.05372758219010764,0.9977959748744302,-1.6911093956948897,-1.796013903613439,4.162504546921179,-2.654259130074419,-1.3481521605868914,3.1097912788391113,2.0,0.4788000824383613,0.48911270969763654,0.3039477361802723,-0.4668040712799265,0.4617031661950777,0.003905859614416908,0.7542604918876488
11.600000000000001,-1.9231102881926745,1.099723485742042,1.0672919858323817,-0.05755263588720337,-0.20830209436836244,0.009652409837809656,-0.03850210392779022,-0.0533224355374034,0.9978345239349341,-1.691117286682129,-1.7960248490721895,4.162511153475068,-2.654257436791891,-1.348136038775667,3.109763833681019,2.0,0.4788031070980836,0.4891111954488796,0.3039690739725066,-0.46679892702902565,0.46168986331483436,0.003905952875462003,0.7542718179602196
11.700000000000001,-1.9740432445332987,1.0557283794817898,1.0354299622826113,-0.05598332317598597,-0.20753599120776584,0.006861557248372993,-0.03908882279760929,-0.05390859624075003,0.9977802636529992,-1.6911427012143796,-1.7960088934967129,4.1625164618752315,-2.654230875028119,-1.3481258303138135,3.1097938051877683,2.0,0.478806214495861,0.4891160697211401,0.3039743203136031,-0.4667832478962591,0.4616904411154724,0.003918796205246931,0.7542811008518786
11.8,-1.8986472148883433,1.0539911874687513,1.0443209657254295,-0.0552404600104655,-0.21016078947938105,0.005744067226489479,-0.038436256425306695,-0.053260167877777244,0.9978392972765323,-1.691117286682129,-1.7960047831135009,4.162511209265718,-2.654251667078103,-1.348133737638159,3.109760808928876,2.0,0.4788058518057092,0.4891163951164063,0.303949033801242,-0.4667937408153215,0.4617075740505582,0.003912226920111683,0.7542641540471827
11.9,-2.151256406128502,1.1194648954098299,0.9493203638430172,-0.05178773929088781,-0.20396925513345507,-0.0009432756145295522,-0.03701352476873231,-0.051844486591322105,0.9979687310290084,-1.6911287307739258,-1.795994651971124,4.162516258402318,-2.6542424239136833,-1.3481407576489264,3.109769947488812,2.0180345314366415,0.4787981935231238,0.48911228630349496,0.30395748279594703,-0.4668009754862257,0.4617021142303182,0.003912847461665607,0.7542630155490219
12.0,-2.053576978107175,1.1152866021858143,1.2005892655314252,-0.04049307587098075,-0.20769004258937765,0.0020046872295708643,-0.03859129491687715,-0.05341783660335487,0.9978237410809919,-1.6911505253661967,-1.7959854747514241,4.1624925640267385,-2.654242359615103,-1.3481421538309233,3.10975782580219,3.0,0.4787901694282999,0.4891172643359612,0.3039553270395146,-0.4668126968422373,0.4616995547044741,0.003919218790161628,0.7542572949442669
12.100000000000001,-1.849986332185318,1.182094845905265,1.9701042455411608,-0.05664888856175739,-0.20531420576499018,0.013021850276944738,-0.040122956678665334,-0.05494209328577714,0.9976830527874957,-1.6921748797790868,-1.7954241396635782,4.162563007421175,-2.653971843054064,-1.3480075517199406,3.10974839521481,3.0,0.4787865182416445,0.48908320315254145,0.3039116023852707,-0.46681007201432395,0.461717333845249,0.003915629365572124,0.7542480547800495
12.200000000000001,-1.4007154976684588,1.242994582546332,3.1225603604498247,-0.08761667643652717,-0.17822796940141825,0.023125822301855947,-0.0407046485109924,-0.05545488132762825,0.9976309913743574,-1.6936173688491214,-1.7942460308424277,4.162760257720947,-2.6534901808578084,-1.3478151802950635,3.1097286297546374,3.0,0.47871402387720463,0.48895782312699265,0.3038219485634658,-0.46683283543342036,0.46176021352596414,0.003879668963467674,0.7542079004720006
12.3,-1.4502325062074952,1.4654483006941956,4.073410688758978,-0.09640402774654569,-0.15873330600834817,0.061196250945496564,-0.04053477853220324,-0.05531453242172121,0.9976455374209978,-1.695024780113938,-1.793121367261497,4.163068544324682,-2.6530504020711145,-1.3476036230670374,3.1096980441322724,3.0,0.47841039682962916,0.48861891642826305,0.30381927352557153,-0.466809845687943,0.46173945720703746,0.0038821654973570287,0.7542348244532338
12.4,-1.2271089889340343,1.666383658264591,4.429368428055604,-0.10796321470343799,-0.15200320320477131,0.08170741481476948,-0.03973974142815333,-0.05463077544075097,0.99771550286977,-1.696809536547518,-1.792012857359438,4.1633164815005665,-2.652588029901022,-1.3473270575152796,3.109626783074295,3.0,0.47782806405428235,0.48813066907594016,0.30385013303298275,-0.46678309163689075,0.4616562717702201,0.003926342031984586,0.7543020720741622
12.5,-1.485087004315385,1.6194000933789434,4.422352804914202,-0.10162957413643696,-0.15265507854618543,0.07420214890609265,-0.04009505989813122,-0.05494118865593738,0.9976841889489592,-1.6984468846339194,-1.7909579775120377,4.16350257337563,-2.6520621159445272,-1.3470848687641213,3.1096269040125817,3.0,0.47764893961229254,0.48790932900785694,0.303735891539282,-0.4668212302422649,0.46169141493845645,0.003904727744711846,0.7542570712087917
12.600000000000001,-1.374523189288386,1.4581672996506805,4.369097948261773,-0.11011816909666183,-0.14790072328664944,0.08362599028634786,-0.04056802178044552,-0.055357706456785415,0.9976419431063908,-1.6998041493621996,-1.789986527765023,4.163770897582776,-2.6515936667400064,-1.3468115020804465,3.109611448011122,3.0,0.47731400895562803,0.4875248943103229,0.30358669873698335,-0.4668391131431313,0.4617351145972033,0.0038834052842453472,0.7542193616919686
12.700000000000001,-1.2921874645666755,1.5994251154474792,4.434821472912372,-0.11926465409460381,-0.1353843120537267,0.10508449429779138,-0.041149604899002934,-0.05587209423980005,0.9975896025179946,-1.7012766357195177,-1.7888577134555392,4.164042544566999,-2.6511746845641078,-1.346557759054242,3.1095588106209977,3.0,0.4769959211144031,0.48719710143787587,0.30352209073509556,-0.46680948172151193,0.46174810571388825,0.0038908081895781474,0.7542297105366251
12.8,-1.08851990710428,1.8753960364271185,4.553237795741818,-0.13945212312489882,-0.13870589095383895,0.12754861433645123,-0.040368266764811256,-0.0551142572277852,0.9976633792875891,-1.7030509496217054,-1.7876362935178316,4.1642426334285645,-2.6507174273309277,-1.3463314215289515,3.1094864688777832,3.0,0.47647708341244527,0.48672478945989284,0.30350365057634676,-0.46678938865748054,0.4617207900777368,0.0039060281265297435,0.7542587895351573
12.9,-0.9271564567511726,1.6524224642981902,4.4106989163997765,-0.1503063415855956,-0.1353818554972206,0.12835141112142354,-0.040280366487914866,-0.05500928886053733,0.997672850297338,-1.7044714140240915,-1.7865420415953719,4.1644616183536405,-2.6502781043628487,-1.3461154199485097,3.109467904668849,3.0,0.47622271953857415,0.4864222744881565,0.30342587862452913,-0.46681114798240175,0.46172994490956687,0.003869103366815463,0.7542399088700475
13.0,-1.0789432783111006,1.8122078106278332,4.5834879932797605,-0.13850050330382113,-0.1249186894618078,0.13214566389977495,-0.04090201077144691,-0.055572353527100944,0.9976165218967684,-1.7058307874364516,-1.7855590998013982,4.164763400587014,-2.6498235379860686,-1.3458599863154364,3.1094486963587147,3.0,0.47586157535929174,0.48602689618103834,0.3034049852688569,-0.4667664857329722,0.46172020918447065,0.0038741339307211617,0.7542734831037259
13.100000000000001,-1.135349792961623,1.7874083330850008,4.490565083841909,-0.12130111434096291,-0.13542902462276898,0.1454392675556408,-0.041214935466590275,-0.05591184368554757,0.997584626551688,-1.7074627904917596,-1.7846117766156846,4.164958412394594,-2.649327894250387,-1.3456190239510102,3.1094407417657486,3.0,0.4754198339616536,0.4856393082640865,0.3032938640356801,-0.4667812955217719,0.4617204419671659,0.0038962256292683233,0.7542640618818498
13.200000000000001,-1.046050068727777,1.6518170040268083,4.656767117569154,-0.13098366355088173,-0.1312182256129399,0.16337878974123296,-0.04049114617511775,-0.05520629979935926,0.9976519229419005,-1.709209753380514,-1.7835051315096728,4.16520606247567,-2.6488547111813308,-1.345407787953512,3.1093538342316096,3.0,0.47521569240792666,0.48542696423192144,0.3032322524711725,-0.4667826689182466,0.46174330677594216,0.003898357096909247,0.7542492038160343
13.3,-1.17712903830868,1.9273079219413882,4.912219469028888,-0.148556340530422,-0.12108813588244,0.1581664424505056,-0.03864348084882862,-0.05336655304290901,0.9978268268047894,-1.7105902688892483,-1.7822589829585909,4.165468692779541,-2.648392200481821,-1.345205515338854,3.109355922033655,3.0,0.47489144236707975,0.48505959981983165,0.3030598088548116,-0.46685059169382714,0.46175663224854335,0.003855847458785344,0.754199224376412
13.4,-0.9476994485908532,1.8546736765992378,4.9984190685886745,-0.15990864947612587,-0.12230712195673528,0.16954831876806828,-0.0403379963443243,-0.05511567040583998,0.9976646942900246,-1.7120400982569537,-1.781036993066305,4.1657182322484685,-2.64797789288192,-1.344954667295031,3.109313811208563,3.0,0.47435712228758514,0.4845660745256278,0.3031358501617756,-0.4667702064666807,0.4616900098158894,0.003907607908102628,0.7542894933589441
13.5,-1.1107296831713787,1.6369213192861984,4.781907277952769,-0.1277976805937789,-0.13319448848047633,0.17700273451324608,-0.04007502281272501,-0.05484270630765096,0.9976904002280472,-1.7136548199890353,-1.7801121741277994,4.1659609290724955,-2.6474974913756095,-1.3447417166163464,3.109298509908906,3.0,0.47415143163741036,0.48432542272805407,0.30318088062681936,-0.4667112133070008,0.4616797859896808,0.0039101840554581786,0.7543322404900126
13.600000000000001,-0.8584248578690348,1.603248535191826,5.00842771974127,-0.12516680109833936,-0.14382955620669302,0.19935645367257634,-0.0403732127914559,-0.055168908972387416,0.9976601285389363,-1.7151586727852708,-1.7791800885204148,4.166199006002214,-2.6470761685375046,-1.3444925406218067,3.109226703643799,3.0,0.47381423597705075,0.48400379270778265,0.30302873408446857,-0.4667786670226125,0.4616913438919052,0.003911295360071904,0.754283422034772
13.700000000000001,-0.9864299823904101,1.5370123822717456,4.982977654126454,-0.13095273939762966,-0.13232345701695186,0.20265431382661764,-0.041036022058187765,-0.05587300177779279,0.99759422918101,-1.7166908093961963,-1.7781253787691942,4.16644980117777,-2.6466116645921276,-1.3442370022436594,3.109188749707155,3.0,0.47331047272191884,0.4835306419066185,0.30279954028906075,-0.46684462709591174,0.4617211006007501,0.003909554296325012,0.7542243928678755
13.8,-0.926223257657855,1.8639402463018846,5.116771484807547,-0.12810622276296138,-0.13189434257946944,0.20847226391157575,-0.041123280617414396,-0.055952459801811016,0.9975861849674834,-1.718253629471066,-1.7768527727922065,4.1667160987854,-2.6461949357498527,-1.343978255942353,3.109179973602295,3.0,0.47315711212413075,0.4833476661168419,0.3027339771658695,-0.46685846942922005,0.46173914077043504,0.003900462479571248,0.754204827480726
13.9,-0.7808739021000847,1.711589358773875,5.180638703285001,-0.14092679958440002,-0.1235665773250781,0.2195944435308283,-0.040468648613519384,-0.05531112057345662,0.9976484442864088,-1.7197027102854456,-1.7756656020115733,4.166964059285988,-2.6457452423267025,-1.343747922984129,3.1091465898228985,3.0,0.47280551120995556,0.4829997992002458,0.3027356718780357,-0.4668299368457177,0.46172899989913113,0.003908656329149416,0.7542286544029415
14.0,-1.0223310867939492,1.6011835911173138,5.117344732256667,-0.14103030805751046,-0.11755267747337596,0.23248015139145578,-0.03958450849446776,-0.05445579579706821,0.9977306971518577,-1.72120131846665,-1.7746713482641565,4.167233654838793,-2.6452839695715293,-1.3435281224565643,3.1090862443685574,3.0,0.47223246585643774,0.4824823847928831,0.302789861885043,-0.4667783483569523,0.4616636562997939,0.00396269663588691,0.7543002976218646
14.100000000000001,-1.4081579080976059,1.4190241705939497,4.949709977063763,-0.12549708008217847,-0.13007282621677715,0.23370150230817274,-0.03846494863113473,-0.053384570664253395,0.9978327568221431,-1.7227689988438617,-1.773693008718293,4.167420848088146,-2.6448221780940075,-1.3432679225016106,3.1090527559466508,3.0,0.4719867500513714,0.4822477490146812,0.3027119548012751,-0.46678945991625376,0.4616612725723228,0.0039427630939462355,0.7542949848283367
14.200000000000001,-0.8287670872683832,1.650835891866123,5.083718255955617,-0.12802132299391997,-0.13473608226711042,0.23948932521866498,-0.03871905597774108,-0.05354247757312666,0.9978145645845979,-1.7243265715487766,-1.7725845892526086,4.167646746746371,-2.644359928392544,-1.3429877702897104,3.1090075774614,3.0,0.4716017696467437,0.4817592030842874,0.3025094480610941,-0.4668072572545641,0.4617259021781091,0.0038976034239739457,0.7542446450057381
14.3,-0.9858958939155085,1.632392477280602,5.05152833873893,-0.1482206233529021,-0.12146423692589174,0.25198041452779696,-0.039167714578276544,-0.0539371700893903,0.9977757323658485,-1.7256330922221077,-1.7715431652464808,4.167925843698448,-2.6439427292828768,-1.342786371154947,3.10898108035077,3.0,0.4714071544387494,0.48154723665553917,0.30243812450593727,-0.4668116313429658,0.4617515002910857,0.003900974455159016,0.7542262493576782
14.4,-0.9076427896824372,1.6388023876581521,5.207318271629606,-0.14827223980899415,-0.1245436372491675,0.25962087022016506,-0.03969207297604796,-0.05449501445522775,0.997724781841124,-1.7272504290958341,-1.7702994686963565,4.168164690261807,-2.6435481463261024,-1.3425520102130335,3.1089433922108056,3.0,0.4710686027898681,0.48123795575433276,0.30245300863633584,-0.466789207211863,0.4617056683184583,0.003912070280338312,0.7542681271134606
14.5,-1.1115639198201852,1.436300305238829,5.093877745094586,-0.132243595860538,-0.13189116773696888,0.26257315118120234,-0.04099402149232836,-0.05580444900523108,0.9975978127894005,-1.728907930516751,-1.7692362254039358,4.168384412738765,-2.6430945909040204,-1.3423219234719872,3.1089043617248535,3.0,0.47052093013241814,0.48067418005510043,0.30240411271595885,-0.46677572593710026,0.4617040178608897,0.0039246055954534126,0.7542774151715829
14.600000000000001,-1.1732166689681613,1.4499584212367285,5.164341958644952,-0.13433443061823971,-0.12480703755470553,0.26741876929939745,-0.04239447064726529,-0.0572090906719224,0.9974612141484103,-1.7303152771828587,-1.7682212704057583,4.168623268969333,-2.642636140021044,-1.3420538729857001,3.1088919639587402,3.0,0.47030343078928066,0.4804435012875644,0.3022867242085664,-0.4668254674208561,0.46172078481438533,0.0039068520896399506,0.7542364591720802
14.700000000000001,-0.8729440639892324,1.5515298510438842,5.0023678570693475,-0.14113901130034523,-0.12701624608820453,0.2727955834293349,-0.041278872749524534,-0.05611694939092714,0.9975702609346827,-1.7317188665813052,-1.7672006468586008,4.168878767145773,-2.642212492563804,-1.341803011873124,3.1088547706604004,3.0,0.46986035991458996,0.48001838415223114,0.3021819145341809,-0.46682665160684167,0.46170767523584527,0.003911513853703172,0.7542437272110575
14.8,-1.0882261691552717,1.5221308845913304,4.853270845263235,-0.13431143278567095,-0.12823888301903807,0.2829931572074852,-0.04149909621982294,-0.05629101237782818,0.9975515489569803,-1.733352472731843,-1.766079727624338,4.169095276075023,-2.641735319638002,-1.3416054367251586,3.10880708694458,3.0,0.46965027109636964,0.47977793177802264,0.3022207832869782,-0.4667641794931037,0.4616911608269457,0.003919693397382429,0.7542924557226245
14.9,-0.7761248615098751,1.2838880217486583,5.1627825392301245,-0.12291629680576124,-0.12447164409438147,0.28785121255436047,-0.04294396834436809,-0.05772750344659619,0.9974079624864425,-1.734996061253698,-1.7650175934515735,4.1693291664123535,-2.6412670084118055,-1.3413835479328373,3.1087907648443425,3.0,0.4691952500689316,0.479292807645505,0.3020716111922507,-0.4668077485378141,0.46171431245815076,0.0039018581547378547,0.7542514137071903
15.0,-0.9395032846132416,1.0806004456284595,4.686473974346512,-0.11093383412562219,-0.14178920481146087,0.2761711886280434,-0.04253244178093563,-0.05733404788445049,0.9974482803556455,-1.7350591891737703,-1.7649541188220033,4.169352863973761,-2.6412171878941444,-1.3413532415973108,3.108771800994873,3.0,0.46894944825713075,0.47902648699719985,0.30196600625247033,-0.4668349833724179,0.46174442993182135,0.00390511744044809,0.754216102840816
15.100000000000001,-1.0201026123927617,1.093032096718215,4.383226016759007,-0.11521946697658476,-0.15615815629846144,0.27360254268843254,-0.04191713792217923,-0.05674124599205013,0.9975085760918722,-1.7350838576370304,-1.7649468814744789,4.169359423507041,-2.6412217276817933,-1.3413431628961292,3.108769885077989,3.0,0.46881984788677494,0.4789317974163712,0.301911999981191,-0.46684049837715647,0.46173458886123103,0.0039141648479634325,0.7542186671235742
15.200000000000001,-1.2673115668108752,1.3609191828780545,4.159127680382215,-0.10933322008146608,-0.16337748248255654,0.26464104144219536,-0.04171943797853529,-0.05656842954267953,0.997526682472427,-1.7350428666424387,-1.764938424550391,4.16937296621309,-2.6412173967605788,-1.3413108288242996,3.1087688707541052,3.0,0.4688185807430328,0.47893139818070674,0.30195535185050304,-0.46681909980004055,0.46171254737252443,0.003932768385089685,0.7542453082343193
15.3,-1.3413516919069497,1.413089456859247,4.203288768062746,-0.11565574946548697,-0.16888998537480207,0.26245774220465673,-0.04139173900931498,-0.05622279055687383,0.9975597436036066,-1.735061336348529,-1.7648745366719802,4.169384859855885,-2.641224990164175,-1.3413466370509923,3.1087594032287598,3.0,0.46883737545217086,0.47891190831175035,0.3019572566436964,-0.4668192788080865,0.4617140143518752,0.003884251681735089,0.7542445508408049
15.4,-1.5063341135658166,1.519709635738633,4.136473180790526,-0.1084346602830409,-0.16923042205582503,0.2585284319155112,-0.04102921381860308,-0.05583085310147621,0.9975968110529511,-1.7350535517968722,-1.764889315070179,4.169368065360863,-2.6412102614496273,-1.3413386183633798,3.108772711688699,3.0,0.46881418505134764,0.47890604010343624,0.3019876162085214,-0.4668073281065783,0.46172066378076126,0.003913712706827351,0.7542477245021684
15.5,-1.5434025509163476,1.4843076424588628,4.018609020755236,-0.10941781473516463,-0.17099356391558437,0.2579801268618046,-0.042516263522442296,-0.0572891182286103,0.9974511115107046,-1.7350854920481005,-1.7648693523802699,4.169365860857354,-2.6412547917353386,-1.3413413206683558,3.1087389699618773,3.0,0.46882692100273354,0.47890108704596196,0.3020039053773608,-0.46679202931521424,0.461703594733173,0.003895162437592493,0.7542677374035264
15.600000000000001,-1.4211507303517799,1.3314915923317365,3.8860501618670935,-0.1150685238634817,-0.17565154713508083,0.2543706910734281,-0.04266100437435658,-0.05744883921188612,0.9974363317021386,-1.735041385315452,-1.7648964846350865,4.16938247724767,-2.641242375858852,-1.3413050810443323,3.1087659840225728,3.0,0.4688140414185241,0.47890356056395567,0.30197039006929405,-0.466828808428568,0.46170664799739747,0.003889034472527617,0.7542431373416947
15.700000000000001,-1.5554897683833664,1.314345403895692,3.894007910296935,-0.11234462382674765,-0.18114827534738323,0.25082634575520574,-0.04216866862887814,-0.056985935291328026,0.9974839340503915,-1.735061034795429,-1.7648767769633684,4.169388294219971,-2.641267710953847,-1.3413392127835648,3.108755187459178,3.0,0.46881001543254797,0.4789153094725091,0.30195363117844976,-0.4668253171662615,0.46172691013644657,0.003915048904708403,0.7542327598961366
15.8,-1.648312419770098,1.5004689305367538,4.042001358643683,-0.1078785043145868,-0.1865027517186676,0.2484563193173793,-0.04312123901336548,-0.05795359250124346,0.9973863309516517,-1.735032787143099,-1.7648834781188971,4.169370888914117,-2.64123596767568,-1.3413268959695304,3.108764300151484,3.0,0.4688053867579653,0.47892413515179433,0.30200237823707254,-0.4668095939796604,0.46169343765205206,0.003913779226934103,0.7542629879092162
15.9,-1.440833767692829,1.5075657032529526,3.898002910243068,-0.11072114380642857,-0.18570176779996006,0.2546509281721423,-0.044258519563822436,-0.059090480448337035,0.9972710244450408,-1.735045911034645,-1.7648656528050637,4.169379596029064,-2.64123596767568,-1.3413342061006515,3.1088015560000786,3.030900098911972,0.46880985572189005,0.4789320760784006,0.3019783917935055,-0.4668167567204289,0.46170424223606954,0.00391773975598027,0.7542519205553548
16.0,-1.604162802031423,1.462183499110577,4.1187362637965865,-0.10963985070126964,-0.18313267095588312,0.24695931264124915,-0.04433642364649518,-0.05913326609143047,0.9972650277447744,-1.7350446730852127,-1.7648621113099994,4.169373220801353,-2.641247888604635,-1.3413151961015624,3.1087645599246025,4.0,0.4688074105469012,0.4789076533794229,0.3019887557937938,-0.46680810956047203,0.46170768618378116,0.003903861616512382,0.754255236131561
16.1,-1.6345546893043892,1.3560889060157384,3.9461628418964763,-0.11328261666006316,-0.18362148569191886,0.24875396837162814,-0.04413405021012949,-0.05893823596737922,0.997285498036085,-1.7350476612625472,-1.7648450336852015,4.1693781590237355,-2.641269183954667,-1.34132230128939,3.108788723900742,4.0,0.46881897948185386,0.47889792710932644,0.30199626982780986,-0.46679173004154323,0.4617142870909446,0.0039137768170074425,0.7542612811300542
16.2,-1.660964496010733,1.1292829672566367,3.6273528831752677,-0.11763788554731693,-0.18314144737025412,0.247564531461546,-0.04377067670277366,-0.05859226455538322,0.9973219002277203,-1.7350420932693176,-1.7648605494684273,4.16935443686673,-2.641261699264143,-1.341313883956175,3.108756084901741,4.0,0.4688018949623893,0.4789192986421858,0.3019775477568426,-0.46682084312873595,0.4617108733300245,0.003921498449129186,0.7542453126929699
16.3,-1.6872789483024353,1.3984909102580236,3.8301737108232627,-0.11179360286078198,-0.1845047179577735,0.24385255327640162,-0.04311672380795014,-0.05792507246995801,0.9973892175808042,-1.7350530624389648,-1.7648569546141566,4.169396560595613,-2.6412446473341578,-1.3413293997394007,3.108803210490342,4.0,0.4688105782578176,0.4789069806701173,0.3020235300779324,-0.466782777301203,0.4616996674180833,0.0039250037539792,0.7542757123668627
16.400000000000002,-1.3385630595846085,1.1044344637423757,3.814709237454407,-0.11747853261995002,-0.19021982813839186,0.24711176235914567,-0.04235024323422862,-0.057139178968944895,0.9974674192921255,-1.7350479991006045,-1.7648569546141566,4.1694044399831025,-2.641247888604635,-1.3413310413239108,3.108795642852783,4.0,0.4688135142385558,0.4789114906520167,0.3019949188482342,-0.46679303738879685,0.4617156526601953,0.0039151615942957544,0.7542596289366162
16.5,-0.49140882081266635,2.4187138177043006,3.6030135542437747,-0.1534612759149267,-0.10187389138945135,0.2637948472103905,-0.043040612545567694,-0.057830757685380346,0.9973977003492532,-1.7350711693128076,-1.7648730029596735,4.169366656913562,-2.6412588403428465,-1.341334842677116,3.1087918462502033,4.0,0.4688140515041792,0.47890758358260416,0.30198784742134327,-0.46680329234909457,0.4617124715397526,0.0039080725200408215,0.7542552663693352
16.6,0.2937795752471141,0.7139949755048385,2.304576332192637,-0.06356016206068969,-0.04970036710940373,0.2546016077993942,-0.04336694394975421,-0.05815693983269821,0.9973647809111673,-1.7350858592769822,-1.7648521563723654,4.169348543597245,-2.6412960491576136,-1.3413050810443323,3.108747959136963,4.0,0.468823217987293,0.4789043034750086,0.30199037260011496,-0.4668015115757802,0.461714346128837,0.003913102744423222,0.7542551948752483
16.7,0.08863818650527597,0.35158030020362757,1.1632994090058189,-0.02207807305986381,-0.02335458905841635,0.24943993151511096,-0.04198797126536036,-0.05677091460179962,0.997503684635593,-1.7350839679031047,-1.7648674961908424,4.169360071876493,-2.6413007595045617,-1.3412591821260385,3.1087974990422107,4.0,0.46880990601234274,0.47891575357461946,0.3019856809952731,-0.4668122798125345,0.46171755661922,0.00389734517175049,0.7542466466789318
16.8,-0.109506127177914,0.4733151587809912,0.24006804489104716,0.006004225115358752,-0.005974990651513451,0.2451959575460864,-0.04121058998973048,-0.05597697134985836,0.9975807317711521,-1.7350475941516406,-1.7648640623696334,4.169375896453857,-2.6412381877066893,-1.3412797945530412,3.1087639178417676,4.0,0.46880492969619236,0.47890403019876093,0.30198698807251745,-0.4668100371079596,0.46172390682948133,0.003897367678871008,0.7542441472378567
16.900000000000002,0.4779641712543377,-0.16652695750610208,0.22671527476387085,0.0018178474019165027,-0.00583698774431855,0.2473666442875332,-0.043060552345308256,-0.05778317886939019,0.997399711255583,-1.7351007461547852,-1.7648418573567985,4.169383466200798,-2.6412148888355826,-1.3413158906462441,3.10878324508667,4.0,0.46883399236834467,0.47888676833987454,0.30198767806581056,-0.4667959812016983,0.4617318655757671,0.0038883121609719264,0.7542480210609797
17.0,0.26034051701270905,0.17841603404983644,0.2684165302587672,0.00435141078114058,-0.0024310397708685112,0.24608572388402344,-0.04450420994491755,-0.05923872211928642,0.9972512811642867,-1.7350965557608038,-1.7648358695943922,4.16938410382599,-2.6412465101855624,-1.3413174788104456,3.1087635936227414,4.0,0.46882867502652686,0.4788949188800168,0.30199435836195443,-0.4667955655667063,0.46171509071046807,0.0038901361137163074,0.7542585377829671
17.1,0.12508509159079784,0.1286363196169698,0.2058310300564009,0.00475760597959569,-0.0024926927039696806,0.24000775651251427,-0.04479740361168975,-0.059535309335590404,0.9972204694726097,-1.7350732048405666,-1.7648178514670612,4.1693701760747075,-2.6412084230279644,-1.3413293997394007,3.108744984539805,4.0,0.4688285049526329,0.4788956367845336,0.30198365332883953,-0.4667931302033713,0.46171634036596493,0.0038940109578186528,0.7542592600112108
17.2,0.08053749003628605,0.3197155151195783,0.1617062135853122,0.01302126345228586,-0.0005905052423872733,0.23831883890647695,-0.04487596185439784,-0.059620396878502596,0.9972118900947872,-1.7350793725124847,-1.764843388545814,4.169365209632707,-2.6412376128150674,-1.3413293997394007,3.108771800994873,4.0,0.46881281934836505,0.4788935349687487,0.30200082177709014,-0.46679048423273584,0.46170797781350914,0.0038968395386571,0.754266001948078
17.3,0.002154645914240083,0.18200393038474041,0.13832678517210503,0.012252618570998769,-0.0011759468154380896,0.23704413783479272,-0.04462034963596926,-0.059373551503739984,0.9972371680903989,-1.7351031831080113,-1.7648237303202352,4.169362280211131,-2.641237236922152,-1.3413293997394007,3.1087394198801244,4.0,0.4688306974849624,0.4788886115036944,0.30199252186422854,-0.4667906358155367,0.4617165659741003,0.003905270929133304,0.754260607402363
17.400000000000002,0.1327273464297854,0.05487013848932247,0.0939934782165883,0.008723872329466163,0.0004908576428783901,0.23512312944523195,-0.04278644912830317,-0.05755094695377827,0.9974200547488324,-1.7350759506225586,-1.7648285008584441,4.16935905809536,-2.6412064391898227,-1.3413367087705534,3.1087686270243644,4.0,0.46881449888700794,0.47888930581915456,0.30199294996136183,-0.4668070027003235,0.46170704964772824,0.003891946426301079,0.7542563723884244
17.5,0.11527001805864213,-0.055134778692443,0.07699443205309543,0.01054099055583178,-0.0006439164290778371,0.23464950204137924,-0.04095254862063715,-0.05572834240381662,0.997602941407266,-1.7350666515419781,-1.7648461508785434,4.169378130840541,-2.6412467714112933,-1.3413305169327425,3.1087377957575333,4.0,0.46882070876885007,0.47888808556169343,0.3019672379140305,-0.4668067292944345,0.46173191477676534,0.0039066561598313935,0.754241244165064
