xiamingqian9007/apple-picking-rnn/training_data/grasper_20191127_124541_noimg.csv
,/manipulator_wrench.fx,/manipulator_wrench.fy,/manipulator_wrench.fz,/manipulator_wrench.tx,/manipulator_wrench.ty,/manipulator_wrench.tz,/ground_truth.x,/ground_truth.y,/ground_truth.z,/joint_states.elbow_joint,/joint_states.shoulder_lift_joint,/joint_states.shoulder_pan_joint,/joint_states.wrist_1_joint,/joint_states.wrist_2_joint,/joint_states.wrist_3_joint,/mode./mode,/manipulator_pose.x,/manipulator_pose.y,/manipulator_pose.z,/manipulator_pose.rx,/manipulator_pose.ry,/manipulator_pose.rz,/manipulator_pose.rw
0.2,-0.11356632439424799,0.3762671456918602,-0.11962460478010546,-0.028202661473713742,0.016038355253105905,0.027604939482730514,-0.08854688937648122,-0.3035138425313782,0.9487037449946283,-1.8679400765708671,-1.7350746386045441,4.165253788907268,0.11078776646356926,1.3483161482736106,-0.4150515418592911,1.0,0.45975173352120746,0.46147460308599064,0.3568425553054009,-0.7021958312884732,0.41773339607606264,-0.14089553566595914,0.5590780556892321
0.30000000000000004,0.30752740598777706,-0.0729230830352742,0.20024072633451867,-0.009115337645633192,0.011858383473139018,0.10689473125398842,-0.08852617171073494,-0.3032812644531907,0.948780021713545,-1.8652921510389684,-1.738028989941227,4.164581449177743,0.11134588775099989,1.3488608430642632,-0.4152636591014215,1.0,0.4599693810108461,0.4616904124500638,0.35693087357589665,-0.7020971341968644,0.41771133903290214,-0.1408981148095454,0.5592178221757652
0.4,0.1863508792880839,0.07551892455850115,0.11782761166999703,-0.007118462596293159,0.019022627055620207,0.20014774503196825,-0.08850539283694789,-0.3030466422124895,0.9488569575228791,-1.8624507758830033,-1.7419960832258643,4.163957962365485,0.11202160894360347,1.349703311920166,-0.41551893051330546,1.0,0.46048546288439196,0.46212832590339836,0.3567421537306053,-0.7020672665600065,0.41773241129421146,-0.14092526125175514,0.5592327391349771
0.5,0.25960057996034364,-0.1402558975550322,0.3445018869906575,-0.01020194273741541,0.015377184119748354,0.23891863221472665,-0.08832668652664698,-0.3031455083765982,0.9488420174927699,-1.859389160214726,-1.7456767807553042,4.163343084084224,0.11289436879918172,1.3502775552145956,-0.41576228584843894,1.0,0.4613189844127817,0.46307117501503553,0.3561555602178323,-0.7021650936082169,0.41769969433164966,-0.14086358716243122,0.5591498873156842
0.6000000000000001,0.11905561301315068,-0.016909099767811936,0.15591741670113465,-0.010099052079571938,0.01864223088978343,0.22750911053018313,-0.08833619883149003,-0.30338456399744,0.9487646220003634,-1.856450541922092,-1.7493476756685196,4.162663156124893,0.11360090237572977,1.3508374699717856,-0.41601286411391164,1.0,0.4625166163844599,0.46437584967382406,0.3552981868173807,-0.7022714477189183,0.41769674621853603,-0.14084040469841927,0.5590243485945923
0.7000000000000001,0.39370230702050907,0.1555339655060406,0.17223703156868658,-0.013236996622636934,0.020735530129261538,0.2189326954220308,-0.08856085559695655,-0.3037743740051417,0.9486188715918109,-1.853649311963048,-1.752882226881801,4.16183746759142,0.11417023717846675,1.3514125035485716,-0.41625544271055587,1.0,0.46336262741082535,0.4651886885756102,0.3548996196592464,-0.7022451511124396,0.4177124851784916,-0.14086879345337783,0.5590384696030003
0.8,0.42955928069651517,0.47646004598220904,0.16657582194710058,-0.014630142589295712,0.021384717311597416,0.21994316669483088,-0.08878551236242306,-0.30416418401284334,0.9484731211832584,-1.8508062239343441,-1.755928839697867,4.1611032194426745,0.1147703743059677,1.3520295995603622,-0.41647795304438,1.0,0.4641876530099881,0.4659166952456183,0.3544544428558751,-0.7022501039363367,0.4177644966985522,-0.14090933446141984,0.5589831627886924
0.9,0.42691898173612586,0.5278070892761567,0.4351128932461213,-0.02063736307986908,0.024372913844292347,0.21721880039888436,-0.08873256973849175,-0.3039387301608563,0.9485503178573588,-1.8481437362703577,-1.759412039438543,4.160543470966052,0.11534686842328395,1.3527016639709473,-0.41664392152895147,1.0,0.46541866693794753,0.467025805065282,0.35398454519370187,-0.7021631209173665,0.41779504144550017,-0.1409545036909718,0.5590582106152887
1.0,0.3682894124758912,0.12421194138313602,0.4352694074760779,-0.027203789787380517,0.028590252842640867,0.21315464876882487,-0.0886690120537941,-0.3036897493721851,0.9486360397549303,-1.8454117004856483,-1.7624226247534078,4.159990834240526,0.11594583855234662,1.3533076772646007,-0.4168953999077093,1.0,0.46614506708964826,0.46780869835375266,0.35358506507172377,-0.7021872218859408,0.41777046568958653,-0.14090478016154961,0.5590588397881171
1.1,0.4213304332846863,0.15995957513394712,0.3666075105977288,-0.023286926234245997,0.03466928331030774,0.20870567694140604,-0.08866735857700146,-0.30382526846987146,0.9485927891174681,-1.842872495405442,-1.76547935333268,4.159465284907304,0.11642758428540034,1.353791953134981,-0.41707431815613843,1.0,0.46705251871676484,0.46876973935472294,0.35311802500893313,-0.7021994448309343,0.4177394074476546,-0.14086397167554676,0.5590769791613683
1.2000000000000002,0.187704936890657,0.1855141622268579,0.3360232529308346,-0.027304708475787184,0.034045974763184286,0.20797698809789153,-0.08866863299900975,-0.30397897335482993,0.948543438433766,-1.8403638268019384,-1.768424713532336,4.158968448638916,0.11692949266693299,1.3542531493408188,-0.41727600645467355,1.0,0.46775995907648593,0.4694889866612823,0.35278174173305565,-0.7021894026373426,0.4177256471800801,-0.14088751804555233,0.5590939400232839
1.3,0.631065028877564,0.14924661758375785,0.21288779136261804,-0.023142232630036626,0.018327913512538083,0.21078129297012926,-0.08873317991240612,-0.30428615068121856,0.9484388461104035,-1.837950717936935,-1.7713062914334008,4.158516011042636,0.11737266980545828,1.3546965266546827,-0.41745928420469375,1.0,0.46878540730325996,0.4705918883966882,0.35224086861999215,-0.702223078585722,0.4176830601363938,-0.14089323519133864,0.5590820203279718
1.4000000000000001,0.09758990741621534,0.4159196305822597,0.2186691798485298,-0.02401977733734101,0.035930985095592234,0.2060355537791071,-0.08880124615233287,-0.30460186441297005,0.9483311811505165,-1.835481838584655,-1.7741239648776972,4.1579863143449165,0.11780464534229265,1.3551475685586827,-0.4176623259169256,1.0,0.46924353156568643,0.47106865017705996,0.35198851287985455,-0.7022169603389554,0.4177070451429239,-0.14088048768605244,0.5590749978666776
1.5,0.27553697944085415,0.37320135220853656,0.26131099010226716,-0.026604614908824056,0.029352725026201523,0.20679010425483596,-0.08880862339371644,-0.304461398060926,0.948375594624648,-1.8333148822487064,-1.7767480215094524,4.157386803680114,0.11821049084529989,1.3556392427011164,-0.41782838502992803,1.0,0.46991093039929926,0.4717187637629972,0.3516364801946408,-0.7022168872273729,0.41772298787525297,-0.14090097700366838,0.5590580143175501
1.6,0.39067801122095325,0.43480880912844183,0.41520576022600125,-0.024636669889394426,0.02314791156399025,0.20553168228305443,-0.0887854868097125,-0.3043925412919386,0.9483998705763601,-1.8309838421930715,-1.779521330061938,4.1569720025434735,0.1185896684095904,1.3562096838578939,-0.4179960282799716,1.0,0.4709246581881582,0.4726980859179677,0.35105660200242145,-0.7022445682836583,0.41775180981552185,-0.1409083193649012,0.5589998544236963
1.7000000000000002,0.454831099368632,0.26430133293307484,0.4349766410151162,-0.02843092035014579,0.026441980287276786,0.20494575762861422,-0.08872728976122665,-0.3044571306740401,0.9483845858841785,-1.8288180398929526,-1.781722481452351,4.15642027397773,0.11899043162090993,1.356676009794676,-0.41815743405904454,1.0,0.4714767226033771,0.4733068601158617,0.3507715985742214,-0.7022658914823827,0.41771448467375394,-0.14087221083337487,0.5590100599891847
1.8,0.5965132733990052,0.31737461397363165,0.4464996647693676,-0.026465236999742653,0.025066131027657607,0.20795326229359531,-0.08838645425803558,-0.30332538939958925,0.9487788951768007,-1.8269121724973678,-1.784442553778656,4.155959852398491,0.11930332516728585,1.3570235288397445,-0.41830122035770967,1.0,0.4720647609806904,0.47385088681214416,0.35056321721203704,-0.7022278639506672,0.41770041562269783,-0.14086578094101154,0.5590699613105572
1.9000000000000001,0.23733202396100436,0.4720488384345865,0.38238125270852147,-0.02375592475738959,0.0337815115560106,0.20246917129182315,-0.08839521157641313,-0.30311517464979176,0.9488453346996265,-1.8245880545037363,-1.7864321872127769,4.1555373325023925,0.11969070435297312,1.3574207374817537,-0.41846459494826926,1.0,0.47303665372674036,0.47477324349499833,0.3500444739360877,-0.7022293264729798,0.4177341102437811,-0.14089901591256798,0.5590345727189076
2.0,0.3782146764175532,0.10074801963496591,0.29880615648231834,-0.030557295174073358,0.0287030764057642,0.20812265162832055,-0.08834393093676418,-0.30275888764384645,0.9489637122172262,-1.822824858630877,-1.788780974523492,4.155165131068561,0.1199903738918865,1.3577544000980428,-0.41861535634259867,1.0,0.47346635730733994,0.4751914340880451,0.3499861676471613,-0.7021448371529395,0.4177242414735509,-0.14090388686993294,0.5591468326028181
2.1,0.5386650047653926,0.2663158892634574,0.347596957352292,-0.024465612635536343,0.025934553011190818,0.20486837647940176,-0.08814752107499887,-0.30203261604218284,0.9492134725338266,-1.8209491109706246,-1.791068613062167,4.154756324284141,0.12031069100101571,1.358133316040039,-0.4187253157245081,1.0,0.4739763751742865,0.4756806939261801,0.3496746711318713,-0.7021697099877633,0.41773643805152594,-0.14091446878619246,0.559103817896488
2.2,0.2848089196278393,0.49787874267230786,0.42968043801073674,-0.018684119012730056,0.03311912367346827,0.2096686545773639,-0.08842232916682874,-0.30289589705906633,0.9489127575413693,-1.8188409805297852,-1.7931066952147425,4.154378532065313,0.12061593982405028,1.3584382254155343,-0.4188830592850097,1.0,0.4748231109999893,0.4765225150928935,0.3492468906489831,-0.7021680318450014,0.4177361723928444,-0.14092923064191856,0.5591024032144467
2.3000000000000003,0.2978311309220768,0.12774070519673342,0.19386853886950653,-0.024614550530504962,0.03512800941212402,0.20248680595656535,-0.08839440606733268,-0.3027447623837606,0.9489636581703785,-1.8172771295295815,-1.795278877810893,4.15397743782368,0.12086383342837485,1.358836341065563,-0.41897728580131105,1.0,0.4752749788213149,0.4769769925552859,0.3490946219529002,-0.7021272560176954,0.4177379287054007,-0.14092444216836955,0.5591535038587498
2.4000000000000004,0.3105962137576038,0.3384410330573855,0.21325560486149386,-0.023629213743004796,0.029179419017095046,0.2029325586563318,-0.08847557151442569,-0.3030177956325455,0.9488689426497036,-1.8155190519717705,-1.7972201141270137,4.153672635831551,0.12111540005187564,1.3591892254297313,-0.4191354846731039,1.0,0.47591520288395883,0.47762387452531885,0.3486181871839662,-0.7021953598526164,0.4177674712722564,-0.14091210246222682,0.5590490103093948
2.5,0.075626462867658,0.5398036199336594,0.09261364331265912,-0.015381157873921032,0.03509000696157308,0.20045023451160177,-0.08816166839458983,-0.302055114383736,0.9492049411580512,-1.8136716530444055,-1.7991550009020054,4.153333575645729,0.12138011726754849,1.359564025505356,-0.4192444017536048,1.0,0.47632013460904454,0.4780429814574716,0.3483812940327904,-0.7022229859727854,0.417759930773784,-0.14091010920854063,0.559020446257725
2.6,0.31131232844088796,0.45613771340619585,0.043093807701454045,-0.02184626916878284,0.032136913732829245,0.19775023372900505,-0.08843969291956363,-0.3033085477073689,0.9487791793196717,-1.8120703324540803,-1.8010378932150264,4.153059482574463,0.12162919408619391,1.3598652519197023,-0.41936461931410157,1.0,0.4770278154768025,0.4788263375099575,0.3480971866720074,-0.7022026717280236,0.4177105891782613,-0.14088760412509294,0.559088503289297
2.7,0.23094594706935298,0.3877302413581397,0.2150979550174638,-0.026645933987461644,0.030413723121859394,0.2009495600464062,-0.0885161312418652,-0.30374363783932234,0.9486330514951148,-1.8105088450990874,-1.8028750496964068,4.152735233306885,0.12179486333813472,1.3601689667537296,-0.4194853283840414,1.0,0.47731036627471585,0.47913989106130034,0.34794553037439097,-0.7022126923879128,0.4176913139125818,-0.14086975077147637,0.5590948168681963
2.8000000000000003,0.33706178539853143,0.2555686171801107,0.208073338857017,-0.024963699533078434,0.03276338070238193,0.20284003747580215,-0.0885364797707901,-0.30386420256531843,0.9485925542634266,-1.8088911649036785,-1.8046927826387458,4.1523484563416355,0.12204663335766597,1.3604606202587162,-0.41960708947604186,1.0,0.4777445479912329,0.47959232054421946,0.3476407021611022,-0.7022608897202672,0.417699030124378,-0.14085998423925053,0.5590309721675276
2.9000000000000004,0.31518556563611494,0.2557583163060933,0.01086644161869249,-0.019664116372716735,0.03282970700980155,0.20350779103518432,-0.08855472169741518,-0.3037829121624629,0.9486168861746146,-1.8074068075905643,-1.8062440409875868,4.152097175312146,0.12225902559705064,1.3607115745544434,-0.4196718986209386,1.0,0.47845357192148735,0.4802276698807015,0.34731289876867216,-0.7022218356129817,0.41773586249011474,-0.1408823550735343,0.5590468717441405
3.0,0.2898663658150961,0.3670333001684973,0.22411578429087375,-0.025111166627065612,0.03299374374649982,0.2032110331639577,-0.08859106953377649,-0.30381683611086624,0.948602620717466,-1.8058729297620857,-1.8080504606792358,4.1517841482735625,0.12247117081856491,1.3609599736735363,-0.4198185572315661,1.0,0.4787406030256638,0.4805478937371646,0.3472197606820601,-0.7022094222038547,0.41771722262149225,-0.14087163310547698,0.5590790930447238
3.1,0.3078689944948158,0.4070337380363631,0.17351934732923746,-0.022690558119533827,0.034208855023574396,0.20329156168830848,-0.0886261286872092,-0.30391329026068,0.9485684375891945,-1.8044206685605257,-1.8097304617406744,4.151497319262961,0.12263890988938302,1.3612110925757366,-0.419898811970846,1.0,0.4791753537029691,0.48096244052266823,0.34696932809513226,-0.7022171148209548,0.4177280089065727,-0.1408880873152542,0.55905722522845
3.2,0.24530400396822163,0.42787198070010757,0.26278362913483294,-0.026042347964421092,0.032461084419255985,0.19763129207805402,-0.0885731502150802,-0.3036055582945514,0.9486719314666333,-1.8031024761689014,-1.8110475833016972,4.151212198306353,0.1228484307598767,1.3614969167953883,-0.41997654498624876,1.0,0.4797894242943754,0.48157011170496694,0.34660936103932755,-0.7022296632850269,0.4177524683367827,-0.14088796024662395,0.5590232176382919
3.3000000000000003,0.3676625284589491,0.5244379213075746,0.19634882399112347,-0.017128001746181502,0.0319883080442118,0.20164169682014224,-0.08846040892278303,-0.30318974260758874,0.9488153178071119,-1.8018659312102006,-1.8124031271930179,4.150953107353806,0.12298897187075244,1.3617047952708996,-0.42008467017406814,1.0,0.48007672575667637,0.481854322100553,0.3465201056231738,-0.7022050939719924,0.41773975411293063,-0.14088684137544238,0.5590638619699047
3.4000000000000004,0.4228372071978933,0.40658775923661566,0.31879581173005034,-0.021278477535927025,0.0297722748576996,0.20126078775490608,-0.08833266986090388,-0.30274680278665667,0.9489687153546762,-1.8004183736008976,-1.814141047237583,4.150722980499268,0.12313693358113997,1.3619409687267654,-0.42016476872626124,1.0,0.48040077701497225,0.4821634702499933,0.34640961275987564,-0.7021844363061907,0.417730159480318,-0.1409027154038156,0.5590929762228609
3.5,0.5573531734341468,0.32341830235917024,0.2527678199815394,-0.024616031525670268,0.026378893205826228,0.20432732048693208,-0.08826849469951559,-0.30248860525397936,0.9490570308021232,-1.7990746602642194,-1.815541044017486,4.15047025680542,0.12326875171605288,1.362196212273223,-0.4202663392362178,1.0,0.48097525450899914,0.4827678045583488,0.34607604674017417,-0.7022095649056757,0.41774071681839964,-0.1409044415019655,0.5590530912463063
3.6,0.33996762843962053,0.4899069663640937,0.03010976322957832,-0.023486384321234243,0.03038624876438621,0.2040280486963582,-0.08822143785591642,-0.3022801604453328,0.9491278190672608,-1.7979634880492055,-1.8166496959578298,4.150197857855724,0.12347619115795894,1.362435934324325,-0.4203293959247034,1.0,0.48131876506998683,0.48311680457304557,0.3458978267925785,-0.7022070105350734,0.41774455034935193,-0.14091052671353305,0.5590519014099925
3.7,0.4286808465990338,0.27136046245014084,-0.0013955955554486726,-0.026444082807214112,0.02918326333489769,0.20274559032296854,-0.08824704209874618,-0.30229702482832826,0.9491200193983542,-1.7969069720497006,-1.817863378854134,4.149993169248587,0.1235795660738335,1.3626689638064218,-0.420381723643377,1.0,0.48175366479776743,0.4835019068451776,0.3457492306119397,-0.702171953080428,0.41775315191802315,-0.1409093717479211,0.5590897971912743
3.8000000000000003,0.5111083560809556,0.35716329310611733,0.20065360520261855,-0.02584088944301841,0.030290700090156258,0.20041277739835692,-0.088463079586577,-0.3029043890593397,0.9489062531518265,-1.795692958257976,-1.8193149952486607,4.149755753357631,0.12370932148099945,1.3628733473707766,-0.4204971364378313,1.0,0.48198176443761964,0.4836883847819662,0.3456337119976434,-0.7021638080994946,0.4177716760536295,-0.14091387836082486,0.5590850491364152
3.9000000000000004,0.38440567158383854,0.22072047163570935,0.32812999083996314,-0.028786315609895648,0.03208758289818537,0.20090932804667466,-0.08837750840993817,-0.30270224645662547,0.9489786714388071,-1.7943796034722217,-1.820629930042864,4.149514284680959,0.12385747156663862,1.3630721030666773,-0.4205636211707737,1.0,0.4823057303183862,0.4840201760891463,0.3454408808911315,-0.702187416980304,0.4177559392604752,-0.1409109817949112,0.5590678866262315
4.0,0.4408507430849031,0.5233148914202155,0.2905598515116501,-0.02344784788968239,0.029957834635420438,0.20246576629639207,-0.08820012896940675,-0.3022536937677015,0.949138202956505,-1.7933572204534758,-1.8217535823524573,4.149340595378486,0.12397749884169018,1.3632764474292667,-0.420614126523805,1.0,0.482811417973012,0.48457418939039265,0.34518062832617513,-0.7021915843850195,0.41775012848250714,-0.1408850693230609,0.5590735248726603
4.1000000000000005,0.34092974065006787,0.3922727605661025,0.4543054408500011,-0.023464060700422902,0.032591786860057925,0.20241131637220594,-0.0882257095064813,-0.30237384888076735,0.9490975559464874,-1.7923565167188644,-1.822819988196312,4.149117456972599,0.12410265116227027,1.3634691366553306,-0.42071229616274053,1.0,0.4830262698853284,0.4847613426946599,0.3450837932453142,-0.7021922302435819,0.4177467048997538,-0.14090762107869154,0.5590695883813449
4.2,0.3088002280873053,0.5468644855292842,0.2829053573708873,-0.019258904944386274,0.03247909876569557,0.20222864270231838,-0.08831858288662514,-0.3026825631635916,0.9489905383031543,-1.791365623474121,-1.8241984903440336,4.148916941174006,0.12421023751209112,1.363677889613782,-0.42076769817493515,1.0,0.4832778403496654,0.4850232733958562,0.34496640073945983,-0.7021850600986421,0.41774555121264056,-0.14089687752573046,0.5590821636573757
4.3,0.4275630635770953,0.08631169844400544,0.1933641859431544,-0.028235404676675745,0.03206900294812685,0.20423239229904316,-0.08875874859358944,-0.304259034248425,0.9484447066335843,-1.7900459320321087,-1.8254720759041834,4.148708009463429,0.12436227701243,1.3638415336608887,-0.4208641752081084,1.0,0.48377092004930794,0.48554502818790973,0.3446214078528951,-0.7022387955728803,0.4177347088572958,-0.14089521053972068,0.5590231897293962
4.4,0.04784455139747744,0.6096658249008394,0.35131643442020943,-0.018865497998708132,0.03738478133944894,0.20323143782892858,-0.08875073807492298,-0.3042356156446843,0.9484529945260554,-1.7888327694150126,-1.8266634092376972,4.1485161781311035,0.12443421662037182,1.3640483761177866,-0.4209516684161585,1.0,0.484021492611932,0.4857954981960314,0.34454348531205875,-0.7022108614835918,0.41773405037688016,-0.1409013682296884,0.5590572185395691
4.5,0.13735048571662972,0.525159467629507,0.1907508250848896,-0.020769741164288376,0.03674473325976944,0.20155184415256458,-0.08853609622247562,-0.30347103592823715,0.9487179482434455,-1.787742569106532,-1.8278890148493325,4.14834161009164,0.12457718533646908,1.3641951426433676,-0.4209810281310593,1.0,0.4842971514834809,0.4860783082563158,0.3444554335714516,-0.7021902545952492,0.4177366758398764,-0.14089830149904473,0.559081912285126
4.6000000000000005,0.31819990414876864,0.3837735739500142,0.27981394782255986,-0.023201585680147827,0.028239270408761077,0.20152765199849862,-0.08838884288149526,-0.30294300112989814,0.9489008944153281,-1.7868083449621013,-1.8291048205323304,4.148088289677152,0.124686725045579,1.3644024596819784,-0.4210785169662257,1.0,0.48472553169287147,0.48652035758081413,0.3442241103444451,-0.7021990727536396,0.4177421712276619,-0.14089459722867367,0.5590676641281425
4.7,0.27608160685065725,0.50122398346282,0.33592563246721396,-0.01477744931424468,0.0274291505415219,0.20194615560527748,-0.08847715470535626,-0.30324183936100424,0.9487971727182352,-1.7857222964729194,-1.8302972075776167,4.147914259545492,0.12479655324902339,1.364599302951253,-0.4211462522565528,1.0,0.4849980861020356,0.4867842031237302,0.34403463495342823,-0.7022191088914838,0.4177483495691186,-0.1409036997036562,0.5590355864788479
4.800000000000001,0.5875893920060425,0.24259329682566125,0.3661332773456486,-0.02577044436061108,0.018657970989993708,0.2010579507732812,-0.08856549773323161,-0.3035390385416765,0.9486939324248826,-1.7844519229259028,-1.8315450574070555,4.147701740264893,0.12490347433389262,1.3647770881652832,-0.42118337406956013,1.0,0.4853825618355165,0.4871819070404313,0.3438171958456294,-0.7022298435360427,0.4177448398816154,-0.14089129476937617,0.5590278514151487
4.9,0.2537472292224612,0.16733914834776004,0.0386765672373848,-0.007842957460455846,0.01396766138749055,0.19757277271248566,-0.08865396275895124,-0.3038298295526392,0.9485925742681646,-1.7832810808302149,-1.832715047877689,4.147485096384055,0.12500218704886298,1.364950330966182,-0.4212868849383753,1.0,0.48566383629918086,0.48746845454525806,0.3437455225643816,-0.7022025793993907,0.41773140293952277,-0.14090554299069782,0.5590685471724527
5.0,0.20690470106952885,0.30131336487139593,0.07026351687809258,0.0018289072173716305,0.006966540633784413,0.19696733940301134,-0.08875739204538936,-0.3041170006845339,0.9484908625944865,-1.782180360286911,-1.83406992118581,4.147281433805565,0.1250976238895653,1.3651738166809082,-0.4213820394470652,1.0,0.48595557153986346,0.48773690280329746,0.3436614655656298,-0.7021662835472211,0.4177351763253362,-0.14091625307015243,0.5591086140729659
5.1000000000000005,-0.0037630456115082672,0.3653294752042513,0.0003296077940361016,0.0072416103698116595,0.00627054482506462,0.1974074811462433,-0.08880774813293167,-0.3042277162972102,0.9484505809730507,-1.781103930829336,-1.8352823517993138,4.147066629400994,0.12521664678540034,1.3653649529004563,-0.42146602474807704,1.0,0.48638332880185564,0.4881770485807111,0.343358696009014,-0.7022067381964603,0.4177506951616703,-0.14090625199337614,0.559048729246931
5.2,-0.0024133793393729674,0.06566561139944299,-0.015050312016122065,0.006174225882990195,0.004950911102896324,0.19385987370707813,-0.08859919204726609,-0.3035790041616638,0.94867774708868,-1.7800147684426852,-1.8363883040726316,4.146873843594036,0.12531307525557311,1.3655923766361635,-0.4214784208787463,1.0,0.48666725135202255,0.48848436360490094,0.3431822636216482,-0.7022275559545568,0.4177485736854712,-0.14089686029976473,0.5590265321069415
5.300000000000001,0.14386341239573747,0.2868868023332446,0.057515846200406326,0.013848239818568427,-0.0007388238370075115,0.19815217977896263,-0.08843933558852979,-0.30309212510892997,0.9488485728484682,-1.7787589313233894,-1.8375068606287976,4.1466593396379094,0.12537398682995976,1.3657851197538688,-0.42158679929323745,1.0,0.48705165484044455,0.4888615461699938,0.3430413835086165,-0.7022036135487337,0.4177407206959415,-0.140910845422749,0.5590589495158645
5.4,0.3040644481508345,-0.15410318187479644,-0.14150784051315768,0.012913609594385618,-0.013597674723930465,0.19576073366805702,-0.08850464954333988,-0.30335350686392903,0.9487589000783087,-1.7776766435129678,-1.8389219017800646,4.146466332021194,0.1255517553423494,1.365952968597412,-0.4216236399373344,1.0,0.4873210206986336,0.48913158827107306,0.34294799759288636,-0.7021912093984627,0.41772426174077104,-0.14091626269365096,0.5590854617186056
5.5,0.1351155062176652,-0.14599871612797483,-0.14044353091890915,0.009372391724894303,-0.01635534747710595,0.20369679837768542,-0.08856996349814998,-0.3036148886189281,0.9486692273081491,-1.776579018330179,-1.8402989542234727,4.146215137829017,0.12562529622998042,1.3661575620840138,-0.42175353945529254,1.0,0.48759158144749243,0.4894151580865318,0.3427654500996416,-0.702214945180226,0.41772551710025263,-0.14090826949708643,0.559056725848277
5.6000000000000005,0.05020999964322594,-0.169710189253946,-0.24442155550576827,0.008839615478555525,-0.015576883963662955,0.1936105382294755,-0.08866689649141132,-0.3039307350628608,0.9485590423706566,-1.7754279612271169,-1.8413048847059967,4.146034840070195,0.12570900817182312,1.3663610084852553,-0.42180177507701466,1.0,0.4879943682753342,0.4898291656109549,0.34248184613187,-0.702247674063367,0.4177419424815093,-0.14089580660003365,0.5590064806841621
5.7,0.09064861474090308,0.0008269444068514376,-0.34793540239934984,0.014758259286558526,-0.019880375024236147,0.19610216654980034,-0.08865417574843999,-0.30386253485541137,0.9485820705353987,-1.7742066744691838,-1.8423604154449398,4.145866430175971,0.12580483430520834,1.3666007515806589,-0.42186099687685186,1.0,0.4883633686150613,0.4901745708403659,0.34235516382174125,-0.7022201514782338,0.4177417442321403,-0.14090099505790776,0.5590398944399828
5.800000000000001,-0.22862992355242082,-0.1474652233319839,-0.5593923968488788,0.021153622159730795,-0.01983498263696545,0.1941111008188363,-0.08861252630976275,-0.30372538790129805,0.9486298550681272,-1.7730957439950739,-1.8435855599055073,4.145628593402894,0.12588839113496353,1.3667816896828455,-0.421921625746878,1.0,0.4886327189539426,0.49043154244109455,0.3423294674984108,-0.7021748988029088,0.41772439664570626,-0.1409006177579274,0.5591097887298517
5.9,-0.19620204890918266,-0.2666065318998865,-0.376460787636334,0.01946133723397757,-0.025097274590916582,0.19656614597200628,-0.08877148155028589,-0.3043925197680926,0.948401076563579,-1.7720078012940137,-1.8450967274107875,4.1454481727312364,0.12598530828442378,1.366926564395193,-0.4220164810168494,1.0,0.4890024837907161,0.4908284855682829,0.34215236987727754,-0.7021749732321236,0.417712012883777,-0.1408845467713384,0.5591229969694365
6.0,-0.3293400100922593,-0.06446080388036694,-0.28801514966335884,0.025997894089893676,-0.02878290720900902,0.19487896078688818,-0.08894800197465842,-0.305009532281458,0.9481862691228049,-1.7709404108576523,-1.8463172710958722,4.1452202796936035,0.12610722063959595,1.3671518697193796,-0.42210084596742803,1.0,0.4894348696485093,0.4912999216641557,0.34175107595661774,-0.7022489970505221,0.4177372529089173,-0.14088516228413767,0.5590110059040156
6.1000000000000005,-0.30174403640487935,-0.05931488867821439,-0.21940561223768415,0.02103828007004868,-0.02767375841032344,0.19366888453865228,-0.08907612665210293,-0.30540682975209243,0.9480463447633835,-1.7696714401245117,-1.8473343004243532,4.1450276374816895,0.12614439091072197,1.3672993757476362,-0.4221723715411585,1.0,0.4896625550969903,0.49152038184791286,0.3416050575151254,-0.7022695923871795,0.4177379039855135,-0.1408884214558082,0.5589838243472035
6.2,-0.2973141226186028,0.09494290862263587,-0.24714353003672354,0.02591620441176646,-0.029842111141073262,0.19521808259240214,-0.08880740832865991,-0.3044982503524263,0.9483633632096542,-1.76840116129009,-1.8483915068011576,4.144849546502489,0.1262494760700683,1.367525396817321,-0.42226066711683413,1.0,0.49006890445857443,0.49189065152810774,0.3416187345220122,-0.7021758273545087,0.41771362720299904,-0.14090157320669522,0.5591164277642036
6.300000000000001,-0.32573744635465657,-0.2359195388113343,-0.4117820565667615,0.045891526124315005,-0.03209619225867784,0.1996763748607379,-0.08860100375809615,-0.30378808676555247,0.9486108502596041,-1.7674189861743042,-1.849746252542832,4.144644260406494,0.1263738454343228,1.367690029365949,-0.4223131632879725,1.0,0.4903056640135782,0.4921327881813741,0.34162624953782034,-0.7021170285336722,0.4176981147898795,-0.1408852034914525,0.5592059750943289
6.4,-0.2666150223179639,-0.6669618003216663,-0.39162919287327924,0.03559943621646934,-0.04392640849441967,0.19356118112618304,-0.08885243943916776,-0.3045357513700465,0.9483474665865261,-1.7663834805009468,-1.8510166466186935,4.144429753134696,0.1264681342777746,1.3678841590881348,-0.4223661489563291,1.0,0.4906073358101262,0.49242603370551535,0.3413868608877651,-0.702148751913926,0.41772000967649037,-0.140890201774487,0.559148526552233
6.5,-0.5318922504406842,-0.6656433865109168,-0.40252236453543333,0.046569453730679576,-0.03936447895877845,0.19091824670320096,-0.08870968544173846,-0.3040894183865157,0.94850396551192,-1.7653431261843657,-1.852311677056488,4.144249439239502,0.12659074468520012,1.368072436370554,-0.42243471571317553,1.0,0.4910561571634136,0.4929024795029366,0.3409422241740171,-0.7022369211182786,0.4177436171696737,-0.1408803658216576,0.5590226287533211
6.6000000000000005,-0.6172231611989969,-0.28382079599770293,-0.42057044899905,0.042220530240767676,-0.040288461154908514,0.1951486129289097,-0.08859313158615645,-0.30368872276078934,0.9486434525842427,-1.7639402771972772,-1.8533805284773754,4.14401434635059,0.12664221610406196,1.368246939406853,-0.4224973885287698,1.0,0.491308786524315,0.49313657376710274,0.340766550579195,-0.7022566912505819,0.41774562522016323,-0.14090141679740995,0.5589909864637196
6.7,-0.46595348984916657,-0.3313173531589829,-0.6638778669632879,0.04555050655603341,-0.05016646285392419,0.1928564549889952,-0.08866250846325872,-0.30382981682224275,0.9485917990054891,-1.7626415913916993,-1.8545300203004795,4.143797767372597,0.12665555644932147,1.368448257446289,-0.42259707195854124,1.0,0.4916160209601342,0.4934360948108241,0.3407683503295776,-0.70219356888847,0.4177309391405659,-0.14091478247942088,0.5590778822089031
6.800000000000001,-0.40333119773895837,-0.679429479633821,-0.5332462951615545,0.05274972233343862,-0.05640629600598681,0.19392878525948568,-0.0886992976230081,-0.30388731996198654,0.9485699374070441,-1.76164577406316,-1.8558816461078989,4.143601894378662,0.12665852020406065,1.3686202115132735,-0.4226568758960042,1.0,0.49201491796495195,0.4938138577959966,0.3406835347512581,-0.7021481241320504,0.4177337265835034,-0.1409218339819645,0.5591310956829902
6.9,-0.4852290832604994,-0.3215201934865174,-0.6806057285335657,0.06327645846782702,-0.06052163543761244,0.19408305547325452,-0.08873474557072769,-0.30395196623373893,0.9485459099116171,-1.7606770615569491,-1.8571126405495573,4.143405339202181,0.12684109293863072,1.3687785722302488,-0.42268687883485967,1.0,0.4922944049616755,0.49410025110343253,0.34049497461568073,-0.7021728002902703,0.4177430101318308,-0.14091903539651113,0.5590938753746411
7.0,-0.461151443101441,-0.7366509241210625,-0.7288172291742081,0.05647008058302469,-0.05912217986543702,0.19104322705088259,-0.08875122521670631,-0.3041176353716065,0.9484912508780122,-1.7598136339746147,-1.858082417163583,4.143276063021245,0.12697261843710783,1.368927001953125,-0.4227637929074191,1.0,0.4925433041917496,0.4943812182063971,0.3402694187243674,-0.7022189154893572,0.4177426081318584,-0.14091005373683288,0.5590385182042708
7.1000000000000005,-0.31352424347519514,-0.7905543146391777,-0.3218726958946846,0.043751397066450405,-0.045179699390842674,0.19220464627196196,-0.08877786057965892,-0.30431064673838126,0.9484268446629622,-1.7598217516802346,-1.858038045903836,4.14325861360534,0.12701007331798653,1.36891893770202,-0.422810772534824,1.0,0.4928741268577237,0.4947237330832185,0.339995329964301,-0.70225998608648,0.41773956058979705,-0.14090514504869311,0.5589904395952285
7.2,-0.48647802001001694,-0.3030622547931416,-0.4930661277980175,0.04527632897094797,-0.047389096928168825,0.19104054323131645,-0.08897434125810381,-0.30496093251590134,0.94819942552505,-1.759666355853806,-1.8580180607237757,4.143264900663655,0.1269884866479953,1.3689606840969606,-0.42276638080826556,1.0,0.49294645143314336,0.49478672888060554,0.34003166515168515,-0.7022163774236642,0.4177379110448873,-0.1408909162473523,0.5590500395070388
7.300000000000001,-0.4007127771787736,-0.6039420102948492,-0.38009099821924375,0.039031888985040064,-0.051557682753908096,0.19172559350825774,-0.08897507472974409,-0.3049490351985095,0.9482032620549672,-1.7596403028161294,-1.858057866857012,4.1432785987854,0.12699537445212983,1.3689584536666188,-0.42277511324807476,1.0,0.4929505392360961,0.494796340836628,0.34005780876315805,-0.7021982369298164,0.4177384710057577,-0.14089308813257984,0.5590718590761785
7.4,-0.47206751775800443,-0.48485190622615304,-0.30089068981795686,0.04078156505893435,-0.049453343829941675,0.19117353854412725,-0.08889489588697762,-0.3046763386589573,0.9482984895690264,-1.7596587579609961,-1.8580900631346644,4.143269606595599,0.1269768811653019,1.3689475137295004,-0.42275555116421354,1.0,0.492954001134521,0.4948080515809254,0.3400824183271061,-0.7021907025501897,0.41772505567238094,-0.14089468279519618,0.5590909438325917
7.5,-0.4045594236576581,-0.40944977647971836,-0.3437909191183121,0.04252599679598893,-0.04956191076303019,0.18802320610534615,-0.08888479031035172,-0.30465182231606625,0.9483073130807909,-1.759659767150879,-1.8581190018469511,4.1432671546936035,0.12697370441950023,1.3689491165908332,-0.42275005698798473,1.0,0.4929588043526106,0.49481920137283447,0.34006891436533515,-0.7022045733228548,0.4177202861517314,-0.1408944190994044,0.559077152465046
7.6000000000000005,-0.45504724911128236,-0.5458353231732885,-0.3966615289172879,0.04064183902132468,-0.0495836240440798,0.18744093954123298,-0.08887398623814535,-0.3046239872625311,0.9483172677254891,-1.7596523882081347,-1.8581053683065554,4.1432671546936035,0.1269818979450683,1.3689615240961206,-0.42280119046940534,1.0,0.49296765226519995,0.49481684772934525,0.3400698927787417,-0.7021981627176921,0.417726419395006,-0.1409035098461077,0.559078330583804
7.7,-0.46234379612256754,-0.6245785501222008,-0.3097599156622792,0.03703728763097549,-0.04788548705519903,0.18648867078124237,-0.08883981497981115,-0.30448132400287714,0.9483662835230046,-1.7596668810072587,-1.8581168294060728,4.14327003357855,0.12701213989212054,1.3689329252051088,-0.4227762485895291,1.0,0.4929707988198456,0.49481091304042546,0.340046254538409,-0.7022100992969704,0.41773562488874794,-0.14090138182848788,0.5590569959699715
7.800000000000001,-0.46105094602561925,-0.48185622744316275,-0.322119673074453,0.03913825680769962,-0.0469653609342185,0.18832722680312822,-0.0889692294989436,-0.30482444107455764,0.9482438826674212,-1.7596438341318685,-1.858134534548265,4.143270238503734,0.12696355241167354,1.3689453474865199,-0.4227496957818549,1.0,0.49297696177161077,0.4948096519813838,0.34003945244940276,-0.7022025880840627,0.41775301122471553,-0.14089774446918224,0.5590543555900661
7.9,-0.41588982335298086,-0.4467228759586062,-0.364304141014097,0.04230865767308062,-0.04870184841494465,0.19031028039215037,-0.08906182208768387,-0.3051272827727662,0.948137802480569,-1.7596551808152585,-1.8580986870654577,4.1432817639036355,0.12700291964197488,1.368959599621755,-0.42276077930029154,1.0,0.4929727079525189,0.4948190562078459,0.34005169542668484,-0.7021951795936354,0.4177452802476912,-0.14089768502375224,0.5590694526990249
8.0,-0.3401775403915668,-0.508047210935864,-0.2648264534637433,0.0413630979621593,-0.050220395517506344,0.19099989877365237,-0.08911796359172279,-0.30539025472394715,0.948047878591661,-1.7596515025089627,-1.8581086079175377,4.1432785987854,0.12696997701611323,1.3689650942481477,-0.4227708021747034,1.64127306140958,0.49296770495992925,0.4948224740715471,0.3400529334748402,-0.7022005009996264,0.41774003623482664,-0.14089779940146913,0.5590666584998809
8.1,-0.5114227335590132,-0.629837090119632,-0.31104686123303993,0.03843904933493509,-0.045439611111053685,0.18224185906109572,-0.08912638875210419,-0.3054098851826243,0.9480407630591615,-1.759648323059082,-1.8581139049925746,4.143270591523399,0.12697831791403127,1.3689426461143586,-0.4227454458450326,2.0,0.49297014412970397,0.49481985910533394,0.340054473284788,-0.7021948494258193,0.41774600869771245,-0.14090336377212453,0.5590678918831611
8.200000000000001,-0.553002075404889,-0.3563493191700815,-0.18759486950736362,0.04449207411363772,-0.047219577623165906,0.18650168329150027,-0.08913450268339314,-0.3054279284502876,0.9480341876428494,-1.7596551933493714,-1.8581174060163905,4.143283320911471,0.1269734780399291,1.368940677535793,-0.42275840440859014,2.0,0.49296663653035694,0.4948272895203955,0.34004807547910987,-0.7021946659636,0.41774752819761607,-0.14089052474034444,0.5590702226155857
8.3,-1.3202648821314125,-0.8708075753793979,-0.30138772686518045,0.06869643207448156,-0.10601447725964844,0.17747138144559102,-0.08868147848207414,-0.3039167575414527,0.9485621364109046,-1.7596113502784219,-1.8580816655396435,4.1432785987854,0.12697837461113404,1.368971498238812,-0.4227946440326136,2.0,0.4929732663579159,0.4948172111137832,0.34005164227404294,-0.7022021114328278,0.4177398957870157,-0.14090030879230092,0.5590641082643082
8.4,-2.288517571934433,-1.7532641624369192,-0.6210740578818206,0.10666019469814218,-0.21616330889712157,0.15949589158915892,-0.08886635563556272,-0.3045761279795247,0.9483331852692534,-1.7595926642087076,-1.8580900631346644,4.143290042877197,0.1269892694792094,1.3689831376406576,-0.42275840440859014,2.0,0.4929763040922658,0.49482094475882427,0.3400487766185937,-0.7022036189185277,0.4177312869924894,-0.14090509094032574,0.5590674420786996
8.5,-3.1782892308196207,-2.339078993215238,-0.6938747559869847,0.14033343197937653,-0.3063020774119826,0.14738266377732134,-0.08883204915210616,-0.30450847177724977,0.9483579985711614,-1.7596166738294354,-1.8581098064261667,4.143294869299498,0.1270021180737288,1.3689825080314926,-0.42276266691765435,2.0,0.4929727464107007,0.49482429173847325,0.3400611756760691,-0.7021945804676226,0.41773111186947776,-0.1408952326543974,0.5590814097727206
8.6,-3.629407770557067,-2.1966332430777413,-0.4482449778683214,0.16496282337956358,-0.350586412432176,0.14051888346359934,-0.08852487133299168,-0.3035340242864516,0.9486993004834662,-1.7596197482633689,-1.8580832195379586,4.143304277558345,0.12701306023684236,1.3689764519334016,-0.42276701426975216,2.0,0.4929573344460497,0.4948298710703555,0.34006888459645657,-0.7021977410878257,0.41772879565546606,-0.14088172373825222,0.559082574945712
8.700000000000001,-3.620824262871047,-2.2442920154250703,-0.2876498304596842,0.171031450591456,-0.3710999365135956,0.13801947412064458,-0.08872226247844717,-0.30420206897141133,0.9484667104525452,-1.7596079962775317,-1.8580943205904215,4.143301895743922,0.1269942957111816,1.3689513887104234,-0.42276691932010435,2.0,0.49295627971935835,0.4948361819546706,0.34005562669918493,-0.7022059948617831,0.4177258820567115,-0.14088179548725563,0.5590743670929678
8.8,-3.8622105630669967,-2.3132984851302756,-0.1529738129657867,0.17481028787364236,-0.3860744272379658,0.13326504780301565,-0.0888727268049911,-0.3046799086090663,0.9482994147927158,-1.7596293336276503,-1.8581098437924057,4.143294591421387,0.12700173032041012,1.3689384977625223,-0.42277834751433835,2.0,0.49295998097875243,0.49483218422560116,0.3400609581789188,-0.7022039607964576,0.41772413741648834,-0.14089083579100642,0.5590759473019111
8.9,-3.9709371630162726,-2.4337711939637585,-0.36403555216462136,0.1809901463072437,-0.3959881172045818,0.13688606661173985,-0.08893273098463118,-0.30481624878978003,0.9482499784018418,-1.7596164468893416,-1.8580857419874786,4.143282747086699,0.12696893450351052,1.3689310191090402,-0.42276289840166353,2.0,0.49295280722807494,0.4948226908165474,0.34007392485880117,-0.7021901377225611,0.4177298302959521,-0.140896194755606,0.5590877048097874
9.0,-3.9517802860783804,-2.5432916650623696,-0.19730099425991884,0.18296590293616377,-0.40004160268976036,0.13637624104975188,-0.08903152471858433,-0.3052575101851255,0.9480986709455652,-1.7596226336924548,-1.8581185909382425,4.1432883455523895,0.12698677132856295,1.3689702891226088,-0.42275840440859014,2.0,0.49294579173170666,0.49483548317252574,0.34006414808810737,-0.7021990997943477,0.41772366222907886,-0.14088766036505018,0.5590832079563796
9.1,-3.6982572107214176,-2.168177886894952,-0.15787989185297852,0.1696323665382671,-0.3812735121448145,0.13767790128132473,-0.08917005339553837,-0.30579428188239294,0.9479126707159586,-1.759633901899106,-1.8580944730427986,4.143294981974307,0.12696836109519968,1.3689467343437338,-0.4227646066339633,2.0,0.49294167900640945,0.4948511697608345,0.3400400255461242,-0.7022207793484307,0.41771701041316,-0.14087570364780783,0.5590639609065403
9.200000000000001,-2.9257300493113054,-1.7354624354376667,-0.03155163541576725,0.14446421217421127,-0.3399066707919789,0.14746038754234606,-0.08924404924827954,-0.3060034052701816,0.9478381752829281,-1.7596415251903863,-1.8580923044321587,4.143281867733424,0.12697481683184367,1.3689265251159668,-0.42273456255068,2.0,0.49294871736957174,0.4948467528630806,0.34007662246036763,-0.70219713526564,0.41772045522321555,-0.14088368538547258,0.5590890731404482
9.3,-2.753001646803147,-1.4795843943656724,0.05452661770001721,0.13453499059902566,-0.33295636330700246,0.15424507782633376,-0.08907039342729633,-0.30534284761102387,0.948067560181393,-1.7596185254008092,-1.8581331584588658,4.143314838409424,0.1269608002328753,1.3689166319685784,-0.4227614418558007,2.0,0.49294966915761085,0.49484268126815956,0.3400649623829624,-0.702200137498153,0.4177187505958662,-0.14090225242774485,0.5590818970052527
9.4,-2.6059081291148045,-1.029459355822688,0.42915056550916997,0.12475367298134793,-0.3242649037889851,0.16080645604764154,-0.08907901226832789,-0.3053868874726503,0.9480526133032314,-1.759659767150879,-1.8581186375366046,4.14329752896152,0.1269747095601432,1.36892945779402,-0.42275840440859014,2.0,0.4929614404229033,0.4948374787355219,0.34005583846583215,-0.7022025363887356,0.4177281152161707,-0.14089677137636902,0.5590732684209534
9.5,-2.7423163990636956,-0.9683894122588502,0.49392985952664414,0.11482160479150641,-0.3231571805683486,0.1596942230358317,-0.08913848738136095,-0.3056030655384592,0.9479773403742604,-1.759633317882342,-1.8581208900081283,4.143289961405881,0.12698004627945192,1.3689217866391015,-0.42276566882476607,2.0,0.4929498251849828,0.4948455562161861,0.3400383267742552,-0.7022220771740266,0.4177173723602352,-0.14088311665343825,0.5590601922869036
9.600000000000001,-2.628176033173532,-0.5399852667790113,0.7152795103234196,0.07751345294389517,-0.32253039162137676,0.1637521890913331,-0.08923046014279837,-0.30589579111809423,0.9478742506317905,-1.759648323059082,-1.8581325086563651,4.143303394317627,0.12697142155682908,1.3689617970364325,-0.4227504866608036,2.0,0.49294984666704583,0.49484370332416866,0.34002944223319415,-0.7022239628695381,0.41772672802116273,-0.14089047062831409,0.5590489799245385
9.700000000000001,-2.749979218327798,-0.07910036561786138,0.8531540851925428,0.04318053452074118,-0.32655393367626506,0.16566590356322186,-0.08931188146381888,-0.30617908515233166,0.9477751514793286,-1.759642746044082,-1.8581434864690298,4.143284465862197,0.12694583301049805,1.36893274157167,-0.4227638418794301,2.0,0.492947590331622,0.4948449833351037,0.3400446013862782,-0.702213060620802,0.4177244475060279,-0.14088836964779594,0.559064907454703
9.8,-2.816987422542324,-0.0960554726417954,1.032720807544761,0.028202301668458794,-0.33325408402825674,0.16619444259901936,-0.0893006071482224,-0.306198442523117,0.9477699035794136,-1.759648323059082,-1.858136903847646,4.143309625267722,0.12694070480226363,1.3689565337898952,-0.42276926512046903,2.0,0.4929482767742204,0.49484808856368456,0.3400362907550269,-0.7022161200485826,0.4177254835576788,-0.1408833426391108,0.55906155734163
9.9,-2.838968894091813,-0.01148736119730196,1.1095421184927536,0.021524106940186506,-0.3439380946935403,0.16614300779835647,-0.08913282723911155,-0.3056745913276686,0.9479547958904564,-1.7596574709114718,-1.8581190522556787,4.1432785987854,0.12697160341885988,1.3689303198147282,-0.42275163074273925,2.0,0.4929488375938311,0.4948489356838029,0.3400231001539746,-0.7022263799263626,0.41771507953119924,-0.14089237702329815,0.5590541671112779
10.0,-2.963327202391142,0.10006259531562779,1.343653840502765,0.010442861491087252,-0.35252725530001555,0.16448549026880568,-0.08889227751916495,-0.3048436653474191,0.9482442435268265,-1.7596368789672852,-1.858142358811647,4.143307651512546,0.12697302878898692,1.36893892288208,-0.4227284590049326,2.0,0.49296027586106417,0.49483329926048764,0.3400345666884306,-0.7022162494917863,0.41771988191787945,-0.14090538052604645,0.5590600262395913
10.100000000000001,-3.0854113582885465,0.3143445240186603,1.2835108034189737,0.006886699761653535,-0.3516210404152832,0.16611876728949895,-0.08863352170328151,-0.303935913099138,0.9485598495970547,-1.7596413851968604,-1.858135401659377,4.143295300145035,0.12696997701611323,1.3689513206481934,-0.42274648347963506,2.0,0.49295824687116313,0.4948324599653843,0.34006010556342287,-0.7022066352760054,0.4177169765561714,-0.14090258068328249,0.5590749785385799
10.200000000000001,-3.0724156578309314,0.46184540963233234,1.3541497607101822,0.011953769302378675,-0.3510497885571657,0.16365609582666907,-0.0884380540202915,-0.3032470844151571,0.9487991924215324,-1.7596523106837363,-1.8581297094981664,4.1432953164782225,0.12696609343947649,1.3689550488817646,-0.42274648347963506,2.0,0.49295300497831696,0.4948355383523946,0.3400405363474594,-0.7022113959155645,0.4177273898012541,-0.1408868928751076,0.5590651721151512
10.3,-2.9197676061172992,0.1993091868335106,1.409779641521523,0.008942409543130858,-0.35040897916241615,0.16326485147311418,-0.08839984498908822,-0.30310223803863584,0.9488490359724606,-1.7596192682594218,-1.8581239298805552,4.143329874913403,0.12698549035724999,1.3689265251159668,-0.42274648347963506,2.0,0.4929539541108618,0.4948366970200998,0.3400261358860424,-0.7022129801070678,0.4177332367755522,-0.14088369666399986,0.5590596188927055
10.4,-2.6975144822291868,0.10928967916821158,1.4278912118472893,0.0038695704687693924,-0.3548790421465574,0.16623510237628158,-0.08835819652619438,-0.3028967289124254,0.9489185369747314,-1.7596453480394887,-1.8581258259215296,4.14330636933722,0.12699441781919008,1.3689356999441873,-0.4227675792368107,2.0,0.49296594285221823,0.4948301886202489,0.340039837821466,-0.7022065464205027,0.4177301132328953,-0.14089851211017712,0.5590663001360046
10.5,-2.876536591734909,0.25944218865183155,1.3969675995040676,0.012325035413582878,-0.3507135791438279,0.16359948779231612,-0.08848941703476833,-0.30330201579978366,0.9487767104771079,-1.7596435347458128,-1.858105450614936,4.143303394317627,0.1269922117728179,1.3689513206481934,-0.4227620096219593,2.0,0.49297177703657097,0.49481953213509233,0.3400329897101062,-0.7022060830993391,0.417742065942973,-0.14090483569847456,0.5590563571562057
10.600000000000001,-3.1492134254546684,0.47239409793999637,1.2488418149676355,0.016006647425799762,-0.3440776302864834,0.1580671278530877,-0.08867881325445309,-0.3039406365284996,0.9485546752950651,-1.759630179538905,-1.858126017235728,4.143309123850314,0.1269999940489148,1.3689207793619032,-0.42275243614537406,2.0,0.4929529146775147,0.49483035116583984,0.3400405378642111,-0.7022083732858891,0.41773287257603314,-0.14089465793066858,0.5590629150848418
10.700000000000001,-2.9211437579974566,0.1696489746967067,1.2566675527834663,0.0022047987485898425,-0.34926959227671867,0.16341648724679683,-0.08887185632061287,-0.30466840631762,0.9483030840808673,-1.7596254348754883,-1.858125998737082,4.14330721339484,0.1269620342925882,1.3689672060952434,-0.42278638360014753,2.0,0.4929483950962452,0.49482898120348806,0.34005018096792494,-0.7022075583804765,0.41772387814844997,-0.14089311896575202,0.559071047011067
10.8,-2.803868012262562,0.06753957880856248,1.4411924803904153,-0.0007086627900635685,-0.35064183917479586,0.16236122181955778,-0.08893336765707943,-0.3048790639560199,0.9482297255066152,-1.7596120834350586,-1.8581316081298591,4.143290711458279,0.1269818979450683,1.3689392079753144,-0.4227822462665003,2.0,0.49295172657060704,0.4948310185059167,0.3400305563230902,-0.7022146214080482,0.41772497105586603,-0.1408933390943592,0.559061303468564
10.9,-2.7665580400980923,0.09470839303102681,1.505589465933164,0.00024012028403209876,-0.35052861478050495,0.16066377356257175,-0.08890971524941269,-0.3047570054351432,0.9482711390059921,-1.7596602365556457,-1.8581377468504847,4.143284097322276,0.12698785469335017,1.3689338974213936,-0.4227455335662878,2.0,0.49295806604116094,0.4948301327792315,0.34002321877697306,-0.7022151643477464,0.41773482034116816,-0.14089596503702903,0.5590526002719995
11.0,-2.8688361508349933,0.22673511918455966,1.448477525479435,0.006710505320118914,-0.3470496257785832,0.1628079923051453,-0.08876489756564321,-0.30419143059879783,0.9484663053484377,-1.7596329436471811,-1.8581299252133048,4.143298803110839,0.1269662546707083,1.368919408368499,-0.42275020582504,2.0,0.49296287820346846,0.4948243345281615,0.3400368330291591,-0.7022083650495727,0.41774078897998856,-0.14090077877924345,0.5590554675666677
11.100000000000001,-2.7380109791159666,-0.06312218249287121,1.4379796935387696,-0.0020325007437589516,-0.35222770490173916,0.16422861788983667,-0.08865608895047618,-0.3038667804540841,0.9485805339619036,-1.7596468142559816,-1.858131000551059,4.143285075232849,0.12695130978773245,1.3689254302832286,-0.42278926241790304,2.0,0.4929642641682634,0.49481872944540595,0.34004007507677825,-0.7022085103678655,0.4177335459628484,-0.14090045367115778,0.55906077907461
11.200000000000001,-2.803740733719244,0.27659551801422316,1.4251846951738139,0.0062662144128707385,-0.3505280477946015,0.16259704988416798,-0.08852909923908535,-0.3034449622100347,0.9487273138917093,-1.7596254348754883,-1.8581139049925746,4.143281294942385,0.12696888911423765,1.3689321582900482,-0.42275494703825994,2.0,0.4929607241229399,0.4948356807127427,0.3400444723450406,-0.702202946032189,0.4177322773327073,-0.1409009245047581,0.5590685973401202
11.3,-2.893840186160772,0.20123316694741133,1.44809532880037,0.005987614696005014,-0.34880250300883797,0.1618979419346705,-0.08839400404685704,-0.3029798245666771,0.9488886058216485,-1.7596485113232865,-1.8581296523544248,4.1432785987854,0.1269738034490084,1.3689267133801712,-0.42276682268449245,2.0,0.49296230741440383,0.4948339659423137,0.3400408170909204,-0.7022028969260392,0.4177376442317604,-0.14089744035895002,0.5590655269650184
11.4,-2.8967681182972664,0.2868950848004723,1.3223413352742317,0.007658785265820544,-0.34894390078748133,0.16085529003355178,-0.0886974952525401,-0.30397149820416275,0.948542740142113,-1.759662679545568,-1.8581449250937276,4.143273780764289,0.12698594080129447,1.3689417821828183,-0.4227822462665003,2.0,0.492969927433097,0.4948178853183535,0.3400578355691903,-0.7021941761135733,0.4177452281600839,-0.14088915544853028,0.5590729015599483
11.5,-3.2415353513408918,0.31148930082489384,1.2970261474768188,0.009468873450840918,-0.3393506459967753,0.16063288130354597,-0.08880171095599033,-0.3043058297337712,0.9484261447540457,-1.759648323059082,-1.8581241339463457,4.1432698957790715,0.12699063950273068,1.3689420731256987,-0.42276372346455104,2.0,0.49296825981753567,0.4948163017275011,0.34004394587845405,-0.702203502186233,0.41774901427338307,-0.14090047254645255,0.5590555065708518
11.600000000000001,-2.824421248286601,0.14956345757591732,1.3237904006381906,-0.0006852206344453988,-0.35148377159341243,0.1559996306030809,-0.08880030408929462,-0.3042949075902804,0.9484296105979226,-1.759629407616805,-1.8581377468504847,4.1433097294124,0.1269862017481616,1.3689152636055602,-0.42277396972209014,2.0,0.49296559214542407,0.49482168973552804,0.3400443747999307,-0.7022058834552967,0.417737254710388,-0.14090782654675557,0.5590594491515766
11.700000000000001,-2.8518580434622,0.2133155238866413,1.4245648095592456,-0.005355161850155529,-0.3503526999322693,0.1586824756576681,-0.0891429615970611,-0.3054430451926643,0.9480284170397697,-1.759655041550145,-1.8581279018489558,4.1432785987854,0.1269660220612916,1.3689440422828751,-0.42277475712952506,2.0,0.49297083165179983,0.49482045303025946,0.34005170984725647,-0.7022001162261142,0.4177345880498936,-0.1409167243152257,0.5590664428554839
11.8,-2.7404465491781984,0.15591674940906944,1.3561564678689702,-0.005231947220950215,-0.3522459750628076,0.16289332510888013,-0.0888756927932378,-0.30456020719237176,0.948337389673838,-1.759654850406066,-1.8581258259215296,4.1432785987854,0.1269942957111816,1.3689418211918674,-0.42276753850121135,2.0,0.49296925347490095,0.49482312890143304,0.3400637955088992,-0.7021957405646979,0.4177308715296787,-0.1409148342638471,0.5590751920701217
11.9,-2.578976282077723,0.16412197883719537,1.3554733895405673,-0.0021442694644210674,-0.35590673092332115,0.164027750825196,-0.08881904401155943,-0.3043357895681011,0.9484149360965983,-1.7596299183809783,-1.8581040740893207,4.143274115279911,0.12696997701611323,1.36891956452966,-0.42273456255068,2.0,0.4929672327276559,0.49482488383309936,0.3400728060083876,-0.7021927285379919,0.41772798590397414,-0.1409115432615483,0.5590819606789579
12.0,-2.8845966418631845,0.2311530102061399,1.3021108526873688,-0.0025875711297617537,-0.34889066553061354,0.16215045239731563,-0.08881858770760279,-0.3042970202459931,0.948427265882991,-1.7596448959755366,-1.8581280163004605,4.143271610896094,0.1269818979450683,1.3689658787509154,-0.4227438463058681,2.675209455453037,0.4929804408658721,0.49481170883682235,0.3400544215543907,-0.7021892088003102,0.4177452362742174,-0.14091396170643944,0.5590728825571751
12.100000000000001,-2.7830573180280442,0.3842141003733388,1.9453746724993486,-0.0043441871387327755,-0.3508004116121334,0.1577909520048053,-0.08844261436663572,-0.30314778314123486,0.9488301415023357,-1.7597621077142533,-1.857941610006394,4.143284290626539,0.12696140904964548,1.3689541967735224,-0.4227708021747034,3.0,0.49297382420488883,0.4948215303118219,0.340046753179713,-0.7021980091827035,0.41773888986376995,-0.14089921260986263,0.5590702886767939
12.200000000000001,-2.851930362385396,0.35722095734115267,2.617707266118215,-0.010265754257460465,-0.3493922736161251,0.15175796360876667,-0.08821760676137565,-0.3023333481412663,0.9491111403883722,-1.7607039866679324,-1.856992263226049,4.14333963394165,0.12696943217743056,1.3688338277543113,-0.4227465514811595,3.0,0.4929217564107068,0.49474079170293983,0.340076678618394,-0.7022013760353424,0.4177382799299778,-0.14090423694102627,0.5590652493111001
12.3,-2.971782580151124,0.07413091799133537,3.0208274248575138,-0.009350820972870143,-0.3460131907628167,0.1288923290541835,-0.08810913319224888,-0.3018353515560254,0.949279812907724,-1.7616742567602948,-1.8557457100452417,4.1435322761535645,0.12677790037219333,1.3686375617980957,-0.42261040390778903,3.0,0.49277193367619787,0.49452931802090466,0.34018010825902617,-0.7021860868911034,0.41775188294598387,-0.14092333399608256,0.5590694747587936
12.4,-3.005591558308654,-0.2601457698652752,3.4610856626190643,-0.00510904282398442,-0.3515790871100567,0.10034699221756659,-0.08820105210573527,-0.30221602522649443,0.9491500820065584,-1.762878901833929,-1.8545096783072845,4.143849088448199,0.12679359677857932,1.3684328741769214,-0.4225707229898464,3.0,0.4924031859644058,0.49416055194958286,0.34045455967832616,-0.7021422580332332,0.41774599073681995,-0.14092430341837447,0.5591286769727977
12.5,-3.097776755104296,-0.4335722692370323,3.724075377102699,0.02237780088684649,-0.3682319113002592,0.07540409772623485,-0.08831916196821198,-0.3026681690044515,0.9489949571973164,-1.7641340748301724,-1.8533710734779818,4.144066059380247,0.12667801548004037,1.3682153228625917,-0.4224853139121923,3.0,0.4920983981265626,0.4939330843722648,0.34059590400895207,-0.7021540978810885,0.4177237769815214,-0.14090281913624164,0.5591358193968139
12.600000000000001,-3.1101440576436152,-0.5260274614599734,4.127262192686651,0.0381385554200998,-0.3769230763066847,0.0521114406012081,-0.08866130365540766,-0.3037316529289354,0.9486226182823478,-1.7654388172152868,-1.852300898701424,4.144255593871429,0.12660458703392252,1.3680220313863591,-0.422425982549819,3.0,0.49182562309597316,0.4936723983135787,0.3406557346996451,-0.7021883445547289,0.41773033673058013,-0.14090024899276096,0.5590885568317632
12.700000000000001,-3.2393878501813185,-0.026807189438040044,4.705657642938671,0.01895928598023309,-0.374553652932295,0.024185218858751793,-0.08895110954739144,-0.304634982750813,0.9483064618217257,-1.766435457227007,-1.8509712707862627,4.144473800396081,0.1264750534784229,1.3678103397422006,-0.42237276699371545,3.0,0.4914004733514371,0.49319879898032104,0.3407418937194515,-0.7022366680627049,0.41776903523392594,-0.14091647385142614,0.5589948502671429
12.8,-3.307641737756322,0.16985364688975096,4.7666245969182945,-0.0034359848101706766,-0.393770685205643,-0.001185648459330304,-0.08874978035705966,-0.3040353775728831,0.9485175386672633,-1.767486005066261,-1.849629215493666,4.144661257170916,0.12638950962485332,1.367646452926986,-0.4222757366536491,3.0,0.490990033587775,0.4928218140054793,0.34101308065915226,-0.7022093400882584,0.4177549636263498,-0.14090983741577986,0.5590413676802621
12.9,-3.5095723300381243,0.2644209285677583,4.818923797632013,-0.010340899429644676,-0.40113622436046253,-0.02254459705256328,-0.0885761018955026,-0.30352485503068133,0.948697486104877,-1.7686357337824876,-1.8484031044963267,4.144858907744332,0.12631095275515322,1.3673998618289056,-0.4221639813046983,3.0,0.49073801067205897,0.4925647908385778,0.34125256555205574,-0.7021646663208387,0.41773136885240036,-0.140905454223488,0.559116211370514
13.0,-3.5487638551774694,-0.02418310786475203,4.794878224620242,0.002749433677050446,-0.4033678065098785,-0.03489345077580803,-0.08869095991918938,-0.30392852925799546,0.9485575090844103,-1.769891138173834,-1.8473366830969187,4.145077228546143,0.126209333509642,1.367222785949707,-0.4221307233934809,3.0,0.49045788186544126,0.4922899413243149,0.3413858503589624,-0.70217613121734,0.4177247823411105,-0.1409127261469715,0.5591049012274438
13.100000000000001,-3.5468851820021543,0.015810637380815448,5.006016818369984,0.010500686511447515,-0.399673447272177,-0.041695034580165026,-0.08883014126380322,-0.3042365804159002,0.9484457025439873,-1.7711469324132092,-1.846252594790422,4.14528433399402,0.12613056085300123,1.367025633160594,-0.4220607307245808,3.0,0.4901623288869574,0.4919852116861698,0.34145707545256115,-0.7022046741213588,0.41774631867399303,-0.14092426441628808,0.559050051940943
13.200000000000001,-3.4317908359134393,0.32976510074328785,5.351192825278415,-0.03902373602830939,-0.3868682316901522,-0.04248467401355655,-0.08869118558630319,-0.30374572166616925,0.9486154229059627,-1.7721407714700936,-1.8448032548142557,4.1454919718733905,0.12602398459443245,1.3668248700649288,-0.4219769462045741,3.0,0.48967938900687386,0.49151246409065513,0.34159077040948616,-0.7022485816854178,0.4177634343120807,-0.14091506455161068,0.5589844246980502
13.3,-3.7125602090905505,0.7343933225053675,5.292457966628508,-0.03897045257308416,-0.4023637809417128,-0.04091838599730551,-0.08834534177960009,-0.30266060554308916,0.9489945529096855,-1.7732744216918945,-1.8433894240520783,4.14568781019024,0.1259039954627131,1.3666547164480716,-0.4219060496513207,3.0,0.4893702722191896,0.49121123173911946,0.34182595994633125,-0.7022157373282799,0.41774735746599134,-0.14091225000361432,0.559038407783938
13.4,-3.459701318314987,0.13086393254895687,5.222553070058803,-0.03221889511264671,-0.4115242580315401,-0.03278739558904221,-0.08840384105464887,-0.3029311180991511,0.9489024001008454,-1.774326278133948,-1.8423401757970876,4.145867778225501,0.12582782235966922,1.3664789199829102,-0.42185999920466294,3.0,0.4889728825236129,0.4907670624963179,0.34219363238928613,-0.7021453057464827,0.4177318208587103,-0.14091998506514383,0.5591365247142098
13.5,-3.3951501834450495,0.07921320561227083,5.101055466556973,-0.022553039724523785,-0.4075941787988619,-0.03011546818530055,-0.08877974170578526,-0.3042657725377927,0.9484402995422235,-1.775564920291716,-1.8413078456947558,4.146100037723097,0.12576412415553936,1.366297783647924,-0.4217889944659632,3.0,0.48875161300567166,0.49057007707572853,0.3422817764205773,-0.7021580897058658,0.4177288190751845,-0.14090153174858958,0.5591273639570529
13.600000000000001,-3.5580750873873637,0.5229476998939167,5.2704631126311385,-0.036731291348554095,-0.3957687465460717,-0.024118248482275378,-0.0887543924453419,-0.3042152308665004,0.9484594495550575,-1.776735965459487,-1.8400673691864797,4.146274109245749,0.12563347110378126,1.3661012272890876,-0.42169315019716436,3.0,0.4884926423460899,0.49033215193649593,0.34229201890487276,-0.7022158778672194,0.41773532366024346,-0.14089943719371534,0.5590504528538871
13.700000000000001,-3.371935803526199,0.7471444800600716,5.670542842914201,-0.07205996065475116,-0.38427900098004103,-0.026125530205400194,-0.08839011824230884,-0.30296489747973276,0.948893237005918,-1.7778091279365345,-1.8386578049539553,4.146511732024001,0.1255161005207519,1.365939835600102,-0.42162885176704634,3.0,0.4880187759993713,0.4898469354008944,0.3424964367600265,-0.7022307002441854,0.417746339366345,-0.14090964772304276,0.5590210289060221
13.8,-3.406064172148107,0.6338263533765529,5.376856331307804,-0.059750022606441966,-0.4109101884501656,-0.02710480238377628,-0.08802762085224193,-0.301698910118241,0.9493307671782294,-1.7789125442504883,-1.8373478127221425,4.146701630756309,0.12541097241722113,1.3657532503321879,-0.4215517824696101,3.0,0.4877247564331986,0.48954407935690764,0.3427214723014598,-0.7021901344212573,0.41773368576527237,-0.14091042099959517,0.5590812428906323
13.9,-3.843761796445095,0.16346620994699163,5.3792180897240565,-0.03770708194277245,-0.43689729217645995,-0.028993126281867985,-0.08801276049306056,-0.301726919509917,0.9493232423226626,-1.7800351703747146,-1.8363175635631799,4.146912821749365,0.12532345830883784,1.365551821444138,-0.42148666753236697,3.0,0.48743406122573396,0.48925351226033303,0.3429279330063774,-0.7021620212227193,0.4177229015772021,-0.14090308290766618,0.559126456785461
14.0,-4.007597881449706,0.38950414235638253,5.801611340380958,-0.03195422632876411,-0.44461767053874546,-0.028453655789364637,-0.08799790013387918,-0.301754928901593,0.9493157174670959,-1.7811759597870005,-1.835161424666862,4.147153301248564,0.12519734593814894,1.3653331184339454,-0.4214268843518999,3.0,0.4869866331403284,0.48883132847840777,0.3430602749572814,-0.7022106483122585,0.4177247425422139,-0.14089128560481062,0.5590669821278506
14.100000000000001,-3.812908594511433,0.6471224000209862,5.799345794247386,-0.05358763354626253,-0.43596078019243617,-0.02389196090086562,-0.08800310023934378,-0.30180026387184933,0.9493008223898688,-1.7822462400654957,-1.8338928342996375,4.147348468262322,0.12509830586839044,1.3651377791156112,-0.4213436705004353,3.0,0.48672339936565945,0.48857470825074945,0.343151488683031,-0.7022313423190356,0.41773072926834154,-0.1408929551855348,0.5590360944239932
14.200000000000001,-3.8159888277823923,0.8202011290681884,5.723415926543903,-0.07255964577002491,-0.42738331114808353,-0.019477662268975807,-0.08802643425507628,-0.30186126051758827,0.9492792649077274,-1.7833839962829896,-1.8325504593502087,4.1475529411929335,0.12494940903107696,1.3649548602463613,-0.42126208940614873,3.0,0.4864527009232444,0.48829745920804674,0.3433413401374619,-0.7022078643658682,0.41772547972979085,-0.14089431690358467,0.5590691641215018
14.3,-3.7815871755611035,1.050302663057617,5.754512775079347,-0.07479521311870023,-0.4279467011174728,-0.02341722823421902,-0.08793023727280816,-0.3015417797649258,0.949389488574023,-1.7845327119153898,-1.8313895664610804,4.147753491530988,0.12484337329892906,1.3647489987402943,-0.42121890611041674,3.0,0.48601108185204595,0.4878656553209081,0.34362862275588707,-0.7021843767373936,0.4177057951915196,-0.14089041693063015,0.5591143533718763
14.4,-3.6668947248211827,1.0174691589054052,5.884058930255136,-0.08286421483605537,-0.4248239156295288,-0.02068658986930926,-0.0877221862612101,-0.3008662580622835,0.9496230296449164,-1.7857491358330728,-1.8302321866046605,4.147956071715641,0.12473664901251603,1.3645582877490916,-0.42115568688044575,3.0,0.4857030366683965,0.4875632457958679,0.34375178272507745,-0.7022056323586073,0.41770428021830164,-0.1408986077589946,0.5590867253859065
14.5,-3.4783204935216863,1.0496589691202098,6.052892838206253,-0.10056122402166488,-0.4196656573018904,-0.02012727248049571,-0.08756228475268463,-0.3002850476281937,0.949821912422201,-1.7867457679016279,-1.8289954410330325,4.148124575879643,0.12461398891338693,1.364391803741455,-0.421061634559172,3.0,0.48532824356155574,0.48717057920279516,0.3438676787952108,-0.7022316444398196,0.4177256697912805,-0.1409078772993258,0.5590357345105686
14.600000000000001,-3.8938643009531795,1.0978228913003016,6.232676789572778,-0.09781942294316652,-0.43581559045133084,-0.02341409328010352,-0.08745486596382099,-0.2998576696812949,0.9499668116920802,-1.7877032300025508,-1.8277870898826338,4.148353769400744,0.12449172946051086,1.364187649541577,-0.421009030923428,3.0,0.48509772500906967,0.4869134199642801,0.3440048626826546,-0.7022236832629771,0.41773148745412747,-0.1409039512498132,0.5590423772632359
14.700000000000001,-4.161097035292053,0.6652901632838449,6.082406451112033,-0.07255794926881043,-0.47487933067102045,-0.02780739820612123,-0.08735314269560217,-0.29949284608443694,0.9500912893204918,-1.7888879455406579,-1.8265446570798602,4.14854797108263,0.12437034899304907,1.3639725969047805,-0.42093711944753603,3.0,0.48465469023827784,0.4864816671230042,0.3443447277388251,-0.7021583798495651,0.41772297409201176,-0.14089924271571783,0.5591319432163535
14.8,-4.334202567230541,0.6787017693965389,5.998990765274345,-0.06629182154334409,-0.4826156481104768,-0.027367943916143944,-0.08766154885565156,-0.30055003776082523,0.9497285852206044,-1.7901218155405365,-1.8253323040404261,4.148741561522598,0.12425794576965266,1.3637526838230514,-0.42085034174900204,3.0,0.4844345450407134,0.48625325648707823,0.3444665769376336,-0.7021707714759229,0.4177032567027643,-0.14091933284177052,0.5591260489873837
14.9,-4.299314372466335,0.599104364434351,6.171352639781362,-0.0824466819120856,-0.48043701183693693,-0.02177129864959837,-0.08774685512629743,-0.3008659576966374,0.9496209652888278,-1.7913541793823242,-1.8240410911873641,4.148980852519496,0.12415408086323361,1.3635844009344658,-0.42079174136284386,3.0,0.4841285888341166,0.48594385404661555,0.34454031772933785,-0.7022071180782004,0.4177235188736242,-0.14091422513913412,0.5590665490382903
15.0,-3.7903912600067837,1.2355527910444213,6.196014835505792,-0.10933977789927249,-0.469622974407322,-0.020770512595599117,-0.08756893763952613,-0.3003056867635336,0.9498147991518427,-1.7923356779181672,-1.8227958395316828,4.149225357715591,0.12403810652743538,1.3633607738296358,-0.42070062136492054,3.0,0.48365662694709183,0.48547371893330415,0.34472405597198036,-0.7022175154193304,0.4177237701418135,-0.14090046254871946,0.5590567704181473
15.100000000000001,-4.25612076602696,0.9910952487632045,5.803843787941624,-0.08699223660120481,-0.48673597175889877,-0.021230874594945503,-0.0877142818833834,-0.30070356238838447,0.9496754417889071,-1.7924261093139648,-1.8226210354756467,4.149276865997166,0.12400169322306229,1.3633576712800652,-0.42075877125585276,3.0,0.48341386899847366,0.485212759109237,0.3449133568049845,-0.702189733270507,0.41773141776717776,-0.14091489569035448,0.5590823135033824
15.200000000000001,-4.200667038825928,0.6212748790280896,5.679159760792537,-0.06726334371542388,-0.5050664358631002,-0.021130424752166106,-0.08776221000669289,-0.3008351209452366,0.9496293773336795,-1.792434150989239,-1.822617122194541,4.149252285957337,0.12398464151935751,1.3633080304585972,-0.42070037523378545,3.0,0.48331925072700294,0.48515587832232293,0.3449876987516658,-0.7021766759860526,0.41772196681746865,-0.14090762206564159,0.559107606980204
15.3,-4.385023616930276,0.2780152497156562,5.569006419035699,-0.06974519827637295,-0.5043707159376916,-0.02118030760123864,-0.08767356864887386,-0.3005894362058466,0.9497153358121743,-1.7925348281860352,-1.8226241535661918,4.149267858155553,0.12403419055429449,1.363354514397292,-0.42068120182621943,3.0,0.48329155023815934,0.4851364980368363,0.34500613739047925,-0.7021786757430309,0.41770505330270924,-0.14090409420289324,0.5591186207004792
15.4,-4.330104286206632,0.15063207532767578,5.423630525905668,-0.06002910312776181,-0.5073611628480881,-0.01700405814711901,-0.08758492729105484,-0.3003437514664566,0.9498012942906691,-1.792623415277369,-1.8226399090217162,4.149275022820004,0.12399117528881831,1.3633199784299064,-0.42068797746767217,3.0,0.4832889412037329,0.4851221081100082,0.3449588685431836,-0.7021994595966805,0.4177190960018204,-0.1408980015040028,0.5590835616879914
15.5,-4.248108957678451,0.4597031010100985,5.497844013902074,-0.05674533643373222,-0.5049125327614944,-0.018309089231483777,-0.08727877470503692,-0.29928645805888865,0.9501627337133207,-1.792583580003114,-1.8226224384703578,4.149257615451565,0.12398152407503768,1.3633620389151166,-0.42066636082071734,3.0,0.4832964434048124,0.4851159512453641,0.3449197917781277,-0.7022053372466706,0.41773418987826466,-0.14089488007899995,0.5590656881946559
15.600000000000001,-4.279339522041399,0.4661800355450181,5.539496289057804,-0.05862591745494314,-0.5040945628436413,-0.022491959280703723,-0.08709737322859756,-0.2986906811011965,0.9503672553205604,-1.7925695715668382,-1.8226223032383142,4.149284839630127,0.12400370828697513,1.3633840420938306,-0.4206875717715416,3.0,0.4832951063531511,0.48511093581301856,0.3449149541562244,-0.7022140672054012,0.4177448455233773,-0.14088906778771831,0.5590482255006319
15.700000000000001,-4.235620857330591,0.4702885295892618,5.411752788876164,-0.05634545135596313,-0.5053714318449061,-0.019108669795299127,-0.08708328321294267,-0.2986878592990916,0.9503694249529954,-1.7925825119018555,-1.8226343593993128,4.149296283721924,0.12399492289733859,1.363348155637024,-0.420664135609762,3.0,0.48327862945409605,0.4851233978322653,0.3449373506187436,-0.7022160601319724,0.4177199573453678,-0.14087911846149503,0.5590668261573266
15.8,-4.121245624080911,0.37418953142845274,5.507017049460628,-0.05969543446011377,-0.5056809001172059,-0.018344444036051115,-0.08702754427438764,-0.29849166405175287,0.9504361768279558,-1.792595028070255,-1.8226105175414027,4.149225919564513,0.12401437723742567,1.3633482762973037,-0.42067717328517806,3.0,0.4832847687389434,0.48510638137221773,0.34494221592047564,-0.7022118643884958,0.4177236410624634,-0.14089067042199271,0.5590664327229746
15.9,-4.283489394102022,0.4574724817102415,5.404436467796881,-0.06052728749514744,-0.4991431191728218,-0.021438755113143033,-0.0869757275045029,-0.29831857018448904,0.9504952573740472,-1.7925850074411125,-1.822611384048089,4.149249501173057,0.12400180538129123,1.3633591487920471,-0.42069947406683156,3.0,0.4832880670796807,0.4851060596709856,0.34494643500950717,-0.7022093795393176,0.4177192602105839,-0.14090639779508143,0.5590688633760097
16.0,-4.174153321018362,0.1809703610341749,5.440050549291411,-0.06560736666264246,-0.5000657513172942,-0.017543294371693212,-0.08700958924668664,-0.2984147786691592,0.9504618587754251,-1.7925613471988477,-1.8226200497669243,4.149262239898002,0.12397925435986323,1.3633632705088534,-0.4207106727479343,3.653905423780027,0.4832816474920829,0.48511059421783365,0.3449504123409345,-0.7022056928738563,0.41772412980816576,-0.140904478784871,0.5590703391612919
16.1,-4.193318786478122,0.2165868139271248,5.4379328919877,-0.06448352270550309,-0.5016734420175214,-0.01640032102200009,-0.08717827987506814,-0.29893277384920297,0.9502835688194473,-1.7925949980483116,-1.8226332739257094,4.149259868879669,0.12402741491284175,1.363325771073944,-0.4206981608676346,4.0,0.4832894282638545,0.4851023046055698,0.3449356684468727,-0.7022026914681662,0.41773920545869986,-0.14089827975549485,0.5590644069152855
16.2,-4.200253008641658,0.38906112362307743,5.349605060977381,-0.05836841426774791,-0.5027380202854299,-0.014964079849906917,-0.08722553625828268,-0.2990747215855527,0.9502346547818468,-1.7926049330908216,-1.8225985966124476,4.1492486000061035,0.12400405950766875,1.3633599088999455,-0.420687491014935,4.0,0.4832903572456879,0.48510722217902513,0.3449327852222475,-0.7022062604240874,0.4177296132160814,-0.14090578558808758,0.5590651998214217
16.3,-4.192026701928646,0.4937230215833587,5.289088482428239,-0.05675835627070199,-0.5020246237122953,-0.014375375181354113,-0.08707379507007526,-0.2986004302376833,0.9503977525496651,-1.7925931425518056,-1.8226105175414027,4.1492486000061035,0.12396653069224356,1.3633721878469494,-0.42066520592798146,4.0,0.48328574941940716,0.48511305895635043,0.3449364535600747,-0.7022078191365889,0.41772922525335787,-0.14089903380616567,0.5590652335686364
16.400000000000002,-4.132093478962629,0.5409189009411899,5.286171490212038,-0.05786777748683402,-0.5022724522657651,-0.01546581401050681,-0.08748342985335772,-0.2999690367484448,0.9499288569110799,-1.7926147824631813,-1.822611032969919,4.149259966915184,0.1240139270811974,1.3633598509483875,-0.42068797746767217,4.0,0.4832883446077176,0.4851125743461772,0.3449393659392751,-0.7022077847846744,0.41773285453118914,-0.140894126859601,0.5590638015911026
16.5,-3.877902408724593,0.4521090081159915,5.2105069754512,-0.058045156042791486,-0.5054059803694307,-0.012334095635244886,-0.0875480083608853,-0.30017544410500613,0.9498579098470934,-1.7925955466992598,-1.8226199529928462,4.149281525660111,0.12401380385917883,1.363340353917525,-0.4206666542269737,4.0,0.4832928578227235,0.48510082671364485,0.3449473039601414,-0.7022054932133563,0.41773325860036303,-0.1408983552572341,0.5590653123257744
16.6,-3.972359829428271,0.5942702990378947,5.348512442993063,-0.053713232907961414,-0.5031113474963481,-0.016379107706712186,-0.08713154732269678,-0.2987910164187924,0.9503323601306995,-1.7926160726097482,-1.822585871967349,4.149260161907427,0.12400518048721901,1.363349437713623,-0.4206554616940275,4.0,0.4832850846587484,0.48510148174112727,0.3449287107647887,-0.7022172939383533,0.4177333753305102,-0.1408977933234631,0.5590505442850889
16.7,-3.9080145580261307,0.3170491985941749,5.2525844622183415,-0.06186640705431884,-0.5045381219088224,-0.014307866325126971,-0.08711883577306788,-0.2987101475658238,0.9503591561095193,-1.792572531872292,-1.8226110720497688,4.1492486000061035,0.1239923064858853,1.3633376166362106,-0.42070037523378545,4.0,0.4832890047930178,0.4851051924816453,0.34493404152006135,-0.7022079348870657,0.4177318057559701,-0.1408970376849581,0.5590636631128004
16.8,-4.05500379624622,0.6355679670786953,5.252472078529774,-0.05448311803426549,-0.5037307375450565,-0.014356594847649718,-0.08708690900350687,-0.298547094427708,0.9504131303397574,-1.7926155476273853,-1.82258870154265,4.149271342667717,0.12401411639965958,1.3633363376496686,-0.42068932804044384,4.0,0.48330383995614723,0.48509121718701276,0.3449507031826114,-0.7021918669717033,0.41773964075292025,-0.14091016880973173,0.5590746809044633
16.900000000000002,-4.051352353473005,0.548922981971467,5.22087067516294,-0.05784662464650881,-0.5027474601284734,-0.015167967253247924,-0.08683715292857352,-0.29763836028679885,0.9507210338195553,-1.7925950267954864,-1.8226099598321142,4.149249180023763,0.12401660940246374,1.3633477422773859,-0.42068741975838364,4.0,0.48330684059778184,0.4850856042587528,0.3449243223324086,-0.7022015299411408,0.4177493150658245,-0.14091406131901038,0.5590543340614915
17.0,-4.133569461014516,0.5065765994985844,5.282638279966221,-0.05821678935218634,-0.49926132471368495,-0.0172392368755008,-0.08706923073545583,-0.2984961584240234,0.9504304110488384,-1.792570407534189,-1.8226108293095935,4.149236831675388,0.12401549398388667,1.3633259141956149,-0.4206883017065906,4.0,0.48329748154861546,0.4850926289544196,0.34492679794675973,-0.7022131794012155,0.4177343416051006,-0.14090937610589122,0.5590520711386713
17.1,-4.028916185984533,0.5175040362468589,5.261919070828972,-0.057244778352617195,-0.5002883171023281,-0.009879574414987607,-0.08737497773402085,-0.2995905594410958,0.9500583296483062,-1.7926289971692335,-1.822609334862019,4.149236745918787,0.12400316305941188,1.3633242637239937,-0.4206649240626845,4.0,0.48329456494667294,0.48510486153241905,0.3449258928096882,-0.7022190060965894,0.4177264600082923,-0.14090989817911892,0.5590505099548781
17.2,-3.9769584634192023,0.7116796013019211,5.473131483194159,-0.055483362588222764,-0.5020983659263308,-0.010213082403037992,-0.08761602655376863,-0.3003746382676557,0.9497885639112302,-1.792594105911394,-1.8226340470706845,4.149248450088362,0.12400341064404485,1.3633251169209115,-0.42067621270303124,4.0,0.48329101517866313,0.48509210981347833,0.3449381957204375,-0.70221022981669,0.4177364481118968,-0.1409007134189323,0.5590563853652722
17.3,-3.9845230913869414,0.5254423902649932,5.371360271333883,-0.05720982972974096,-0.5009295628039163,-0.015996190264956644,-0.08736854578521884,-0.29963423950528345,0.9500451578544719,-1.792594409503939,-1.8226105175414027,4.14923738266945,0.12403933584179683,1.3633370399475098,-0.420664853667716,4.0,0.4832811859662363,0.48510289705140947,0.34494181370370597,-0.7022077631250525,0.41772828759055647,-0.14089015887696907,0.5590682411702474
17.400000000000002,-4.025048468546806,0.1257621327797684,5.376327968819324,-0.06865301189156484,-0.4977210000120787,-0.009104366200310618,-0.08744016792186889,-0.29983083450044395,0.9499766442043647,-1.7925939559936523,-1.8226224384703578,4.14922588634491,0.12397280084576404,1.3633504791259765,-0.420677141343252,4.0,0.48328142406482993,0.4851112561933774,0.34492861133860947,-0.7022180778061962,0.41772653287343314,-0.14090344391394655,0.5590532482947407
17.5,-4.132232136547389,0.4762508589757275,5.297531320036588,-0.05834727972753307,-0.4955287563587961,-0.012488525403632116,-0.08733988622644483,-0.29946385129950426,0.9501015126515323,-1.7925939393075607,-1.822646724755902,4.1492123931124905,0.12400358107709106,1.36336088180542,-0.42068796944551273,4.0,0.4832915740402685,0.4851029899385936,0.34493607644900753,-0.7022078519318807,0.41772877220030674,-0.1409007938782179,0.5590650873071277
17.6,-4.094727435314492,0.5878060093096269,5.261871503913513,-0.055820388112503845,-0.49728387912954003,-0.012591163707205566,-0.08723547974920254,-0.2990913765658645,0.9502285446138564,-1.7926162085504462,-1.8226224384703578,4.149260679958817,0.12397957852953112,1.363349272450655,-0.4206878185609722,4.0,0.4832966250488032,0.48509802213465403,0.3449268139912018,-0.7022034976373805,0.41774223571124913,-0.140896943556513,0.5590614668399438
17.7,-4.046159838802277,0.5576749604557771,5.296150995730599,-0.05835523073685744,-0.4964389201390479,-0.012927769671767656,-0.08733067327616129,-0.29936957054170016,0.9501321933583841,-1.7925826972628875,-1.822610710625811,4.149236754298737,0.12402682793624037,1.363325043796966,-0.4207120124099907,4.0,0.48330420088673054,0.4850942883264772,0.3449276672965466,-0.7022050054639623,0.4177397368125819,-0.1409101476360689,0.5590581122587284
17.8,-4.031068824901316,0.5666835901689375,5.334314816812274,-0.05725474043145219,-0.4951257133675206,-0.012559892908137877,-0.08760184352651888,-0.30031380553996534,0.9498087272184559,-1.7925943866968717,-1.8226456265694755,4.149237604563494,0.12402696626365499,1.3633489711184688,-0.4206888747660457,4.0,0.4832971157263884,0.48510232203036113,0.3449302559393069,-0.702206538359371,0.4177348602225322,-0.14090164468090532,0.5590619738154495
