xiamingqian9007/apple-picking-rnn/training_data/grasper_20191127_124315_noimg.csv
,/manipulator_wrench.fx,/manipulator_wrench.fy,/manipulator_wrench.fz,/manipulator_wrench.tx,/manipulator_wrench.ty,/manipulator_wrench.tz,/ground_truth.x,/ground_truth.y,/ground_truth.z,/joint_states.elbow_joint,/joint_states.shoulder_lift_joint,/joint_states.shoulder_pan_joint,/joint_states.wrist_1_joint,/joint_states.wrist_2_joint,/joint_states.wrist_3_joint,/mode./mode,/manipulator_pose.x,/manipulator_pose.y,/manipulator_pose.z,/manipulator_pose.rx,/manipulator_pose.ry,/manipulator_pose.rz,/manipulator_pose.rw
0.2,0.2976411809366035,-0.13946151263407702,-0.4204179472700845,0.009308294775755968,0.04961779825288741,0.0027084870504986485,-0.20075654594227121,-0.19832674074492848,0.9593555175502233,-1.8835015103076431,-1.7470466331381642,4.166823274736159,0.17459015717862258,1.34406650746321,0.0856019190504618,1.0,0.4591130881339031,0.4608445877842093,0.3541245753776148,-0.5673488394366972,0.5734315399471916,0.004265413891411432,0.5909935444892442
0.30000000000000004,-0.19655589557264624,0.19944786347452093,-0.06227061886387042,-0.0015665007596115579,0.022956943580475363,0.08271054992269161,-0.2004662941972812,-0.19801791653538567,0.9594801352356019,-1.880699552000304,-1.749754981822248,4.166051176551309,0.1750637469817718,1.3445683867365916,0.08543623852895035,1.0,0.4592013210555933,0.460898414369482,0.3541789113451009,-0.5672891342806446,0.5734269175702811,0.00426706743136932,0.5910553277557861
0.4,-0.2836226385596026,0.3784059747216856,0.1491149763188302,-0.006216979129947643,0.04178594222816852,0.16918439622726714,-0.20025721556064466,-0.19772084354975675,0.9595850021161045,-1.8778919438965949,-1.7538998164086053,4.165419427618178,0.17560536763991375,1.345311792627183,0.08519722967842978,1.0,0.4601177289235801,0.46163402633221134,0.35403521770672297,-0.5671227853079945,0.5734436544787873,0.004250906096734496,0.5911988255399976
0.5,-0.3053597364451464,-0.17386695966460197,-0.0341419673794878,0.00974936808365615,0.02970397063247473,0.23729560928116572,-0.20005552787636707,-0.19742484053345474,0.9596880706515537,-1.874551723975147,-1.7572413125794006,4.16480036065388,0.17616588085089493,1.3461215944547629,0.08494739603352607,1.0,0.46073302759985885,0.4622636857590836,0.3535669480988046,-0.5672056989408967,0.5734798330289204,0.0042296430567341035,0.5910843309695354
0.6000000000000001,-0.37054534655277876,0.011649010387541264,-0.04540490764414099,0.01436232889723046,0.03194339239472254,0.24430283068978179,-0.20013408808717614,-0.19778463913882177,0.9595975564539306,-1.8714711557610546,-1.7610395144300834,4.164193963089204,0.1766950327106933,1.3467159143213043,0.0847188675224322,1.0,0.4616582708112941,0.46340954824161085,0.3531405851797892,-0.567269383169861,0.5733809585448248,0.004343173737376607,0.5911183131473682
0.7000000000000001,-0.13084558745954686,0.5042547115451194,0.10078493215924372,0.006907538130709224,0.03613213632294707,0.24338781933989895,-0.2001257526780928,-0.19794669850888413,0.9595659039049439,-1.868499564222372,-1.7645342494825347,4.163569580681205,0.17711437184411302,1.3473165856363982,0.08453831251482034,1.0,0.4629445642742223,0.4647984025772229,0.35238128378858186,-0.567360887956106,0.5734032580225098,0.004330214926281186,0.5910089472635099
0.8,-0.3084988169616818,0.22197048428675725,0.16394804695150245,0.010167828149785691,0.026023905091610417,0.23469337745892588,-0.19994185313258592,-0.19770639463996872,0.9596537666816816,-1.8655580571046404,-1.7678502919971955,4.162840717033341,0.17755992183886166,1.3478422741269487,0.08433349535583548,1.0,0.46351860848531584,0.4653570212935337,0.3521347284857608,-0.5673487933338114,0.5734039894865051,0.00431124091911288,0.5910199867562563
0.9,-0.3580326616899338,0.4869901717766447,0.02151125894343603,0.020345421644526726,0.03604009604881174,0.2347878110267484,-0.20031393990049307,-0.19796474440299208,0.9595225859675581,-1.862736355232844,-1.7710372315031668,4.16213210334659,0.17804959429862507,1.3484309505450762,0.08413032642120427,1.0,0.46455264133545493,0.46634774090615305,0.3516707778945328,-0.567318342628025,0.5734329969310872,0.004289714041862115,0.5910212301617108
1.0,-0.36218872334046404,0.18865151373192812,0.04343970907230585,0.01223244190613968,0.029474485621158633,0.22966720432680054,-0.20082004999503206,-0.1983476740662126,0.9593378183374002,-1.859825917701448,-1.774336123845198,4.1614253663220095,0.17844381876295107,1.3491753027376525,0.08390592538656085,1.0,0.46574835163117406,0.46744355458738784,0.3511008863490555,-0.5673080300428301,0.5734737381695624,0.004236550935020747,0.5909919815995193
1.1,0.2288904535215086,0.4668024313720766,0.10342204899471213,0.016089783739645612,0.02091023078641592,0.23163312754260176,-0.20011550234196493,-0.19765191386953201,0.9596287382508929,-1.857303537054907,-1.7774251454060954,4.16083856766737,0.178779810790197,1.3497743327859082,0.08372451690178884,1.0,0.4662578499938538,0.4679572972096524,0.3508950323791118,-0.5672974382755357,0.5734786157548941,0.004268760681219655,0.5909971839866174
1.2000000000000002,-0.14789794092352418,0.15057556984937362,-0.021434883860665863,0.007747741651288569,0.016849184380719973,0.2285705427301883,-0.20124981938085437,-0.19880726657346678,0.9591515731671759,-1.8545469685604699,-1.7802225978644715,4.160371193132902,0.17905816237667038,1.3502641477082904,0.08354522805464895,1.0,0.46743367178931766,0.46909653061856965,0.35023263584380665,-0.5673652500411235,0.573509782088936,0.004263983879562989,0.5909018711559048
1.3,0.007538035506929525,0.07100564731537579,0.04085854973728158,0.000976681417228389,0.02183294093857059,0.23280435556960025,-0.20178267212416182,-0.19935870251786114,0.9589259263366906,-1.8521708300268995,-1.7829911218504702,4.159807631927505,0.1794026143146682,1.3507080649059837,0.08336683884156754,1.0,0.46788539691906217,0.46963859228456517,0.3500377610655307,-0.5673655836633583,0.5734898147409464,0.004281537451780448,0.5909208028998312
1.4000000000000001,-0.09694925617778945,0.3845857111821065,0.12498747709435053,0.016884709321312585,0.027363254835095094,0.22793511678982972,-0.20076170269837965,-0.19834872065429052,0.9593498167204937,-1.8494963945057998,-1.7857264814244684,4.15933854690777,0.1797036218042289,1.3511671052207805,0.08317664276629796,1.0,0.4686470351339065,0.47034994538784936,0.34976746049698504,-0.5673316162353678,0.5734711741145829,0.004269743597078109,0.5909715889694042
1.5,-0.044911276325764124,0.2618105151106753,0.09207229811497897,0.01442736189017404,0.029442445429463,0.22415643541590832,-0.2005769790463483,-0.1981699788607337,0.9594256261453673,-1.8472769991237314,-1.7881878563495486,4.158912167477248,0.17996804296459956,1.3516252867540521,0.08307709526177028,1.0,0.46970923198672304,0.4714537154586715,0.34929038470248186,-0.5673432911948669,0.573466701553569,0.004261359386158316,0.5909647814900885
1.6,-0.2883589972368623,0.6524125998906101,0.2355028256454161,0.0198329926645037,0.036519415053709016,0.22607458112140155,-0.2005380400529507,-0.19813614906990792,0.9594407538121177,-1.844797837302035,-1.7909765937921545,4.1584627825816,0.18018687172229894,1.3521003957613318,0.08287536110483011,1.0,0.47013151213723314,0.4718830527174144,0.3491473773033496,-0.5673211049414553,0.5734544784618362,0.004262739491544143,0.5909979306834309
1.7000000000000002,-0.2112880790999952,0.5950519564005686,0.06767888464996566,0.019462645318079376,0.03351977032767583,0.22334060570166125,-0.19981043431048115,-0.19749458022551153,0.959724069440696,-1.8426393529208824,-1.7932676212381744,4.157972109337601,0.18044850307032048,1.3526053428649902,0.08271738394257393,1.0,0.4707860472767295,0.47260183680846646,0.34875061093747817,-0.5673736183130555,0.5734647659284197,0.004270057807404907,0.5909374806926158
1.8,-0.11724802615996116,0.3962734652522637,0.052406467411704113,0.021069648001686064,0.030117014645836843,0.22128958112601427,-0.19895313184691818,-0.19673855578610525,0.9600578929518353,-1.8403749465942383,-1.7959010834049904,4.157454428335778,0.18068696431047523,1.3531114213126045,0.08256617452865256,1.0,0.4714813212485726,0.4733049182443935,0.3484941440659861,-0.5673687875850345,0.5734295932627151,0.0042894315746935885,0.5909761088416448
1.9000000000000001,0.22662614333679965,0.320883851396359,0.06418591154912467,0.01641999725926836,0.02097755670299356,0.22253409845918867,-0.19907649145338965,-0.19687585191713824,0.960004289487381,-1.8381523574904703,-1.7981646259445274,4.1570031270027945,0.18091561896294522,1.35353734664539,0.08244411262178303,1.0,0.4724677482135964,0.4742706999624862,0.3480037059706625,-0.5673986880847676,0.5734460353312834,0.004288707935057048,0.5909314514448901
2.0,-0.05449675395558412,0.2824374456070381,0.16674248543901332,0.013630357362891162,0.02311051852246191,0.22399235363986456,-0.19939542731107235,-0.19719130553344055,0.9598734203492354,-1.8360291322072346,-1.8004227282601935,4.1565366586049395,0.18107343097017412,1.353908399740855,0.08231204748153687,1.0,0.47286357590617795,0.47466562947325003,0.34788638954192314,-0.5673639440660507,0.5734321679260905,0.0043127147267942876,0.5909780911785854
2.1,-0.13485103222897424,0.10123578485020567,0.06937131536043808,0.014014417332577696,0.023970919052337034,0.2247528136646128,-0.20011895821923828,-0.19783279871329187,0.959590203515325,-1.834020662047233,-1.802634315241853,4.156114327972689,0.1813216993525051,1.3542706544878982,0.08215713500976562,1.0,0.4737549505795756,0.4754822890597667,0.34756128665684316,-0.5673113089241478,0.5734429770424816,0.004272568697452525,0.5910184227282186
2.2,-0.09008011303693736,0.37298748473104515,0.16071241496258426,0.015967976913722134,0.02541803163258954,0.21845347931313963,-0.20092746015286253,-0.19854276508880306,0.9592749913816208,-1.8321853679511568,-1.8048163023844663,4.155736535874935,0.181486848753059,1.3545876509960098,0.08205752407588578,1.0,0.4740280802211371,0.47573952919103524,0.3474119833747743,-0.5673276598638994,0.5734485588302236,0.0042647502420391625,0.5909973677050214
2.3000000000000003,-0.3721167133097646,0.881959809547205,0.3583112361604578,0.028396104709314196,0.031120288147773678,0.22064192958296125,-0.2003970963551118,-0.1979686844531421,0.9595043125424627,-1.8300782853738133,-1.806755871888915,4.155290586804179,0.181637990046018,1.3549511115374733,0.08193026391870359,1.0,0.4748810912836288,0.47663207126162227,0.346897287344346,-0.5673837402510913,0.5734780338302926,0.004234435890511529,0.5909151424405313
2.4000000000000004,-0.1429560883956375,0.7697867308065358,0.22552389803339742,0.02430768094285972,0.0350369814430391,0.22525937633691995,-0.1998605603195459,-0.1973974349661255,0.959734338393547,-1.8284132777705533,-1.8089782415677857,4.1549907666491395,0.18182570694900527,1.3552567882682682,0.0818338394165039,1.0,0.4752585040680921,0.47694419864958126,0.34691082463017314,-0.5672905613961949,0.5734560875281347,0.004240748654346494,0.5910258460326124
2.5,-0.22675281318104287,0.5159901296858447,0.06569406757041087,0.018930475674298987,0.032277433493404804,0.2257803729035177,-0.1999844911813359,-0.19747946802355348,0.9596916466375369,-1.8266751383739506,-1.8107674165997185,4.1546070888767765,0.18200699865307612,1.3556478746041465,0.08168946131417514,1.0,0.4759033069903403,0.4775932684237922,0.3464575147548128,-0.5673532459822341,0.5735029547550397,0.00420755327644158,0.5909204275163349
2.6,-0.21600758672801665,0.438010369378524,0.13940037150410373,0.018154336557181884,0.02660386309438631,0.22225375651424598,-0.20018492234583427,-0.1977408940848251,0.9595959815715656,-1.8246775045358636,-1.8123411751841878,4.154304008962537,0.18211573611998252,1.3559975033023965,0.08157265086591017,1.0,0.4765810878423382,0.47829989245590304,0.34616614346946145,-0.5673590098197139,0.573474668965442,0.004225370182669833,0.5909422173767838
2.7,-0.05859827226047212,0.5364922390283617,0.21338287447433746,0.01565121935294007,0.027791418061710645,0.220478589551913,-0.20023979270196993,-0.1978744649373859,0.9595570019870004,-1.8231700782793687,-1.8144358974971824,4.153970293660346,0.182223831891473,1.3563361897633301,0.08149797147284257,1.0,0.47684623852566,0.47859154081379707,0.3462645534987224,-0.5672737985314013,0.5734056863270902,0.004292843603149766,0.5910904565980684
2.8000000000000003,-0.021512073654024827,0.5307947545735197,0.22206850198236236,0.02315719407259655,0.030321383180564106,0.21986676129301255,-0.19988528891226764,-0.19757718292525023,0.959692170568358,-1.8216688840317605,-1.8161261204570287,4.153657223864255,0.1823783718696374,1.3566337694307873,0.08143610279723491,1.0,0.47752950119156307,0.4793153229436691,0.345693939942159,-0.5673955508715398,0.5734811423616033,0.0042757293367840545,0.5909004876842217
2.9000000000000004,-0.11721231043166923,0.5208225024644464,0.2877933230967091,0.021098136609951707,0.028439965029695657,0.2229178905017469,-0.1992595354840795,-0.1969853873149574,0.9599436484330179,-1.8198389083381712,-1.8174988470643896,4.153405427079416,0.18248788978044744,1.3569182136183393,0.08133244599797679,1.0,0.4777139819680825,0.47949954681383355,0.34553507991215965,-0.5674220043372937,0.5735014319161853,0.004271116624767887,0.5908554257571907
3.0,0.11847439556027126,0.6543999070616738,0.20106491247249855,0.024745658398118663,0.02662190264941187,0.2213962603641042,-0.19913290991974983,-0.19687297615301505,0.9599928343021735,-1.8183512340362806,-1.819290293854564,4.153119343003833,0.18257039912150805,1.357161521911621,0.08119964599609375,1.0,0.47840635051832986,0.4801831530876097,0.34554806408840116,-0.5672988919116178,0.573404768308802,0.004310826904599738,0.591067132978969
3.1,-0.0026563291636361036,0.5562402900039272,0.17188711445214241,0.0218961751956381,0.02886748832456487,0.21703427429199212,-0.20017247466171698,-0.19788553740690146,0.9595688034646476,-1.8170720182160396,-1.821110559495696,4.152875698628585,0.18266933546114344,1.357414393199386,0.08113736197769265,1.0,0.47889498392620616,0.48070256845602244,0.34527332018103213,-0.5673237084208874,0.5734114926552476,0.004289657299880121,0.5910369436800906
3.2,-0.21598682119589124,0.5616898657104306,0.17673190639094075,0.023010189888748592,0.032072731296480236,0.219555532269319,-0.20010508442169492,-0.19777569947836682,0.9596055034315777,-1.8155128871640114,-1.8224000061170837,4.152531878200872,0.18283102198656243,1.3576896068833033,0.08103179931640625,1.0,0.479130382464297,0.480929150576624,0.34500872276530126,-0.567376755685571,0.5734647379396063,0.004261494047328634,0.590934557388599
3.3000000000000003,0.036355818278108964,0.28989793873154857,0.21423985713428445,0.01880044911094603,0.02884214600008255,0.2249571201725925,-0.20009613142992363,-0.19776690205736877,0.9596091861751366,-1.8139720035753053,-1.8238993840891036,4.152304172515869,0.18287187663299248,1.3579309977921359,0.08095937238089143,1.0,0.47962017996075523,0.4813946936788042,0.34480299249123264,-0.5673660883588834,0.573474356977151,0.004261870969259027,0.5909354618956495
3.4000000000000004,-0.17506833775593675,0.6650974241103924,0.0348063820191766,0.02126986592502553,0.031583972563149466,0.21836173105856466,-0.20030345134074645,-0.19797849582865729,0.9595220722774129,-1.8126867824318134,-1.8254397618922171,4.152005418157758,0.18299023687329097,1.3581914345081778,0.08087808826026964,1.0,0.480176831564568,0.4819931758244937,0.3446717872135638,-0.5673254704164374,0.5734398277973398,0.004302150786833252,0.5910076700104088
3.5,-0.262577574868681,0.4589887540834296,0.11749688079782936,0.018972895152610462,0.03363859704474826,0.22475940699346766,-0.20112524730914685,-0.19877305947493526,0.9591858211846926,-1.811476707458496,-1.8267834161546677,4.151730395865372,0.1830595198104091,1.3583970069885254,0.08078271926226906,1.0,0.4804171738829747,0.4822376223059822,0.34452987937043056,-0.5673477226260728,0.573438776048974,0.004279795942849296,0.590987491492968
3.6,-0.20287771295718612,0.6949438698525324,0.18367374537062212,0.029115793210150103,0.02293656490337352,0.2192384891464507,-0.200155402109296,-0.19780222135897133,0.9595878791599431,-1.8100587309983671,-1.828095462596441,4.151501178741455,0.18314370527274249,1.3586472337208098,0.0807308419040902,1.0,0.4809472064079209,0.48271623514148215,0.34421830994994246,-0.5673564744920654,0.5734815005399088,0.004250782875152756,0.5909378395697615
3.7,-0.14008993009535675,0.5911487927000935,0.067543838731223,0.02438163225566013,0.02436785111614022,0.22257525632791886,-0.19899258508185008,-0.19664931948144362,0.9600681959562979,-1.8088671910049965,-1.8293446359435133,4.151261743218832,0.18320405495127717,1.3588988347100663,0.0806306077409768,1.0,0.48117883869588063,0.48296789627874515,0.34414586657832313,-0.567357826040152,0.573457485986685,0.004251459043334369,0.5909598413537309
3.8000000000000003,-0.18915503522701343,0.5048490997766528,0.05208191013980317,0.020637798692413185,0.029162096682303927,0.22239068409095655,-0.19904016353482062,-0.19671148620344608,0.9600453869240463,-1.807692527770996,-1.830642399954033,4.151068512200063,0.18325425385980704,1.3590914635698126,0.08056500661834032,1.0,0.4815270056262333,0.4833290722013925,0.3440268343684731,-0.5673392683197765,0.5734477522629446,0.004272060670535625,0.590986953785432
3.9000000000000004,-0.09899001234647958,0.41547786879532655,0.13659340219821187,0.01872332506816169,0.03018655582865696,0.22148370533969317,-0.19823490997844487,-0.19592051052085402,0.9603738811544229,-1.80655093849191,-1.831846264837666,4.150811033815111,0.18331208139390423,1.3592752705353104,0.08049624068911888,1.0,0.4818736677068949,0.4836525639068446,0.3438751914181262,-0.5673383643646885,0.5734522366160857,0.004261641223751494,0.5909835455019783
4.0,-0.4453547685925231,0.44220246601772234,0.018234606631979462,0.021118676301592046,0.03877374256723005,0.2156469746810506,-0.1985980529212797,-0.19630190463961816,0.9602209470385582,-1.8053009803612448,-1.83307234489139,4.15063416281294,0.18338710718981002,1.3595258223428863,0.0804294280106943,1.0,0.48219976979153234,0.48398802259489676,0.343710880478631,-0.5673526950448116,0.5734530694582753,0.0042658537551915855,0.5909689493078387
4.1000000000000005,-0.3694942832722673,0.2862816779082147,0.02803133188056789,0.01738816125965463,0.03591739524317001,0.22108070274537797,-0.19869780495984513,-0.1964257463046507,0.9601750405078123,-1.8041627019111146,-1.83440435595107,4.15040602964036,0.18345321886840688,1.3597814633491192,0.08036400231909244,1.0,0.4826344428777563,0.48444862170052666,0.34354905699325045,-0.5673419331218115,0.5734326669827493,0.004282799046469696,0.5909989551521939
4.2,0.16335177094031583,-0.12509345624239798,0.04130402530631458,0.004840669312639826,0.028835235261914324,0.22274688194980097,-0.19940671851324973,-0.1971257226241076,0.9598835006515102,-1.8030077149230048,-1.835541569900457,4.150164735786832,0.183524902927457,1.3599608505645298,0.0803113604691135,1.0,0.48306356485014706,0.48486587326017,0.34325578976545557,-0.5673841481414917,0.5734681662961301,0.004268627497552284,0.59092408099687
4.3,-0.06842544776804184,0.6669346202590227,0.16859315082774973,0.02185498919879487,0.031539540558929505,0.2213361169610351,-0.20044558908377783,-0.19813940563377797,0.9594587524212022,-1.8018691342441449,-1.836697846163335,4.149952412269911,0.18355385839428706,1.3601745650668606,0.08020366162974484,1.0,0.48337547188671415,0.48516741178582157,0.3431463407842143,-0.5673750359717618,0.5734584150542195,0.004273801705413628,0.5909422555364667
4.4,-0.2047809170852813,0.33224047811595103,0.03591975383948476,0.018820765762069685,0.036252531822481275,0.21998758409131042,-0.20065749152302403,-0.1983215129561428,0.9593774546004918,-1.8005696782855782,-1.8378749552099654,4.1497378378262715,0.18360748447551345,1.3603629302561095,0.08013835336160535,1.0,0.4836050957535244,0.48539587332507267,0.34308492700959287,-0.5673491098940078,0.5734520793058315,0.004294736343240135,0.590973142775573
4.5,0.008720411020068403,0.6006321553463008,0.17094766739619838,0.0186221707367693,0.032929302843174975,0.21665459153955324,-0.20056886012960695,-0.19820467767320327,0.9594201358544843,-1.7993314671066571,-1.8392589591748483,4.149522271117752,0.18365128226650215,1.3605680465698242,0.08006444581435376,1.0,0.48392076061763467,0.48566923253319766,0.3430302630121928,-0.5673143035473651,0.5734374954726088,0.0042763983332485545,0.5910208390521993
4.6000000000000005,0.04482592096470495,0.39683839733118664,0.18953329553093648,0.016230437247077675,0.03073116838651005,0.21678794537584503,-0.2008614036182416,-0.1984872127344832,0.9593005339582773,-1.798293689195221,-1.840560561896805,4.149262816845684,0.18372170507397456,1.360757871896372,0.08001759393690018,1.0,0.48441564388254843,0.4862069437618249,0.34272602759038456,-0.5673541657274928,0.5734603667214533,0.004264320277265325,0.5909604673782586
4.7,0.056224689026913036,0.4773499782983213,0.1944431209809651,0.019701999945126614,0.02993170229813271,0.21792592728770444,-0.20075273165600038,-0.19836664980748409,0.959348208289708,-1.797235096720579,-1.8415552387273557,4.149046820865831,0.18379563394295312,1.3609616660891923,0.07997846603393555,1.0,0.4846879009761122,0.4864639223713022,0.3425022526631695,-0.5673930173274302,0.5734899876078866,0.004244200008266349,0.5908945631564657
4.800000000000001,-0.02178680911803208,0.24343452593797846,0.2820865621161806,0.013390301642551145,0.03278466569396393,0.22151308376017068,-0.20063650087462445,-0.19824309475211,0.9593980697797818,-1.7960048725578779,-1.8427047679345818,4.148842623351693,0.18383986030607996,1.3611544119722248,0.079903602611628,1.0,0.48506369407985933,0.48681083407551684,0.3424228393730602,-0.5673546229649488,0.5734741554007845,0.004257246449461822,0.5909466987303731
4.9,-0.016074081375890805,0.17689359266318055,0.14331062777601875,0.014141790318070372,0.035298935149158016,0.21947939908810743,-0.200477287879926,-0.19810252535920367,0.9594603682547462,-1.7946233749389648,-1.8439233571779936,4.148662216315057,0.18384208402537416,1.3613595962524414,0.07984910832798073,1.0,0.4852654073228299,0.487000855981748,0.34236111625477944,-0.5673357599830674,0.5734742236290129,0.004259849308855231,0.5909647231107812
5.0,-0.009471918809975177,0.31578574654880853,0.0702606146553502,0.015399710881275482,0.03328852906410713,0.2194213380602069,-0.20034046261910415,-0.1979712479797491,0.9595160670014558,-1.793466027394753,-1.845417433492982,4.148445178603667,0.18389708515527592,1.3615255920686902,0.07977226705631567,1.0,0.4855729113257786,0.48735431078881647,0.34232750777487314,-0.567304040439292,0.573426414671005,0.004289000321052658,0.591041349767558
5.1000000000000005,-0.19254542538136757,0.4205632323323315,0.15052459391636158,0.018662016701614655,0.035826501299771635,0.22201405731602394,-0.20033734018883528,-0.1978954638675845,0.9595323512029752,-1.7924128944799056,-1.846540292733633,4.148252854261341,0.18391756443207688,1.3617406513247194,0.0796864039171052,1.0,0.48598078254482757,0.4877387017135049,0.3420404026525138,-0.5673342796372651,0.5734760515082189,0.004251308436211337,0.5909644319851985
5.2,-0.06905574060899528,0.2871365055596147,0.11005842577275769,0.014316483636594532,0.03219494182975337,0.22269790754704802,-0.20049620497543702,-0.19801852630269998,0.9594737204164635,-1.7913578651781557,-1.8475758933729673,4.1480065074874855,0.18397697080879596,1.3619396612779149,0.07963307644040875,1.0,0.4863076901400042,0.48808089717010167,0.341850839537869,-0.5673573901992687,0.5734738061174324,0.004246743049823164,0.590944456490565
5.300000000000001,-0.19206569179278277,0.49527641556780483,0.16027972831078094,0.025370265074318513,0.03664756740808206,0.21867525537289423,-0.20074759236359718,-0.19825516436569937,0.9593723002684068,-1.7900137219549626,-1.8486555649140797,4.147835485176069,0.1840029288221356,1.3621252369364194,0.07958364486694336,1.0,0.48661906311038006,0.48837490808692896,0.341721774869526,-0.5673526010081926,0.5734756375858913,0.004241099426465963,0.5909473177029817
5.4,-0.2951739328642549,0.33440899779634303,0.07376935551635459,0.015346969102228073,0.03712163168520612,0.2117094173070245,-0.20139306706881357,-0.19890098018291383,0.9591028387075757,-1.7886995428751569,-1.850056829502997,4.147606513105549,0.18406870225284977,1.362350547914638,0.0794867487264012,1.0,0.48703341796501903,0.4887867036711905,0.3416256872808164,-0.5673075242041801,0.5734697327014174,0.004254980073588676,0.5909962214779907
5.5,-0.20720484421551694,0.36376653144189525,0.20364452592709892,0.017652582826003613,0.03336328455464758,0.22140709867127872,-0.20218650878763159,-0.19970792198982398,0.9587686624188618,-1.7875262839985813,-1.851316963401094,4.147414832252878,0.184093638057373,1.3625242264513107,0.07943896934947069,1.0,0.4874770086902236,0.48928567548992213,0.3414070276350658,-0.5673254941745648,0.5734608475455903,0.004245683968635284,0.5909876599046023
5.6000000000000005,-0.21665367763862334,0.32231365496851583,0.14211583904295905,0.01758084063561025,0.0354518355884877,0.22331276836460526,-0.20198310288398366,-0.19954898472890945,0.9588445945533647,-1.7865455251298372,-1.8525228729877352,4.147209644317627,0.18412297361201482,1.3627628730720658,0.07938003540039062,1.0,0.48765660044736797,0.48946375969049455,0.34135097432162304,-0.5673173415537827,0.5734641372057923,0.004249445549876129,0.5909922668899178
5.7,-0.003380269414634913,0.6061821147805859,0.14622358690190218,0.02041153008287898,0.03059448223833138,0.2230571871017163,-0.2018189169180463,-0.19942667597090888,0.9589046375418947,-1.7853833208830772,-1.8535955264124606,4.147005667241594,0.1841788721293433,1.3629867055189202,0.07929931958963543,1.0,0.4881060011970669,0.4899152038818819,0.34099123465998865,-0.5673863441048257,0.5734813749929928,0.0042559870344812635,0.5909092448370298
5.800000000000001,-0.10994577292550166,0.5367935673229762,0.1716429434846561,0.019386769164250004,0.03223058293618144,0.22196725275934623,-0.20205202743910794,-0.19967541256334093,0.9588037240821244,-1.7840130941515098,-1.8548062560695482,4.146809271548165,0.18420020779380702,1.3631813952262135,0.07923650741577148,1.0,0.48826512255933535,0.49006180323942616,0.3409718976012382,-0.5673804408420506,0.5734635721323023,0.004244895236583182,0.590932269935879
5.9,-0.028478230021710765,0.35268832744872375,0.14592189665996913,0.01705323905029509,0.032864104871749136,0.22375024613932007,-0.20224497079218315,-0.19988160697178034,0.9587201316068771,-1.7828136494970057,-1.8561591337760301,4.146622180938721,0.18420377835551416,1.3633534772013622,0.07920905540527269,1.0,0.4885895498927528,0.49041578721924545,0.3409267810551695,-0.5673356824348004,0.5734361929493261,0.004290169578571448,0.5910014809600818
6.0,-0.20136160518651766,0.33979093318050335,0.0358972950092178,0.019918085286228102,0.03631976483429109,0.21980956494019635,-0.20198575143985564,-0.1996089030666932,0.9588315218405116,-1.7816679808279157,-1.8573855634150587,4.146395206451416,0.18425209899044617,1.3635253515196062,0.07908407052169622,1.0,0.4891199968755952,0.490935991183817,0.3406895133129919,-0.5673283132266942,0.5734523342645208,0.004273509725676525,0.590993013877957
6.1000000000000005,-0.2480397829726343,0.2231416353765321,0.04677350690969846,0.01925985439086653,0.03778739709566994,0.22140157374397085,-0.20170776590540626,-0.1993205955436033,0.958950061288488,-1.780543717794662,-1.8585010395258403,4.146191120147705,0.18427417347688957,1.363748559783156,0.07903529150312681,1.0,0.4893288740780597,0.4911483543750682,0.3405520662196846,-0.5673518331976928,0.5734610553193722,0.004272611470911066,0.5909619786335057
6.2,-0.1570565244241844,0.5560902107460288,0.09033226481082446,0.02073565086003856,0.03330867060706599,0.21940656377048606,-0.20118313648058678,-0.1988272097034073,0.959162562844843,-1.7792738277318696,-1.8597209955136416,4.145949443250764,0.18429823423674102,1.3639497756958008,0.07899432064317373,1.0,0.4897348592650697,0.4915827776762826,0.3403543412445615,-0.5673633203043633,0.57345309460472,0.004289289927425579,0.590958554429494
6.300000000000001,-0.2965909442799093,0.5017512646030001,-0.02149734079328039,0.02257215216308524,0.03615975996652242,0.22090598493848956,-0.20131997109338115,-0.19892125976037212,0.959114383696417,-1.7780442852382512,-1.8608768033332803,4.1457600593566895,0.18432018648698043,1.3641511556021002,0.07887829886388409,1.0,0.48999852452941517,0.4918015361617173,0.3402604918519483,-0.5673370241354351,0.573468676408703,0.004281154906654493,0.5909687385436428
6.4,-0.14567779009038354,0.34441574008097847,-0.07545276393397744,0.015375759005092523,0.03679262583680487,0.22014509406274907,-0.2014739750163868,-0.19903661720509552,0.9590581795742342,-1.7768585690576868,-1.8620980636599138,4.145563363162772,0.1843458412911679,1.3642960564374194,0.07882928848266602,1.0,0.49043473351131206,0.49223992900243757,0.3400932225860084,-0.5673210559443895,0.5734669357482677,0.0042634579118883235,0.5909858847825966
6.5,-0.24128858404595765,0.2879466199560704,-0.06997707223124319,0.016162389072913036,0.03613621356194018,0.21720822203672377,-0.2012040312571632,-0.1987787501772378,0.9591683343529361,-1.7757470868462188,-1.8633341844843423,4.145344524787217,0.18435685216870112,1.3645116629003426,0.07878333908329986,1.0,0.490653846605243,0.49247923712505515,0.3400084571091324,-0.5673258279365861,0.5734507424246251,0.004257389748040945,0.590997060569041
6.6000000000000005,-0.19947248909036625,0.4485127027074671,0.0011369018868240544,0.01589682200061347,0.040390334060203745,0.21745049110190223,-0.20056179993795542,-0.19815058216835513,0.9594325830490033,-1.7744488845681246,-1.8646024126412586,4.145162372049295,0.18439465554869564,1.3646847881011244,0.07873235729505432,1.0,0.4909882844335161,0.492817712900611,0.3398221438829755,-0.567329015258573,0.5734705775046072,0.004269988297453148,0.5909746630628167
6.7,0.01765563077849644,0.25319751191021733,0.10735659437581441,0.011586839534891043,0.03294967692056148,0.22068085469429938,-0.2004030554650246,-0.19801199308598777,0.9594945412120235,-1.7732465028793498,-1.8659017851740125,4.144942174910763,0.18444077550854487,1.3649150922267443,0.07867774366948953,1.0,0.49130359468919405,0.49314063147511644,0.33971100512166663,-0.5673183624997138,0.5734484571916795,0.004262166223845325,0.5910064098249751
6.800000000000001,-0.07418615920237484,0.40846372420174315,0.18014025402908862,0.015719362204965965,0.03301180482492948,0.22043148506145582,-0.20067274345446745,-0.19830626131056295,0.9593774414581553,-1.772130209962765,-1.8669611225409677,4.144761525708044,0.18444077550854487,1.3650675003143127,0.07860183715820312,1.0,0.49168327412146606,0.49353567590476666,0.3394815431995379,-0.5673512808023364,0.5734543478400971,0.0042650288383905555,0.5909690724938532
6.9,-0.20662673011645166,0.575944147405384,0.007173742378281373,0.02350025516805349,0.04186960739601814,0.2187669350145251,-0.20084619485907046,-0.19845267355454502,0.9593108538846534,-1.77097750668959,-1.8681120486871587,4.1445301716718035,0.18448614215989403,1.3652966628291057,0.07852095093294784,1.0,0.49209135634989126,0.493929339403198,0.3392776699064449,-0.567357263827786,0.5734664229485718,0.004254425935715509,0.5909516873589375
7.0,-0.12935464115269843,0.37700603116495984,0.1474881400204549,0.016076625583138857,0.031096799438221606,0.21783734325253784,-0.20052662788197095,-0.19815286107184651,0.9594393524332374,-1.7705191634989266,-1.8685007490338534,4.144431067650342,0.18442976170747105,1.3653800410722554,0.07849854100445199,1.0,0.4923678181523994,0.49420403136688307,0.33918244041034395,-0.5673551136380921,0.5734498485102104,0.0042563128390724295,0.5909698216265705
7.1000000000000005,-0.19246959437063302,0.6197918966076827,0.13670757176070197,0.024539098160621317,0.039977426858755084,0.2185870455200365,-0.19973168114554402,-0.1974227883573837,0.9597559575458101,-1.7705278396606445,-1.868511816064352,4.1444335553591385,0.18444477407373439,1.3654168896784513,0.0784714595787413,1.0,0.4925408701851247,0.4943680662524457,0.3391486521258879,-0.5673470193770481,0.5734412973240751,0.004276157236082462,0.5909857465341727
7.2,-0.07191632229649302,0.8282795431308578,0.17573238646109177,0.02459187970599291,0.03353741333684747,0.21565703577184245,-0.200132245009801,-0.19779400708080597,0.9595959822111022,-1.770430564880371,-1.868583098165469,4.1444196802130495,0.1844283777424316,1.3654122352600098,0.07847531135096612,1.0,0.4925434996764038,0.49437461437029906,0.33915667859684717,-0.5673340368833648,0.5734472353495391,0.004288063181448072,0.5909923615223355
7.300000000000001,-0.21929409005533446,0.0778243353900874,0.11740060974813818,0.016699000921209982,0.02673687732752208,0.21806079633120135,-0.20108200212987104,-0.19870715940541941,0.9592081296187955,-1.7704321808090915,-1.8686318057534697,4.144417601624094,0.18444077550854487,1.365388684822012,0.07848278900090536,1.0,0.4925593228204225,0.4943770433572281,0.3391301352370772,-0.5673428397256469,0.5734600546352683,0.004272655804824198,0.5909715833795455
7.4,-0.30660206521128086,0.4829713396528512,0.1539217739430829,0.01953960296309659,0.03747588179880912,0.21702205102142938,-0.20183696515907928,-0.19942890092082716,0.9589003842033842,-1.7704291358942157,-1.8686416854456471,4.1444139495844015,0.18444789074457674,1.3654228258447794,0.07850347121498293,1.0,0.492572911500548,0.4944198763831681,0.339108212302849,-0.5673460031160313,0.5734604977659225,0.004276615687309758,0.5909680878089674
7.5,-0.02700097368397253,0.8245738944582695,0.11446965118382255,0.02333714958092793,0.035696981407291745,0.2200092768061193,-0.20142019352290866,-0.19901675189647472,0.9590733113718264,-1.7704223451505596,-1.868631502191061,4.144418712683655,0.18442980450689686,1.3653998374938965,0.07849597556207268,1.0,0.4925836899032053,0.4943980763848739,0.33909927978473037,-0.5673424750563694,0.573471828496525,0.004264341150102666,0.5909605683227275
7.6000000000000005,-0.23555820382433723,0.2544819340715146,0.08265741551336012,0.012293424423292914,0.04091899424317224,0.2159783835288566,-0.20063686588095533,-0.19826731958524052,0.9593929554808542,-1.7704114992060094,-1.8686334971500183,4.144419360676506,0.18442646258183246,1.365410160502694,0.07851248557700356,1.0,0.4925720583263416,0.4944148943925792,0.3390789509538245,-0.5673644526376035,0.5734652930556036,0.004259628654178994,0.5909458444795191
7.7,-0.30232013836276794,0.3775959618090337,-0.16701642726357352,0.015031361356043611,0.044011102735199654,0.21762670650114527,-0.20113671581950082,-0.1987542271829981,0.9591873838217206,-1.7704036918841133,-1.8686343349609151,4.144424018145594,0.18442293882431143,1.3653759956359863,0.07846161878059643,1.0,0.49258022231716986,0.4943989404198726,0.33912230401023385,-0.5673456366424717,0.5734513702076833,0.004260606278288242,0.5909774122788622
7.800000000000001,-0.16473593129742947,0.39493882235752414,0.06835772015576423,0.017401606694234493,0.04127698064129744,0.2120762702335674,-0.20130701438876122,-0.1989267291264455,0.9591160296452887,-1.770384892260541,-1.8686215319106116,4.144415413296624,0.18444077550854487,1.365405767465354,0.07845466767581019,1.0,0.49257625829572305,0.49440646630652485,0.339100324687179,-0.5673506773408974,0.5734659989092018,0.004277768903092863,0.5909582537786472
7.9,-0.044834684757107016,0.4318094774535374,0.19099764169493802,0.01912096045553794,0.03767484355460091,0.21693216209912722,-0.20101098218199095,-0.19865371652513328,0.9592347320602517,-1.7704412819944941,-1.8686420510750645,4.144405841827393,0.18440812388514458,1.3653938815819053,0.07847213386644675,1.2740102276476444,0.49257635218876267,0.4944185308776089,0.33910330703084457,-0.5673510421009907,0.5734618200558399,0.004281385317637023,0.5909619325345119
8.0,-0.1781301764245129,0.5657514583713178,0.1377516975887435,0.02312072230003691,0.03984214002296162,0.2133706183044676,-0.20115109887161708,-0.19876316650808912,0.9591826674350286,-1.77039906487223,-1.868639338119175,4.144432407019197,0.18443805217465092,1.3653856700682057,0.07851294398772966,2.0,0.492584430818562,0.49439570968347973,0.33911222051842554,-0.5673506431108323,0.5734566494368781,0.004270279500119678,0.5909674133920967
8.1,0.008774730771066816,0.2834860676539518,0.15514668379198038,0.017471580425602373,0.037149858928289196,0.216037014147655,-0.2013179331849498,-0.19889604539684466,0.9591201419567369,-1.7704073515630303,-1.8686195812621058,4.144449538967534,0.18443045076178438,1.365394452997131,0.07847070693969727,2.0,0.49258741711736975,0.4943983378195775,0.33909063910383813,-0.567350820747587,0.5734743778663021,0.004259095603692387,0.5909501199192163
8.200000000000001,-0.028795049129729966,0.42989494902822106,0.12230207935476617,0.02191862812969409,0.0426406165963067,0.21341043378262997,-0.201459063624547,-0.19904627866229263,0.9590593195677554,-1.770421028137207,-1.8686104878267291,4.144429683685303,0.1844379480149664,1.3653817637228864,0.07847500472993656,2.0,0.4925821477276876,0.494401484818473,0.3391431588893168,-0.5673289707809881,0.5734524587698936,0.004270438115255147,0.5909922840457834
8.3,0.057505623300051045,0.3192596991108252,0.12340297010496322,0.02019527786774133,0.03365013474590737,0.21635019778802136,-0.20159841945212073,-0.1991977100851022,0.9589986147611584,-1.77040792849801,-1.8686106166677938,4.144440544157401,0.18444515088381655,1.3653898124427282,0.0784845237464392,2.0,0.4925899017574351,0.49439745097107557,0.3391236431889081,-0.5673453420293172,0.5734524011037584,0.0042613580412598955,0.5909766893656766
8.4,-0.11992696547855439,0.15099090904007936,0.12181347835587354,0.013124546608855722,0.034829791227823724,0.21977957060711886,-0.2010237780498167,-0.19864206143494031,0.9592342375035549,-1.770403839460766,-1.8686400976358348,4.144416100014257,0.18443252609466873,1.3653694754738843,0.07849336289267503,2.0,0.49258021385127915,0.49439480411278985,0.3391340881464204,-0.5673423719533617,0.573455506872347,0.00427033269808833,0.5909764622070499
8.5,-0.4761976340924957,-0.28063248604594576,0.09728083773426473,0.0559180247949199,-0.02010047003744479,0.21273513310381356,-0.2011280946404598,-0.1987346712019324,0.9591928076469077,-1.770380298483351,-1.868631502191061,4.14443114179507,0.1844283777424316,1.3653897393495766,0.07848590876305425,2.0,0.49258462640853434,0.494390218895268,0.33911279968197305,-0.5673452830264772,0.5734635259360589,0.004269379001272397,0.5909658929680573
8.6,-1.709506793770421,-0.9822983428270973,0.09479349215153104,0.1083299721763817,-0.10984411756218518,0.20630463105632874,-0.20224217810849848,-0.19979411448767997,0.958738802330337,-1.770397880743921,-1.8686046583657947,4.144434547101974,0.18446603005697548,1.365404311013878,0.0785069465637207,2.0,0.492592549872998,0.4943959668691497,0.33912260382550713,-0.5673294057355839,0.5734679531985468,0.004269540774615669,0.5909768380093695
8.700000000000001,-2.4456634450896235,-1.6973127829559822,-0.08822588301670484,0.16397456626908263,-0.19154746554055938,0.19733711302083326,-0.2017150708988726,-0.19931131483501963,0.9589502150549992,-1.7703962326049805,-1.868628375567704,4.144410594294895,0.18448683338021957,1.3653931458696023,0.07851213740880361,2.0,0.4925885600841102,0.4943931405658351,0.33913755202747065,-0.5673322917847958,0.5734535791678281,0.004267793810684408,0.5909880279445671
8.8,-3.1669393524353415,-2.3768646234992534,-0.12740345568094552,0.20118505828220198,-0.24694569021088827,0.1959801761126156,-0.20127802693713445,-0.19889700114195757,0.9591283191009764,-1.7703933746006544,-1.8686285251032213,4.1444172859191895,0.1844721196278109,1.3653913704899392,0.0785053984780441,2.0,0.4925639879502847,0.4944233291788256,0.33916369528393214,-0.5673232402581451,0.5734367792790107,0.0042930924850666545,0.5910128345391737
8.9,-3.437774056783984,-2.6801506438558493,-0.19291514446264388,0.2387866737458039,-0.2940672477870857,0.190858786883919,-0.2012097914613573,-0.19880532652889224,0.9591616442911806,-1.7703847885131836,-1.8686128058083225,4.144426229532393,0.18443156619127085,1.3654055926582613,0.07849638990930742,2.0,0.49258284934812324,0.4944183378833337,0.3391370791276765,-0.5673294632726454,0.5734458895578628,0.004263520865930054,0.5909982353965109
9.0,-3.5029191985775334,-2.622373863093477,-0.003570346030992322,0.2486041549886119,-0.31321456596350417,0.19245986165893078,-0.20174111175922368,-0.1993620903232689,0.9589344056565589,-1.7703978958417073,-1.868596807001141,4.1444172859191895,0.18439943062504713,1.3653868489679961,0.07844983514737079,2.0,0.49257502556001914,0.49440790134530704,0.3391411940760284,-0.5673435130341854,0.5734461125059039,0.004274612860880266,0.5909844515338669
9.1,-3.1788801232873567,-2.6302815664308317,-0.029133789574717864,0.2492748487895482,-0.31762322676347,0.18794217256036713,-0.201670741118135,-0.19928198936377398,0.9589658704678179,-1.770389740441321,-1.8686195812621058,4.144401444710253,0.18441464814534056,1.365395630835531,0.07851610515022342,2.0,0.4925672264435765,0.49441618188086933,0.3391241713226347,-0.5673576718753653,0.5734586272079907,0.0042759715013581815,0.5909587050823529
9.200000000000001,-3.242782235747147,-2.5770991026671393,-0.06451469687559483,0.24815811003035887,-0.31038104277171286,0.18940376546967996,-0.2015117670810832,-0.19910789173120394,0.9590354741711598,-1.7704036280836442,-1.8686598200257187,4.144440532901357,0.18450860910641434,1.3653675295250725,0.07849454879760742,2.0,0.49257135781115735,0.4944044610821567,0.3391349179953587,-0.5673392466806567,0.573457632904868,0.004269732780363203,0.5909774038158777
9.3,-3.304932579999073,-2.4383259733699814,0.0625791578826346,0.25065936169777214,-0.3086411539977588,0.19011056722148315,-0.20152172693776624,-0.19910537151176297,0.9590339111722733,-1.770363295644724,-1.8686091137864156,4.144428172093908,0.18448694763296983,1.3653804141339112,0.07848740692747423,2.0,0.4925792967269969,0.4944030644526154,0.33916246429366226,-0.5673109652539736,0.5734448165307242,0.004283879846018394,0.5910168859432986
9.4,-3.106121223873258,-2.904695301326237,-0.16376870014060999,0.24642719318468922,-0.31422147448326937,0.18586404156323136,-0.20155627231361994,-0.1991278215317836,0.95902199104325,-1.7703763602825973,-1.8686474274132934,4.144438814268438,0.18438912225719759,1.3654182243210506,0.07845478171746485,2.0,0.49258979619489335,0.494393981613776,0.33913465865094106,-0.5673294909846034,0.5734559793584382,0.004262029286187563,0.5909884292467737
9.5,-2.940712364230674,-1.7235547990477451,-0.48353624607950924,0.20370615581103024,-0.29066598770014734,0.1943382324598729,-0.20158317073885446,-0.19918118166443113,0.9590052543281122,-1.7703862643380481,-1.8686226558972403,4.144410515272797,0.18434995853690325,1.3653853187669651,0.07848765516580955,2.0,0.4925964395393823,0.49439695118901983,0.3391146752630595,-0.567346854745946,0.5734638323964483,0.004254454243080676,0.5909641943148114
9.600000000000001,-2.7726674196333887,-1.0874030983556362,-0.8202256560880916,0.1675945946347054,-0.2708045647509243,0.19738664807876502,-0.201608835854347,-0.19923952701862999,0.958987740787953,-1.7704011869269525,-1.8686034763113597,4.144429683685303,0.1844975975681284,1.3653933477240716,0.0785151312331675,2.0,0.4925768367924607,0.4944136981477904,0.3391434402434511,-0.5673530493900039,0.5734456896174843,0.00426528030377667,0.590975774284295
9.700000000000001,-2.70129262674761,-1.2334091629333908,-0.6123169487405042,0.15459388799456292,-0.2629472135859502,0.1958276617472735,-0.20157282610490604,-0.19921539730422289,0.9590003218658266,-1.7703947624730254,-1.868637236314705,4.144437426033559,0.18445846766115073,1.365413827902961,0.07851532788061122,2.0,0.4925708878259771,0.49441673658055135,0.33913344881441754,-0.5673400492103371,0.5734396091553632,0.004287944247569136,0.5909939904498914
9.8,-2.66113737779995,-1.661694120281728,0.5052816658328374,0.187891696682486,-0.23116489697658588,0.1961323946738653,-0.2015261688780503,-0.1991770291892743,0.959018098443782,-1.7704277814571316,-1.8686507149977811,4.144438871975924,0.1844092266563938,1.3653998374938965,0.07848310470581055,2.0,0.4925684239268309,0.49441211703824095,0.33912056767845017,-0.5673403725082353,0.5734444701146096,0.004289380849713692,0.5909889530516772
9.9,-2.6618373275024303,-1.1260596823475066,1.0942795871117579,0.18098070090961224,-0.2192181301502721,0.20198622856010032,-0.2016312805557442,-0.19924770115442864,0.9589813097453628,-1.7703962326049805,-1.8686637855399006,4.1444172859191895,0.18442041308866017,1.3654087558219843,0.07843694097597871,2.0,0.492573497389832,0.49440668749354444,0.3391065195841247,-0.5673528568976759,0.5734525641563778,0.004278654307589815,0.5909691917095482
10.0,-2.682794871637839,-1.5949363908815013,1.7550424351337088,0.17377485922084562,-0.23993490202608944,0.21013936865968263,-0.201764790725518,-0.1993387763363051,0.9589343109741122,-1.770427460457638,-1.8686932322819965,4.144432980903306,0.18444816150329213,1.3654451776660292,0.07847400415770123,2.0,0.4925854799003473,0.49441078480042155,0.33910916098454486,-0.5673476390537828,0.573462026051741,0.004255664374669278,0.590965185486811
10.100000000000001,-2.943842992120332,-1.4389018749911175,2.299031161117271,0.16728629554681024,-0.250232558882046,0.203918966386118,-0.20216068188734534,-0.19972270064227854,0.9587708164186356,-1.7704391127145032,-1.8686796627440394,4.144443682653515,0.18444077550854487,1.3653917292398063,0.07849628343321488,2.0,0.4925998644903262,0.4943960311762928,0.33908609266836076,-0.5673494219449676,0.573470907815038,0.0042375610254875296,0.5909549850750584
10.200000000000001,-2.9739883698570773,-1.432213955251546,2.5927797395235057,0.14159937205590564,-0.2638081612834836,0.20683288989434767,-0.20260912307155354,-0.20016527716960794,0.9585839899288584,-1.7703883283141761,-1.8686468267748166,4.144419055819686,0.18444636596505692,1.3654210932251305,0.0784894433154065,2.0,0.4925901406529794,0.49440306922926786,0.33911068979633074,-0.5673373600989275,0.5734672592810843,0.004267156530706191,0.5909698924173412
10.3,-2.8116126106671477,-0.6783323276080104,3.2272442122132716,0.1335893139078145,-0.2734780948923578,0.20582508039749461,-0.20239811815427675,-0.19999041930389858,0.958665061139051,-1.770365257775715,-1.8686964399757282,4.144427865068652,0.18439577535171028,1.3653900721251622,0.07849105145789384,2.0,0.4925656220645453,0.4944303617250102,0.33908830883341,-0.5673701792636603,0.5734533586146654,0.0042834457460700056,0.5909517554491422
10.4,-2.8820722465963615,-0.5923222820559957,3.4619763961091317,0.11361957214892,-0.2675821003109876,0.20612542589740607,-0.2021144595050881,-0.19973806771138825,0.9587775765039535,-1.7703962326049805,-1.8686628769862792,4.144444460273724,0.18441931247294258,1.36541481231751,0.07848061869931332,2.0,0.4925772142745224,0.49440234735085503,0.33909123844623645,-0.5673707096336007,0.5734557528366356,0.004252875250841502,0.5909491437006507
10.5,-2.99164203673613,-0.3715004993273407,3.6902739975359893,0.1041761031723913,-0.26854268797594216,0.20881917664914346,-0.20181830148319516,-0.1994540639009453,0.9588989762880966,-1.7704036295248862,-1.8686978829428214,4.144411463486521,0.1844353017878147,1.365408536800057,0.07847933227665867,2.0,0.49257624183888676,0.494417246962525,0.3390871822908624,-0.5673753837493636,0.5734599271372381,0.004263912801447643,0.5909405257135762
10.600000000000001,-3.039851767822347,-0.3898033353338122,3.5382526314891325,0.10490125002020076,-0.268763149595564,0.21012843622842511,-0.2014398480910007,-0.19909480318867961,0.9590532336539738,-1.7704228185816318,-1.86864155807374,4.144457509449906,0.18439974750721344,1.365424633026123,0.07848310470581055,2.0,0.49257554846772766,0.49442737830817013,0.33909314907809057,-0.5673559904945494,0.5734565001842418,0.004290694762616396,0.5909622766174196
10.700000000000001,-3.0421746234256033,-0.6331514083494718,3.5124107155940005,0.09855838407459487,-0.26374415683843855,0.2080658591713029,-0.201817561382643,-0.1994420475537219,0.9589015989805084,-1.7704113446326353,-1.86864158917499,4.144414938194722,0.18441928137510225,1.3654190578332437,0.07851472276546542,2.0,0.49257178695282144,0.49441019733925656,0.33910426322021775,-0.5673493339086028,0.5734581779287585,0.004275951445587496,0.5909671460574846
10.8,-2.6554996556271524,-0.533808257775579,3.507329774971571,0.10093646193451046,-0.2707460148136015,0.2068567769953496,-0.20199961444040404,-0.19961128619776486,0.9588281502365313,-1.7704172784788008,-1.868623186702881,4.144411805649211,0.1844459623931077,1.3653883934020996,0.0785069465637207,2.0,0.4925754050607156,0.49441665677829744,0.3390999465114674,-0.5673530287535348,0.5734604953936339,0.004275961254300483,0.5909613499565183
10.9,-2.741719010403916,-0.37626576115325017,3.6391826023452194,0.1067629228479494,-0.27014296597080384,0.20628507247894218,-0.2016819616769726,-0.19932590770666264,0.9589543841941722,-1.7704095840454102,-1.868661312301064,4.144443986308012,0.18444714122877115,1.3653963303045824,0.0784746753909387,2.0,0.49256969160480146,0.49441460268639936,0.33910358319241307,-0.5673705428861723,0.5734472292188179,0.0042717355191695654,0.5909574389429119
11.0,-2.830529709839838,-0.41898452864191077,3.442490157681069,0.10364387394047146,-0.2681449177199365,0.20714107710688767,-0.20185603817900905,-0.1995097707804763,0.9588794379763367,-1.770407660224939,-1.8686638295842275,4.144434768067977,0.18440713854781318,1.3654104488552865,0.07848654009950919,2.0,0.4925878110521283,0.49441678738829536,0.3390866071728054,-0.5673619442969754,0.5734635003532539,0.004256509002835322,0.590950014855113
11.100000000000001,-2.6658800951049804,-0.6018056931297792,3.4223406572111075,0.09508302857324424,-0.2738139109721196,0.2084189508704392,-0.2021752032823355,-0.1998320872820233,0.9587451319596911,-1.770386592009659,-1.868645301762178,4.144421193494886,0.1844283777424316,1.365398033997421,0.07850123549154833,2.0,0.4925605426295261,0.49443532659187955,0.3391041287759698,-0.5673660776765502,0.5734431473726777,0.00428371860819955,0.590965600004036
11.200000000000001,-2.831667671144274,-0.5178153373781413,3.540602694430916,0.09354586041568994,-0.2733489804642453,0.20525124955215499,-0.2021149979227938,-0.19973686737842403,0.9587776715406631,-1.7704054162308978,-1.8686397018570584,4.144449953130773,0.1844255927556779,1.3654122352600098,0.07848667711824983,2.0,0.4925794028463136,0.49440969344367064,0.33908662008708135,-0.5673702765800883,0.5734516109257761,0.004258525537363357,0.5909535380555004
11.3,-2.948734861200619,-0.3318098648426442,3.6221618300064953,0.08806788345825327,-0.27178869317800197,0.20888145992086696,-0.20193361218888103,-0.1995082759479361,0.9588635057609397,-1.7703950333058007,-1.8686727879489937,4.144412581822536,0.18442717844325196,1.3653795004334606,0.07850491066523173,2.0,0.4925896091574113,0.49440742865097126,0.3391238343927416,-0.56732987001206,0.5734539728139225,0.004253051797505083,0.5909900770795021
11.4,-2.786311014603648,-0.41505606568854714,3.4842902754033407,0.084460355961857,-0.27553476177384945,0.2097708923877334,-0.20188239919337583,-0.19946353266827163,0.958883619607863,-1.770432472229004,-1.8686502448977973,4.1444199374777995,0.18442203280180852,1.3653998374938965,0.07847070693969727,2.0,0.49258198845116,0.4944049024176233,0.33910390775421484,-0.5673501982071922,0.5734561338794917,0.0042575779924564384,0.5909684324394026
11.5,-2.8695293393924968,-0.6209751226135947,3.4250002074544583,0.08007854242528976,-0.27400172871994233,0.2097068800088142,-0.20172461276062098,-0.19932267599875608,0.9589460865349322,-1.7704023093731456,-1.8686373452373735,4.144432722069385,0.18443445451059665,1.3653942364484122,0.0784525901526959,2.0,0.4925832387954197,0.4944032870155317,0.339106152024166,-0.567353863725422,0.5734481768269514,0.0042458195973667555,0.590972719188989
11.600000000000001,-2.930823573628962,-0.2867078978377751,3.6410706157093804,0.08964971925300821,-0.2693702962582983,0.20204121098790506,-0.20164216815683153,-0.19924878474226415,0.9589787553058859,-1.7703962326049805,-1.8686534480454184,4.144457385620799,0.18445120143096344,1.365398017330486,0.07848492486922105,2.0,0.4925804973769723,0.49441882982330027,0.33913555712250404,-0.5673346558230655,0.5734488547566778,0.004272594102551216,0.5909903080592891
11.700000000000001,-2.8261869320808417,-0.3853882067733852,3.649407423983918,0.0898727919597204,-0.2733309851921319,0.20617090326169604,-0.20206768754941629,-0.19966287360825485,0.9588030275144145,-1.7703868625755168,-1.868675255361581,4.1444514514808795,0.18442125461382908,1.365392714365294,0.07846319339320043,2.0,0.4925796379263103,0.49441721740936745,0.3391290330539389,-0.5673322374027755,0.5734561345504245,0.00427736599324795,0.5909855313712905
11.8,-2.681591118007968,-0.573843677184375,3.539902068279522,0.0865727798288047,-0.27713965308018684,0.20859995847309148,-0.2020992758490914,-0.19972636177933992,0.9587832054658093,-1.770413375096421,-1.868659759726232,4.144449734492202,0.18442079564040975,1.365391939470957,0.07851049263257816,2.0,0.49257888162394375,0.4944108818171214,0.3391078883564636,-0.5673514432987186,0.5734550954490694,0.0042702999197043266,0.5909681529735388
11.9,-2.687635486664375,-0.5099049408665394,3.6074371910386462,0.08775366963287591,-0.27683193344978013,0.20780636817040582,-0.2019587666958622,-0.19963668233389062,0.9588314942663433,-1.7704175595789147,-1.8686710225827428,4.144416825595318,0.18443589295206483,1.3654171178164898,0.07850769593411644,2.0,0.4925625734571561,0.494416467702454,0.33911229765452355,-0.5673632520500879,0.5734365782435386,0.004276286487070671,0.5909747408556234
12.0,-2.884616812118869,-0.30924990195507834,3.5273650508125307,0.09160367638331894,-0.26941724053345395,0.20727261794858987,-0.2014195706761055,-0.19909009509901354,0.9590579583994641,-1.7703814678282535,-1.8686468821668183,4.144450204858282,0.184408810243768,1.3654036020215654,0.07850455446830858,2.287469136531714,0.49256732483057486,0.49440544375059464,0.3391187333728305,-0.5673476114836428,0.5734540654754584,0.004276154925515275,0.5909727887411804
12.100000000000001,-3.014692978633484,-0.2738206220912405,3.9799354398551734,0.084081778134495,-0.27185108056658425,0.20080648897984807,-0.20067752192273963,-0.1983110321999642,0.95937507852432,-1.7709005957440391,-1.8681526734347582,4.14444905667725,0.18441065051811123,1.3653211220867276,0.07852914265400383,3.0,0.49257313155746113,0.4943913553304048,0.3391215583746333,-0.5673475005038303,0.573456997479084,0.004255984416195389,0.5909701957890764
12.200000000000001,-2.998961886192093,-0.1806780482289635,4.832968664472096,0.0683085927111328,-0.2718069829681866,0.1999977553046314,-0.20067135116625484,-0.19826099308814638,0.9593870069894357,-1.771938580856333,-1.8671341699115527,4.1445193926737955,0.18439213811840816,1.365212504093473,0.07853778073676691,3.0,0.49250915242794563,0.49431222696795146,0.3391375916765382,-0.5673473096783055,0.5734679371326133,0.004268787877348614,0.5909596709858569
12.3,-2.787747035274585,-0.29737850367842183,5.0154499011383065,0.047797559535476264,-0.2646251791122603,0.17357721388617892,-0.20107017142084677,-0.19861921766085222,0.9592294066376559,-1.7730590563155593,-1.8659776753525767,4.144765808020156,0.18445151806167082,1.3650280615712127,0.07860342473039231,3.0,0.49229152133740633,0.4940249534521699,0.33926184301935663,-0.5673351991907352,0.5734718300900884,0.004243759431569729,0.5909676999280254
12.4,-2.728153545024624,-0.07359152608648557,4.963819856369039,0.037779613806998416,-0.25813450011660066,0.1546204525301192,-0.20155276550486315,-0.19910148620047166,0.959027935529264,-1.7742261602625309,-1.8646960477640115,4.145075755290823,0.1843830070714206,1.364775860501897,0.07870547266356306,3.0,0.49183494233855196,0.4935690676538775,0.3394888674039865,-0.5673189860996973,0.5734552880160874,0.004253824545075477,0.5909992433446404
12.5,-2.8254015065203815,0.10434863993563906,5.2027203934714645,0.02041491357672031,-0.2534038156402283,0.12070848669138523,-0.20187475128999943,-0.1994223000301582,0.958893706578589,-1.7756224139729229,-1.8634120042790756,4.145239330122914,0.18437021893040664,1.3645565087710014,0.0787756404720492,3.0,0.491628962358421,0.4934033756294022,0.3395854726336915,-0.5673219923295842,0.5734475290173698,0.004255642372530768,0.591003873076193
12.600000000000001,-2.403367841244279,0.5027700921868898,5.407442746438871,0.015582172417275053,-0.2514169889756736,0.10277720783675312,-0.20119853433977325,-0.1987396505630166,0.9591773969149779,-1.776825360842573,-1.8622609063078899,4.145459195830699,0.18426997491465935,1.3643765656732283,0.07879901968353799,3.0,0.4911480691042519,0.4928961504524336,0.33975995428217914,-0.5673305196673133,0.5734739438919026,0.004247657013637685,0.5909701130691617
12.700000000000001,-2.719303286858805,0.5022073539735774,5.519217260817615,0.00015297953745279052,-0.24614262815497015,0.07211950793878971,-0.20118441117184446,-0.19873780768240407,0.9591808675476847,-1.777924651972329,-1.8610833207243347,4.145724123733756,0.18423012779825676,1.3641818057043933,0.07887136446622554,3.0,0.490922471082337,0.4926817802862647,0.3398028012589363,-0.5673610535602097,0.5734863281670618,0.004238255748771862,0.590928848083014
12.8,-2.6128772488751197,0.31194322753796144,5.572067607182621,-0.021081329398424723,-0.24225743201638117,0.05924792882476025,-0.2014790513129157,-0.1990484090342135,0.9590546839542101,-1.7791145283696255,-1.8599157247313463,4.14591646194458,0.18426865105737195,1.3639291541743208,0.0789543842956554,3.0,0.49064584418284174,0.49244092569692444,0.3399530994202864,-0.5673596200685893,0.5734725615776028,0.004253140043640696,0.5909434773588907
12.9,-2.505885912687126,0.4351217581717731,5.488539675551442,-0.02426498824293787,-0.2597265213560495,0.03635165302523068,-0.20118156575720472,-0.19871246999309666,0.9591867578032865,-1.7803676979407557,-1.8586433310010853,4.146142786946692,0.1842605310627441,1.3637393396364779,0.07902420233695781,3.0,0.49030152060582216,0.49208769956997683,0.3401061469976393,-0.5673517999426523,0.5734844006468149,0.004245618696883972,0.5909395502405274
13.0,-2.522287171984779,0.5851914438458,5.888018708774922,-0.03276982122595112,-0.26526767799113177,0.025087201861731464,-0.20176256204812223,-0.19929732122009566,0.9589430319740305,-1.7815221372603052,-1.8574847254473283,4.146354859503039,0.18424979547121684,1.363515608378254,0.07907539774981052,3.0,0.48981829012254835,0.4916206387828904,0.34031820812101826,-0.5673458151819009,0.5734767792482129,0.0042585679114064,0.5909525989942214
13.100000000000001,-2.4022179619503268,0.6126221945153537,6.068807748405264,-0.054692755571617936,-0.25440328345408225,0.00536171018450385,-0.2017938086302999,-0.19933917103480495,0.9589278215436645,-1.782657338915971,-1.856284138629027,4.146518334919811,0.1842141369816748,1.3633230694823997,0.07916545867919922,3.0,0.4894049010361824,0.4912034680795976,0.3405161247845613,-0.567332991505515,0.5734699853350952,0.004246449323599294,0.5909715901270645
13.200000000000001,-2.6626905503347866,0.8043049697482232,6.0167897151043235,-0.06296597489699547,-0.24711189351689605,-0.005250367482069472,-0.20116452074594765,-0.198706728218687,0.9591915712836366,-1.7838936690554386,-1.854961898372717,4.14676116439345,0.1841403680988769,1.3631373638458677,0.07919455923944793,3.0,0.489240481484823,0.49103575983800457,0.34060669064152516,-0.567327567338276,0.573468292210566,0.004252667532184455,0.5909783955323505
13.3,-2.6139787774548564,0.7065536142314157,5.984798223939833,-0.06306787831091273,-0.2710825988917586,-0.003215844813360685,-0.2012255335269932,-0.1987613324987568,0.9591674567177196,-1.7851381301879883,-1.8537532395218537,4.146984577178955,0.1840926843830566,1.3629498214809885,0.07930175402426469,3.0,0.4887707150520803,0.4905565528276485,0.34086731064789844,-0.5673146574111729,0.5734619488573014,0.004263424773423145,0.5909968662424789
13.4,-2.9340016894621264,0.7007581879083312,6.025509913475461,-0.05476629895649496,-0.27042581100831486,0.0025299992638438164,-0.2013270975999576,-0.1988598800937954,0.9591256611348712,-1.7863241651724215,-1.8526904431214661,4.1471638679504395,0.18409031495705494,1.3627699966001123,0.07938787497340861,3.0,0.48855360902730655,0.4903393452694688,0.34096542437840055,-0.5673050283777876,0.5734716699539056,0.004272678800984016,0.5909966097647429
13.5,-2.3874688616167905,1.2672517849830633,6.336265918739538,-0.07055329487069555,-0.26172705951684694,0.01404203967772064,-0.20188895387120964,-0.199457222279338,0.9588831707340206,-1.7873951177165643,-1.851485338132684,4.147396699182108,0.18403102025151755,1.3625972219908662,0.07945535823172165,3.0,0.48821977677582473,0.49001603377587344,0.3410210532299461,-0.5673490094869085,0.5734804918277614,0.004261327003511946,0.5909459095546581
13.600000000000001,-2.94056660792305,1.123557897271308,6.40462098396746,-0.0692736442752295,-0.2595721126005082,0.015558426733438678,-0.20241538572156154,-0.20001707872078694,0.9586559226148205,-1.7884876017159645,-1.8501500347174604,4.14761849321211,0.18400752998164094,1.3623868516468816,0.07948068041091808,3.0,0.4877771681390008,0.489621126068546,0.3412538628379995,-0.5673515550061001,0.5734546868118708,0.0042706351477202024,0.5909684398350684
13.700000000000001,-2.566384360031696,1.0723791426978682,6.389697536545714,-0.07380316464220925,-0.2691262512304334,0.019225563393503363,-0.20250134792566968,-0.20011083488393808,0.9586181980569352,-1.789812026810056,-1.8488823656275641,4.147826610397702,0.18395171269994814,1.362196445465088,0.07957231743432605,3.0,0.4875652053036397,0.48941063082314806,0.3414762859560517,-0.567304046831304,0.5734165837754408,0.004286934803219176,0.5910508963618291
13.8,-2.9074802941862132,0.8261582184843781,6.342604112473969,-0.07499822532300986,-0.26912059060272875,0.013810471606785547,-0.20200621910504085,-0.19961549644683543,0.9588253592133648,-1.7911772085207758,-1.8477952517304272,4.148041809165739,0.18393628179516597,1.362014480818028,0.07962293236233224,3.0,0.4870433836226569,0.4888525702362578,0.3416471463566919,-0.5673283265859546,0.573441682270599,0.004283968479005024,0.5910032609909331
13.9,-2.5722305695355914,1.1921603011606046,6.514373341343102,-0.07325114497309071,-0.2623834994679829,0.01886880257296156,-0.2010912151946127,-0.19869452309775723,0.9592094698983389,-1.7922221485224965,-1.8467281691169861,4.148247512916508,0.18390099584545894,1.3618106478465044,0.07967046558733348,3.0,0.4869024582501489,0.4886947760470967,0.3416226066652377,-0.5673637675884216,0.5734677130187998,0.004251763227179199,0.5909442104482613
14.0,-2.5324138074210722,1.783809062697505,6.489198944093752,-0.09862461442395835,-0.24829690655246714,0.022943624789696863,-0.2012719907459599,-0.19888542867927578,0.9591319694105449,-1.793252787281003,-1.8454221680546008,4.148465065223975,0.1838487139219,1.3615685184658097,0.07975196838378906,3.0,0.4864665091691844,0.48827893980079323,0.34174651446330134,-0.5673834166549954,0.5734730669296274,0.00425541181894366,0.5909201227589753
14.100000000000001,-2.9285729167092893,1.6396570703395466,6.517277195818094,-0.09007373132106422,-0.2737958018227758,0.017410978917793588,-0.2010509475826603,-0.19867002682983534,0.9592228810493555,-1.7945333805079522,-1.8439693603417209,4.148650646209717,0.18381107981668723,1.361376281788165,0.07980227658638622,3.0,0.48619898058720135,0.48802938752815683,0.34191142332743624,-0.567362124181139,0.5734627349373579,0.004258473854652751,0.5909505707614308
14.200000000000001,-3.1284659103258616,1.0491994426543174,6.53758874746762,-0.08347634217545839,-0.29328905230631347,0.020953567203304723,-0.2009596439636831,-0.1985755052453839,0.959261639244394,-1.7958097457885742,-1.8427297185463423,4.148862967080861,0.18372422838438493,1.3611734906361228,0.07990407404281831,3.0,0.48581595044709686,0.4876218349079712,0.3422299329909062,-0.5673103228646951,0.5734346209450873,0.004273077393974407,0.5910274730351414
14.3,-3.167938094661152,0.6950239404144498,6.7555001491417155,-0.07747176237130063,-0.29220662448220075,0.01883700381986538,-0.20119145667354163,-0.19880841593053722,0.9591648501072951,-1.797032034137643,-1.841759561759804,4.149101471870413,0.183692832553518,1.360928931767443,0.07991539832622742,3.0,0.4855040188472512,0.4873029024117216,0.34236194516996876,-0.5673208112601733,0.5734287869683781,0.004269430059129985,0.5910230920649746
14.4,-2.9867049421894625,1.1287214825023881,6.866576297210505,-0.08746267027300014,-0.28858136581121285,0.02629595663161717,-0.20121902295273844,-0.19884679664696905,0.9591511112410742,-1.7980229294853372,-1.840667368676068,4.149351509455244,0.1836242555396371,1.3607368652959988,0.07999415797164025,3.0,0.48504042520965784,0.48687830761287576,0.34238053952156194,-0.5673940801910409,0.5734771489162067,0.004263545166348793,0.5909058635838
14.5,-3.0444050644302307,1.6238728280888874,6.942887062595003,-0.09644626195752878,-0.2832243294072684,0.0255205323640771,-0.20131654488463213,-0.19894789664904122,0.9591096551121314,-1.7991107226410374,-1.8392867250601876,4.149534070442177,0.1835767465778808,1.3605680672499072,0.08009910583496094,3.0,0.4847335886160694,0.4865783743156531,0.3425689877062653,-0.5673754769289673,0.5734568891340978,0.004257600088169796,0.590943429886279
14.600000000000001,-3.0622838868593716,1.2755948624327451,6.961885829980452,-0.10067879217398751,-0.305472068976943,0.025828960895723577,-0.20150965243072866,-0.1991346946784948,0.959030326824483,-1.8003854751586914,-1.8378731784115505,4.149737447913691,0.18352108249552387,1.3603442630118154,0.08015649124711864,3.0,0.48449564835424136,0.4863410367562769,0.3427447992456131,-0.5673573126020578,0.5734371491343451,0.004280750645219162,0.5909798566817311
14.700000000000001,-3.556087524727867,1.278468641912864,7.078089621268869,-0.07284839205100024,-0.3291500633203819,0.02390806315900733,-0.20162156175822107,-0.19923665755317418,0.9589856619700865,-1.8016775513948016,-1.8367063351703878,4.149951060373615,0.18345821893166436,1.3601514269090458,0.08021494286906176,3.0,0.4841547436920782,0.485961147614328,0.3429929971176558,-0.5672969735849555,0.5734321289458288,0.004278429892383429,0.5910426653733732
14.8,-3.5616330998306633,1.0247219617685903,7.146238292048641,-0.08168258801514469,-0.3282085888251088,0.021376911958515855,-0.20161784761695523,-0.19921781808715877,0.9589903566516571,-1.8028072765075234,-1.835682831687359,4.150172710418701,0.18343090357458236,1.3599565647868255,0.08028800251672107,3.0,0.483691907953319,0.485475537992813,0.34309988049192974,-0.5673485974923738,0.5734597198260725,0.004269575299260385,0.5909664029259216
14.9,-3.351085643284864,0.9232788219552838,7.215234799112642,-0.0906687551150339,-0.33195458584636656,0.02603985953008302,-0.20142446955984664,-0.19902640929645113,0.9590705240766124,-1.8039587418570708,-1.8344939993065537,4.150384963591172,0.18338535296623007,1.3597457258358154,0.08037774188049374,3.0,0.4835106989345213,0.4853040499492325,0.3430838349501832,-0.5673830047138282,0.5734916857525165,0.004250842019039163,0.5909024815286988
15.0,-3.215167532472967,1.349787499058126,7.411749505434459,-0.10729682653664849,-0.32296035330527195,0.027423002674647406,-0.2009532758447469,-0.19858222464020553,0.9592612423660831,-1.8050256071935125,-1.8331368243876367,4.150589078032947,0.18324167472940006,1.3595641777729066,0.0804299239527833,3.0,0.4832047476985062,0.4850052217525173,0.34327304636138267,-0.5673534987546474,0.5734726275568678,0.004273080812742101,0.5909491464366882
15.100000000000001,-3.861894340660692,1.3876163999094813,6.899150750937476,-0.12092881805376435,-0.3298350830242887,0.026705292359487043,-0.20048208212964716,-0.19813803998395993,0.9594519606555537,-1.8054078956253954,-1.8326331577696742,4.150662999709316,0.1831872209656196,1.3594354680442493,0.0804789318044651,3.0,0.48271913479848255,0.48451739900480995,0.34360617077490335,-0.5673209910622847,0.573443189842527,0.0042920801547462915,0.5910087809595389
15.200000000000001,-3.4923957497984626,0.8625718831777787,6.747752936730034,-0.08928892692861509,-0.3373718319684198,0.03005468376353581,-0.20176955629355306,-0.19937330716917345,0.9589244608824705,-1.8054228368575274,-1.8326287303487576,4.150651454925537,0.18318947287850543,1.3594547137323343,0.08045394062391038,3.0,0.48259239685676825,0.4843895467591973,0.3437158571008457,-0.5673149334318827,0.573425145535702,0.004293140526556254,0.5910320953357411
15.3,-3.5534545039728362,1.0768461828511324,6.590367691860741,-0.07295408402241636,-0.3473086476003134,0.026111958176493227,-0.2027018166424706,-0.20026357779428372,0.9585437159173836,-1.8054679476041815,-1.8326279098330325,4.150676245001961,0.18317204665436332,1.3594721399564764,0.08047140524098204,3.0,0.4826037119281748,0.48437251617575416,0.34369370993470366,-0.5673077220659954,0.5734458566981574,0.004277006465110322,0.591019039571235
15.4,-3.8682689497413416,0.858085346479662,6.328917605185602,-0.0724636289491292,-0.3428393524424465,0.024557479808209878,-0.20209793764197784,-0.19967451277691858,0.9587939316092614,-1.8055371792467778,-1.8326276129475219,4.150659661262322,0.18316109951510365,1.35941746079165,0.08044576644897461,3.0,0.4826018013795944,0.4843867922537888,0.34367295156379696,-0.5673089084820686,0.5734489074658338,0.004276415088163777,0.5910149449524259
15.5,-3.5949257873910727,0.9293031664011162,6.288135431445553,-0.06347175757042858,-0.35029867493405636,0.02961256347133334,-0.20204929169880123,-0.19963564466039316,0.9588117762710049,-1.8055181503295898,-1.8325995337263234,4.150675296783447,0.18315808355297847,1.359453432688827,0.08044828143039068,3.0,0.4825816661944212,0.48437564626352414,0.3436360923340817,-0.5673471224960496,0.5734484449544094,0.004263457411808287,0.590978803770254
15.600000000000001,-3.4165718729546954,0.37907834645431787,6.119873908397247,-0.07727311360375244,-0.3547234382759663,0.03351294421975246,-0.2032652126789552,-0.2008498734064429,0.9583003860199926,-1.8055380186635197,-1.8326522619369146,4.15064398435772,0.18315561995383015,1.359448353509006,0.0804720719060331,3.0,0.482572220925887,0.4843787003459246,0.3436461804787515,-0.5673587774346978,0.5734339819383195,0.004274856644953326,0.5909815662326815
15.700000000000001,-3.498918491583143,0.7238903994210864,6.220966070843077,-0.06824422948808394,-0.3498735047731558,0.031224651110078168,-0.20384875974872807,-0.20142138677584648,0.9580576295743286,-1.8055398731264332,-1.8326267238681893,4.150680783810918,0.18314283253258068,1.359438419342041,0.08045494386419459,3.0,0.4825893030108912,0.48437376886588995,0.34362925875426725,-0.5673365910475883,0.5734528528911655,0.0042896458633760156,0.5909844472639288
15.8,-3.4848088232433447,0.6465360418246708,6.2956943792104925,-0.06964757944414228,-0.3505034093153751,0.031852633984380235,-0.2029308501969733,-0.20046688959645692,0.9584526951500749,-1.8055589621883534,-1.8326164600285453,4.150687136525165,0.1831834483637231,1.3594433725963428,0.08047714807358672,3.0,0.48259416870936533,0.4843652137065186,0.34363023244208873,-0.5673331265956736,0.5734698215304116,0.004270689570652762,0.5909714447176331
15.9,-3.4396142158259653,0.5646066020263053,6.338077865229064,-0.070035187680854,-0.35195326043362074,0.03235562392111039,-0.2029677614882651,-0.2005045192681805,0.9584372631698218,-1.805546934310242,-1.8326261418692529,4.150666207105346,0.1831718820584716,1.3594581136445925,0.08047700294389352,3.0,0.4826000411128409,0.4843654728476419,0.3436441021903594,-0.5673278326376967,0.5734622570139856,0.004268778366312172,0.5909838810207083
16.0,-3.3803904659103825,0.6198512684318096,6.338333869156908,-0.06663610777835464,-0.3524174747913649,0.034092924235880485,-0.20319041833091891,-0.20072648270396395,0.958343615316798,-1.8055429458618164,-1.8326413033564457,4.150646909871165,0.1831773474080761,1.3594631819258267,0.08046687175582329,3.303326642093949,0.4825972029091352,0.48436254970508436,0.3436352723765994,-0.5673308765231697,0.573464577598974,0.004265862261547609,0.5909787282143478
16.1,-3.553705960367087,1.0377752146334176,6.254132021843456,-0.05808723430567681,-0.34813999529731127,0.03505707492037935,-0.20368694066024864,-0.20122032844243445,0.9581342240616844,-1.805514239555075,-1.8326019733980372,4.150658789997627,0.18316046249527804,1.3594697028362737,0.08043136745512415,4.0,0.48258121939385873,0.4843714100995335,0.34362122056555167,-0.5673475301300656,0.573462003766226,0.0042690576818336596,0.5909652150831287
16.2,-3.5525742778928526,0.6291726244027789,6.236431306650967,-0.06823293756174413,-0.3480428209715668,0.036469834661391025,-0.20442665292291615,-0.2019592879421852,0.9578208571435087,-1.8055333722590403,-1.8326204349554587,4.150657302331856,0.18316650440179344,1.3594475419282572,0.08044329315433794,4.0,0.48258227554934796,0.4843665737625582,0.34364914249033507,-0.5673381654061521,0.5734465737454808,0.004267583130650095,0.5909891884521862
16.3,-3.5747596098469434,0.8559241623634054,6.273513347684416,-0.06159883616834679,-0.34675259430762356,0.035227138357057194,-0.20297108338125844,-0.2004914666404586,0.9584384904964439,-1.8055457194961104,-1.8326450786986292,4.150687581831799,0.18320288091674344,1.3594508171081543,0.08045190897315056,4.0,0.48259649279669703,0.48436462277894515,0.3436577479109684,-0.5673197869002318,0.5734504754654901,0.004258053654188083,0.5910031138318621
16.400000000000002,-3.329939800324962,0.8607826193510884,6.190702236292032,-0.0608624340791753,-0.35178042963708317,0.03673567542263494,-0.20272701366458515,-0.2002680699297373,0.9585376328085957,-1.805545407194571,-1.8326637927799676,4.150656582702109,0.18316706631202084,1.35947219763331,0.08049805371051899,4.0,0.48258301558655886,0.4843632278638934,0.343628075406876,-0.5673404798040894,0.5734598139922218,0.004254324260603371,0.5909742146970185
16.5,-3.374680961202571,0.7305585794409094,6.071782004934225,-0.06448189701108377,-0.35045383335761976,0.03557283714709711,-0.20286911507624916,-0.2004350988554273,0.9584726825390986,-1.805543275387767,-1.8326496874132117,4.15065017172527,0.18317874507394022,1.3594870567321777,0.08047089150715164,4.0,0.48258664026750103,0.48437151672146267,0.34363822705115343,-0.5673441141148999,0.5734535007812752,0.004267881668361033,0.5909767540326306
16.6,-3.494613966310344,0.7589987458849475,6.1625713819670445,-0.06237281068862824,-0.3484858312670171,0.03384390211341539,-0.20276202996195986,-0.20032370822039294,0.958518620629747,-1.805577278137207,-1.8326638757819955,4.150675296783447,0.18318097173657222,1.3594632148742676,0.08045264260338589,4.0,0.4825851310717077,0.48438122069690126,0.34360977217517247,-0.5673596947511838,0.573457415698506,0.00426883491789517,0.5909579902164604
16.7,-3.4795046619796755,0.7800990184868776,5.994544186267836,-0.057365153753494255,-0.34946727772778635,0.0372841432086307,-0.2026502531085786,-0.20020912920086772,0.9585662071712169,-1.8055568306823289,-1.8326280729181834,4.150677737512162,0.18315077063835591,1.3594722182373489,0.08046022980367505,4.0,0.4825883432843039,0.48435617117428936,0.34363976167950555,-0.567329618071262,0.5734631457255213,0.004270544895078879,0.5909812919204847
16.8,-3.432651847611974,0.7527429658475857,5.975414896921178,-0.05984043667374019,-0.3460053751532298,0.038631591496553215,-0.2024843794828211,-0.2000489676805927,0.9586346719934742,-1.8055747890542142,-1.8326264224302875,4.150681762709259,0.18315808355297847,1.3594632148742676,0.08043643831480371,4.0,0.4825930819796806,0.48436744939717946,0.34361832246944335,-0.5673395005232574,0.5734659738082013,0.004271942164190525,0.5909690504082071
16.900000000000002,-3.5377649118019563,0.9492080412879722,6.1933637546552855,-0.05724826448743179,-0.34739865578941004,0.037579675140742175,-0.2021726201861216,-0.19975421617448597,0.9587619154055697,-1.8055453671684454,-1.8326288198921896,4.150660130680506,0.18316952764477534,1.3594632148742676,0.08044576644897461,4.0,0.4825890239129793,0.4843631516511851,0.3436257533336869,-0.5673361541353222,0.5734626934010696,0.0042697665969989975,0.5909754619113556
17.0,-3.4929805922727137,0.7848786929298485,5.886004383246475,-0.058461479770151044,-0.34754173645621644,0.0348721008475052,-0.2021385111703989,-0.19972765517895255,0.9587746773744638,-1.8055387786471022,-1.8326569996275843,4.150664524785209,0.18315451677313,1.3594508171081543,0.08044444089853246,4.0,0.48258060161333577,0.48437522279686074,0.3436197310805353,-0.5673521942393773,0.5734528682666851,0.004271524596992962,0.5909695843663137
17.1,-3.3574535956647367,0.5383244553544926,6.050218320335297,-0.06429279406840453,-0.3484120131680691,0.033641809226786265,-0.20247137089313022,-0.20008091238457776,0.9586306420690507,-1.8055434597676392,-1.8326569996275843,4.150675296783447,0.18316607600709933,1.359449349528015,0.08047826679884905,4.0,0.48258291436076073,0.48437365448384784,0.3436427149283527,-0.5673369752557964,0.5734514549696417,0.004269026302376808,0.5909855841856337
17.2,-3.2179359086674206,0.773938685043009,6.176838651588271,-0.05874885647908364,-0.3513198040863929,0.03495480774332805,-0.20288700350223254,-0.2005099693304668,0.9584532295814536,-1.8055429458618164,-1.8326689205565394,4.150661059409415,0.18317417755298923,1.3594845230305872,0.08047214200847531,4.0,0.48256770531971493,0.4843933099463418,0.34360733427010604,-0.56737196071796,0.5734471170040978,0.004269690489437364,0.5909562013667942
17.3,-3.178099907928883,0.6574357167161718,5.938246126214499,-0.05885760122155826,-0.3517734739752843,0.03557652728765464,-0.20313650737395764,-0.20069449655770558,0.9583617460222548,-1.8055429458618164,-1.8326358999345693,4.15066648516995,0.18316404331498526,1.359446755523322,0.08046876572410569,4.0,0.4825831283364167,0.48437711234703307,0.34363907241574687,-0.5673492720608834,0.5734452843045201,0.004259419959798542,0.5909798361556001
17.400000000000002,-3.6218369997356787,0.8110551866004018,5.776808380602886,-0.05719010413467713,-0.34162383249705575,0.03811316800912259,-0.20332585329406855,-0.2008577305586766,0.9582874085674089,-1.8055689778047448,-1.8326418039493222,4.1506782099779915,0.1831724408393194,1.3594840593898998,0.08046384418711935,4.0,0.4826008323820613,0.4843669281588597,0.3436330345579037,-0.5673307892486514,0.5734659156766679,0.004251559805478316,0.5909776166377567
17.5,-3.6948378453335136,0.9128751942219223,5.8331755820031415,-0.05399723100882815,-0.3435011740094131,0.033569607080439545,-0.20258586477768842,-0.20016682266501243,0.9585882773163135,-1.805560353853517,-1.8326660662899283,4.150659903554706,0.18315808355297847,1.3594545379037701,0.08046675404027376,4.0,0.4825838935416443,0.48437096275391434,0.3436290780366006,-0.5673532407989135,0.5734488587634273,0.004270423714953198,0.5909724782248219
17.6,-3.4801815088387205,0.6979668981231459,5.932879100487422,-0.06083598965004808,-0.3453690926898561,0.0380956434983386,-0.20186471266849645,-0.1994604986177664,0.9588879209108419,-1.80552324824863,-1.83264838399694,4.150692528044736,0.18317270073115363,1.3594632148742676,0.08047856856275488,4.0,0.4825916762526894,0.48436797449528207,0.34363192434748313,-0.5673408990760217,0.5734532421419645,0.0042684194814102926,0.5909800875728481
17.7,-3.341849018367041,0.7978053512082446,5.980062190688476,-0.05783776286359333,-0.34666344253704945,0.03796820822005274,-0.20150433318717348,-0.19908619557643478,0.9590414825564034,-1.8055868316055017,-1.8326416876520801,4.150670363501025,0.18318449842498322,1.35944872812355,0.08047639039998283,4.0,0.48260417684288726,0.4843689123660109,0.34362386536954653,-0.5673367507104863,0.573462018994553,0.0042574232049176625,0.5909756326716127
17.8,-3.3624946223761003,0.5544968163320805,5.874986870509177,-0.06298009764736634,-0.34689729619997023,0.0404075552388519,-0.20130828809270937,-0.19888348058135957,0.9591246610828402,-1.8055238459088576,-1.8326450786986292,4.150669179505835,0.18313951557599176,1.3594566229650498,0.08045169934404521,4.0,0.48260469627860214,0.4843693782618421,0.34362887728600555,-0.5673309763715577,0.5734654281999529,0.004268024641291534,0.5909777913546337
17.900000000000002,-3.460787941401683,0.6982985258075255,5.809251136665229,-0.06029993039965171,-0.3462565804648972,0.03606181589735759,-0.2021162145132723,-0.1997060294515517,0.9587835481793715,-1.8055317299325253,-1.8326433424718758,4.150667111796355,0.18314034941427837,1.3594454807355674,0.08044576644897461,4.0,0.48258439314534485,0.48437570708281524,0.34361210698590094,-0.5673676738044612,0.5734529265955788,0.004260860696751992,0.5909547434167889
