xiamingqian9007/apple-picking-rnn/training_data/grasper_20191127_131548_noimg.csv
,/manipulator_wrench.fx,/manipulator_wrench.fy,/manipulator_wrench.fz,/manipulator_wrench.tx,/manipulator_wrench.ty,/manipulator_wrench.tz,/ground_truth.x,/ground_truth.y,/ground_truth.z,/joint_states.elbow_joint,/joint_states.shoulder_lift_joint,/joint_states.shoulder_pan_joint,/joint_states.wrist_1_joint,/joint_states.wrist_2_joint,/joint_states.wrist_3_joint,/mode./mode,/manipulator_pose.x,/manipulator_pose.y,/manipulator_pose.z,/manipulator_pose.rx,/manipulator_pose.ry,/manipulator_pose.rz,/manipulator_pose.rw
0.2,0.19975588305898462,-0.04388281499320737,-0.022097581883471815,-0.0002449651362246459,0.012548581043517141,0.04440902747736443,0.026929732655358817,0.01385207435631167,0.999540484219265,-0.905383911824327,-1.9532211195505718,4.155655086191469,-3.8777585392195077,-1.3745090078222726,3.216251476307735,1.0,0.477663514820196,0.48831955761582296,0.4235784072150859,-0.6070141974358124,0.5884250692348332,-0.0024148666674701415,0.5341197154443157
0.30000000000000004,0.1945350930414033,-0.030738254864021756,0.050967275466302066,-0.0036549607999815173,0.016666155634264018,0.10355503064833982,0.02819668229757443,0.01521574795326857,0.9994865401298352,-0.9025206746815462,-1.956191987356193,4.155028361296536,-3.8775009677373915,-1.3749397250107818,3.216049175674213,1.0,0.47778593807303454,0.4884435093029603,0.42350621457702076,-0.6070027027133218,0.5884345199532063,-0.0024194433967725066,0.5341223463962279
0.4,0.13617513399082604,0.09651643245194452,0.11766981709680811,-0.011284725125013337,0.021698604386854142,0.19096581471736424,0.02877385017307185,0.0159550514206336,0.9994583850994208,-0.8996723575868468,-1.9595486458054567,4.1545090675354,-3.8772187139934466,-1.3754246870623987,3.215787857857303,1.0,0.4787457434049193,0.4892962033553538,0.4229286093565955,-0.6069377329584167,0.5884722040743446,-0.00245953353449468,0.5341544758194704
0.5,0.03506622119873995,-0.2467938845871137,0.019888244818388107,-0.007119960229078272,0.011762122120975093,0.26445943359471347,0.02902103353099597,0.016240903204083522,0.9994468409849107,-0.8963127009012212,-1.9628267003422026,4.15399682333884,-3.876925453179577,-1.3759631013844535,3.215537637436011,1.0,0.47961738391964087,0.49025676128335244,0.4221816951647804,-0.607010005273897,0.5884931310410364,-0.0024613882359915185,0.534049276549321
0.6000000000000001,0.2228190659868585,0.11327539267721348,0.3976046072172752,-0.005448373628014557,0.016854410117113302,0.2764888670580664,0.028919130541425697,0.016041183663683702,0.9994530314619912,-0.8935097836702709,-1.9663985160078583,4.153451960124093,-3.876670631118249,-1.3765419055687858,3.215255373086708,1.0,0.480305091394525,0.4910092164413009,0.4217760863612953,-0.6069721690387979,0.5884639607432814,-0.0024197653067694687,0.5341246087333241
0.7000000000000001,0.34989751520137075,-0.00043098093676957605,0.1385657258460129,-0.00760574021894579,0.011264079223737365,0.2717306643830024,0.02783655955101038,0.014791228748742878,0.9995022843413585,-0.8902435161027005,-1.9692939885467586,4.152971664399392,-3.876432796517843,-1.377042595540182,3.2150045751201914,1.0,0.4812207067313722,0.49194332150993986,0.42095285029932217,-0.6070671477342909,0.5885050149548812,-0.002432901404520723,0.5339713536375
0.8,0.5814303371993594,-0.11240414463573878,0.3649761329326469,-0.013634758623580948,0.005033333598483962,0.26005450124090274,0.02749940774606107,0.01435254095878209,0.9995186125733398,-0.887487273632127,-1.9725786599881963,4.152505392965592,-3.876211525139678,-1.3775208632098597,3.214789920804606,1.0,0.4822521254086063,0.4930880131725314,0.4203995733855447,-0.6070328194142027,0.5884127355770506,-0.002374735164767626,0.5341123190843597
0.9,0.5622660011985975,-0.33541985675462455,0.15054634624470054,-0.012276675323945899,0.0016658182603601444,0.25934303660314967,0.02809626892027536,0.014929742089672715,0.9994936954701457,-0.8845320206544689,-1.975383425651962,4.1519365586660655,-3.876050361651467,-1.3779047171222132,3.214540958404541,1.0,0.4827600662430956,0.49366783888536714,0.4198489358587615,-0.6071238731662788,0.5884516281146754,-0.0023867992771700406,0.5339659045201057
1.0,0.31002237907351193,0.2007030666643668,0.06390726961350722,-0.002644673263495764,0.005404806816480942,0.2566962719617021,0.02761683163127286,0.014504900892667585,0.9995132001818298,-0.8818059036566065,-1.9784133825211618,4.1514923192043005,-3.8758504378237553,-1.37830950121194,3.2143081720050035,1.0,0.4838936294669176,0.4947416569442863,0.419323776138391,-0.6070074133035139,0.5884145496637188,-0.0023783196068222832,0.5341391780561207
1.1,0.37836056458190204,0.016566340790932194,0.015191410703751441,0.00239251657269513,0.005644226759193111,0.2547697735180914,0.027702166358283736,0.014658543509759685,0.9995081339547202,-0.8789840171716331,-1.9811402821666313,4.150966299395239,-3.875720164413552,-1.3786955301916701,3.2141326782951842,1.0,0.4843964829833521,0.49521311651687294,0.41890472025062847,-0.6070409399281957,0.5884372238627662,-0.002430986017396796,0.534075857094062
1.2000000000000002,0.11760977146899823,0.2791784124358754,0.17597003436191255,0.003888191911575735,0.00512997533825202,0.25433970277172324,0.028597854691813657,0.01563466494490448,0.9994679932741771,-0.8763758441866082,-1.9840568300726824,4.150580237203773,-3.87553763198614,-1.3791373817158314,3.213902841147288,1.0,0.4852002333881698,0.49599970289429923,0.4185048216205561,-0.6069728527676647,0.5884100923102299,-0.002412492368408416,0.5341832074776613
1.3,0.3201188930143805,0.3086751713715331,-0.07128283313638795,0.0006257036657019918,0.009371585991299065,0.2548058247134352,0.0286513401587249,0.015676139780513534,0.9994662035101716,-0.8737661530529846,-1.9866467103267835,4.150099627796432,-3.8754433756487554,-1.3795428895110178,3.213686260266829,1.0,0.48622485692950357,0.49707494648472755,0.4176839761130682,-0.6070230699237642,0.588433751748763,-0.002430147132611917,0.5340999969744601
1.4000000000000001,0.3039642218966872,0.09321265804769767,0.09475375736509309,0.0016174557069833482,0.0004455890227847083,0.24961538666285776,0.026882760093812196,0.013755725549476587,0.9995419676520289,-0.8711657227749452,-1.9892921973009878,4.149649222222944,-3.8753379597113997,-1.3799235292636771,3.2134897465522303,1.0,0.486698235729973,0.49759637756006647,0.41739195313830935,-0.6070213028918275,0.5884048744204194,-0.002395519745491776,0.5341339748405333
1.5,0.2673895292623763,-0.13585308296906348,-0.06121587604890859,-0.000946561801600503,0.004136647819452978,0.2512137804731177,0.026596040930571056,0.013435612266214357,0.999548267121226,-0.8688052839037272,-1.991886721976661,4.149224160973055,-3.8752185514568214,-1.3803365866290491,3.2133240005553363,1.0,0.48762544979734984,0.4985151514816829,0.4167882811962082,-0.607002042358089,0.5884087243179282,-0.0024006806123281436,0.5341515987547492
1.6,0.0857895512065229,-0.08537203916121941,0.16207811263471195,0.004202255196874947,0.004778466473916305,0.25317454278947427,0.02995664288118881,0.01697024947513186,0.9993969789269971,-0.8662276589362974,-1.9942225425289803,4.148819996046503,-3.875125408324571,-1.3807265667788353,3.2131378566924247,1.0,0.4881652059085008,0.499029579588167,0.41637042405339586,-0.6070234830474786,0.5884316214085542,-0.0024165596563250763,0.5341019361459336
1.7000000000000002,0.2786506320900237,-0.1431157128315752,0.06832654248525041,-0.003977010970054054,0.0036828273859290128,0.2482724296700225,0.031393867633448994,0.018484097389061982,0.9993345742165212,-0.864064642233428,-1.9969323635148128,4.1484727347322075,-3.875040017528769,-1.3810215888155577,3.213000103182685,1.0,0.4889504034578496,0.4998366778680902,0.4158824659550249,-0.6070106119220064,0.5884162193941505,-0.002388328034516527,0.5341336589816876
1.8,0.2987427746737717,0.2162771371088437,0.01888812128452683,0.004582743627274229,0.004039672454458246,0.24871704383217608,0.029851893190284452,0.016867860446578998,0.9994098448426927,-0.8617364559779273,-1.9989134444889032,4.148144245147705,-3.8750269854365906,-1.38131745661709,3.21288781211789,1.0,0.48944748098405805,0.5003696662910653,0.4155141659588021,-0.6070229199004284,0.5884163641373504,-0.0023905922572729048,0.5341195017967406
1.9000000000000001,0.28370260329911934,0.3302077228531757,-0.08486837977416586,0.004644052263407012,0.0045345439694004135,0.24735215355429827,0.029155217243193886,0.016154627517979536,0.9994440299336236,-0.8593952419371802,-2.0013591144135634,4.147774787412194,-3.874930368131608,-1.3816020106214861,3.2127044200897217,1.0,0.4900315775247865,0.5009652908788602,0.4150382579331737,-0.6070513179991818,0.5884392828008885,-0.002409214768613044,0.5340618910355158
2.0,0.6248634620669685,0.11843338958264203,0.26528409927434243,-0.0002259732918365911,0.003056659185636249,0.24695449286436458,0.029828842983552727,0.01690524189272354,0.999411611832272,-0.8575170598441094,-2.003504476292927,4.1474873800784495,-3.874892620983651,-1.381866965117667,3.2125456502896483,1.0,0.4908491139067182,0.501820632944963,0.41454285760295584,-0.6070169878596072,0.5884221568867543,-0.0024108230690663215,0.5341197709004216
2.1,0.5567786879732143,-0.04189949449242802,-0.01735964566940807,0.00499141513933501,0.0015432761373599547,0.24615707961473776,0.030416267643168182,0.01755327070187289,0.9993830870984848,-0.855161790337523,-2.0053674830090036,4.147153877295672,-3.8748493293735344,-1.3821571508990687,3.212445338758743,1.0,0.49123565731938357,0.5022053204421532,0.4141334682915444,-0.6070727431382201,0.5884649605789105,-0.0024415406367651747,0.534009095043162
2.2,0.5236412173249918,0.1278238858716744,0.09769320469348593,4.947971163081662e-05,0.0033394969049129904,0.24603948555194485,0.030858332247139252,0.018028310455727902,0.9993611277130772,-0.8532018117762323,-2.0076906175961673,4.146834807419658,-3.8748401604094447,-1.3824422022543832,3.212281224241304,1.0,0.49178760656033893,0.5027109302303963,0.4140236413380437,-0.6069616119306154,0.5884133330520009,-0.002417290635933474,0.5341923884100241
2.3000000000000003,0.3333759263884528,0.39703537620350415,-0.006206698325937093,0.013363893072076992,0.007458677146147015,0.24611073261273905,0.031167442073540094,0.018327667030066396,0.9993461200187873,-0.8512377861532883,-2.009504836482416,4.146545006671111,-3.8748450510548222,-1.382751167724394,3.21218097516381,1.0,0.492557533467018,0.5035449927921857,0.4133508408749477,-0.6070240449433734,0.588446874574265,-0.0024207266277858535,0.5340844734187267
2.4000000000000004,0.6071892270741485,0.07905019399803394,0.2092163658609566,0.0010122292979610735,0.0022663089624798236,0.24963708671042703,0.031228995028323676,0.01832766613880765,0.9993442069159386,-0.8491826165652444,-2.0114368430309053,4.146231875968935,-3.874822531190388,-1.383013188863395,3.2120107343559274,1.0,0.49286946711437046,0.5039122095278927,0.41311400975839063,-0.6070465483694939,0.588429406703095,-0.002399328346753801,0.5340782383351828
2.5,0.0671515208782403,0.13411058236450307,0.14897178628653387,0.0025444016790386074,0.01187684174626476,0.24299755512882296,0.03125217151539733,0.01828166298545779,0.999344325944144,-0.8474109651850558,-2.0134290218968225,4.145948131824362,-3.874830921333247,-1.38327791279233,3.211862874798391,1.0,0.49349262961819956,0.5045450500487166,0.41281285469519047,-0.6069931957639582,0.5883964723484336,-0.0023664394550564245,0.5341753004290649
2.6,0.4544626034225728,0.2907351086763952,0.24294444782896019,0.011776139009022519,0.003672442671952469,0.2432311450566331,0.030939536247454595,0.017972553328578354,0.9993596423596102,-0.8455085754394531,-2.015172664722367,4.145682740624804,-3.8748160801329554,-1.3835508308907594,3.211775231774706,1.0,0.4938559821632518,0.5049007408289509,0.41253122712293744,-0.6070106858735813,0.5884056173190936,-0.002384829807298675,0.5341452698746018
2.7,0.2503453955253978,0.03259091761260662,0.14404962350875047,0.0032888340056490277,0.005758495402740733,0.2425675674155532,0.030826915462878537,0.01787743940877383,0.9993648448179858,-0.843728611883552,-2.016972707423635,4.145423412322998,-3.874794540394363,-1.3838149495651941,3.2116500510664614,1.0,0.4943699416579136,0.5054041573473245,0.41215345417463745,-0.6070331422657794,0.5884089491558854,-0.0024040034089057895,0.5341159925632362
2.8000000000000003,0.20367022332408663,0.6316491815831616,0.132815690837219,0.012874777070600769,0.007222888243525857,0.24456946630196696,0.03076650461402124,0.017834604220883298,0.9993674736150007,-0.8420133701998892,-2.018607819135328,4.145174492196351,-3.8747995688803325,-1.3840090712452324,3.2115278244018555,1.0,0.49498445754202974,0.5060299940972938,0.41172791292855,-0.6070300668805548,0.588424493589069,-0.002406205523200215,0.5341023529459656
2.9000000000000004,0.3026997771478771,0.19384994901791996,0.16989399684107628,0.008797671707531166,0.0076706957631955935,0.24251651992054377,0.03115126716515687,0.018229228428664753,0.9993483025098538,-0.8402584068965788,-2.0203090560634616,4.14492910487989,-3.8748072783242553,-1.3842489261421795,3.2114349232171375,1.0,0.49526326692066697,0.5063169284935387,0.41154895267680386,-0.6070272819167667,0.5884184433498642,-0.0023910825464613875,0.5341122515527243
3.0,0.2808559881469539,0.275547738108527,0.13098025214579612,0.007159857507233471,0.005064205527055934,0.2428858960431373,0.03133672618155993,0.018407254527343635,0.9993392539135234,-0.838649330718669,-2.022032381155664,4.144726176392191,-3.874845594034007,-1.3844434850671383,3.211347818374634,1.0,0.49574379009130626,0.506786681424425,0.411306099261518,-0.6069925611580776,0.5883935170508349,-0.0023922686025313537,0.5341791617446717
3.1,0.5558042661408241,0.26297298225302956,0.28249368215605497,0.001895787995062321,0.004204805442747562,0.24834682091721952,0.030886241463252084,0.01791547331705349,0.999362131796109,-0.8370875481913181,-2.023502499090939,4.144486987178555,-3.8748194229737636,-1.384636704121725,3.2112048353193385,1.0,0.4962970975636171,0.5074228087348754,0.41077275249383655,-0.6070413137888945,0.5884259388569412,-0.0023792746235218733,0.5340880984313785
3.2,0.2667591661305665,0.3580046462168779,0.11142332942171457,0.01125827713355859,0.0035490355423326214,0.24752761615731844,0.03041417907922282,0.017411350946640654,0.9993855772292812,-0.8353032031595,-2.0249098278489286,4.1442565772222295,-3.874859755155653,-1.3848447991185586,3.211110352604687,1.0,0.496577191098395,0.507672780599504,0.41065051878424697,-0.6070156851811341,0.5884128486266115,-0.0023799556905872363,0.5341316441909293
3.3000000000000003,0.377688166251087,0.3875271334135534,0.2515142136261573,0.011515056929864284,0.0025684354851773956,0.243859034858369,0.02989368915546603,0.01687953086184846,0.9994102964368712,-0.8339839196128166,-2.0267083184160044,4.144026183477646,-3.8749423240791407,-1.3850227196122367,3.21101449386905,1.0,0.49706366438664834,0.5081467643620196,0.4104371439477772,-0.6069776432020981,0.5883829629508084,-0.002386728694993736,0.5342077621002811
3.4000000000000004,0.36406829902523186,0.06685691073866162,0.2376660389522526,0.0028219692077012144,0.0038533240394981383,0.24443852592184395,0.029550468984118724,0.01655899461634044,0.9994261162993742,-0.8326829483267891,-2.028033979396549,4.143828868865967,-3.874940197401817,-1.385205263398645,3.21091113434857,1.0,0.49731612142593423,0.5084214289931199,0.4101704355838094,-0.6070149582901402,0.5884120035209487,-0.0023995916449760656,0.5341333134007087
3.5,0.21124124514362563,0.45059457563378036,0.25854757075609386,0.012215730402987924,0.006232673418202011,0.24623154282985757,0.029166323045130896,0.016223325883714966,0.9994424131152252,-0.831081935435555,-2.029181250600578,4.143582275837638,-3.8749479256071986,-1.3853466751138273,3.21086285521651,1.0,0.4976949054644754,0.5087930020237315,0.40973011782204405,-0.6070792667315167,0.588480403570971,-0.0024383976634721853,0.5339846746251302
3.6,0.2988306847927228,0.2256327297682751,0.22333035919441768,0.010185480002611911,0.005237945196410793,0.24178978389108752,0.028589005128847395,0.015605965838207114,0.9994687452780897,-0.8295302705714073,-2.0305523815528215,4.143388015118423,-3.874964798730854,-1.3855691769793765,3.210759401321411,1.0,0.498080712302293,0.5091671580502829,0.40966854373219286,-0.6069914996169001,0.5884269156428585,-0.002401862045620051,0.5341435344535898
3.7,0.5773978461464945,0.09885885948770509,0.3210402036581985,0.012144076526290796,0.002191266308650012,0.24779807318959535,0.02999326520495713,0.01706965334013677,0.999404303532351,-0.8283330593511411,-2.032161485611336,4.143191675781937,-3.8750255598992314,-1.3857024351703089,3.2106614902188895,1.0,0.49858029178854857,0.5096605615405073,0.40942265163468317,-0.6069538898529713,0.5884077863417437,-0.0023979624170031976,0.53420735893565
3.8000000000000003,0.4466162933058242,0.37534241997676904,0.2532886017260263,0.01310157010197487,0.0034716131949341766,0.24427633335234364,0.03035512757395525,0.017464424361537553,0.9993865664781632,-0.8272371292114258,-2.033322950402731,4.143044925312842,-3.8750390170064297,-1.385858560572567,3.210603375744916,1.0,0.49879504917433753,0.5099168191064298,0.4091300792211013,-0.607021739717942,0.5884260037809689,-0.002420464637740142,0.5341100887786148
3.9000000000000004,0.16558382612074213,0.2844448539597427,0.11506038057700647,0.012194155278382886,0.009880012293876254,0.2408891091562331,0.030612973773990367,0.01776172912404202,0.9993734630875946,-0.8258039177197526,-2.0343270429532825,4.142858982086182,-3.875110860662983,-1.3860105514715833,3.210513822350345,1.0,0.4992288248097024,0.5103552578319209,0.408727672560081,-0.6070642265067483,0.5884652316487737,-0.0024358073789372504,0.5340185042474945
4.0,0.48116583639814087,-0.09083287578875487,0.26554370865093313,-0.0001678720441181326,0.004437277751873273,0.24525601494836144,0.03013381319575141,0.017215496061987925,0.9993972691619166,-0.8243385950215005,-2.035470258359381,4.142720381367936,-3.875128237201327,-1.3862056696424645,3.210464612179481,1.0,0.4994257341578084,0.5105415285478268,0.40871035070409134,-0.6070191416030966,0.588439272758788,-0.002418052324759747,0.5340984338354714
4.1000000000000005,0.562083094446317,-0.026801452184046073,0.18024089246286285,-0.001996882459447856,0.004343643041958098,0.24748367396999169,0.029436139416269113,0.0164456259632651,0.9994312929699062,-0.8231109399765063,-2.0369192357139085,4.142551940881406,-3.8751941533469165,-1.3863614241229456,3.2103678388260426,1.0,0.49969008462333997,0.510818897542778,0.4087120004517382,-0.6069522496013477,0.5883827976244732,-0.0023779465604021406,0.5342368346844102
4.2,0.7513429673478055,0.012766817409863629,0.27842826047174607,0.0009500750306663877,0.004380495459747639,0.24970180301435763,0.029037003378453306,0.016066359852206197,0.9994491701773163,-0.8220128551853811,-2.038217485098551,4.1423624419921286,-3.875214663096266,-1.386513012218483,3.2102930610160154,1.0,0.5001800965556004,0.5113289245811741,0.4081947734741104,-0.6070254903956265,0.5884370391083598,-0.002413332346628849,0.534093700433099
4.3,0.2674744292028084,0.1575732113346655,0.24514399418339697,0.0066936125201880895,0.009115745377761853,0.2450634598878905,0.029390864012844183,0.016444322982091888,0.9994326744288571,-0.820635973917096,-2.039336564299057,4.142181055800659,-3.8752716980376185,-1.3866554702896752,3.2102428740213975,1.0,0.5004078825642555,0.5115876627344894,0.40795592369738826,-0.6070578000601332,0.5884545185776673,-0.0024192989693444175,0.5340376896289003
4.4,0.36740189368196474,0.16797884622311993,0.04672437889943959,0.0036439881116361503,0.00557577815766177,0.2408039113596758,0.029817295771002204,0.016886347969359315,0.9994125966645482,-0.8192123597201947,-2.0404550789004143,4.141994953155518,-3.8753368238709327,-1.386826892311791,3.21013338925513,1.0,0.5007595640592063,0.5119317810791997,0.4077891641961819,-0.607027656743199,0.5884376669638349,-0.00241740516359663,0.534090528093595
4.5,0.5467104955795613,0.03541986175955367,0.36846999011408715,0.0032514195935668903,0.005339366586829064,0.24498506249240196,0.03030224481750404,0.017397080807967362,0.9993893018110517,-0.8178610592724318,-2.0418372909716407,4.141808441953787,-3.8754112152189983,-1.3869572099595906,3.210043450448445,1.0,0.5009666015243956,0.5121168437210948,0.40776410050039075,-0.6069839303074985,0.5884100987510469,-0.0024090188579122896,0.534170628792324
4.6000000000000005,0.5410582777253471,0.25292069065320366,0.30423815194358445,0.00757766341695202,0.00238478364446005,0.2522179544498056,0.030685673149512493,0.017841609832209563,0.9993697807321851,-0.8166745486053949,-2.0430896401569525,4.141616294817136,-3.8754486405226722,-1.3871524969684046,3.2099427193809715,1.0,0.5013146703241015,0.5124275393430339,0.4075780281159309,-0.6069546175510919,0.5884164905830884,-0.0024129964895133805,0.5341968769014207
4.7,0.49225613362685827,0.37301393665557225,0.21888828261441057,0.003584941710975063,0.0026925151061732606,0.24520563246614213,0.03023250714374149,0.01739659999469716,0.9993914183398638,-0.8154531672953368,-2.044324007263178,4.141457487778424,-3.875511785546774,-1.3873182103933868,3.209906816482544,1.0,0.5017445841651343,0.5128687253225518,0.40715630709608847,-0.607011010227322,0.5884493116816205,-0.002438318220466501,0.5340965227826227
4.800000000000001,0.6545880220154165,0.13293200041029257,0.2350258636419764,0.00646776485567791,0.004982678506576502,0.2412990472818061,0.030691660213512873,0.017838797720167922,0.999369300733061,-0.8140238612128314,-2.0455404064136706,4.141282038761805,-3.875535388986105,-1.3874757925616663,3.209843790139309,1.0,0.5019267582341166,0.5130690678509561,0.4069648701603565,-0.6070430523385215,0.5884717546264598,-0.0024323520095351206,0.5340354017086214
4.9,0.3768375221791969,0.03969779460229357,0.22511700681899094,0.0012991319012892934,0.00745106237840432,0.24308260376100221,0.03125918695431327,0.018376423457754247,0.9993422070634065,-0.8127185714768588,-2.0467417057392026,4.141091857390748,-3.875597297969199,-1.3876373503290964,3.209740797304017,1.0,0.5022965036121637,0.5134817632933459,0.40677473789516166,-0.6070167851078452,0.5884392387614142,-0.0023907215355365545,0.5341012725446019
5.0,0.2382853871478758,0.2740062578916367,0.37315277708560185,0.006014148008719777,0.012157354514396307,0.24314559765972593,0.030592593007665536,0.017670842188557752,0.999375259968023,-0.8114471485764847,-2.048038511988037,4.140964984893799,-3.8756701307526633,-1.3877633253680628,3.2096757536100284,1.0,0.5026931869017613,0.5138722099593579,0.4065587716584738,-0.606994970260914,0.5884235576461821,-0.002408498186406377,0.5341432598296534
5.1000000000000005,0.2998436712183053,0.2374510510603367,0.22992792185345956,0.012397759386098245,0.007531836448892007,0.2413622001421643,0.030045871439517546,0.017090388847917623,0.9994024035005349,-0.8100940752809973,-2.049218579687196,4.140789704400871,-3.8757534372052986,-1.3879216259845344,3.2096116589416424,1.0,0.5028712161915396,0.5140884854204112,0.4063811806066101,-0.6070127915532385,0.588433635029705,-0.002393738561248787,0.5341119714743091
5.2,0.5242344067533917,0.1708749677684531,0.2936904850662382,0.006625363293529917,0.004964816231224623,0.2435549927280868,0.03006394461976265,0.017099492482874606,0.9994017042357921,-0.8088047854331889,-2.0504129299070817,4.140606674859532,-3.8757993183531703,-1.3880832135271122,3.2095224857330322,1.0,0.503293454196683,0.5145073038392962,0.4061822327609042,-0.6069905962105575,0.5884085343096038,-0.0023956721129514817,0.5341648374974742
5.300000000000001,0.21803891247737828,0.2385294312102146,0.29959543487334284,0.008084911829336459,0.009595866071645094,0.2429890676368572,0.02996097290185001,0.017013177849123862,0.999406257047301,-0.807606098726976,-2.05176138814084,4.140474039630271,-3.8758797666281266,-1.3881961351983596,3.209473639826637,1.0,0.5034547603248426,0.5146819550913884,0.40610045778886206,-0.6069733875299953,0.5884033981947391,-0.0023824239517389613,0.5341901083690711
5.4,0.5509606323616415,0.2274119081047709,0.30215771547342934,0.0019804879243345177,0.009125279794043626,0.2455109239521601,0.029811139597982823,0.016882663315093076,0.9994129609895825,-0.8062645071527618,-2.0530415974059046,4.140307768734679,-3.8759131141934176,-1.3883447581044757,3.2093635559362044,1.0,0.5039679232382673,0.5152057149472113,0.40558518117882264,-0.6070395739100634,0.588449439491507,-0.0024197525233921203,0.5340640014707466
5.5,0.3629536780235925,0.003935421602385074,0.4474861184273513,0.00519477021232432,0.007891228577756263,0.24484390053431238,0.029737695730893226,0.016772958496943012,0.9994169900628936,-0.8047211406059683,-2.0541765517336437,4.1401546703736685,-3.8760081456236914,-1.3885062376605433,3.2092854585996533,1.0,0.5041388026063349,0.5153798741575099,0.4054461403879908,-0.607046039457223,0.5884517022109715,-0.0024259551999772843,0.5340541310444825
5.6000000000000005,0.5911016717745314,-0.1134402704705191,0.35109157663208757,0.002428350436209316,0.004442800134929966,0.24253500809657874,0.02958462978616112,0.016589994069714495,0.9994245184085783,-0.8034238409345142,-2.0554048023619593,4.139991036512493,-3.8760945625782854,-1.3886422926450226,3.2092322647692098,1.0,0.5044209037165003,0.5157009132505193,0.405378437242005,-0.6070068059679229,0.588398186368594,-0.00239606328340872,0.5341578143840184
5.7,0.4141440618293693,0.07000085432880421,0.4167392623888895,0.0018633320880496896,0.007600883760759441,0.23984618736958432,0.02895185023856779,0.015965649160391348,0.9994531294565411,-0.8021612413698231,-2.0567972168459074,4.139819915059241,-3.876190772228693,-1.3887714091024992,3.209121013836823,1.0,0.5048430938864658,0.5161207152993253,0.4051492017232393,-0.6069912420526136,0.5883963698190143,-0.00241388507552704,0.5341774211009611
5.800000000000001,0.6160408576919658,0.13334843358866527,0.29045552233271277,0.002683569017901337,0.005317749921836236,0.23743920542871058,0.028901430315617458,0.015941313729227063,0.9994550324495609,-0.8009105299671363,-2.0582458712731815,4.1396634293218515,-3.876248879998713,-1.3889266530061168,3.2090726081549295,1.0,0.5050856062735027,0.5163368664618044,0.40490519496314836,-0.6070135274891602,0.5884359279116402,-0.002420662132140833,0.5341084876528137
5.9,0.3768597171966669,0.3433987062240449,0.2699882612451707,0.007751738565819867,0.008774754662749054,0.24199691858995967,0.02918672150735334,0.01626286397112689,0.9994415391298613,-0.7993011474609375,-2.059269274640733,4.139460767584548,-3.876332269633811,-1.3891107145149144,3.2089958415158875,1.0,0.5054243119339707,0.5167308333370126,0.40447679318299934,-0.6070863278331252,0.5884761789020785,-0.002435242864980077,0.5339813171030321
6.0,0.27608440182051897,0.06727265837750396,0.4405824812573932,0.008853978501996073,0.011971070636893007,0.23969918714972008,0.02945174139293881,0.0165516594893221,0.9994291541691959,-0.7979578459778258,-2.0603914707598174,4.139321804046631,-3.876439415764666,-1.3892506934112823,3.208920946485882,1.0,0.5058510269230703,0.5171340551997434,0.40442113568544474,-0.6069933553627521,0.5884232071642129,-0.0024244954329597974,0.5341454087024852
6.1000000000000005,0.5954358013948986,-0.09506155507521007,0.19276294589979953,0.0028349114888787147,0.007926417554566391,0.23850434946475163,0.029575316173247643,0.016611905583601025,0.9994245028966845,-0.7967556113968353,-2.0616947248685946,4.1391456146818015,-3.8765203513110853,-1.3893977763497376,3.2088758413369236,1.0,0.5060067143745623,0.5173158905340214,0.4043918288887743,-0.6069713695957965,0.588388160645817,-0.0023851644487430327,0.5342091724160004
6.2,0.3944157033575006,0.22159554834368844,0.22451606296265433,0.008277437920551479,0.011985046752436765,0.24366419103184567,0.02918888957565209,0.01620937069852778,0.9994422047528245,-0.7954941435977664,-2.063245577752452,4.1389610672940735,-3.8765931032552796,-1.3895525513499591,3.2087497780863043,1.0,0.5064734982280553,0.5177857313917337,0.40394944438076796,-0.6070094030046564,0.5884319970145906,-0.002406465098688046,0.5341175699029946
6.300000000000001,0.36862982320475157,-0.04094203486235812,0.11373924038087402,0.004886248802312325,0.006799156425818934,0.23929029852155706,0.02863572386344791,0.01566557773815498,0.9994670540127812,-0.7938913017042947,-2.06436557685909,4.138812092080985,-3.876693528200919,-1.3897078166790375,3.208702751890466,1.0,0.5066899763300637,0.5180145729849384,0.4037029325076019,-0.6070501776979895,0.5884512347400492,-0.0024257807240425657,0.5340499430555441
6.4,0.5162442141711794,-0.10461541481860362,0.25489806345101657,-0.0017890977348060581,0.004283269773197642,0.24629113958341087,0.029470804504720914,0.016470026272343848,0.9994296404801929,-0.7924535314052643,-2.0655056882041216,4.138636920063466,-3.8768088121637168,-1.3898679092137558,3.2086606533216,1.0,0.5070006660597557,0.5183543965381072,0.4034977752797218,-0.6070557153707634,0.5884359553808842,-0.002401686089697499,0.5340605927744558
6.5,0.2989812692985499,0.12302402667142884,0.26186090903122916,0.014518717687306169,0.006408577716269867,0.23613385284945373,0.030133926056567385,0.017151462226350115,0.9993985284322587,-0.7912451937915833,-2.066671987573141,4.138451960693253,-3.8769616089262904,-1.3900489753355887,3.208540137276555,1.0,0.5073951252318092,0.5187434893938703,0.40342942907878215,-0.6069888772461748,0.5883925072328362,-0.0023866369037736698,0.5341844852632605
6.6000000000000005,0.3254864947176453,0.05751474135196927,0.14586854913936156,0.007342956042175308,0.0122209841453873,0.2400346136083626,0.030580981634046708,0.01764246825828345,0.9993765127897497,-0.7899603543566,-2.0681269966967357,4.138288736276192,-3.877028343988771,-1.3901908288696647,3.208492130111114,1.0,0.5075952193082663,0.5189304202744457,0.4033033154799897,-0.6069838138724537,0.5884033871311309,-0.002394449987247857,0.5341782196221796
6.7,0.6503144047939436,0.04985796801546579,0.23501775020825225,0.004479830703015722,0.007739388341825259,0.2392625392561872,0.029963959710164106,0.01698295332673912,0.9994062846332699,-0.7885202255985816,-2.0694059035829793,4.138111591339111,-3.8770484806203123,-1.3903222762174852,3.2083838070790938,1.0,0.5079055737249305,0.5192452840142403,0.40295474880510324,-0.6070363331259617,0.5884393150514374,-0.0024083863630126883,0.5340788915899114
6.800000000000001,0.33938822749716374,0.29171673205109194,0.13492260529077788,0.00683565224528499,0.013015699668193603,0.2438491581207613,0.0293846925600421,0.016364502810212414,0.9994342094276275,-0.7871409829558448,-2.070513923014296,4.137952965550495,-3.8771468943381033,-1.3904785728502747,3.208353246845267,1.0,0.5083705739517971,0.5197740567100859,0.402611003053715,-0.6070390104897497,0.588414606715954,-0.0024016816461151897,0.5341031007887946
6.9,0.47137322811480353,-0.03389811723983893,0.40673214820337933,0.002379821200720683,0.004655643510512338,0.24341413474720788,0.029268188992460347,0.016249382440198433,0.9994394947779511,-0.7857031751311033,-2.0716972308535766,4.13775110244751,-3.877302874083483,-1.3906866048328792,3.208258096648688,1.0,0.5085468310352964,0.5199338037323895,0.4025448421882744,-0.6070111827488935,0.5884167723633281,-0.0023869266528235063,0.534132407367749
7.0,0.5547293451889138,0.03348801470972882,0.39811579394564034,0.004741447586572711,0.007179673585985472,0.2434120841586424,0.02919176803526015,0.01617678557608478,0.9994428963391343,-0.7843085685662464,-2.0731712105226836,4.137583848565026,-3.877436382518944,-1.390849573782769,3.208144024367881,1.0,0.5088386093693268,0.5201813025575333,0.4024476034988673,-0.6069812715523368,0.5884007966044065,-0.002391935809568768,0.5341839731619541
7.1000000000000005,0.14580065912926465,0.24631029721904482,0.27122814795085826,0.01520493290826802,-0.0019551336577264336,0.2341680899502036,0.029678813751662553,0.016701968601840967,0.9994198162817134,-0.7835093363216978,-2.073854562871813,4.137483991772784,-3.877521921642812,-1.3909469577104392,3.208100708712339,1.0,0.509371022782329,0.5207014636583459,0.4019983340703949,-0.6070249633914799,0.5884229889729695,-0.0024090433796800136,0.5341097980543735
7.2,0.27277949092294296,0.6294687419744582,0.28141577377386645,0.018272470574123255,0.008695520439027818,0.24381904229273652,0.029362027165154445,0.016358529850817673,0.9994347233164245,-0.7835115943788858,-2.0738640781678472,4.1374698827413985,-3.8775262640604815,-1.3909424429642747,3.208121733017367,1.0,0.5095059381146831,0.5208497914719653,0.4019263717200435,-0.6070182034170805,0.5884251443467788,-0.0023986923778492124,0.534115152842202
7.300000000000001,0.5984558474247688,0.08983520732819661,0.244144451057545,0.007891539473195562,0.009653361379554744,0.2465974580800441,0.028679043295115232,0.01563547789995812,0.9994663254803274,-0.7835087312521775,-2.0738620662867655,4.1374579908543865,-3.8775198956148875,-1.3909373382761292,3.2080941200256348,1.0,0.5094947541776076,0.5208342046077072,0.40192913297401855,-0.6070248319660208,0.5884243800888894,-0.002394458214351106,0.534108480426486
7.4,0.3471409540087994,0.5722083481759177,0.3217396719725138,0.012274696816491206,0.01171993398015177,0.24255387176792229,0.028505840555234384,0.015462031266218474,0.9994740294887868,-0.7834898672469958,-2.0738903140370843,4.137476444244385,-3.877529453987829,-1.3909365806548804,3.208106279373169,1.0,0.5095019596624539,0.5208315318070754,0.4019250395691668,-0.6070240307946612,0.5884254288446868,-0.0024031922069229503,0.5341081963366272
7.5,0.5368315173169445,0.22948751276842366,0.40434638757011515,0.006081661964753248,0.007939794532436862,0.24511907452645076,0.028604330128400014,0.015568823536859063,0.9994695344060744,-0.7834466395531262,-2.073871260421186,4.137467603469292,-3.877505131576828,-1.390937630330221,3.2080941200256348,1.0,0.50950278020013,0.5208329118253443,0.4019339417211565,-0.6070192738343305,0.5884182681166149,-0.002402604572841738,0.5341214940737291
7.6000000000000005,0.5610689472876619,0.008157020803270291,0.35676506661195345,-0.001903520043170996,0.011138255347697131,0.2415037547115283,0.02979063098681569,0.01683947193690763,0.9994143035922648,-0.7834329605102539,-2.073882373382043,4.137443327922735,-3.8775239727845348,-1.390925145297971,3.208082741503694,1.0,0.5095097615307724,0.5208394754464476,0.401908557502697,-0.6070205453802254,0.5884382927450855,-0.00240385597660902,0.5340979822036276
7.7,0.45268486832076316,-0.06309321725615272,0.15311138564038043,0.0030384305051695155,0.00956416083276395,0.23356106878053637,0.029959893024285214,0.017023805281455237,0.9994061209134842,-0.7834415466736925,-2.073874510759047,4.137451444534654,-3.8775091893284572,-1.3909118826709734,3.2080752857315336,1.0,0.5095143782650495,0.5208422677319451,0.4019127781883332,-0.6070163469460534,0.588430717133778,-0.0024080909717828845,0.5341110809293962
7.800000000000001,0.3680325758692441,0.16091371602943602,0.2938036326796648,0.00861465239871997,0.012729181159552632,0.23428626752846415,0.029792216538948868,0.01685115788133515,0.9994140442798064,-0.7834855471424914,-2.0739034239061716,4.137446469787463,-3.8775158586729557,-1.3909272116328344,3.2080855656511336,1.0,0.5095194220680916,0.5208380425667297,0.4019207875249775,-0.6070157681842913,0.5884237210744567,-0.0024253189626864563,0.5341193681944646
7.9,0.38614178645165964,0.4036749298062352,0.30585112771670503,0.012777080379366444,0.009631765019178149,0.2406770188659669,0.029985874163916456,0.01705622939249305,0.9994046055675146,-0.7834700265415242,-2.073896234548365,4.137451478418698,-3.8775049718126153,-1.390925709401266,3.2080941200256348,1.0,0.509507428718612,0.5208435225593442,0.40193484355943443,-0.6070184773569901,0.5884160481460522,-0.0024123534546490752,0.5341248009428077
8.0,0.25669526216185656,0.38802617034836756,0.25051650965110084,0.009365455159635794,0.012751695023164068,0.23668267843088606,0.030566205820153777,0.01766553667580214,0.9993765876860414,-0.7834456647169478,-2.0738680550193744,4.137463740037691,-3.8775018798702305,-1.3909429344848563,3.208080754141509,1.520288003716177,0.5095094543380418,0.5208324718937244,0.4019398312597133,-0.6070118362772493,0.588426241871556,-0.0024100372069118204,0.5341211287871886
8.1,0.17979306196913494,0.37530228786673997,0.21496150310457907,0.013242460605049541,0.016475890458958795,0.22911877036234243,0.030869576559577633,0.017998118674282335,0.9993613161739329,-0.7834650855425035,-2.0739170513548792,4.13743799737722,-3.877515544790451,-1.3909614721881312,3.2081092299010256,2.0,0.5095157883791394,0.520821574712429,0.40195301540109646,-0.6070030369082583,0.5884285452482634,-0.0024080890174556354,0.5341286000847064
8.200000000000001,0.23636297775239934,0.05757475757818836,0.3157042064633442,0.008208241495634813,0.01263361899332309,0.22987732334942762,0.03096677544808309,0.01810881671153444,0.9993563447842461,-0.7834459455413039,-2.073903425616809,4.137445881883876,-3.8775216780879744,-1.3909209858120681,3.2080849453620006,2.0,0.5095156018450878,0.5208223357750352,0.40195574031818776,-0.607000366069233,0.5884310150587235,-0.002414473066379495,0.534128885596528
8.3,0.40802858426109667,0.2045609421239478,0.18282806889925446,0.0026519700621780197,0.012082910042754483,0.24067715187544653,0.030803525971747122,0.017937025608443232,0.9993644971090926,-0.7834378246696353,-2.07386430080637,4.1374287605285645,-3.8775092133568285,-1.390930776233955,3.208090509753209,2.0,0.5095187119468302,0.5208206180625906,0.4019094575595164,-0.6070304359456886,0.588434300893248,-0.0024239284839701284,0.5340910483602644
8.4,0.4303204205013188,0.02766293090671562,0.008252308914476925,0.0013478848843976972,0.016190070010624644,0.24667552857172118,0.0310397444014282,0.01816372821399803,0.9993530557348401,-0.7834274428696356,-2.073881288568014,4.137443917114987,-3.877524515191549,-1.3909013907061976,3.2080661300099345,2.0,0.509524223059783,0.5208301581666451,0.4019469099647934,-0.6070130522622075,0.5884183825220315,-0.002410240482609904,0.5341284042571511
8.5,0.34524301991856243,0.46314224928337633,0.20560712821891797,0.0002374986065773417,0.01714367935213241,0.2420857542137627,0.031189819727960873,0.018303489257560587,0.9993458732625685,-0.7834564402523158,-2.0738770912384212,4.137421345873176,-3.8775364361205042,-1.3909064269887967,3.2080941200256348,2.0,0.5095109035971707,0.5208416725654984,0.4019316232936004,-0.6070232371282778,0.5884129735655,-0.0024128962247515788,0.5341227762021779
8.6,0.21495198233922191,0.517892899800427,0.2845504879303833,0.0024429401025802266,0.009632689801969536,0.2406371174040196,0.03113731528589166,0.018239588378932792,0.9993486797783693,-0.7834568656068367,-2.073869367639059,4.137423023305384,-3.877506562334025,-1.3909316856754117,3.2081001835735403,2.0,0.5095082121097024,0.5208408808445123,0.4019163195461246,-0.607027270667987,0.5884268286064089,-0.0024050942736603795,0.5341029634472302
8.700000000000001,0.33443194280921573,0.334878268502549,0.1442929496135848,0.0020466331138789488,0.00785500249913998,0.2416927025733268,0.03042314183566855,0.017503590339310548,0.9993831566760458,-0.7834293617302752,-2.0738781666251933,4.137453294106514,-3.8775049223979887,-1.3909389078804677,3.208113800809057,2.0,0.5095107547421699,0.5208431310074563,0.4019474166465715,-0.6070041357200063,0.5884178594390834,-0.0024013457395820298,0.5341391536393622
8.8,0.27921504667798563,0.32898893383360206,0.2956564465564429,0.005130189555487242,0.012049603431944516,0.23791912140487023,0.029610080279054343,0.016667145679486142,0.9994223667923768,-0.7834515845938904,-2.0738962468843467,4.137437999411805,-3.877528956962338,-1.3909104519186066,3.208092776389971,2.0,0.5095068889228453,0.5208366578136819,0.4019695560704704,-0.607006416066559,0.5884034993254791,-0.002412461495674751,0.5341523311426194
8.9,-0.35592291651952657,-0.1302165885486392,0.4481885565608087,0.03235955731946593,-0.03650093279085729,0.23389111998310533,0.029059795438060875,0.016094305477222244,0.9994478341006799,-0.7834358005549904,-2.073881288568014,4.137417996822186,-3.8775211983096542,-1.3909154539993647,3.2080787298366764,2.0,0.5095418387436104,0.5208131639767466,0.40193244375277604,-0.6069984468388049,0.58844166071232,-0.002427209480893944,0.534119280804898
9.0,-1.3178342568351977,-1.013050412156679,0.5380312179177726,0.08613194914799038,-0.13728797167654974,0.23173015657976764,0.028555890104044707,0.015567990876550536,0.9994708758338735,-0.7834205627441406,-2.073896898759315,4.1374298285700135,-3.877460317876311,-1.3909339410678752,3.208097965389894,2.0,0.5095268218427184,0.5208237937932451,0.40193545792943286,-0.6070013508759278,0.5884370017626496,-0.0024073155734654216,0.5341212033079308
9.1,-2.204241314227739,-1.316722227480341,0.5792232948162478,0.13931338798788379,-0.20025265002230347,0.2236052180413343,0.027845408710670875,0.014761444165374291,0.9995028735029892,-0.7833836884832637,-2.073878576853764,4.1374439784774975,-3.8774907373899334,-1.3909303140086184,3.208111610709522,2.0,0.5095202007572999,0.5208187803984494,0.4019651344754649,-0.6069846746602859,0.5884322631151097,-0.0024057527344384538,0.5341453817141529
9.200000000000001,-2.261921761290799,-1.900250520069077,0.8723412393869491,0.16215363786839065,-0.24060390878955049,0.2192253524229903,0.026819755821804084,0.013646636430030263,0.9995457002956978,-0.7833973172211683,-2.073905130425924,4.137453556060791,-3.877508651692764,-1.390925709401266,3.2081144147966385,2.0,0.5095032050875169,0.5208516271926011,0.4019520020115663,-0.6070027659263556,0.5884150178241664,-0.0023776426691020694,0.5341439466773708
9.3,-2.7167430548825857,-1.9023917741538938,0.8590345031240456,0.18067144231078283,-0.2580413465745611,0.2152274990677505,0.025221342586153522,0.012005246524457544,0.9996074078454967,-0.7834210700399553,-2.073881288568014,4.137480351838177,-3.877497089060149,-1.3909170494254985,3.208077869108796,2.0,0.5095130959783003,0.5208486321210763,0.40194623299849064,-0.6070041548911378,0.5884124812546676,-0.002393011865473921,0.534145093905048
9.4,-2.4533668951566097,-1.9837847890249305,0.8375442601137919,0.17969488613956563,-0.2701693702052028,0.2155813612405438,0.023830449228538678,0.01057311151562139,0.9996597646130572,-0.7834247971588779,-2.073893209496969,4.137461373441845,-3.877508659451377,-1.3909297607077862,3.2080862706493116,2.0,0.50952155302991,0.5208385605320319,0.4019587692147783,-0.606993301428527,0.5884190998141411,-0.002406948084622074,0.5341500740388709
9.5,-2.3403256647342423,-1.7201115987295508,0.6800614515204674,0.13164839481811502,-0.2711707727179412,0.21544808242480037,0.022899626209858186,0.009604893371890062,0.999691390751848,-0.7834329605102539,-2.0738969409315255,4.137445416831765,-3.8775483570494593,-1.3909298041484652,3.208093831341683,2.0,0.5095191643135313,0.5208347643709987,0.401955747861842,-0.607002542216701,0.5884211471103282,-0.002405586135741192,0.5341373236642157
9.600000000000001,-2.1582280816732036,-1.7022728293873841,0.7332557578248098,0.14175570907434057,-0.27879957006531514,0.22302620017857044,0.02275261991924607,0.009441659858192786,0.9996965394543842,-0.7834287573417451,-2.0738969358283197,4.137449352892283,-3.877504614159838,-1.3909298067000682,3.2080941200256348,2.0,0.5095252230639903,0.520828871013855,0.4019654322154867,-0.6069819536760709,0.588426161706473,-0.0024088455670567286,0.5341551811917602
9.700000000000001,-1.8531221338680033,-1.122433604247904,0.4696174761431683,0.13465366217716276,-0.24563708033587126,0.22433659830449276,0.022763294893895406,0.009444904314887226,0.9996962632288778,-0.7834286879395804,-2.0739006183907507,4.137433033099238,-3.8775646246380258,-1.3909298176422982,3.208102088967316,2.0,0.5095099494247697,0.5208436122191427,0.4019407598293112,-0.607016013587083,0.58841479697621,-0.002409344565529813,0.534128992853839
9.8,-1.6527211219529045,-0.9689237737103588,0.696588225910038,0.10253719827021607,-0.24187228620150344,0.22965663281338788,0.02267617694002603,0.009358826956832777,0.9996990494475281,-0.7834318744695385,-2.073892765163577,4.137464243852202,-3.8774890407545795,-1.3909454295050603,3.208098324214833,2.0,0.5095031669828629,0.5208327159692931,0.401959205286353,-0.607003335532001,0.5884247190998866,-0.0024005668937406932,0.5341325096676226
9.9,-1.7513714838620302,-0.8432444382996852,1.2419553944801964,0.10546791061916262,-0.23690302017333537,0.2301537039488195,0.022824098556345065,0.009505380248949386,0.9996941168709745,-0.7834392392140345,-2.0739015142368755,4.1374287605285645,-3.8775129750723187,-1.3908936221471957,3.208098891623892,2.0,0.5095196357024625,0.5208295813316733,0.401947419144462,-0.6069998393212042,0.5884390288088224,-0.0023968575709834407,0.534120734958255
10.0,-1.64867333638825,-1.2412811197193794,1.6137573909937435,0.11886474705934434,-0.2238756224522323,0.23897227122231038,0.023569214291216042,0.010243007018462608,0.9996695721963634,-0.7834048563627278,-2.073881288568014,4.137448729199593,-3.8774888776266607,-1.3909414157826787,3.2081105536881593,2.0,0.5094940333306957,0.5208595626367963,0.40194793484221913,-0.6070127988833391,0.5884093740310289,-0.0023880529435150255,0.5341387158289189
10.100000000000001,-1.3458493846285238,-1.047627155607214,1.631986654424235,0.11357610689394125,-0.21536845453749792,0.22996687573675428,0.023449150962751016,0.010136847603436153,0.9996735114309586,-0.7834113668738805,-2.073893209496969,4.137465000152588,-3.8775178543592568,-1.3909362295945913,3.208088859928972,2.0,0.5095001614596185,0.5208586575914278,0.4019242149423368,-0.607024508689148,0.5884140059816139,-0.0023912038074474515,0.5341202912825157
10.200000000000001,-1.585942859168041,-1.1927415844037,1.761407909228969,0.10884469054590118,-0.21284761428556273,0.2259890263137614,0.02307585888766055,0.009783720910784,0.9996857876040363,-0.7834421715889921,-2.073900478315385,4.137438739197197,-3.877505133546704,-1.3909328851774712,3.2081011447125487,2.0,0.5095180385672929,0.5208503790026019,0.40192021185267185,-0.6070105411531388,0.5884236668832061,-0.002408242951570294,0.5341254455149853
10.3,-1.6145986960088776,-1.063054977107222,1.588545258524709,0.10944711076996183,-0.21511828668458527,0.23041926426346881,0.023852428454044568,0.010603068819101426,0.999659011882772,-0.7834649610692006,-2.0739187822235534,4.137432999593641,-3.87751463227465,-1.390915431167691,3.2081042006008715,2.0,0.5095183468873665,0.52083787938976,0.40193129349991824,-0.6070127320771767,0.5884233413414316,-0.0024132820267391527,0.5341232915073508
10.4,-1.4344653323047583,-0.29817412929126585,1.6740527311749163,0.08891662361159058,-0.2060875964784479,0.23738545072428954,0.02360198064485224,0.010317120765159058,0.9996680935359001,-0.7834105325923055,-2.0739221426272625,4.1374466353421315,-3.8775364361205042,-1.390925709401266,3.20811083247755,2.0,0.5095146443632154,0.520851251594465,0.4019225538882858,-0.6070224750747721,0.5884207202007852,-0.002403591766004779,0.5341151500745038
10.5,-1.2702012865800483,-0.6204650352481766,1.800566042070983,0.07253502561975984,-0.2008629613828623,0.22685163179093326,0.02327494405523103,0.009980452168574554,0.9996792607385161,-0.7834325496137802,-2.073928744358425,4.137449344457945,-3.877504565525544,-1.3909174481802982,3.208090379325285,2.0,0.5095158162561744,0.5208530602303725,0.4019147555422236,-0.6070108925951375,0.588432891012536,-0.002393006020544565,0.5341149525782527
10.600000000000001,-1.62272804481853,0.003637202107684572,2.1054180653612344,0.08386403609605853,-0.21395507626493207,0.23527637790698208,0.023198643580201947,0.009914380148855144,0.9996816798309945,-0.7834209261844323,-2.073905130425924,4.1374609702979335,-3.8775131121661595,-1.390925709401266,3.2081253216069436,2.0,0.5095253160945797,0.5208330000107703,0.40193011327124645,-0.6070188174541269,0.5884187939735578,-0.002411957384669179,0.534121391274373
10.700000000000001,-1.5709748754184725,0.19538471625508955,2.3944157283090233,0.0642527047324033,-0.22093798879556528,0.23530264704348738,0.02352701496117017,0.010257301155318697,0.9996705410788282,-0.7834284895148007,-2.073901136267629,4.137445312219304,-3.8775404302787995,-1.390937599557256,3.2080941200256348,2.0,0.5095150593290447,0.5208508774126521,0.4019347083368071,-0.6070153538712026,0.588414739466642,-0.00240174419104663,0.5341298401773331
10.8,-1.573113021845305,0.3319806790128278,2.465617830479272,0.023084975124883892,-0.2130047006620003,0.23506750074206084,0.02361389251658824,0.010342525157206295,0.9996676528111385,-0.7834205627441406,-2.0739447200042074,4.13744918654428,-3.877524515191549,-1.390917681151664,3.20811323136918,2.0,0.5095282117975655,0.5208262424432659,0.4019260249091011,-0.6070098894228257,0.588428675594587,-0.0024205929081733677,0.5341206124190137
10.9,-1.4632369430323302,0.5634449844335633,2.6342605127496626,-0.0008157880719947795,-0.21242686403588207,0.23785090587461835,0.023608892873237912,0.010329707402301536,0.9996679034700876,-0.7834558486938477,-2.073905130425924,4.137424715253625,-3.8775168080906557,-1.3909453374311147,3.2080941200256348,2.0,0.5095154884801993,0.5208395949856768,0.40191304782570997,-0.6070213793421915,0.5884317887392891,-0.0024046394614827063,0.5341041965119206
11.0,-1.4152999271562192,0.7373216617972302,2.3994677864125333,-0.00933384539918879,-0.21083023930534142,0.24093294317731376,0.02342768339152644,0.010104091559186954,0.9996744265754282,-0.7834420664959709,-2.0739077390590164,4.137450845462877,-3.8775172504105253,-1.3909371534930628,3.208086855244611,2.0,0.5095074429838875,0.5208551082026462,0.4019117754472832,-0.6070237269435699,0.58842830353833,-0.0023915991479081748,0.5341054266491378
11.100000000000001,-1.6023610545204783,1.0132784526922844,2.3119298686193757,-0.01174200860254022,-0.20845150114256053,0.23698133226726995,0.02334051893132323,0.00998431819771609,0.9996776153290904,-0.7834451002315315,-2.073920985625099,4.13746883374878,-3.8775243762658143,-1.3909374115378985,3.208102206177214,2.0,0.5094986919133702,0.5208558409921676,0.40192662277718383,-0.6070264545807765,0.5884175914156685,-0.002385759418174384,0.5341141541877303
11.200000000000001,-1.258732092881466,0.5289383207618575,2.584783870185373,-0.0212943059504961,-0.21451867440281025,0.24503752057127037,0.023920054558260177,0.010638497863838421,0.9996571256414386,-0.7834444046020508,-2.0739157071451646,4.137422693275626,-3.8775416091166917,-1.3909133116351526,3.208086258610018,2.0,0.5095118435216848,0.5208490273810548,0.4019232616443758,-0.6070201781134587,0.5884234369091739,-0.0023978920468163143,0.5341147932540644
11.3,-1.2496793751503046,0.7831583905264603,2.4871914433024975,-0.014838367698989125,-0.21599081473918982,0.24282442487446462,0.024129344841998145,0.010870143545117554,0.9996497444124504,-0.7834616498281946,-2.0738996989448344,4.13747172096592,-3.877530299328231,-1.390925111273983,3.208118200302124,2.0,0.5095212524158711,0.5208496099833668,0.40191094447674514,-0.6070065211099896,0.5884361523126362,-0.00240920335434239,0.5341162548740166
11.4,-1.1682609458590292,0.5265784909641587,2.5191332879408965,-0.020360939970556484,-0.21700386429164403,0.24096337289804504,0.0241718425078179,0.010911440986274364,0.9996482684410907,-0.7834337720189776,-2.0739112243622313,4.137459149973733,-3.8775122054402087,-1.3909127777478345,3.208106279373169,2.0,0.509509162969888,0.5208568451164843,0.40190948199041343,-0.6070355001391489,0.588418282905577,-0.002407359978472239,0.5341030149055516
11.5,-1.7155803928528313,0.9928990215159005,2.425142862039342,-0.009624731414922066,-0.21000785210129655,0.2357980406066978,0.023668064454499996,0.010390662720538377,0.9996655378339334,-0.7834379625885854,-2.073920029231203,4.137457848726054,-3.8775454686036617,-1.390926905075152,3.208103152508792,2.0,0.5095094846450422,0.5208497529142201,0.4019308673603269,-0.6070132746790338,0.5884209168521788,-0.0024064423018941503,0.5341253766764177
11.600000000000001,-1.41090066596596,0.583218803429031,2.4159370269939817,-0.019089628460476248,-0.21098579427893466,0.2403748333526326,0.02309861692749545,0.0098073409923166,0.9996850474690875,-0.783441425357153,-2.0739170513548792,4.137456182603735,-3.8775137494138283,-1.3909147933804544,3.208095513595448,2.0,0.5095112147959846,0.5208601922247238,0.4019193162086637,-0.6070203302638909,0.5884195277277721,-0.0024136855072100652,0.5341188558338068
11.700000000000001,-1.5593026925803963,0.8326969872115149,2.405713119163604,-0.01290588591707392,-0.20972926721421195,0.24043109546102046,0.02342331151903362,0.010167781221963141,0.9996738123770083,-0.7834646528974597,-2.073901329562715,4.137449333626603,-3.877516313925146,-1.390933570297348,3.2081099990357207,2.0,0.5095221757986741,0.5208365748641132,0.4019084226387202,-0.6070308161092839,0.5884235651363358,-0.002423491787059364,0.5341024461407192
11.8,-1.5703727690564562,0.928782331478173,2.411335785153059,-0.00892030094412134,-0.20983267035113598,0.24082750046606505,0.023754140682373363,0.010529507686635275,0.9996623498120549,-0.7834089569463074,-2.073913026335117,4.137444860607613,-3.8775084887424365,-1.3909174983609511,3.2080943546563616,2.0,0.5095338839476387,0.5208321340814622,0.40191181871190673,-0.6070245963781985,0.588423793429556,-0.0024290106680889146,0.5341092384756427
11.9,-1.2866691783735007,0.5573071479803539,2.207514720239524,-0.01878105062875922,-0.21311837178012993,0.2393032384955775,0.024118265478777396,0.010898215243196422,0.999649652629007,-0.7834440129634627,-2.07392115554406,4.137468940174202,-3.877516502632481,-1.390909363780767,3.2081020149328063,2.0,0.5095215472281025,0.5208412777028615,0.4019393336545159,-0.6070029055995071,0.5884261274078073,-0.0024099371084809204,0.534131404600722
12.0,-1.240967309444376,0.6686587976772199,2.4547122830597043,-0.018974971183808042,-0.21750919168996583,0.24575292320810652,0.024389506713408705,0.011165980517360185,0.999640145469076,-0.7834725693261309,-2.073905130425924,4.137453556060791,-3.8775203585894626,-1.3909094294717184,3.2080941200256348,2.0,0.5095163154101681,0.5208469252560408,0.4019110252087324,-0.6070181658546194,0.5884333099101218,-0.002410262231075577,0.5341061474526294
12.100000000000001,-1.5751286199101715,0.9996786821716368,2.51076307046572,-0.009723538553910786,-0.20926753628991088,0.24210626939128307,0.02452358308778875,0.011291233002983365,0.9996354620656972,-0.7834600793397497,-2.073913900420662,4.137437881323092,-3.877532051123135,-1.390948317196024,3.208077726399363,2.458253545055871,0.5095072410992502,0.5208493033321495,0.4019123541657256,-0.6070298245561876,0.5884179267182973,-0.002410581387013683,0.5341098433030435
12.200000000000001,-1.299187982396559,0.9663050465573156,3.012061925346792,-0.013799375208048387,-0.22454095928176407,0.23716385484539965,0.024080582802232242,0.010838011902891843,0.9996512271592415,-0.7840698723178879,-2.073380435815659,4.137465757837513,-3.8774721499722675,-1.390842240645431,3.208117910539624,3.0,0.5095016501496666,0.5208268701403803,0.40192946299514415,-0.6070258518784997,0.5884208382936071,-0.0024127090097158127,0.5341111411010493
12.3,-1.274805781351791,0.803956354075681,3.6430927312429873,-0.05045219633595033,-0.20434871485345704,0.22744850780912865,0.02355870177682453,0.010339744327347525,0.9996688702588619,-0.7853717803955078,-2.07214861329714,4.137461104162612,-3.877376422419264,-1.3907374400164856,3.208150904293816,3.0,0.5094685162040455,0.5207764863960953,0.40191935386749844,-0.607026069996875,0.5884437577262339,-0.0024078411781109426,0.5340856641382905
12.4,-1.392776135783046,0.816313101938827,4.134187312119857,-0.04292402364460893,-0.2001115668843888,0.19290049597163658,0.02344633719247786,0.010268235189077912,0.9996723360508639,-0.7866667292343696,-2.070987457099562,4.137681845011614,-3.877251049869211,-1.3905776182757776,3.2082618734606396,3.0,0.5091551950407498,0.5203243845315155,0.40220573197630594,-0.6069995747519987,0.5884534810836276,-0.002451973992510116,0.5341048629950804
12.5,-1.4065337220451166,0.5558802537982414,4.911152487265841,0.006854980320032476,-0.19927059818296416,0.16113569697661598,0.023594817148489683,0.010468553008784898,0.9996667715014231,-0.7880804681446049,-2.06985228121172,4.137950392499601,-3.8771521022732105,-1.3904216925250452,3.208349557155246,3.0,0.5089398215842541,0.5200557907046518,0.40238857190187477,-0.6069666799558239,0.5884741796263424,-0.002461651199217754,0.5341193963992327
12.600000000000001,-1.3438617187080522,0.2809591896905492,5.540463819978481,-0.016607343525563926,-0.20605147349028077,0.13618959169001785,0.023653470810069074,0.010499620009268509,0.999665077763789,-0.7895867488009871,-2.0683802113731695,4.138112545013428,-3.877081913759064,-1.3902607994709972,3.2084377521325735,3.0,0.5085032325342014,0.5197644576315517,0.40254016798744413,-0.6070369198437764,0.5884557940609777,-0.0024393790427196353,0.534059927173469
12.700000000000001,-1.1900461052705178,0.6259488660069357,5.787651285682273,-0.03297399043293718,-0.19832108625164904,0.11261471721905783,0.023615750057088252,0.010390026008556557,0.9996670959903591,-0.7909520329919966,-2.06699010307389,4.138328356897411,-3.8769852350483425,-1.3900900848396287,3.2084912663476595,3.0,0.5082736715665032,0.5195586111319381,0.4026505994098578,-0.6070658397488433,0.5884585053752569,-0.0024319316650657993,0.5340240999898106
12.8,-1.4656989028209655,0.5704249741780741,6.030690792977383,-0.01879114248856614,-0.19937618260740514,0.08927050983210325,0.023216225260570333,0.010001118065758114,0.9996803690798838,-0.7921399590195409,-2.0658394558946487,4.138526890504176,-3.8768710348659723,-1.3899300734149378,3.208569093545278,3.0,0.5079861441395676,0.5192146187675724,0.4029403018921023,-0.6070274339926514,0.5884542599730335,-0.002444322435278581,0.5340723767315807
12.9,-1.3551838666118785,0.3879787309556871,6.406224285801362,-0.006278449019336296,-0.22332314649269622,0.06703201555872629,0.023791962430155404,0.010592982151025297,0.9996603829543187,-0.7935011702961692,-2.0647621082588157,4.138688564300537,-3.876801421798045,-1.3897984663592737,3.208622694015503,3.0,0.50747896839044,0.5187578600014064,0.4033621607947953,-0.6069962751695176,0.5884113929770369,-0.0024204316944282933,0.5341551235882389
13.0,-1.6412701053228183,0.6506883785875158,6.059376607749743,-0.0036849901243313833,-0.2277292044329594,0.0471987688378966,0.023922727981910353,0.010702748828906069,0.9996561877145347,-0.7950254754491205,-2.0634489029982896,4.138856410980225,-3.8767251623372787,-1.3896948504733873,3.2087030246750965,3.0,0.507288756977455,0.5185512665785749,0.40346792632963785,-0.6070006817140442,0.5884260656838157,-0.0024183578303681,0.5341339618185273
13.100000000000001,-1.9104306695071571,0.6744258073167195,5.929841961733461,-0.006952144197131662,-0.24773497251023052,0.032527196495294015,0.023228501843372603,0.009957972156987918,0.9996805753431279,-0.7964193131356374,-2.061927475906689,4.13901965874721,-3.8766096183740966,-1.3895107109040385,3.2088189972355434,3.0,0.5068684406488737,0.5181554447845802,0.40362677487838455,-0.6070569019429192,0.5884541048865983,-0.002420133284085543,0.5340391626093206
13.200000000000001,-2.0715327883196615,0.9853465678870744,6.234952069129355,-0.014255469503962809,-0.25270927523698633,0.01240528265808991,0.023607681170373235,0.010318635226881782,0.9996679809870613,-0.7975555100851075,-2.060635239335681,4.139183993015214,-3.8765255464378097,-1.389378603602432,3.208859699736022,3.0,0.5066444561512106,0.5179097960347007,0.4038443187482158,-0.6070255576588548,0.5884425275770842,-0.0024125906965006523,0.5340875803590459
13.3,-1.9875111998678217,0.5563578273501253,6.206218342842593,-0.008475949983808842,-0.26711779798374585,0.02962081937276752,0.02390332830694444,0.010620112494965118,0.9996578331851416,-0.7988892347103765,-2.0596357784666957,4.1393599887746895,-3.8764896969847764,-1.3892353216754358,3.2089712619781494,3.0,0.5062929365154014,0.5175780057350884,0.40424661829278175,-0.606978622900531,0.5883766640547942,-0.0023703289378538216,0.5342136595766278
13.4,-2.3404296149449624,0.5930851670079443,6.312953659062189,-0.016769077854504322,-0.27231333664923457,0.03291116955886804,0.024092933798246337,0.010834008146801606,0.9996509669689018,-0.8004211463448817,-2.058456723560386,4.13953173322923,-3.8764256134269117,-1.389038925182751,3.2090508785167904,3.0,0.5059000335522021,0.5171768147175677,0.4043898152613832,-0.6070250837653632,0.5884184302947988,-0.0024090296976064522,0.5341146835137329
13.5,-1.8714930589166672,1.0328791161313235,6.515663497935823,-0.05472581268465446,-0.261066434392432,0.03841383054443955,0.023393509349933807,0.010120047895143171,0.9996743464445887,-0.8018746054629904,-2.057010324226751,4.139699225574612,-3.876320627787446,-1.3889159575300978,3.2091024658182468,3.0,0.5057207540892011,0.5169950259492351,0.40444915377316737,-0.6070258860970561,0.5884514800084801,-0.0024098114478080393,0.5340773559070816
13.600000000000001,-1.898159566882905,1.3199477216025644,6.471090430660428,-0.06648853362793268,-0.2602475035475125,0.042014733624786076,0.02269408490162126,0.009406087643484724,0.9996977259202757,-0.8030021622183715,-2.0555875091304525,4.139883299373498,-3.8762425071281585,-1.3887437025653284,3.209179549888904,3.0,0.5053797417677136,0.5166201732037066,0.4046131101551126,-0.6070734351234658,0.588464298688235,-0.0024359318770807623,0.5340090633806222
13.700000000000001,-2.1623705651850695,1.3740937892991931,6.519693583299317,-0.05205858676712001,-0.27245200745663356,0.04430233055963885,0.02253545413633855,0.009232530457694023,0.9997033608344218,-0.8042157784649663,-2.0545411782739436,4.140055179595947,-3.876161901770036,-1.3885684136677412,3.209271266239024,3.0,0.5049366602622563,0.5161266266248401,0.4051955470054248,-0.6069441857956458,0.5884098131753557,-0.0023929919972724913,0.5342161741066108
13.8,-2.2061516159533574,0.6157306177712554,6.44996144886117,-0.05051211729063093,-0.28072332725529575,0.048170027007275525,0.02285249741665175,0.00953512839731796,0.999693374849136,-0.8057866023428244,-2.053352324614067,4.140220478474817,-3.8760543444252957,-1.3883846441852015,3.2093280999389484,3.0,0.5047459074111237,0.5159727209663331,0.40527083056962504,-0.6069791237761427,0.5883985127533289,-0.0024017934870194805,0.5341888850188317
13.9,-2.163034358682451,1.1672026345819508,6.691024023235718,-0.044493151628235056,-0.27658010639859354,0.04253065037805414,0.022724209047756738,0.009451649098958853,0.9996970686576726,-0.8072371759972916,-2.0520800477240155,4.140407156070286,-3.875967576928491,-1.388228718434469,3.209439516067505,3.0,0.5043337769802962,0.5155504592691397,0.40537245238513275,-0.6070297186993294,0.5884646481716672,-0.002425148966935131,0.5340584210744153
14.0,-2.1583836094072386,1.328872359181664,6.826627695292579,-0.07002596201779122,-0.2633621690728408,0.050208673891307,0.022595920678861726,0.009368169800599744,0.9997007624662093,-0.8083824830705838,-2.0507569817790237,4.140602083748074,-3.875936467552407,-1.388065848178144,3.2095114284866693,3.0,0.5041453096996454,0.5153506200178254,0.40544775403984296,-0.6070490236355831,0.5884835196975301,-0.002442396385024993,0.5340156033744616
14.100000000000001,-2.0991377193410354,1.284185027466736,6.941939017938686,-0.08087133536428955,-0.2690945223253846,0.05444947059169541,0.022467632309966713,0.009284690502240633,0.9997044562747459,-0.8096250951097107,-2.049540647275785,4.1407647250019455,-3.875894447366232,-1.3879006603269215,3.2095835208892822,3.0,0.5038350653914612,0.5150207366224467,0.4057679390531595,-0.6070110889719208,0.5884532264568936,-0.0024517788150934154,0.5340920584676736
14.200000000000001,-2.2375187684343185,0.7241542037306463,7.135559654985126,-0.07691014834513811,-0.30008289970154284,0.05216244865738037,0.022272883347797257,0.009025777237051507,0.9997111573619115,-0.8109627830939785,-2.048385476696086,4.1409740978118785,-3.8758416332672265,-1.3877525877645347,3.209682455832141,3.0,0.5033840542734777,0.5145662495207853,0.40614414890917133,-0.6069836324059578,0.5884367239645549,-0.0024323012006131715,0.5341415316112399
14.3,-2.4855687709861978,1.0280180957233958,7.033536999760725,-0.06953737297183374,-0.30019999810445325,0.04494707017135785,0.021739943193730175,0.008429883509572918,0.9997276806909939,-0.8123751109433114,-2.0471168015489005,4.141165983887103,-3.8757463445074265,-1.3875938874695664,3.209723482083914,3.0,0.5031822635538967,0.5144239400554359,0.40624667388513697,-0.6069966832064135,0.5884355813138912,-0.0024040071749013665,0.5341280876060525
14.4,-1.971437452793707,1.8189288905188021,6.989355519924372,-0.10922170241173255,-0.27752034373750595,0.04676518115619372,0.020822943123334228,0.007451524855570951,0.9997553562782868,-0.813630765887582,-2.0458308998197747,4.141345174146267,-3.8756904664038294,-1.3874505458894162,3.2097995281219482,3.0,0.5028592036681229,0.5141243535254447,0.406375780621764,-0.6070352292584645,0.5884443629578234,-0.0024230369747731124,0.5340745182407639
14.5,-1.8526521293228086,2.254249226012541,6.159445576181798,-0.17020332191218845,-0.2593242779162711,0.05862691332247936,0.005621103613907266,-0.008630284289230319,0.9999343853712104,-0.8149296880942322,-2.044652501389162,4.141513687430905,-3.8756784401335658,-1.3872982055118457,3.2098829893523706,3.0,0.5023350062298639,0.5136032697962808,0.4067808328070349,-0.6070266085193615,0.5884089716209349,-0.0023921356408573447,0.534123446735445
14.600000000000001,-2.3243235841446763,1.7740409793764498,7.2273121510968705,-0.15630732901879268,-0.3094498258576705,0.05096055229723011,-0.002355813998698131,-0.017037157207192965,0.999791117865424,-0.816242910717228,-2.0434365548837814,4.14171341079607,-3.875566670215802,-1.387162987385885,3.2099556922912598,3.0,0.5020876676685849,0.5133459281851758,0.40692926310810884,-0.6070527297259034,0.5884127821268507,-0.0023968361057280165,0.5340895396267846
14.700000000000001,-2.7641527992473294,2.309773829266766,7.532833636942862,-0.1620068355857513,-0.31663040373252244,0.05579610537625302,-0.00992493080052645,-0.025010985938544318,0.9996307315139091,-0.8174428243123129,-2.0421023402923852,4.14182124856275,-3.875522566635049,-1.387026918093805,3.2100434477457744,3.0,0.5018780676165063,0.5131493578660019,0.4070820440807806,-0.6070335768335282,0.5884032978013389,-0.002380646417449757,0.5341218290388783
14.8,-2.8157882186895042,2.2833141116330222,7.727548738659293,-0.1679577846355236,-0.32816627588149067,0.054105359807319967,-0.011308589670582805,-0.02644752494283915,0.9995856981248313,-0.8187550192269923,-2.0407877070450327,4.142013522459108,-3.875474719066592,-1.3868790779239117,3.2100917647652425,3.0,0.5015520919620804,0.5128238208155887,0.4073097717598795,-0.6070373327468349,0.588398945939501,-0.0023710723162075607,0.5341223971010428
14.9,-2.6057428955172415,2.175964120951826,7.609013168109275,-0.16124203713559138,-0.3305438213951457,0.060549862206976675,-0.012252027168475203,-0.02741752637798065,0.9995486076941543,-0.8200793920742766,-2.0397456670171024,4.1421456512289625,-3.8753753675357667,-1.3867394335675411,3.2101878199471776,3.0,0.501135330781205,0.5123270476150913,0.4077109287032166,-0.606983718287593,0.5883837144595315,-0.0023828892498179736,0.5342000487938913
15.0,-2.9486287387065473,1.6681505064419493,7.557382314412757,-0.1646941391877786,-0.3479707832445066,0.050963151779556876,-0.013142044704822541,-0.02832934417433386,0.9995121529031431,-0.8215143103231033,-2.0386146164269143,4.142320336781843,-3.875343120594422,-1.386575659408631,3.2102678048526934,3.0,0.5009202221211891,0.512107666885551,0.40781580167534054,-0.6069983232612195,0.5883846182777236,-0.0023948579146831983,0.5341824044161451
15.100000000000001,-2.683621867802128,2.5285732630773943,7.642489200649274,-0.2063088342025476,-0.3214946923053283,0.06137130809148457,-0.01652336758726477,-0.03190102585647542,0.9993406556873281,-0.8228124927861039,-2.037255263033111,4.142488956451416,-3.8752485714354457,-1.3864364164254936,3.2103317706680663,3.0,0.5005525371995877,0.5117340312151114,0.4078890173283524,-0.6070660831019645,0.5884403941315981,-0.002422323960489434,0.5340438237149816
15.200000000000001,-2.434263738173706,2.7586043094861314,7.591386054826714,-0.2457600896693739,-0.34082808200450015,0.06475897925271897,-0.02012878891939235,-0.03571196820335788,0.9991570111054394,-0.8237712754970864,-2.035937925558809,4.142680644989014,-3.8752558556898946,-1.3862839129286728,3.2104200249618464,3.0,0.5003142742027674,0.5115233303947289,0.4080756513718734,-0.6070592043158103,0.5884138293149612,-0.0023941814381679993,0.5340810386276601
15.3,-2.4970305356679083,3.316589485363837,7.195390560118333,-0.2826423880746324,-0.3341882424149564,0.07113146052394152,-0.025792467645881938,-0.041656434556434974,0.9987790755938775,-0.8248608418486335,-2.0349279187459994,4.142788410186768,-3.8754407010304814,-1.3861847081027843,3.2104919909584253,3.0,0.5000297825446989,0.5112079989920219,0.40845303553340295,-0.606995050862269,0.5883690032396438,-0.0023691593284984633,0.5342034362858179
15.4,-3.2624484407480723,2.954351828988143,6.807169977329485,-0.2519951923818152,-0.39500523888895506,0.0701889586519267,-0.02978950226504225,-0.04583589024661395,0.9985043856095024,-0.825203625990277,-2.034588591671931,4.142847537994385,-3.8754670784012997,-1.3860810053901458,3.2104758446633066,3.0,0.4996111474451115,0.510757783257219,0.4087349553668099,-0.6070231401381556,0.5883981232596593,-0.0023965506165137367,0.5341393193039308
15.5,-3.419483706052692,2.8257092170540954,6.884611011110729,-0.24381833023496916,-0.39886324849407223,0.06726620433422177,-0.030143062274242773,-0.046176444160229806,0.9984778513494036,-0.8252117740186955,-2.03456511119985,4.14284761444053,-3.8754835142227626,-1.3860816211979825,3.2105001285969452,3.0,0.4995248390499735,0.5106532402585064,0.40881237411970234,-0.6070155012449505,0.588405246670599,-0.002399225612541904,0.5341401414004691
15.600000000000001,-2.9730678709905094,3.007910000220538,6.645677877748119,-0.2377548278186107,-0.4013230112602166,0.0670571218346673,-0.029236168796562646,-0.04520235588571137,0.9985491730482705,-0.825251579284668,-2.0345493927129343,4.142847956224735,-3.8754795232924812,-1.3860818460560114,3.2105084420536216,3.0,0.4995290373390746,0.5106517127357978,0.4087941137688542,-0.6070124508044065,0.5884199647861736,-0.0024049473349443814,0.5341273685534028
15.700000000000001,-2.9324903095473798,2.354351251105342,6.542656770986448,-0.24808724896814346,-0.4029410789060832,0.06721918247751724,-0.028724434606368386,-0.0446601319209728,0.9985891824230914,-0.8252797525615639,-2.0345766922101265,4.1428393347287775,-3.8754552604012455,-1.3860692443873477,3.2105035981283163,3.0,0.4995282328497068,0.5106374124448041,0.40880630426142883,-0.6070048131953154,0.5884209606007311,-0.0023965026291534854,0.5341349891727577
15.8,-2.886286451333988,2.5805856474341122,6.733705106204068,-0.23975522209279995,-0.40431431014029484,0.06702568224875816,-0.028877035678583195,-0.04484395109541509,0.9985765500362972,-0.8252705697317954,-2.0345250709311764,4.142858982086182,-3.8754795511309332,-1.3860652392611161,3.2105074478172706,3.0,0.49951600765708104,0.5106511795486086,0.40881772083986095,-0.6070089110465864,0.5884077154207632,-0.0023936764071310107,0.5341449360020307
15.9,-2.932718603504543,2.4781239487328115,6.6584970115812085,-0.24085650108465778,-0.4062006774943126,0.07321213787025273,-0.028355041064673053,-0.04429715170062551,0.9986156879014749,-0.82529180936712,-2.034508637191812,4.142847776679962,-3.875478831843516,-1.38606493475523,3.21050763130188,3.0,0.4995133565234718,0.5106470391214989,0.40878480217971613,-0.6070240244833013,0.5884120067778765,-0.002401010724639268,0.5341229999983421
16.0,-2.9772752120460817,2.485302569637509,6.652140465709947,-0.2408409274928724,-0.40960664594607793,0.0725393361554051,-0.028281996125701626,-0.04419832200789636,0.9986218722369647,-0.8252910843694398,-2.0345289040307115,4.142838785161523,-3.8754592161224792,-1.386081403374188,3.210515574010879,3.0,0.4995075227032272,0.5106465124199525,0.40881132122578656,-0.6070078663302738,0.5884156514948338,-0.0023923093640873016,0.5341373869567502
16.1,-3.1895506954524317,2.7511314173649515,6.674239803290093,-0.2321687243322737,-0.40616217571196267,0.06788973302495696,-0.02920183595942673,-0.0451062416024092,0.9985545489567615,-0.8252954781492648,-2.034553190270895,4.142855197234958,-3.8754631337388226,-1.3860812995861065,3.2104957247907393,3.0,0.49951858550512174,0.5106382982508949,0.40880108213626976,-0.6069985111555778,0.5884282848126717,-0.002394218721956232,0.5341340925311177
16.2,-3.205034824078421,2.7855531619921137,6.5519630706421115,-0.2314342323315766,-0.40527081115838326,0.0681470150963874,-0.029578188381656635,-0.04548430102871325,0.9985269014355563,-0.8252830336137091,-2.0345288715758265,4.1428351402282715,-3.8754794258433285,-1.386076933996465,3.2104638275066377,3.0,0.4995394074987847,0.5106167535288113,0.4087944440763165,-0.6070119895004165,0.5884252301464321,-0.0024283140317386117,0.5341219864607973
16.3,-3.0524306258264997,2.432824492901073,6.484635125812213,-0.23375304914867834,-0.4110350648975812,0.07398596175673176,-0.028917572438730273,-0.04485139272923819,0.9985749548525406,-0.8252911108379145,-2.034524870765814,4.1428234608328,-3.875491147742056,-1.386073414479391,3.2104596322661845,3.5215614219833764,0.49952183864071914,0.5106331751006906,0.40881171259959,-0.6070214993935008,0.5884066808708837,-0.0024171109200613167,0.534131664250844
16.400000000000002,-3.1614246955317413,2.623564980349717,6.466360181083462,-0.22762674878326764,-0.4100239022617443,0.07038142509785933,-0.02862792447570633,-0.04456908809233144,0.9985960075112567,-0.8252825341957228,-2.0345169506468714,4.142867954422234,-3.8754791857385276,-1.3860814571739897,3.2104833423641916,4.0,0.4994978693972064,0.5106548956685698,0.40879608899387426,-0.6070292964972701,0.5884030895398351,-0.0023937478702792734,0.5341268645042482
16.5,-3.1637725842817668,2.756149469210689,6.428027818254904,-0.22449955604966074,-0.40927620290623407,0.06992504050896199,-0.028836180734637003,-0.044795526008044984,0.9985794251498961,-0.8252955965649357,-2.0345326907795274,4.142851204429937,-3.8754920599229643,-1.3860772336830915,3.210484176377749,4.0,0.49950359268158234,0.5106464883884462,0.4087890048387198,-0.6070267380908445,0.5884164428917245,-0.0024017906670306703,0.5341150254196478
16.6,-3.0832742354269174,2.2589149952448397,6.415537225745256,-0.23690051281036914,-0.4093833193389447,0.07492198206147613,-0.029927129629565032,-0.04593555470582614,0.9984956957409246,-0.8252937424364595,-2.0345284518219313,4.142860315221285,-3.875450807473787,-1.3860791650669209,3.2105134969011604,4.0,0.4994983055846507,0.5106440722647897,0.4088009946381001,-0.6070240870767986,0.5884127681255725,-0.0024028170821808596,0.5341220820050885
16.7,-3.30607836418138,2.61405219288433,6.347780126961373,-0.22806641276972744,-0.40593481608948395,0.07398627362636138,-0.03021904822983992,-0.04625438280351756,0.9984724967625908,-0.8252916738323529,-2.0345169506468714,4.1428393163955715,-3.875459338629553,-1.3860692084260582,3.2104957582836517,4.0,0.4995140101169591,0.510630770955692,0.4087920067759991,-0.6070310324381467,0.5884139398996836,-0.002417105773119172,0.5341128331995877
16.8,-3.0876164717263026,2.376369844671196,6.512109171549296,-0.23314127335639934,-0.4099442593054673,0.0754196707943951,-0.03035256321435386,-0.04640655036209525,0.9984613765132834,-0.8252878189086914,-2.034537896879648,4.142861993536321,-3.8754332055762903,-1.3860520493219588,3.210494233604107,4.0,0.499511612376294,0.5106477390717495,0.40880035921778424,-0.6070121318164813,0.588413176868494,-0.0023881065292334224,0.5341352844199139
16.900000000000002,-3.0665628631403026,2.341789579231952,6.434267253541907,-0.23195559715321834,-0.41230057820972765,0.08087974963642539,-0.030562133333389474,-0.04662778611200671,0.9984446805470611,-0.8252878189086914,-2.0344881870055533,4.142871379852295,-3.8754702172936395,-1.3860562349127807,3.210477347014259,4.0,0.49950457849295965,0.5106333447777192,0.4088154019301719,-0.6070123970200749,0.5884162242098824,-0.0023929290634463027,0.534131604420695
17.0,-3.240937246499261,3.0894716353105087,6.542599219803507,-0.21498167333890678,-0.4096284274014454,0.07945513623854761,-0.031475644204128475,-0.04757153126996489,0.9983710749708722,-0.8252878189086914,-2.034525678796183,4.142863822997995,-3.8754707805794792,-1.386073414479391,3.2104804455272404,4.0,0.4994951047076061,0.5106436256435964,0.4088128942798742,-0.6070212942937152,0.5884089605524243,-0.0023877268835298168,0.5341295181657049
17.1,-3.051940314301028,2.579880972230207,6.431531771084403,-0.2252595065193674,-0.41350559554185945,0.08103766785408126,-0.03236098911018304,-0.048484373607041026,0.9982995323614197,-0.8252802429499984,-2.034506929547435,4.142855137312459,-3.8754733696780623,-1.3860714386566915,3.21050763130188,4.0,0.49950421050888516,0.5106316379729611,0.40880506468517636,-0.6070138298104306,0.5884284398688571,-0.002398296973601593,0.5341164945440302
17.2,-3.408543757051365,2.6257288734918167,6.380669729246259,-0.2233007344853731,-0.40265172742558,0.07615527238918611,-0.032688372219055385,-0.04881938349575045,0.9982725445335392,-0.825286015615878,-2.0344963289546993,4.142845863508201,-3.8754473889147296,-1.386086945491215,3.210478134831227,4.0,0.4995056190069542,0.5106430030890535,0.40880982335533517,-0.6070013788049273,0.5884234369768473,-0.0023966811121298643,0.5341361632251818
17.3,-3.515357189019375,2.550643651049197,6.277594389225025,-0.22577002627288872,-0.3980248389054912,0.07283763368086507,-0.03209983910253636,-0.04821743913114548,0.9983201965735105,-0.8252757852939899,-2.0344853858591923,4.1428505860878095,-3.8754879854617124,-1.386065382632431,3.210499908372111,4.0,0.49951280306632256,0.5106469162161332,0.4087952033767667,-0.6070134454155719,0.5884166138594199,-0.0023962804524651766,0.5341299686957514
17.400000000000002,-3.0700433558250744,2.4406653822536684,6.457223883184885,-0.2266591964383541,-0.4094297624895393,0.07790499133760113,-0.031236683998086667,-0.04733456488178458,0.9983902281153619,-0.8252947913011366,-2.0345096877380744,4.142858982086182,-3.875448622339043,-1.3860639121182685,3.210495710372925,4.0,0.4995014226981857,0.5106486089631886,0.40879434779043666,-0.6070271109527512,0.5884100614288648,-0.0023899542195018014,0.5341216849150249
17.5,-2.9714303231307695,2.5867015111314315,6.464289014978929,-0.22258468231377376,-0.4163545674006241,0.07511984609811449,-0.030664191999409167,-0.04673677333305732,0.9984363292772283,-0.8253312337074866,-2.034502002366097,4.142847537994385,-3.8754753075041712,-1.3860792913114872,3.210495710372925,4.0,0.49950614479972033,0.5106489340605741,0.4087885414253832,-0.6070248193251259,0.5884087047815761,-0.0024007487919879156,0.534125735446069
17.6,-3.085867493442445,2.348182745119363,6.300994825441498,-0.2273784418580483,-0.41364731609044,0.07626561570727387,-0.030224913764708854,-0.046269873621866305,0.9984715743516925,-0.8253105276481926,-2.0345109125843854,4.142839769215081,-3.87548125654768,-1.386073414479391,3.2105031803530237,4.0,0.4995053217589114,0.5106482973844918,0.4087887627025656,-0.607024135502382,0.5884087664326862,-0.0023992599473662175,0.5341264513712604
17.7,-2.9947811728015985,2.4920583352963943,6.46702518193962,-0.2227221649515344,-0.4136483836710568,0.07717305657311141,-0.02990723894775013,-0.045922972227631746,0.9984971528237456,-0.8252663514318545,-2.0345061244729785,4.142865750241871,-3.8754828018395036,-1.3860799223213995,3.2104944854610222,4.0,0.499506070140323,0.5106394006884567,0.4088237713446445,-0.6070050152904222,0.5884097630513329,-0.0024045940188902873,0.5341470584827301
17.8,-3.0556357641241245,2.544202620655007,6.3997879961539965,-0.2213743610126946,-0.4114985263259065,0.07661074818769985,-0.030446549210187003,-0.04649064416747672,0.9984538922530951,-0.8252935945918852,-2.034523905168861,4.1428351402282715,-3.8754865657281186,-1.3860619310909648,3.210495710372925,4.0,0.4994994415879664,0.5106474736365012,0.40877485094280613,-0.6070444975478653,0.588409411535509,-0.0023969403421778782,0.5341026091401273
17.900000000000002,-3.1714745200542658,2.653830673559093,6.384859258751796,-0.22051821695237997,-0.41375389440198085,0.07741414036792021,-0.031296682060940224,-0.047390025559141076,0.9983856642355838,-0.8252976668780783,-2.0345093192620634,4.142854864123801,-3.875454569068343,-1.386068953353478,3.210503341757733,4.0,0.4994994901001287,0.5106414630118933,0.40877970078291154,-0.6070362479853535,0.5884157144663723,-0.0024002446812087163,0.534105026587808
18.0,-3.1716799070089907,2.4158526842329997,6.343637052518135,-0.22534833964954967,-0.4090705591245161,0.07871413078651611,-0.030366806388083575,-0.0464122637101256,0.9984600807169617,-0.825301868646695,-2.034507395539537,4.142847537994385,-3.875463148156637,-1.3860636195474707,3.2105149175446734,4.0,0.49950443664891314,0.5106491885380119,0.40875962441420016,-0.6070341643118755,0.5884286478701202,-0.0023948909935040293,0.5340931699816561
18.1,-3.066352903434618,2.3812757871156487,6.281453596840392,-0.22570349869650908,-0.4107700223259125,0.07744689706739233,-0.029941478229314256,-0.04595648962362864,0.9984946163622364,-0.8252703622229327,-2.0345384515455387,4.142855111759814,-3.8754790943868858,-1.3860934694545863,3.210475977259961,4.0,0.4995143434031367,0.5106349812381159,0.40879287381424595,-0.6070321715985608,0.5884069204268707,-0.002407621785028361,0.5341193143815731
