xiamingqian9007/apple-picking-rnn/training_data/grasper_20191127_134431_noimg.csv
,/manipulator_wrench.fx,/manipulator_wrench.fy,/manipulator_wrench.fz,/manipulator_wrench.tx,/manipulator_wrench.ty,/manipulator_wrench.tz,/ground_truth.x,/ground_truth.y,/ground_truth.z,/joint_states.elbow_joint,/joint_states.shoulder_lift_joint,/joint_states.shoulder_pan_joint,/joint_states.wrist_1_joint,/joint_states.wrist_2_joint,/joint_states.wrist_3_joint,/mode./mode,/manipulator_pose.x,/manipulator_pose.y,/manipulator_pose.z,/manipulator_pose.rx,/manipulator_pose.ry,/manipulator_pose.rz,/manipulator_pose.rw
0.2,0.245087385018335,-0.9881783632377956,-0.1393937461080101,0.0031898478424345657,0.016454523650693123,0.027845645539784306,-0.03453153935022289,-0.4689610680840593,0.8825434011801913,-1.4496294052940113,-1.774505326369998,4.175642392993445,-3.3429630751491928,-1.342160528779101,2.5181528111691533,1.0,0.4561401730678422,0.46603675474884826,0.3286906905278582,-0.7233448454742727,0.33637997875052483,-0.2007415348957326,0.5686154945033617
0.30000000000000004,-0.3228111436458153,-0.9838566183501791,-0.17850338482511277,-0.0009299746829020926,0.019178586373643454,0.10006400755604211,-0.03441428259779907,-0.46828576982764336,0.8829065353170892,-1.4467454463858436,-1.7776712957104803,4.175005635561885,-3.342666943483193,-1.3429054019393112,2.5179615670590874,1.0,0.4565741952197537,0.4665462650362954,0.3285030081340371,-0.7233496181137138,0.3363630015911592,-0.20069945216318308,0.5686343210154736
0.4,-0.36669754111194064,-1.2717155297239542,-0.34306493718607073,-0.008677722991972434,0.024801930688166454,0.16802023706619632,-0.03433152724593691,-0.4675410836647625,0.8833041697347397,-1.4434396105394738,-1.7811900577940882,4.174142157747439,-3.3424106541755143,-1.343550130524202,2.5177693367004395,1.0,0.4571186238958154,0.46711969459536434,0.32824795079291175,-0.7233690352987869,0.33635539267388415,-0.20067025948523057,0.5686244239814449
0.5,-0.03898241299185423,-0.5866823566545325,-0.19407557307428477,-0.01747810902936111,0.03058205602901632,0.23318816369496545,-0.034322053556834035,-0.46701002012861575,0.8835856684447926,-1.4400290165098795,-1.7849163021450778,4.173435715250012,-3.3421131845431233,-1.34416371980776,2.517589966330025,1.0,0.45796920765473836,0.46793152782705344,0.32789686988194455,-0.723370154934758,0.3363794289524519,-0.20069919785808676,0.5685985672743183
0.6000000000000001,-0.23922337967241383,-0.6205062418997207,-0.05543533420420082,-0.02512512618659303,0.026026877857358625,0.27720168828624386,-0.034424145974088806,-0.46691462362094305,0.8836320904837299,-1.4368406782682823,-1.7880179081269347,4.172680070779515,-3.3418373854445265,-1.34478917330205,2.5173617977874483,1.0,0.4592880368465583,0.46922428014609946,0.3273835333671143,-0.7233478875985255,0.3364111353192198,-0.20075231529740528,0.5685893856226263
0.7000000000000001,0.045203543861895235,-0.49974256393194527,-0.011413236863534668,-0.026403540574870064,0.021988725229044777,0.27591507547982475,-0.0344343879236439,-0.4666129827378502,0.8837910186618685,-1.4338299884963812,-1.7914284353305274,4.171924937663551,-3.3416570296593755,-1.3455331906995336,2.5171592564672323,1.0,0.46042779783993854,0.4703631395410051,0.3269769258185889,-0.7233159797670738,0.3364171513027356,-0.20076681282996425,0.5686212980438284
0.8,-0.13936669495863296,-0.6143263658696722,-0.07893681766597906,-0.03431775404506535,0.01817878617324656,0.26767902234495544,-0.034510339371635126,-0.46718985546357583,0.8834831752811056,-1.4307356682989396,-1.7946020119733068,4.1713156468372565,-3.3414179060047746,-1.3462527318097621,2.5169548988342285,1.0,0.46107539762512756,0.47099298876055024,0.3266785227777706,-0.7233254562347071,0.33643583479501254,-0.20075505728873663,0.5686023394268018
0.9,0.06364700463172546,-0.49523859875489995,-0.014025969938855437,-0.027211537691192916,0.018012827947879964,0.25954988522859757,-0.034392324718368124,-0.46643495736257945,0.8838860206083283,-1.4279408246431087,-1.7977383286944286,4.170763399268562,-3.3412138424315394,-1.3467918648862263,2.5167869510625698,1.0,0.4618278767475013,0.47175922401906495,0.3263738579711413,-0.7233346505219431,0.33641479989213086,-0.20073664968754712,0.5686095877137977
1.0,-0.08054329827658152,-0.8759590578013069,0.1739599705794447,-0.02219097628655965,0.01853730773458475,0.2596025753663558,-0.03427094025572226,-0.46571925973851047,0.8842685511759399,-1.4248742445146225,-1.8007017927718811,4.170199896972428,-3.3409997378514644,-1.3472722153585397,2.516620147382077,1.0,0.46314558353158636,0.47316242188936064,0.32578799274485,-0.7233595524128187,0.3364065789020601,-0.2007271975690148,0.5685861093630659
1.1,0.11626097785785837,-0.8169167193895734,0.1018424953285908,-0.021859262202593828,0.02138997248240752,0.25522802109744236,-0.03431446371435467,-0.46640891110393357,0.8839032964124685,-1.422375022088131,-1.8037114435269497,4.169612079220335,-3.3408428855505656,-1.3477878464420994,2.5164637565612793,1.0,0.4636616928098264,0.4737450635007769,0.32563330956354725,-0.7233331037895455,0.3363823127829182,-0.20073166357250485,0.5686325349893481
1.2000000000000002,-0.05388835849464857,-0.708340302726665,-0.08770617142715746,-0.02397491050045544,0.01750243999179922,0.2531246468587727,-0.034322205220843595,-0.46644443433026106,0.8838843392665497,-1.4194259914376364,-1.8064259016571866,4.168989222312349,-3.340721996215513,-1.3484247049439058,2.5162706601375278,1.0,0.4644556403954534,0.4745487614062886,0.3252097442376583,-0.7233759897385432,0.3364020792138067,-0.200738385892617,0.5685639093361778
1.3,-0.0010570388991064383,-0.3531298387815127,-0.014217280525564258,-0.020959073283590035,0.018019235578449623,0.25174584316710746,-0.034316742162156716,-0.46623856553830584,0.8839931758598564,-1.417050987772063,-1.8093833823084022,4.168498326813124,-3.340565933590623,-1.3489994382861792,2.5161153014557143,1.0,0.46564838177311296,0.47571285345312775,0.3247966148797391,-0.7233385177388122,0.3364008951335192,-0.20074079477617743,0.5686114313144027
1.4000000000000001,0.08988635212646884,-0.8392081068782553,-0.11802108232566436,-0.027343652490383716,0.020308301896958415,0.256222497230905,-0.03428151228150373,-0.4660317294691702,0.8841035864522349,-1.4142805336387294,-1.8117698648386824,4.1679337055060515,-3.3404348082057354,-1.349551615841369,2.5159702455921535,1.0,0.4661159188383923,0.4762409601931712,0.3244311137041066,-0.7234370529445237,0.3363936089877958,-0.200704232920576,0.568503281562096
1.5,0.2803393436972031,-0.9406083041012612,-0.20331962044285434,-0.029666438218072577,0.018679721966076104,0.2581620379769839,-0.03423473305368059,-0.46582451810232967,0.8842146077467481,-1.412039554366237,-1.814370389577816,4.167371207257955,-3.3403148463448162,-1.34997172290009,2.515768780995451,1.0,0.4667420242522627,0.4768569107703945,0.3243011930135122,-0.7233827405151567,0.33637548819198404,-0.2007172923452544,0.5685784996128289
1.6,0.2881996383311827,-0.6137373514017631,-0.1251122511288588,-0.027277842249838403,0.015834561624764723,0.2562675575566925,-0.034241937770655616,-0.4654992466750493,0.8843855718535858,-1.4094992835118758,-1.8168293586728679,4.1668205698675465,-3.3402537233947376,-1.3504029030230287,2.5156604159031066,1.0,0.4676699074149637,0.4777473652830252,0.32390944682165784,-0.7233816165020401,0.33640269519664767,-0.2007320403959898,0.568558626290895
1.7000000000000002,0.12320012995612889,-0.8067573359256383,-0.1356179612313054,-0.02708037539166581,0.015375715451831853,0.25390209360132543,-0.03429636020020265,-0.4654285304935238,0.8844205834918165,-1.4072294009329174,-1.8190190290413715,4.166354019171441,-3.3401234986516437,-1.3508232143664634,2.5155161473025696,1.0,0.4683133151413486,0.47837359756244063,0.3236566378568755,-0.7233688574490666,0.3364247000304921,-0.20075311152443706,0.5685543997679395
1.8,0.11734024642391828,-0.5833262728862398,0.009205535710773913,-0.02168355697889033,0.013155613792375113,0.24894382397213446,-0.034418323802108464,-0.46636066101261614,0.8839248339460477,-1.4049580974357894,-1.8215663870397836,4.166016069209602,-3.3400623661420052,-1.3512189169530073,2.515432239713004,1.0,0.46884768866950943,0.4789095567445491,0.32353364181654154,-0.7233215236066264,0.33641582602728015,-0.20077631384213918,0.5686116752984713
1.9000000000000001,0.0732402134725811,-1.0224272371756773,-0.10661875710905577,-0.026382583823970785,0.02059119973672072,0.25278854184545146,-0.0344027995866671,-0.4664084037862675,0.88390024724291,-1.4027237649761037,-1.823608918508991,4.165550468209405,-3.3399903985642636,-1.3516632800890462,2.5152770148929253,1.0,0.4695946311957075,0.4796839340108323,0.32321386631709953,-0.7233303610799313,0.3364043322684058,-0.20077979035245858,0.5686060057342401
2.0,0.09310592554672915,-0.7261213134425732,0.1496872150531735,-0.02343527797171356,0.01936206415587763,0.2502058451881357,-0.03433977999548731,-0.46611863204205223,0.8840554572445228,-1.4005124254113055,-1.8259399767398543,4.165201124168558,-3.339918471562782,-1.3520590904860872,2.5151448249816895,1.0,0.4704829020635885,0.48061941458143553,0.32286727024242523,-0.723336029332387,0.33638783204204353,-0.2007592370640237,0.5686158139351926
2.1,0.09701539074222867,-0.9281462124064379,-0.10414337380218966,-0.021768539144284598,0.015926486818926406,0.246743995951299,-0.034252706719355965,-0.46560052291235454,0.884331773356056,-1.39855190298641,-1.8279466400565616,4.164841890768252,-3.3398939093300157,-1.3525140731564338,2.5150606636564357,1.0,0.4708767496594088,0.48105355965066526,0.3226769398279398,-0.7233461475084353,0.3363850038284939,-0.2007506638022884,0.5686076424626648
2.2,0.05287839781099575,-0.7845281095872448,-0.10156191566815775,-0.0227254648297999,0.020467662992184284,0.24997230342197724,-0.03415661070665954,-0.46474611605085087,0.8847847200607201,-1.3965791757945973,-1.8299769439076905,4.164411044207782,-3.339811284447918,-1.3529227415667933,2.5149296033994264,1.0,0.4713558546595109,0.48155917492358763,0.32245722435812935,-0.7233589183508216,0.3363850046497193,-0.20074349499195243,0.5685939263723748
2.3000000000000003,0.10041534334061636,-0.7403839931844961,-0.08859807971087079,-0.020894824980607483,0.02004340453889716,0.24864649655719698,-0.03402896254111748,-0.46373333483262374,0.8853205940254048,-1.3944177627563477,-1.8319831384980867,4.163981285076684,-3.339739416825897,-1.3532818450593984,2.5148210803947606,1.0,0.4721162786562415,0.4823564153140987,0.3221521512887913,-0.7233622519215472,0.33636749865322824,-0.20072479900045337,0.5686066420742784
2.4000000000000004,-0.043651402512908805,-0.603527456653272,0.01311436519950164,-0.019107795044172267,0.0184575909859885,0.24687808664240052,-0.033947871615271484,-0.4631897339883556,0.8856081399448867,-1.392697472679555,-1.8340020166287745,4.163679628779222,-3.3397151153420963,-1.3536302551886763,2.514750032831956,1.0,0.4725941746738735,0.482838832485836,0.3220182553127778,-0.7233361628668783,0.33636652311803095,-0.20070846278275437,0.5686461734522548
2.5,0.18250920928608383,-0.5193202422687804,-0.1688103487543253,-0.023259406803233327,0.010843767695890905,0.24585446052948667,-0.03417941818718489,-0.4654032666329427,0.8844384826438919,-1.3908772605639819,-1.8359112481304782,4.163356767298567,-3.339726901450958,-1.3539064503656546,2.5146420758956394,1.0,0.4732047387710579,0.48346594248485886,0.32162715746716913,-0.7234012787703041,0.33638861161611266,-0.2007145916986455,0.5685481022109905
2.6,0.10730633614453157,-0.6593364517454264,-0.2652010277135426,-0.01933076466469032,0.018681231249897297,0.24861816505252907,-0.034235461707797725,-0.46613656804261216,0.8840499674104366,-1.3888747611207124,-1.8375303073592644,4.162976533231724,-3.339614502665923,-1.3541798826406068,2.514555870100174,1.0,0.4736381454103585,0.48394868119048673,0.32142598365755737,-0.7234096540131718,0.3363794306196329,-0.2007169054409189,0.568542060895037
2.7,0.11039876109853597,-0.5826194300755061,-0.20505679148572065,-0.02396066758714613,0.01912790302639931,0.24913468067806616,-0.034283294869316264,-0.46635859455958295,0.8839311681104669,-1.387377177963647,-1.8394892824790217,4.162648146536219,-3.3396435120734247,-1.3545064085156975,2.5144039949361847,1.0,0.4740847314561678,0.4843838261214488,0.32136925185136905,-0.723347425960517,0.3363739752055256,-0.20074065590487875,0.5686160736627185
2.8000000000000003,0.05378581471653856,-0.6200901326233993,-0.033734853103732615,-0.021537988270442333,0.014746430555822039,0.24857025476802544,-0.034326434779727445,-0.4662883632801818,0.8839665453317631,-1.3856683842881483,-1.8412440188260628,4.162295547021745,-3.3396166359163098,-1.354795928516016,2.514387266390861,1.0,0.4745698341450775,0.48483394066699426,0.32111691206592496,-0.7233721020198904,0.3363980727952992,-0.20075500363078935,0.5685653587373538
2.9000000000000004,0.13121828934812477,-0.5959447774304618,-0.02273152208890933,-0.02427579182058471,0.019642494733847937,0.24833081070942142,-0.03430737430711521,-0.4655400865261744,0.8843610662383643,-1.383801149354083,-1.8426284612775998,4.1619397868968075,-3.3395715716755654,-1.3551318147015425,2.514270305633545,1.0,0.4750678951054614,0.48530617818886956,0.3207705301497658,-0.7234378730204947,0.3364299795445773,-0.20075510373999605,0.5684627525753658
3.0,0.11608264650613037,-0.5879873714073017,-0.025123781534574667,-0.015784351782466857,0.018654337196346054,0.24494796071005645,-0.03431419875133331,-0.46513501815731184,0.8845712787860679,-1.3823325028549478,-1.8442495225538602,4.161570072174072,-3.339596192554109,-1.3554187805619313,2.514186764721207,1.0,0.47571021681047737,0.4858980841086219,0.32080901405864876,-0.7232882960694432,0.33641825438958134,-0.20078340142619766,0.5686500018413394
3.1,0.2289506431830895,-0.7972133751263587,-0.05961514183179471,-0.026853499794717493,0.015089370288812963,0.2489066258449872,-0.03478747107038187,-0.470270113415224,0.8818282067715935,-1.3809420847070433,-1.8460356803829483,4.161369099317096,-3.3395934034901003,-1.3557068019174146,2.5141252008595862,1.0,0.4762502972199577,0.4864394331412365,0.3204672601078227,-0.7233552350417729,0.33642859900845345,-0.20076234091371709,0.5685661651714029
3.2,0.15724068389500725,-0.7479235153501702,-0.1755841351436606,-0.02687542939319869,0.01621831126283295,0.24727184527339524,-0.03484659629511699,-0.47099608095094025,0.881444025024807,-1.3792732664206526,-1.8472912061084201,4.161102771759033,-3.3395829852549026,-1.3559936499250265,2.5140431058956714,1.0,0.4764972944959534,0.4867419505471893,0.32020898418443605,-0.7234392795574218,0.3364273818072453,-0.20073481924066766,0.5684696631379522
3.3000000000000003,0.2270898430663046,-0.7197535564546463,-0.2649457192688975,-0.023452129510614546,0.016231005848803597,0.24983610717329438,-0.034641300327479856,-0.46890694528870386,0.8825659279175647,-1.377779687571429,-1.848574777642721,4.160863399505615,-3.3395830593504847,-1.3562579330499915,2.5139709408796747,1.0,0.4770023508776887,0.4872676990136265,0.3201770769836595,-0.7233470223196294,0.33641292767997605,-0.2007494329124063,0.5685904436204149
3.4000000000000004,0.07838911094745227,-0.4329829812531573,-0.3464250482274425,-0.017917474998295036,0.01584873497523556,0.2492183035025712,-0.034535547372662574,-0.46789255751869824,0.8831102709227547,-1.3765140922169605,-1.8500549101762007,4.160587787628174,-3.3395492061786936,-1.3564654864839254,2.5138529156853586,1.0,0.4773132270770292,0.4875744470036785,0.3201828282045692,-0.7232888114702705,0.3364035720916779,-0.2007463740621644,0.5686711045822325
3.5,0.046378767948972645,-0.6391103765312165,-0.1342704981398073,-0.03232671092486643,0.017982768254287587,0.2470359863571856,-0.03449587385406392,-0.46759161746123384,0.8832712135197008,-1.375121848412399,-1.8514808949094772,4.160394159832529,-3.3395698953073967,-1.3567142433938573,2.51381475656527,1.0,0.4776170406725517,0.4878837620152756,0.3199652505330712,-0.7233353693379252,0.336415545109506,-0.20073405695259738,0.5686091477041084
3.6,0.0848910666155076,-0.7317078012345336,-0.12940364169826182,-0.028699843064889534,0.019166913807771906,0.24508818629327747,-0.034535569631792586,-0.46805816838710795,0.8830221669347108,-1.3737163488563526,-1.852808093194888,4.160120924825697,-3.339548664102877,-1.3569635436083627,2.5137085494797033,1.0,0.4779707272884444,0.4882536719772187,0.3197373884611522,-0.7233725708821649,0.3364235277745523,-0.20073081508016097,0.5685582411084256
3.7,0.2031593129550601,-0.8088474510093479,-0.2373461679638132,-0.02519403143803378,0.016687516908218295,0.2456723471139401,-0.034623372183284956,-0.4689927230647996,0.8825231080274402,-1.3724231434038858,-1.8539129602007245,4.159894460114759,-3.3395611185558205,-1.3571575323687952,2.513660977502504,1.0,0.47840826034611006,0.4887232873911109,0.3195755485359438,-0.7233626924523099,0.3364102131864795,-0.2007379388612464,0.5685761721473301
3.8000000000000003,0.06451431439945755,-0.8878209408402618,-0.2794126594046019,-0.030227555004349243,0.018449794620461035,0.24578820718835384,-0.034635803983460986,-0.4692293745510152,0.8823967830019418,-1.3712640843689585,-1.8552449008571839,4.159665439779529,-3.3395588286033266,-1.3573381657038441,2.5135529666517873,1.0,0.4788180276200947,0.48915875987057256,0.31949116941448974,-0.7233316827054128,0.33638358407863655,-0.20073585558946822,0.56863211080428
3.9000000000000004,0.22642927652727163,-0.8855932941880322,-0.2994706758709108,-0.02797958869829473,0.014903273185637589,0.24772330223839306,-0.034644346323314666,-0.46941737529790756,0.8822964809657178,-1.3699034305027944,-1.856564361680079,4.159495144762233,-3.339550746235393,-1.3575546379264138,2.5135619252067842,1.0,0.4791372431233936,0.4894796654069583,0.3193349167904688,-0.7233356543256284,0.3363987410237964,-0.2007387477053251,0.5686170709613088
4.0,0.03186800491535974,-0.4676581702025453,-0.3475600187925867,-0.02029552789384851,0.018609728082256305,0.24236805951172388,-0.03460519965503995,-0.46902571241014956,0.8825062919655899,-1.3687302576926614,-1.8577849296010944,4.15927905911478,-3.3396059052863984,-1.357780210572098,2.5134804604436365,1.0,0.4796266643708933,0.49000218335861995,0.3190842167747793,-0.7233527119348292,0.3363982602869185,-0.20074191974025374,0.5685945359141783
4.1000000000000005,0.05171532892027718,-0.6088472212985829,-0.2585779725305542,-0.020108073765887344,0.01967991676906382,0.2437443192345274,-0.034597999291734814,-0.46927457847647897,0.8823742519597702,-1.367589887652634,-1.858910545231093,4.1590657234191895,-3.3395830593504847,-1.3579743544207972,2.5134194291573855,1.0,0.47980307523194193,0.490206683295132,0.3189921532313492,-0.7233719309792364,0.3363917588476429,-0.20072703536499908,0.5685791865029343
4.2,-0.06467722022565689,-0.43847228307859243,-0.3087794089890724,-0.023095731307035496,0.02181898473777941,0.24702015155718665,-0.034556546875064466,-0.46877657712473836,0.882640285900062,-1.366373477465492,-1.8601009701371407,4.158860650949653,-3.339618312808683,-1.3581764451919793,2.513335704803467,1.0,0.4800789437388753,0.4904671224238147,0.3189010953692103,-0.7233605964468794,0.33640015865292744,-0.2007385955911775,0.5685845557227016
4.3,0.13132585323464335,-0.7599170236803605,-0.3414599796010337,-0.026096879273945047,0.019754961092056857,0.24511375169737537,-0.03451509445839412,-0.4682785757729977,0.8829063198403538,-1.3649754265641452,-1.8612882554943648,4.158621311187744,-3.3395969331677047,-1.3584054000319354,2.513275623321533,1.0,0.4803814180864145,0.49077910133761116,0.31879550457224765,-0.7233492545674168,0.33639901439259706,-0.2007430598834578,0.5685980855939268
4.4,0.18283695566515,-0.7268855965406485,-0.1637993160116983,-0.02769135243703986,0.020135673795602747,0.25072959659508803,-0.034521372547538606,-0.4682232000486481,0.8829355480481825,-1.3636836092699878,-1.8624968797115302,4.158416240779205,-3.3396322860170273,-1.3585742870006965,2.5132174796187443,1.0,0.4807588455451829,0.49119130945422146,0.3186791471635101,-0.7233315628394297,0.3363846981487616,-0.20073730524205957,0.5686310924806969
4.5,-0.13125199357511327,-0.4067797943047701,-0.11963582267740858,-0.01586434873616893,0.020401214868323594,0.24435205014409578,-0.034571990375737924,-0.468579005904767,0.8827447931612408,-1.3626093030841817,-1.8636768269830684,4.1581703945741815,-3.3397632721610844,-1.358778929955276,2.513170199128675,1.0,0.4812873600842967,0.4916823119010825,0.3184900010884701,-0.7233420931313197,0.33639154347251354,-0.2007574411117362,0.5686065384981508
4.6000000000000005,0.04554873862380279,-0.33536548401410804,-0.0926394242878298,-0.020532350926973978,0.018623526454189836,0.24342772904152546,-0.034589250124590756,-0.46871778685663484,0.8826705029866283,-1.3614796705893781,-1.864996317575851,4.158006036468138,-3.3397229058898388,-1.3590012733273396,2.513132261668211,1.0,0.4814909748486913,0.4918737026307454,0.31837180286106503,-0.723358964784988,0.3364083680393336,-0.2007580473564197,0.5685749065865817
4.7,-0.07920401476189048,-0.43762216801908305,-0.22289848121885558,-0.024532190115932526,0.023650014044228212,0.2431807483860327,-0.034574459014798886,-0.4686477323675203,0.8827082787374603,-1.3601546399211923,-1.8662535747867757,4.157746379719889,-3.3397489719065807,-1.359221767120396,2.513060557115687,1.0,0.48176256101865234,0.49218391898472985,0.3181907807563012,-0.723386008493168,0.33640932857920475,-0.20074241035763113,0.5685454520484878
4.800000000000001,-0.007345973008271056,-0.670742504904178,-0.21984022875055448,-0.02492606753421164,0.014666538956407398,0.24313093534851293,-0.03446098195669393,-0.4677442903197029,0.8831908719693925,-1.3586913616661047,-1.8673366088151429,4.157555103302002,-3.339707171352046,-1.3594353163033173,2.5129979579444908,1.0,0.48226710124581057,0.49271496410177534,0.3180031015245663,-0.7233656245930405,0.33640013723512935,-0.20073416768750596,0.5685797347321752
4.9,0.24976166987998155,-0.760010118626505,-0.18346265295063768,-0.028337980765515122,0.01386993735525917,0.24424268408709907,-0.03434750489858897,-0.4668408482718855,0.8836734652013248,-1.357588736303747,-1.868447009377557,4.157351016998291,-3.3397056655176756,-1.359652813292266,2.5129285405021786,1.0,0.48250029535315325,0.49297547124501073,0.3180016266580717,-0.7233255087959383,0.33637625947897887,-0.200721490534278,0.5686493679076111
5.0,-0.13125789800206217,-0.6887092194670229,-0.29817184349928594,-0.024626599037311053,0.02151583096122503,0.2516411552287184,-0.034407120895305475,-0.467199761714701,0.8834815340340829,-1.3565239698649108,-1.8698048296466425,4.157110951695001,-3.339741461120697,-1.3598922911943503,2.5128580324604,1.0,0.4829064997374783,0.4933350612287008,0.3178591436436205,-0.7233074503463766,0.33640001112409346,-0.2007398970391394,0.5686517902247821
5.1000000000000005,0.0876045426396603,-0.47747185402549625,-0.10865151239471157,-0.021379790704649217,0.02123386706006908,0.24928011129512914,-0.03452983211414876,-0.4682415029284086,0.882925529207127,-1.3552217483520508,-1.8712871376857563,4.1568589869961174,-3.3398097827494095,-1.3600758645321698,2.5127959910854734,1.0,0.48312571487560335,0.4935640611765721,0.3176754894058716,-0.7233582825071528,0.33640344431924746,-0.2007294095992866,0.5685887986061374
5.2,0.1689533858696895,-0.7187792992005322,-0.11281490544911965,-0.027241570763518828,0.021834325502519153,0.2478563259960821,-0.034530302969304205,-0.4686283155862349,0.8827203137178973,-1.3537948902789705,-1.8722345081927223,4.156676656829412,-3.339850200586258,-1.3602535969126643,2.512761578174925,1.0,0.48355743174874816,0.49402036033976604,0.3173050391260723,-0.7234614982647876,0.3364115863489136,-0.20072516903627693,0.5684541420502045
5.300000000000001,0.11030453169488187,-0.7699805078820695,-0.2313341746138802,-0.02469134217388984,0.021175247635006722,0.240546017939864,-0.034503613737374206,-0.4679099196567817,0.883102362956081,-1.3524355402336932,-1.8733274831040883,4.156427380547215,-3.3399301082226134,-1.3604816070503323,2.5127005577087402,1.0,0.48385172737488935,0.494292508808188,0.31735991110626033,-0.7233806919351116,0.33640528976126327,-0.20075044553010718,0.5685517691253659
5.4,0.40962613407824255,-0.9081859525277544,-0.12749626000908068,-0.028169610233977717,0.011794654278224043,0.24413449615715024,-0.034501253566137945,-0.46754775582241165,0.8832942192714015,-1.3513960492152202,-1.8744667105474475,4.156235867619502,-3.3399673900999964,-1.3606839400759794,2.512606655405141,1.0,0.4841703344326404,0.49459431542891935,0.31739479037370577,-0.723293614605701,0.3364026941099916,-0.20076145754758826,0.5686601899460937
5.5,0.12093994120294513,-0.6753327067892525,-0.07106470789297864,-0.029667770733524307,0.017987745555360365,0.2460697164446167,-0.03451755545505221,-0.46769279629143373,0.8832167411782569,-1.3502156145700546,-1.8759194729603585,4.156041091892609,-3.3399912319579066,-1.3608509691600679,2.512579269885257,1.0,0.4845654261380005,0.49500381675394683,0.31721768802016087,-0.7233050157449761,0.3364030483606094,-0.20075044388232907,0.5686493669502298
5.6000000000000005,0.14632576433805042,-0.7552938218479068,-0.04264125421849449,-0.030663687401496168,0.016657441114748307,0.24707939231043977,-0.03518039069317679,-0.47447520413023714,0.8794924670078926,-1.3488213024008424,-1.8772381048663722,4.155786375058875,-3.3399937849506007,-1.3610239479142632,2.512526277487464,1.0,0.4848838285385409,0.4953430874433508,0.3169212844373819,-0.723383557010315,0.3364181841406906,-0.20074651739734245,0.568541881112925
5.7,0.35055714506399205,-0.7841101115134714,-0.061110526160332294,-0.03637720792987073,0.012737973363526648,0.2433926759364018,-0.03661280813010925,-0.48869969697379767,0.8716658066663721,-1.3474980824022518,-1.8782324128690262,4.1555887289456575,-3.3400164009089215,-1.3612271830536466,2.512472629547119,1.0,0.4853362834817963,0.4958243797848941,0.3167063752894053,-0.7233828772528418,0.33643822258000705,-0.20074342043785864,0.5685319818932926
5.800000000000001,0.1632237160490912,-0.7560126173692154,-0.12247616270027596,-0.027047464290048815,0.019860077350663658,0.2438693377563904,-0.03696556206368472,-0.4922027409244288,0.8696924282215083,-1.346242036808064,-1.879265804856744,4.1553730964660645,-3.3401422279302424,-1.3614279668907974,2.5123806852251827,1.0,0.4855183800178834,0.49600218164350973,0.3167244673572812,-0.7233456854647718,0.3364289318588051,-0.2007538549645116,0.5685811136897975
5.9,0.3506999112545436,-0.7956936346168177,-0.12127865220448486,-0.030862194978148513,0.016493780226065353,0.24613338266315693,-0.03710500391971185,-0.49354632497500656,0.8689274689078833,-1.345076560974121,-1.8805501662456594,4.1551569652374925,-3.3401339850441327,-1.3616326490985315,2.512360458240225,1.0,0.48581392760176023,0.4962888718513721,0.3167153758686358,-0.7232998482548103,0.33641219443675097,-0.20076348668636698,0.5686459244225277
6.0,0.1711589988224642,-0.927436029797342,0.0011589463584719961,-0.02891651111980718,0.01615909974142015,0.24134030262613326,-0.037043030291464954,-0.49282020653930764,0.8693422368902991,-1.34374683023111,-1.8818709330201413,4.154978275299072,-3.3401785417562904,-1.361836433714653,2.5122842309980697,1.0,0.4863213920826624,0.49679327887608676,0.3164234314142871,-0.7233339667155454,0.33643954390442554,-0.20074071268104793,0.5685943828118966
6.1000000000000005,0.131641091832994,-0.6789529029655531,-0.10710892972626351,-0.02587042493308236,0.016394152066892723,0.2427994255266873,-0.03707746355006683,-0.4932782259807355,0.8690808593965063,-1.3425092938506265,-1.8831516298048019,4.154776486539566,-3.3402423300424937,-1.3620290958747843,2.51222976502651,1.0,0.48655085882401333,0.4970275195004511,0.31634058145184224,-0.723337024278692,0.33642579800563377,-0.2007653888998324,0.5685899140538979
6.2,-0.03531380943552631,-0.8908477987088225,-0.1992240000511928,-0.027486065042913756,0.02181682200360105,0.2455351932598145,-0.0370993926924337,-0.49360820608827677,0.8688927064752828,-1.3412488409639554,-1.8842993646593187,4.154561196646917,-3.340314106449992,-1.3622461741731944,2.5121383109632367,1.0,0.4869938401279805,0.49751004202696264,0.31608703739724475,-0.7233709236770904,0.3364252443377876,-0.20075226655262354,0.568551747182961
6.300000000000001,0.19542421916742572,-0.7529198719252977,-0.18999609984873292,-0.02612930622809566,0.017118313863219187,0.24735367529192387,-0.03706924706615689,-0.49334618664485486,0.8690427988406145,-1.3399381304822102,-1.8853580693432084,4.154363196373213,-3.3403402757910725,-1.3624471260396882,2.5120911578872795,1.0,0.4871922503782863,0.49773415328484055,0.31604552841884703,-0.7233457037180251,0.33642617116215773,-0.20074258773538503,0.568586702042131
6.4,0.17424306851342353,-0.7275512385981214,-0.1424943737612217,-0.023528046068075053,0.01948252069325388,0.24579027808378784,-0.03693793597979457,-0.4921922343046679,0.8697022244737191,-1.3385535955293288,-1.8867359700295034,4.154172483659956,-3.340376907834679,-1.3626736699991027,2.512038770891401,1.0,0.48748443301882416,0.49802441772189565,0.3160202620206172,-0.7233106603077698,0.3364049665587656,-0.2007525601413509,0.5686403052514193
6.5,0.13694742253904357,-0.7420606000376482,-0.0687979685869392,-0.02391983083106085,0.022250980068296063,0.2427976479791452,-0.036870151605193004,-0.49153169850174516,0.8700788070473903,-1.3373575261831574,-1.8879627982818867,4.153969292998343,-3.3404461737510505,-1.3628410327458547,2.51200532913208,1.0,0.48783671436280923,0.49837595129327616,0.31589403282672235,-0.723307629683321,0.3363994883891388,-0.20075792179984359,0.5686455081050319
6.6000000000000005,0.23929914634448263,-0.4739738631445829,0.01906276551520275,-0.022571546921683644,0.01870656841210276,0.24813832468856487,-0.0368010487176477,-0.4910899116277972,0.8703311642634943,-1.3361689208954304,-1.88914647335646,4.1537788433517076,-3.340427098849312,-1.3630801341083265,2.511932849884033,1.0,0.4882764044367824,0.4988547140475989,0.31563721646940696,-0.7233408533026571,0.33640419899874463,-0.20074500443366894,0.5686050193537897
6.7,0.27563922274587,-0.5193293585827452,-0.1251775110093526,-0.024609106865212383,0.018880067444110468,0.24494567608401538,-0.03687526723307356,-0.4918840603873943,0.8698792762168166,-1.334948949325076,-1.890311298586445,4.153585750569642,-3.340484441806966,-1.3632414158308297,2.511903449659183,1.0,0.48859672581263963,0.4991793518554432,0.31545624547843526,-0.7233692411616963,0.33640840959046636,-0.20073601048050788,0.5685695885239853
6.800000000000001,0.2483819753434728,-0.6649475532586999,0.000888148840000328,-0.02523243467016964,0.0220485109998074,0.23895734139525077,-0.03679643023468463,-0.49091553160961837,0.8704293744003386,-1.333392888077924,-1.8915217906718,4.153393477431109,-3.340581347513858,-1.363488231327004,2.511791497239301,1.0,0.4889616531150976,0.49953717856143426,0.31534398671779706,-0.7233503004793246,0.3364107779987319,-0.20074460455687654,0.5685892497964254
6.9,0.24390998502342215,-0.9494591824664264,0.11906548270787258,-0.031243018853030886,0.017819566230759604,0.24352686751088756,-0.03661512051043052,-0.4892911732345392,0.8713503815395467,-1.3322233806318202,-1.8927189312376917,4.153177524814135,-3.340631616589825,-1.363636012961222,2.5117431329683657,1.0,0.48920593363504,0.49982114657704235,0.3153051875117057,-0.7233241962659217,0.33639281508991326,-0.20073651395299147,0.5686359406669108
7.0,0.2669239523856006,-0.6741348152849032,0.11381312935061444,-0.03594631055920107,0.01908686788976397,0.24267081776764368,-0.03645695178220047,-0.4879605553616747,0.8721039541994875,-1.3312238540461383,-1.8938181468903361,4.153000605319359,-3.34066334124801,-1.3638238313038165,2.5116336467011946,1.0,0.4894959530602508,0.5001337698220422,0.31518931295432656,-0.7233265240335818,0.336386313578074,-0.2007288515523421,0.5686395306530561
7.1000000000000005,0.2787017030387803,-0.6101628620612023,-0.014110289530905193,-0.038006703598949865,0.017319830530523043,0.2434847177206552,-0.03641030769652799,-0.4875196719459238,0.8723524373303462,-1.3312698671865633,-1.893787738645958,4.152988910675049,-3.3407231769957484,-1.3637925060884586,2.5116930182230655,1.0,0.48981003803648,0.5004480700784432,0.31501566173393003,-0.7233496620842308,0.3363898461104762,-0.20072988680282083,0.568607641823891
7.2,0.06219756431281327,-0.7086359614168476,-0.16821542839361225,-0.0278538305140863,0.016407551760371,0.23947049696832357,-0.03636967314828902,-0.4870757831822432,0.8726019614101999,-1.3312363162711012,-1.8937694149912598,4.152988910675049,-3.3407137209208986,-1.3638032348307656,2.5116726351441896,1.0,0.48988546434739233,0.5005205194668348,0.3149580803021238,-0.7233619102434203,0.33640058366301273,-0.20072298977551611,0.5685881422398399
7.300000000000001,0.08691204570113537,-0.7926186781217444,-0.26588923774192513,-0.023796612585257733,0.016241802346230926,0.23690445799194,-0.03633116241977279,-0.4866308323040025,0.8728518533699496,-1.331184026405169,-1.8937844755786934,4.152987821962811,-3.340724311070996,-1.363800350819723,2.5116708152109624,1.0,0.48989053155947937,0.5005224738844959,0.31494787280606257,-0.7233652343521596,0.33640247123022804,-0.2007245718377843,0.5685822379756329
7.4,0.06343022443334416,-0.884074551302899,-0.29981976049472403,-0.030438886206890135,0.020457880258761645,0.23916545956264929,-0.03635603790240805,-0.48676641198219217,0.8727752319275696,-1.331142652615338,-1.8938205461950905,4.153000354766846,-3.340709170843605,-1.363790038276798,2.51166951471856,1.0,0.48989914358538944,0.5005309681470274,0.3149577832257164,-0.7233557965922144,0.3364001808422852,-0.2007348864315963,0.568591958468474
7.5,0.19035600992214216,-0.7799585865827722,-0.1276225205474586,-0.02965620788903263,0.018866873864825287,0.23892220051723884,-0.03637461491064249,-0.48685148691797114,0.8727268910581454,-1.3311300938314126,-1.8938280544676722,4.153010199402905,-3.3407389276197845,-1.3637884298907679,2.511669635772705,1.0,0.4899118495037891,0.5005395927306414,0.31497148399070546,-0.7233457768454327,0.33639979386095803,-0.20074469613266804,0.5686014709660763
7.6000000000000005,0.20607529175174277,-0.6663488176724341,-0.053999975031026375,-0.02459785879389843,0.018878329234012742,0.24065262856178127,-0.03628342437790704,-0.4859580259992881,0.8732284501910564,-1.3311684752564217,-1.8938327421202057,4.152963443764261,-3.3407199893920256,-1.363800350819723,2.5116975564066206,1.0,0.48991786758464295,0.5005419038165324,0.31498272102877495,-0.7233425102846041,0.33639546864768144,-0.2007518669628794,0.568605653682227
7.7,0.3472939860668681,-0.8250486883942215,-0.03590763265815638,-0.029844716389317374,0.018529496397976176,0.2431702997379493,-0.036245019628674394,-0.4854498961118997,0.8735127675110703,-1.3311525735354484,-1.8938333896516848,4.152998789837355,-3.340702183775849,-1.3638225625427463,2.5116820335388184,1.0,0.48992143201216376,0.5005308056690206,0.3149751719316653,-0.7233412122077697,0.33640739213983667,-0.20074934923521542,0.5686011396551243
7.800000000000001,0.27540098533226787,-0.7600625895971282,-0.06149967982742596,-0.026086917772752054,0.018411132786691004,0.23933915581263296,-0.03622917871088234,-0.4851064799762453,0.8737042225616855,-1.3311271008033816,-1.8938304323149517,4.152978988405511,-3.3406996509164397,-1.3637884298907679,2.5117273711119896,1.0,0.489920996747111,0.5005246960024531,0.3149947220154135,-0.723331651750015,0.3364098063518288,-0.20075712100950746,0.5686091294825418
7.9,0.25739240493642834,-0.8652310911936304,-0.18586362115663518,-0.029257999462579256,0.015901221673599628,0.2404624473935077,-0.036199405234567966,-0.4849129715402265,0.8738129047794387,-1.331162677445569,-1.8938314738548347,4.152987269369211,-3.3407231769957484,-1.363802060513304,2.5116838116201428,1.0,0.48990958998120127,0.5005320170587179,0.3149980666691289,-0.7233306129657525,0.33640515117619335,-0.20074967062768354,0.5686158354738179
8.0,0.02984299316493541,-0.6408124875438734,-0.03245254389946342,-0.026265083441125284,0.022916202157424122,0.23829918217201917,-0.03616342256477168,-0.48478627107131406,0.8738846984003515,-1.3311771666269971,-1.8938280544676722,4.152968385133909,-3.340678332759541,-1.363800350819723,2.511719864994892,1.6404167923696362,0.48990981674084955,0.5005436480301915,0.31496195726748016,-0.723351398565946,0.33639800665311953,-0.20074368720700098,0.568595732800586
8.1,-0.0287711167937746,-0.7721678659068965,-0.1794754201949995,-0.02871612115591567,0.027210202308494556,0.23281859202585103,-0.03609531230402196,-0.4842065229461424,0.874208773185509,-1.3311112460790733,-1.893815656701559,4.152963407922684,-3.340695664272883,-1.3637884298907679,2.511695964438274,2.0,0.4898982325973996,0.5005506376577158,0.31494792112741193,-0.7233600557018653,0.3363923496819824,-0.20072337507649224,0.5685952370433042
8.200000000000001,0.25141201627654264,-0.8846414929348337,-0.034597266726755005,-0.029719138715857303,0.019079577276445138,0.23776905221150899,-0.03604179418480917,-0.4835594455996072,0.8745690430585252,-1.3311374476585143,-1.893815656701559,4.152945007058596,-3.340696968250996,-1.3637927906209877,2.5116924656532604,2.0,0.48991463711765615,0.5005278044101605,0.3149670817965832,-0.7233504806477793,0.33640485047845764,-0.20075123983936427,0.5685901849523534
8.3,0.4709811790160438,-0.7293620283927895,-0.07338443881839093,-0.03158348904907167,0.02325501894731455,0.241073317417403,-0.03606096396090707,-0.4835791735142281,0.8745557487580231,-1.331157241501016,-1.8938466851288445,4.1529544538288565,-3.340721394217917,-1.3637986366102697,2.5116926485271,2.0,0.48991800328805096,0.5005327315958623,0.31496190982852096,-0.7233562445908867,0.3363959390868906,-0.20075952695178484,0.5685851984666097
8.4,-0.006981365515550619,-0.6450946619106623,-0.031862636788134335,-0.019923303630316656,0.01677593270520252,0.23519629820074633,-0.0364017108206703,-0.4869163568002812,0.8726862544602515,-1.331120002844281,-1.8938399753966273,4.152973885519541,-3.340710779229635,-1.363813993413924,2.5117112487686386,2.0,0.4899134792805948,0.5005297619438088,0.3149694550995103,-0.7233485033106127,0.33640843837073214,-0.20075014161516797,0.5685909654512215
8.5,-0.04508974764589643,-0.5155735406668328,-0.13554392368831994,-0.025480331729395407,0.02539680464936361,0.23606344357148668,-0.0364991494125965,-0.48794666490387595,0.8721099628034231,-1.3311492822798934,-1.8938536945818987,4.1529737262101145,-3.340686937371725,-1.3637902281470842,2.5116820335388184,2.0,0.48991239161336114,0.5005337307076599,0.3149941206889568,-0.723335389141627,0.3364046429790751,-0.20074369927339103,0.568612168529206
8.6,0.21332576029473904,-0.7321888430196529,-0.0047079236093943155,-0.030413743152799957,0.023274996298141375,0.2404070934224178,-0.0364609433538267,-0.4876908873306229,0.8722546331676115,-1.3311610865746681,-1.8938385523517463,4.152966548783815,-3.3407151052860735,-1.363800350819723,2.5116848796285804,2.0,0.48991175254605945,0.500539878923095,0.3149740972264682,-0.7233455898099092,0.3364064618963417,-0.20073064265350785,0.568602725280885
8.700000000000001,0.16675677328657973,-0.6894867015867162,-0.15851328713802815,-0.03424198802412819,0.022282253090131425,0.24751919322177784,-0.03648539535291909,-0.48779110630367783,0.8721975587061326,-1.331158843371352,-1.8938399753966273,4.152985301348647,-3.3407132012776155,-1.3638063353565695,2.511684408095662,2.0,0.48992634602713253,0.5005296920624195,0.31494830491422987,-0.7233448771686285,0.3364255446346884,-0.2007416032031996,0.5685884718621758
8.8,0.32782832876229573,-0.46079567243482344,-0.1867491731939696,-0.03418024965104495,0.029919558813164722,0.2416092106059716,-0.036524791665781535,-0.4879344785902793,0.8721156156777009,-1.3311375282017404,-1.8938381572605383,4.153009116260781,-3.340724116382726,-1.3637700424411248,2.511718273162842,2.0,0.4899223364377797,0.5005325769141843,0.31496310165349994,-0.7233374211987929,0.33641680666057305,-0.20074932825283143,0.5686003996620296
8.9,0.13542102209909457,-0.35985948355478153,-0.059884955294043946,-0.027630603813645325,0.02154969617238935,0.24179457750809533,-0.03641124354668978,-0.4869106046442624,0.8726922030983048,-1.3311011577563339,-1.893849961384687,4.15296893869893,-3.3406908072535155,-1.3638142066895733,2.5117085210607293,2.0,0.48992620259728786,0.5005341885141237,0.31496947492068483,-0.7233374853536706,0.33640600876006876,-0.20075979265153857,0.5686030119572528
9.0,-1.2273282369234644,-0.6184939688157594,0.14791060750395174,-0.020048513611623832,-0.08907711863979098,0.2133312086727941,-0.03636848687231321,-0.4864817054105918,0.8729334911492288,-1.3311410962376231,-1.8938457834249478,4.152973439683616,-3.34071729152705,-1.3638203206587527,2.5116859055576986,2.0,0.48992080576043306,0.500544958971821,0.3149839196997013,-0.7233312382864869,0.3364063790968439,-0.20074246838905402,0.568616856245889
9.1,-2.4299149546317875,-0.8859488362620522,0.18098006337472716,-0.014861496985962933,-0.21539356150682654,0.18681201056619223,-0.036370122568775295,-0.48642590688388326,0.8729645174372989,-1.3311112286216522,-1.8938598653887797,4.152962629752735,-3.340676992375649,-1.3638301204762697,2.5117043625953746,2.0,0.4899288654644144,0.500534841654431,0.3149946312327495,-0.7233267208966293,0.33641288132307545,-0.20074228346285658,0.5686188211332388
9.200000000000001,-3.08888115862901,-1.4891373563491848,0.036965233836356526,-0.014728390441160205,-0.31089522885589793,0.17465312515819198,-0.036324299846271946,-0.4862105376208384,0.873086353790019,-1.3311071706687823,-1.893865643014548,4.1530106694028595,-3.340673190682759,-1.3638232390033167,2.5116738020329046,2.0,0.48991579285911896,0.5005502433865163,0.3149986784336111,-0.7233349048528772,0.33637833084150426,-0.20074404190875142,0.568628229689575
9.3,-3.377646485621743,-1.4816966308413253,0.022328577604651394,-0.0065584922823584725,-0.35981365931889575,0.1657577883987286,-0.03624513809067145,-0.4857992317732625,0.8733184999099587,-1.3311147689819336,-1.8938480429581597,4.152992764042471,-3.340704999178501,-1.3637725785270416,2.511712416044359,2.0,0.4899170223458295,0.500553066970897,0.31497674515273566,-0.723343448291347,0.3363846518853535,-0.2007461952216102,0.5686128620546673
9.4,-3.5171632952908785,-1.5946131339306227,0.23832243752242885,-0.01195646588509107,-0.3894625039693463,0.16094608914890393,-0.03614301567153783,-0.4845234847285623,0.874031216145851,-1.3311563607253567,-1.8938498923872937,4.153010668437139,-3.3407112560667933,-1.3637983468814343,2.5116881255112156,2.0,0.4899070933260696,0.5005535250046049,0.3149670178584766,-0.7233454910731838,0.33639679155859326,-0.20074724499179236,0.5686027108635554
9.5,-3.467621704122039,-0.7108932189684555,0.09653437909992058,-0.05389483385214727,-0.3792846573479134,0.15501646686646836,-0.03606165892051432,-0.4836854006575411,0.8744984627830205,-1.3311479049433248,-1.8938533884710786,4.153000354766846,-3.340724669141245,-1.3637958743832341,2.511707427228045,2.0,0.4899082723314459,0.5005395462405133,0.31497485370218054,-0.7233471750978591,0.3363997863125474,-0.20074425738848706,0.5685998515409272
9.600000000000001,-3.2829328272663876,-0.6555003338281383,-0.0033693966749346847,-0.07968014730745153,-0.390056684077102,0.15303391716645198,-0.03601163826263652,-0.4831303924775025,0.8748074655994036,-1.3311147689819336,-1.8938288745565754,4.152966708994946,-3.3407334249433407,-1.3637781491396193,2.5117264368990257,2.0,0.48990941367981905,0.5005419492776004,0.3149570970912257,-0.7233578646399506,0.33639869304246894,-0.20073721857256155,0.5685893844089963
9.700000000000001,-3.3836697829410745,-0.23628816904353375,0.10748399225814895,-0.09122309795300161,-0.383550890201008,0.15253975092675048,-0.03598512360022429,-0.4827886386221656,0.8749972539895947,-1.3311413981981624,-1.893848076150578,4.152981133951256,-3.3407069590546308,-1.3637846097157635,2.5116962649889336,2.0,0.48992610472436304,0.5005412922030104,0.314991791039117,-0.7233350354263327,0.33640059330498695,-0.2007546875972879,0.568611134921358
9.8,-3.001983769027482,-1.1052841196800656,0.5035123043960014,-0.06378803157202177,-0.38960385422236693,0.16131363389887832,-0.03595050711131583,-0.48239586946237567,0.8752150451016198,-1.3311164896656333,-1.893841767775481,4.152977466583252,-3.3407278567141336,-1.3637902222696217,2.511696151988631,2.0,0.48992039570600476,0.5005318951766852,0.3149637790048119,-0.7233498874700759,0.3364097674547666,-0.20074461244100122,0.5685903703317275
9.9,-3.34459768235258,-1.3243366114164599,0.9064867178199061,-0.07389287434584065,-0.4139115202007319,0.15775811042751176,-0.035709805733321526,-0.4802874686911692,0.8763822935175225,-1.331122574572163,-1.8938380803437276,4.152985046794851,-3.3407027242085956,-1.363794115049467,2.5116773675885358,2.0,0.48991002104892534,0.5005660751338692,0.31496588258700214,-0.7233513086473485,0.3363933898676886,-0.2007290945242612,0.5686037303280411
10.0,-3.4908865149259483,-1.1018528285921987,1.238926867548873,-0.06550559430295998,-0.42140555631918725,0.1580702412092655,-0.035590691587865576,-0.47924236270555554,0.876960687652339,-1.3311245095689626,-1.8938655917386709,4.152988910675049,-3.3407054557772353,-1.3637902043749013,2.5116907403779343,2.0,0.4899071568499537,0.5005640124977947,0.3149548853184683,-0.7233632607298868,0.3363808315344596,-0.20075076194949087,0.5685883051726531
10.100000000000001,-3.6153003664628782,-1.4406979742393546,1.2081655382368957,-0.04904935052600348,-0.42353564737656846,0.1590474309676764,-0.03557542471104301,-0.47910131639762826,0.877038376839191,-1.3311262130737305,-1.8938693831709057,4.152984673999991,-3.3406813714553567,-1.3637849823119286,2.511725480579581,2.0,0.4899042524194484,0.500560693545138,0.31496037707474306,-0.7233558161196788,0.33638938124800916,-0.20073219409989757,0.5685992734090117
10.200000000000001,-3.6893625951974096,-1.696810413117888,1.438022543736782,-0.04216429779310526,-0.43086068679908623,0.1610075971448763,-0.03555849333980362,-0.47881824538703727,0.8771936392283161,-1.3311227548833156,-1.8938554986072647,4.152968671098821,-3.340663095513815,-1.3638039531014052,2.5117058753967285,2.0,0.4899085848310689,0.5005618061538297,0.3149587071144862,-0.7233521382897313,0.33639580225889903,-0.20073014187045077,0.5686008779442164
10.3,-3.6212554976218905,-1.5088245624889443,1.4424946526797922,-0.03232518194011674,-0.42914717810551517,0.16523911332930785,-0.03557850402015728,-0.4789379180073474,0.8771274830353438,-1.3311127521077422,-1.8938715363622602,4.153012376762526,-3.340710779229635,-1.3637961489984907,2.5116964481791233,2.0,0.48991694822995785,0.5005634700653916,0.31495146224948245,-0.7233471489652057,0.33640482827806456,-0.20074213731967472,0.5685976502760486
10.4,-3.3744566840102546,-1.2762725001649753,1.5676011679856905,-0.014707941180587403,-0.4215517459752375,0.1581551102677326,-0.03559803883381395,-0.47905033333990793,0.8770653063555274,-1.3311313613553986,-1.8938757381834925,4.152975007259484,-3.340682993545397,-1.3637844860644401,2.511692380515241,2.0,0.4899105174439506,0.5005681617512325,0.31495550075623874,-0.7233448330326976,0.33640132714905324,-0.20073268761175186,0.5686060039618094
10.5,-3.367826797157806,-1.739249335056881,1.7038790989852253,-0.02111798260433546,-0.41943888242274374,0.15528473891521266,-0.035575306461429826,-0.4785181456073436,0.8773565959383663,-1.3311053599048104,-1.8938638172545375,4.152977466583252,-3.34069885830068,-1.3637939913988675,2.5117080799959584,2.0,0.4899285469191166,0.5005437782405958,0.31496418530712217,-0.7233376857821389,0.33641335008394785,-0.20075049661619374,0.5686016956719231
10.600000000000001,-3.477080997939313,-1.6662312716474508,1.7579341989428225,-0.014576173790693592,-0.41833044797144586,0.1591415078322437,-0.03557841799537308,-0.4784282419593268,0.8774055126052992,-1.3311395645141602,-1.8938622780501642,4.152975865810704,-3.340710779229635,-1.3638107325443047,2.5116712365452534,2.0,0.4899211207074375,0.5005373949845974,0.3149680486969723,-0.7233406559967595,0.3364194743208783,-0.2007442826421214,0.5685964875606794
10.700000000000001,-3.3927237282067337,-1.6799508753472203,1.8096498448596872,-0.007694714919618382,-0.4172718462402406,0.155207996060247,-0.03560712808978755,-0.478776423627838,0.8772143572929494,-1.331151008605957,-1.8938526687142654,4.152966613594504,-3.34069885830068,-1.3637876575020849,2.511681230254588,2.0,0.48991258605954846,0.5005503850833777,0.31496525016396293,-0.7233465210152366,0.336406552237828,-0.20073655919294095,0.5685993984783931
10.8,-3.321489317424556,-1.824218991741136,1.6104903439375602,-0.004414393111397924,-0.41533371597498786,0.1547459688532408,-0.035635838184202025,-0.4791246052963492,0.8770232019805995,-1.3311493056725163,-1.8938765569014928,4.152976615116532,-3.340686937371725,-1.3637987133837222,2.511680396102818,2.0,0.48992178729805164,0.5005422256109501,0.31498842861577914,-0.7233329337507937,0.33640808086384916,-0.20074846362178983,0.5686115760644191
10.9,-3.336790215346103,-1.9412978509133425,1.66816608042658,-0.0009968819411827938,-0.41824900642105056,0.15272884968453293,-0.035466465817954124,-0.47756414266254427,0.8778779681068406,-1.3311241663344198,-1.8938518963255824,4.152996261288224,-3.340725309015864,-1.3637807730020437,2.5116964780442426,2.0,0.48992714824666267,0.5005329375841017,0.3149816627285288,-0.7233336262109153,0.3364139610805328,-0.20074460754607165,0.5686085776031234
11.0,-3.505392842299027,-1.8675669240365338,1.753770017480762,0.005948782417979327,-0.41873852944048623,0.14782888195616578,-0.03529567373079049,-0.47599000015911525,0.8787402306895454,-1.3311172998868501,-1.8938452481152035,4.1529606855832615,-3.3407095091922043,-1.3637963389686323,2.5116820335388184,2.0,0.4899133642217202,0.5005481853158258,0.314940455875632,-0.7233684798859602,0.33639409531708186,-0.20074332340855536,0.5685764443328318
11.100000000000001,-3.346739633038487,-1.95744013267654,1.810034250471271,0.0038655191177365536,-0.42274429113553946,0.15003433411161857,-0.03518717677864987,-0.47495436012474357,0.8793065907267067,-1.331089973449707,-1.8938638172545375,4.152982062159622,-3.340704389993735,-1.3637888688315585,2.5117003640424094,2.0,0.4899229752287098,0.5005458482132787,0.31494958456476396,-0.7233607993894131,0.3363939081933588,-0.20076386269591492,0.5685790744237103
11.200000000000001,-3.3415848090626508,-1.9382834254585424,1.7515534652029063,0.004104239940781359,-0.42262058395841134,0.15207548379811436,-0.0351450714064822,-0.4744926337631951,0.8795575900617938,-1.3311126772854307,-1.8938638172545375,4.152986818978546,-3.340693561077318,-1.3637884298907679,2.5117333996186564,2.0,0.48991513617094995,0.5005468628717924,0.3149516421072948,-0.7233570727367373,0.3363974748816828,-0.20074586385289567,0.5685880603397516
11.3,-3.4688621788932625,-1.9664306836208219,1.75805685227577,0.0046407363827422774,-0.41912872221762765,0.15204826686847406,-0.03521069672383604,-0.4749092115337866,0.8793301083223254,-1.3311262130737305,-1.893868064218889,4.1529983162239565,-3.340712987651098,-1.3638080247843265,2.5117118177770275,2.0,0.4899323687731305,0.5005402091408293,0.31495561714546016,-0.7233476718412992,0.3364034166010432,-0.20075682784547302,0.5685926336265184
11.4,-3.4658981532377235,-2.2769301584724357,1.64893745758698,-0.0025423469524647503,-0.42163474067348516,0.15307890894479328,-0.0351788416375705,-0.47480566429832655,0.8793872977214267,-1.3311602071003243,-1.8938518963255824,4.15296263608659,-3.340701197464669,-1.3637860907267787,2.5117250389266603,2.0,0.48991258314401315,0.5005538183354292,0.31495484297890947,-0.7233538012682521,0.3364007413488854,-0.20073272369151318,0.5685949287938448
11.5,-3.400698853186827,-2.0751540573785383,1.7256141829445182,0.0007258240960650751,-0.4222518143731589,0.15456871298316777,-0.03516786814679741,-0.47470465782542715,0.879442268382736,-1.3311375289423863,-1.893858364830143,4.152956451398605,-3.340702565949268,-1.3638021682945212,2.511700350273342,2.0,0.4899108087958517,0.5005495106303324,0.3149487373046865,-0.7233583999907036,0.3364057151873381,-0.20072711867845455,0.5685881143492454
11.600000000000001,-3.352112061570818,-1.8290295441321684,1.8035555327227106,0.005319282001028109,-0.42246074991752547,0.15369532635810434,-0.0351857213072194,-0.4746287086116256,0.8794825454709687,-1.3311103206831756,-1.8938564988210027,4.152969671312559,-3.3407035528460085,-1.3638295946507075,2.5116944313049316,2.0,0.48992050179698665,0.5005347047176342,0.3149483130030767,-0.7233568771803203,0.3364158818760381,-0.2007351401851366,0.5685812045366573
11.700000000000001,-3.4442474028215115,-1.9319554772997043,1.7595622431972118,0.0024551077816376936,-0.4186024947459582,0.1497935529663644,-0.03518959203747949,-0.47457738044106174,0.879510092164857,-1.3311262130737305,-1.8938661404957184,4.152955087221853,-3.340718437583739,-1.363783478685356,2.5116674846456326,2.0,0.4899264431054876,0.5005297027704565,0.3149672310645722,-0.7233490258737181,0.33641304857767185,-0.20075077106231215,0.5685873507493
11.8,-3.465126856220279,-1.8112743879569622,1.663952259186107,0.0075515428233883805,-0.42129284049271976,0.15048448579073495,-0.03517631525941245,-0.4745562465599778,0.8795220267984311,-1.3311395645141602,-1.8938860144622713,4.152954381487208,-3.340709134579459,-1.3637851405904153,2.5116770338022825,2.0,0.4899200006269184,0.5005422802101703,0.3149896057665863,-0.7233400217000059,0.33640291490402885,-0.20075429583456472,0.5686035565796927
11.9,-3.4514352976774934,-2.093628145939118,1.499433354923999,0.0008867563513718768,-0.4193922554585947,0.1565878437556847,-0.035403635098904984,-0.47702189798980593,0.8781752610503512,-1.331105129700317,-1.8938418554072316,4.152975511372223,-3.340717461763511,-1.3637965907985141,2.511707830607757,2.0,0.4899060784468566,0.5005597196819691,0.31498856768201,-0.7233376832916039,0.33640355244993314,-0.20073486978019509,0.5686130124115422
12.0,-3.4356618134996153,-1.8183627590546227,1.6784284224578327,0.0067308039584512685,-0.4216113789516792,0.15173443376612722,-0.03555737714224399,-0.47855537052580754,0.877337123790382,-1.3311521914462303,-1.8938555927014364,4.152973720922387,-3.340705068212115,-1.363800350819723,2.5117158089122724,2.5730201563781616,0.48991387344879095,0.5005536245947921,0.31494747056721745,-0.7233614581694976,0.33639493004983595,-0.2007413214303615,0.5685855905156731
12.100000000000001,-3.6068150930371172,-1.9943669900125647,2.586133529676176,0.008374729118471555,-0.42135311918310103,0.15049388974535946,-0.03558831182654663,-0.47858601195696726,0.8773191547947665,-1.3314016027572078,-1.893610832245376,4.153018696772821,-3.340696735430203,-1.3638075491705655,2.5116842413241147,3.0,0.48991596198332604,0.5005562767906755,0.31493463269704186,-0.7233646049157635,0.3363904584127315,-0.2007449453500435,0.5685829532797669
12.200000000000001,-3.5877557344430384,-1.8720144573222686,3.2519837467637127,-0.001587091686547277,-0.4302497441664771,0.12555322580496603,-0.03564722882427371,-0.478710768615093,0.8772486711300845,-1.3324537039755142,-1.8925639457714816,4.153024259024325,-3.3406530314072507,-1.363582461501545,2.5117191525642624,3.0,0.4898447269096124,0.5004091207338066,0.31494983462662435,-0.7233659085433266,0.3364252546618733,-0.20075172075308376,0.5685583145093014
12.3,-3.31717166987466,-1.8994510949222059,3.876372034178395,-0.013387371843283941,-0.43749340353716376,0.1079172183640639,-0.0357457316079319,-0.47896866741808086,0.8771038964510617,-1.3337751759539085,-1.8912545587445528,4.153287832396316,-3.3406460066655526,-1.3633673826800745,2.5118305396508123,3.0,0.48970065666227963,0.5001658241728641,0.3150809822680107,-0.7233320052087331,0.336450423570432,-0.2007992363905089,0.568569775300252
12.4,-3.326673901138847,-1.9399488069762747,4.054615586105118,-0.018710615182114056,-0.4099012283672665,0.09974115543070296,-0.03570065001333793,-0.4788229286351447,0.8771852934672858,-1.3352630801413605,-1.8900857818684635,4.15358027480969,-3.3405343180042606,-1.3631576330981199,2.511858494764193,3.0,0.4893813341682625,0.49984933301118445,0.3152175866640311,-0.7233357716725819,0.3364488356865183,-0.20079787898379403,0.5685664026124181
12.5,-3.304755031618439,-1.5755537148033458,4.516046512423196,-0.03455585817205512,-0.3997991054318109,0.07516258735787347,-0.035640582526139546,-0.4786094009315362,0.8773042431332262,-1.3364479210882072,-1.888879403619143,4.153769540773427,-3.340494771996969,-1.3629492716597629,2.511934852573466,3.0,0.48889498587749125,0.4994471972710911,0.3153232790727342,-0.7233821241370471,0.3364200495889905,-0.20076039392503395,0.568537700548152
12.600000000000001,-3.20955057550487,-1.3238092473358523,4.835496904953067,-0.06640555858926891,-0.38697454773796286,0.06090222715393487,-0.035580803890604626,-0.47835719048923897,0.8774442035254618,-1.3376832580965916,-1.887680811573019,4.154009206114658,-3.340494488499166,-1.3627928398249376,2.512005056974189,3.0,0.48860247160244397,0.49917082838055327,0.3154175241421806,-0.7233925256498672,0.33641069989961386,-0.20075160080958626,0.5685331033452201
12.700000000000001,-3.1355868891401877,-1.2760380510639853,5.164427710518185,-0.09424347856338677,-0.38831953547752823,0.04397293869938416,-0.035533045438987124,-0.4780281333392291,0.8776254275501059,-1.3389162230977336,-1.8863597250032464,4.154238410451841,-3.34036229179664,-1.362537474239504,2.5120301246643066,3.0,0.48822670444390004,0.49877600014595835,0.31562647139130134,-0.7233657468544641,0.3364216279018855,-0.20076145440728227,0.5685572292934118
12.8,-3.1136339424473727,-1.0066735152784283,5.357750961641996,-0.09851181701276909,-0.39676626937907805,0.02601598734564437,-0.035504500614197826,-0.47757624080041716,0.8778726093038594,-1.3402561661114092,-1.885110473358602,4.154505603257104,-3.3403507671751917,-1.3623974390332927,2.512070572446077,3.0,0.4879265443115461,0.49848513611292167,0.3158131217990367,-0.7233267623443252,0.33640764512401083,-0.20077494277274666,0.5686103354083479
12.9,-3.0980519476255095,-0.8335804129774237,5.3703398585740745,-0.09601861276662402,-0.3920095608494431,0.011550979724296665,-0.03550510647248578,-0.4779717699153951,0.877657124943578,-1.3415379210278822,-1.8840141299142907,4.154662356461395,-3.340305818162847,-1.3621700445758265,2.512174129486084,3.0,0.48764136824723314,0.4982073837545529,0.31591881415294315,-0.7233360924189178,0.3363992448101008,-0.2007620189986381,0.5686079996121362
13.0,-3.1701932693616706,-0.7493650002723855,5.683661789425902,-0.11109301278977984,-0.3962464063485803,-0.004887646576553523,-0.035509920798860076,-0.4784896408285462,0.8773748457308266,-1.3427875614439955,-1.8829525068208042,4.15491761936217,-3.3402858466171867,-1.3619902769671839,2.5122548692232494,3.0,0.4872329836662335,0.4978230476746527,0.3159987464351573,-0.7233879062297048,0.336393667101642,-0.2007388944112834,0.5685535455214833
13.100000000000001,-3.3425844567007497,-0.2740524404316051,5.918897163265086,-0.14731774740574083,-0.40445063326962877,-0.01777740938614881,-0.03549546927374895,-0.47836064510839515,0.8774457964219321,-1.3440432679187564,-1.8815305784867138,4.155134610928738,-3.340218172966099,-1.3618339152045948,2.5123175627536383,3.0,0.48689290927245876,0.49749554503168325,0.31606977065526504,-0.7234158544945956,0.3363968985767809,-0.20072718678583013,0.5685202059547434
13.200000000000001,-3.1446186512660415,-0.09505508382345693,6.2592136709212935,-0.17184603597494305,-0.41185380884260386,-0.03580298484002607,-0.035450633334488266,-0.4778638892011208,0.8777179717017913,-1.3453622801236942,-1.8802339039244593,4.15530891927274,-3.340199897155053,-1.3615803822389168,2.512343402426887,3.0,0.4865175515966174,0.49708814437893306,0.316302539303211,-0.7233675653831793,0.3364052810135637,-0.2007208174641814,0.5685789353241183
13.3,-3.2957786657648764,-0.015073886042374494,6.459598397999599,-0.17462342909907463,-0.4202288926339856,-0.04823344213528925,-0.03535536117880125,-0.4768777333934616,0.8782581364066081,-1.3465515778781585,-1.8791119369320777,4.1555306436138535,-3.340148270014677,-1.3614016694993758,2.512411849030578,3.0,0.4861746630142928,0.49672908913583824,0.31650945677148623,-0.7233486390904746,0.33639244765304643,-0.2007279572674368,0.5686080852917874
13.4,-3.3374912224667344,-0.11796394423017953,6.3464983909166754,-0.17175136639379723,-0.4145916350330083,-0.05669807767179517,-0.03529948510769699,-0.4763072002763288,0.8785698330003858,-1.3477620940640094,-1.8780941187162596,4.155737393162376,-3.340106879615452,-1.3611718798174792,2.512465664654448,3.0,0.4857122261259526,0.4962999063757126,0.31670765516724925,-0.7233433896802514,0.33637464541632106,-0.20072619086401966,0.5686259181818476
13.5,-3.364654653340205,0.047603255599945826,6.475090787216779,-0.19409221510960395,-0.4043072696008609,-0.06779964132717824,-0.03525099420610442,-0.475814579572446,0.8788387010809774,-1.34910909404736,-1.8768512716201182,4.155944424135439,-3.3400448508902283,-1.360976784835399,2.51254515727128,3.0,0.4855816422032148,0.4961576319854063,0.31672470936886793,-0.7233504006918844,0.3363883503077335,-0.20072879650739325,0.5686079720236303
13.600000000000001,-3.2876078401544633,0.2827702157638944,6.602143160633572,-0.2273676671374729,-0.4147602847003105,-0.06064751950659997,-0.03518359067432003,-0.47509691827423794,0.8792292287632216,-1.350477999244791,-1.8754038105156845,4.156142711639404,-3.3400051152431542,-1.3607877171407876,2.512553581848694,3.0,0.48526390127591074,0.4958117875405512,0.3167815706519049,-0.7233900584939511,0.3364032984184747,-0.20071969938883116,0.5685518853741901
13.700000000000001,-3.326101549636346,0.5393296060717772,6.624677678239011,-0.22399896747010759,-0.44114170774881956,-0.06151766902360022,-0.035078050651014964,-0.4739254724611186,0.8798650777106618,-1.3515711237383152,-1.8741480474186096,4.156364958424595,-3.340022733712449,-1.3605726036168155,2.5126738751626148,3.0,0.4847552914321832,0.49528514116954203,0.31705768367580617,-0.7233533643858653,0.33640049321233945,-0.20072648787745265,0.5685978327979517
13.8,-3.6569626183519013,0.47687933199678256,6.50801439624749,-0.21052883861803567,-0.46144602410407015,-0.06151541967315943,-0.03500535305478908,-0.4731584488791946,0.8802816042808272,-1.3526911260808743,-1.8731330593451765,4.15659005565028,-3.339954992333883,-1.3603158994184064,2.512704610070573,3.0,0.48454385738900857,0.49507381522492105,0.31722621292559333,-0.7233148912929276,0.33638574867576665,-0.20074583556730646,0.5686486662466802
13.9,-3.726857103352158,0.2969917889539144,6.637562143796859,-0.21306162012979188,-0.46782820746744436,-0.05663239508149539,-0.03500288914426138,-0.47325628415214943,0.8802291089094973,-1.3541406551488513,-1.872001503788986,4.15676507416621,-3.33992514499382,-1.3601286908291108,2.5127913501697026,3.0,0.48424120890565653,0.4947871862896534,0.3173112900157493,-0.7233341069306887,0.3363805403227833,-0.20075024641579198,0.5686257472247753
14.0,-3.5205178098553356,0.5018881228957163,6.9618037390183884,-0.22647106370525086,-0.4610188745872116,-0.051879266009746364,-0.0349340694707597,-0.47264492907467975,0.880560011840727,-1.3555246204856892,-1.8706933031094355,4.156971455643069,-3.339881002036182,-1.3599396785260676,2.512856960296631,3.0,0.48382085142759085,0.4943535908387159,0.31736353586471827,-0.723387742216891,0.3363828336982324,-0.20074355289495072,0.5685585190414517
14.100000000000001,-3.3703530093876015,0.29699052063504483,7.104485720001624,-0.25691719335222224,-0.45976757981051686,-0.04912213563178018,-0.03490111241455682,-0.47221186401378484,0.8807938467234726,-1.3566405901077252,-1.8693239552284522,4.15717027013245,-3.339859853149891,-1.3597562975015125,2.512873398387148,3.0,0.4835383398315785,0.4940299233094321,0.31744812208145334,-0.7234008985388549,0.3363953307912949,-0.20074749235473988,0.5685329944060205
14.200000000000001,-3.7059651957108075,0.5863110881426914,7.110911092731075,-0.2587881090444834,-0.4743114561863947,-0.05034285108202623,-0.03498811089796669,-0.47258270852067885,0.8805914861756939,-1.3576837139583027,-1.8681335630288247,4.157376555465479,-3.3398591480650843,-1.3595667797898412,2.512953281402588,3.0,0.48310391605608455,0.4935408349601683,0.3178402043264253,-0.7232961563448603,0.33640158545736054,-0.2007496197654656,0.5686617920016668
14.3,-4.0310012319733985,0.4391016235382462,7.1299580089965415,-0.24241479645216718,-0.4899343768130534,-0.05226327409157853,-0.03496161779577124,-0.472397090764033,0.8806921093454623,-1.359033619443606,-1.8671130434547258,4.157582201487068,-3.339814621981708,-1.359400638206815,2.513003395988272,3.0,0.4828782934636621,0.4933217167363581,0.3179821385556926,-0.7232683233798306,0.33639837422324576,-0.20074901653168012,0.5686993041817872
14.4,-4.101176718948362,0.4126804639726571,7.175265453463371,-0.24582055782673048,-0.49163497596843697,-0.050614744458614365,-0.03491340245540903,-0.4720588691229504,0.8808753456737887,-1.3604606452359311,-1.8659072933648542,4.15778787611799,-3.3397294116675402,-1.3591640249891217,2.5130372047424316,3.0,0.48260664049313035,0.4930590216676287,0.3179880925819494,-0.7233263069149976,0.3363870373440235,-0.20073799816461166,0.568636149857258
14.5,-4.04038415389702,0.7948135757274358,7.545933181430796,-0.2580392273650437,-0.49069537158812027,-0.050999533170338764,-0.03488533221061914,-0.4717031269561913,0.8810669184438175,-1.3617407332883567,-1.8646371980395284,4.157995615789324,-3.339710476494807,-1.3589464377793352,2.5131802558898926,3.0,0.48228067736881874,0.4927104476726063,0.3179958399150579,-0.723381717815726,0.3363986721556204,-0.20073222422013698,0.5685608128085693
14.600000000000001,-3.9753846999043407,0.8363379409940579,7.659782749836251,-0.28017202845359773,-0.49336341401271916,-0.04699545775509585,-0.03485726196582925,-0.4713473847894322,0.8812584912138464,-1.3628393630391544,-1.8633219726524068,4.158261836124902,-3.339703222314352,-1.3587396780597132,2.5131619649158505,3.0,0.4818697853108539,0.49226480775398734,0.3181718119860278,-0.7233666951042136,0.3364121006752585,-0.20073874854205329,0.5685696771434773
14.700000000000001,-4.0519235546627055,0.8089567447534611,7.627242251020374,-0.2832612956447203,-0.4906094272622355,-0.05054691642586927,-0.03481395603041238,-0.470973943390487,0.8814597859560293,-1.364039913693765,-1.8622278538755452,4.1584589402478445,-3.339721616845516,-1.3585489068510432,2.513275623321533,3.0,0.48140500977368955,0.4917919263107676,0.31849996718409085,-0.7233014122604459,0.3363989513866049,-0.20074849732397462,0.5686570612858013
14.8,-4.188131781352366,0.8368767398986403,7.427033584308534,-0.2877007716886162,-0.4909766399980339,-0.051361394648984586,-0.03476612416343653,-0.47059524423752963,0.8816639687183002,-1.3654379678794357,-1.8610093478741536,4.158648403248792,-3.33964779414149,-1.3583672682391565,2.5133415148346807,3.0,0.4812098674103817,0.4916185992455266,0.31853327073235277,-0.7233244108182573,0.3364004636215777,-0.20073351312818274,0.5686322023037621
14.9,-3.9651047086789664,0.405325511677736,7.722832706071768,-0.29058095768282155,-0.5043525400494392,-0.04499405662695943,-0.034756915516790735,-0.47050248755705754,0.881713879892803,-1.3667836807722178,-1.8598705730833949,4.158889629256394,-3.3395092908423822,-1.3580967337775858,2.513406894791458,3.0,0.4809197831442291,0.4912843577826036,0.31860359380876346,-0.7233366004918926,0.33642126754939805,-0.2007504260168811,0.5685984167963622
15.0,-4.218247205858475,0.724320957606771,7.7586603152374005,-0.2864353060093424,-0.5178643898933497,-0.04493637010240732,-0.03475976860407671,-0.47049902850618325,0.8817156132398489,-1.3678598883606483,-1.8586185513564104,4.159124867216001,-3.3395482596808295,-1.3578821467667195,2.513439623325567,3.0,0.4804127854989704,0.4908028700129602,0.31869500555550223,-0.7233804315116816,0.33641583062400626,-0.20073244368146312,0.5685522194708255
15.100000000000001,-4.451472075984303,0.9260985742303903,7.742413622403305,-0.28945819205531065,-0.5248681810198986,-0.04830185341072777,-0.03475885509827083,-0.4704557468922697,0.881738735308711,-1.3688675964963641,-1.857477794011671,4.159312407478273,-3.339716230636265,-1.3576883175952483,2.5135340588494186,3.0,0.48016956985001263,0.4905655388837467,0.3188627128600594,-0.7233413129667721,0.33640543421346886,-0.20074102500041688,0.5686051087256745
15.200000000000001,-4.430226379201533,0.7220906557569967,7.37872299133574,-0.2969479437981154,-0.539420687057029,-0.05017213550313042,-0.034746836653720116,-0.47029505755407375,0.8818249171347082,-1.3691350218367904,-1.8571187458434046,4.159381201495863,-3.339816556055631,-1.3575766722308558,2.513518315145414,3.0,0.47989813690291644,0.4902775415201688,0.3190272728144307,-0.7233479185337653,0.3364002594933395,-0.20076013251398134,0.5685930208494048
15.3,-4.137307120095674,0.6492887423234119,7.103203449872,-0.3025440022781657,-0.5266377439485525,-0.049677203762338494,-0.034737012702883804,-0.4702162605613919,0.8818673346317325,-1.3691461965572278,-1.857093913051137,4.159462602133784,-3.339813923924241,-1.3575728578232915,2.513512862638163,3.0,0.47969753342044236,0.4901030544692419,0.31916489761502204,-0.7233466246461958,0.336397975154713,-0.20075881093027284,0.5685964850037571
15.4,-3.967595186219485,0.7218298663206417,7.0683954280208425,-0.2988695749325372,-0.5360278642942552,-0.04414150472594349,-0.034734045022527464,-0.47039332033758563,0.8817730189611729,-1.3692134595515182,-1.8570479150950143,4.159437656402588,-3.339799890832979,-1.3575536216527808,2.51357517351138,3.0,0.47967390622153333,0.4901089793361238,0.319177947067601,-0.723346662369426,0.3363870911299782,-0.20075586527660289,0.568603916199287
15.5,-4.315042351495,0.7825805565977085,6.951969007152812,-0.29299128841239225,-0.5335581391922127,-0.04772450023207001,-0.03472151596236079,-0.4701809035397877,0.8818867514864356,-1.3692512512207031,-1.8570186993714213,4.159435068330084,-3.339810987512106,-1.3575642744647425,2.513570638913485,3.0,0.4796551722019923,0.4900978031996787,0.3191579233460313,-0.7233535173643292,0.33639671987024156,-0.20073106460250767,0.5685982549047608
15.600000000000001,-4.1645479466515045,0.7170246123747057,6.93492474733751,-0.2965929335591564,-0.5326205999440888,-0.043579510671440565,-0.03470482083599301,-0.4698945539970991,0.8820400684747188,-1.3692466939360544,-1.856996304237213,4.159469338741963,-3.3398255727748505,-1.357572114946207,2.513576030731201,3.0,0.4796605012462581,0.49007588426131493,0.31916399048186817,-0.7233488040361095,0.3364122347527527,-0.20074064848355078,0.568591688344626
15.700000000000001,-4.118994142031243,0.7732518085733612,6.8619243951298365,-0.296401906849853,-0.5344399525080613,-0.04454294519159478,-0.03468573232533342,-0.4698420925853445,0.8820687652379672,-1.3692613317080193,-1.857003128311024,4.159473896026611,-3.3397677601016644,-1.3575937405045897,2.513552188873291,3.0,0.4796563267107423,0.49008102249179925,0.3191753612540384,-0.7233484690687743,0.3363978746253346,-0.20074864348862395,0.5685977878790026
15.8,-4.18246651698547,0.7341060719951675,6.753110384548611,-0.2954686195649208,-0.5310948280057914,-0.043519756917402015,-0.03468766240061156,-0.46996621470977284,0.8820025476827398,-1.3692408753172542,-1.8570292840868068,4.1594808639723775,-3.339829399549669,-1.357586830941491,2.5135071114712373,3.0,0.4796454991139457,0.49009423387663503,0.3191799643748315,-0.7233531825082122,0.3363813522004617,-0.20072422525225764,0.5686101868977649
15.9,-4.400769468714869,0.7292856830078707,6.715347654282715,-0.29844931771462596,-0.525647129587768,-0.04304595507176009,-0.03468841100078742,-0.47004260351466076,0.8819617727488951,-1.3692605224924432,-1.8570197750802326,4.159474028314799,-3.339810987512106,-1.3575674009591157,2.5135547344811027,3.0,0.47964820278241077,0.4900832907844271,0.3191822009289796,-0.723352419472649,0.33639437389624477,-0.2007388456561933,0.5685982925569134
16.0,-4.095676509958207,0.6994453657672475,6.650059574189755,-0.2982236484357098,-0.5334972213298174,-0.043222440607677735,-0.03464398526623665,-0.469564724398575,0.8822179288078204,-1.369257828429945,-1.8570124950516327,4.159477878512892,-3.339823385278219,-1.3575508391298055,2.5135301850859717,3.0,0.4796471532166879,0.49008968930419505,0.3191765914889509,-0.7233452019724215,0.33639729925172523,-0.20073516737905983,0.5686070421802065
16.1,-4.012719127118832,0.823114306469434,6.602858272883237,-0.2956506088669792,-0.5351939928341787,-0.044162039515479236,-0.03459845466490895,-0.4691216949900994,0.8824555288050482,-1.3692388534545898,-1.857013581147746,4.159486293792725,-3.339823385278219,-1.3575915187894096,2.5135277851694733,3.6041768990586722,0.47964095592035605,0.4900959042467088,0.3191818250811196,-0.7233429213948342,0.3363925347534341,-0.2007338721548399,0.5686132193326768
16.2,-3.9729726192122174,0.7114145410874604,6.619187474260546,-0.2993701064058348,-0.535307055388727,-0.04239443853869025,-0.03454745915724214,-0.46885103965604763,0.882601346569959,-1.36923467468628,-1.8570153792229378,4.159459966429411,-3.3398038177849805,-1.3575551246856257,2.513514064793638,4.0,0.4796400063313746,0.4900947202043706,0.3191744079075174,-0.7233592481880227,0.33637869451402386,-0.2007334117869406,0.5686007996215575
16.3,-4.185715915646867,0.7458045308092173,6.688114813935167,-0.2992524193585896,-0.5320015891059914,-0.04236524053185459,-0.03458102928782629,-0.4691197014551415,0.8824571583898256,-1.3692497320589132,-1.8570213520295802,4.159508616488845,-3.3398225953140885,-1.357587833578916,2.513561384605639,4.0,0.4796425686428572,0.4900903095077772,0.31918238170439667,-0.7233532622779713,0.33639136909787404,-0.20073357585965168,0.5686008584858733
16.400000000000002,-4.110644706257297,0.8293124628663425,6.605419682249613,-0.2984062289743111,-0.5332409338690037,-0.04283347768563249,-0.03464919023974,-0.46958348329728855,0.8822079038248055,-1.3692792685430109,-1.8569846545157758,4.159484206060526,-3.3397951753934216,-1.357594411486954,2.5135479814411883,4.0,0.47964711437740376,0.49008699748303414,0.31917560086380287,-0.7233551906471927,0.3363905109746263,-0.20073686068471586,0.5685977532952784
16.5,-4.18958932443806,0.9192799695055398,6.503097179185442,-0.2923258993249975,-0.5306016557939344,-0.04520030855290903,-0.034641195894798575,-0.4693669938225028,0.8823232594801055,-1.3692524498409084,-1.8569807100746705,4.159463650555019,-3.3398216079604683,-1.3575642744647425,2.513546236997379,4.0,0.4796425792166001,0.4900718642381334,0.31916413764549195,-0.7233553857102386,0.3364094353137713,-0.20073085670965612,0.5685884284440451
16.6,-4.235452161159746,0.6492944990659445,6.356717249041781,-0.29940102960009213,-0.5302743013138554,-0.04057387161268688,-0.034525877524909244,-0.46825692801684904,0.8829175255171008,-1.3692779746363624,-1.856969241993208,4.159452280427554,-3.339817495037982,-1.3575766722308558,2.513537736099006,4.0,0.47964467336305344,0.49007696848383636,0.31916453005812284,-0.7233623033162098,0.33639396976655206,-0.20074024143230182,0.5685854647416423
16.7,-4.095325358227534,0.8267684923418637,6.414432772948979,-0.296445019647793,-0.5330818210097552,-0.04110022540775708,-0.03459654633665331,-0.468749499495114,0.8826532984645725,-1.3692892338588516,-1.8570087513821787,4.159453559021329,-3.3398437222835016,-1.3575850182101306,2.5135212766252617,4.0,0.47965785437939246,0.490073843672303,0.31917894916933215,-0.7233430250904852,0.3364072376770216,-0.20074026502432624,0.5686021319775586
16.8,-4.189086844339064,0.8570790146527539,6.475155132096548,-0.294290846458011,-0.530176884035074,-0.03879326721703415,-0.034603569731014396,-0.4687854027403239,0.8826340066164462,-1.3692607838229685,-1.8569747410216273,4.159482106245562,-3.3398060090955513,-1.3575684620119048,2.5135100150879475,4.0,0.47965505907999595,0.49006823157500073,0.31916320388631164,-0.7233511545468831,0.3364146974529503,-0.20074153642912212,0.5685869274837457
16.900000000000002,-4.185040746076419,0.7567741807494556,6.5106911772473,-0.29605157863883297,-0.5286183797636905,-0.03720419424112604,-0.03456997366863388,-0.4685230077075617,0.8827746574925907,-1.3692505931049461,-1.857008572944947,4.159452062266788,-3.339804859173787,-1.3576066424270847,2.513552188873291,4.0,0.4796459015519581,0.4900751432785072,0.319169118041877,-0.7233533125242129,0.3364078043420712,-0.20073590828816376,0.5685902475084507
17.0,-4.138431876620526,0.5333345227303683,6.534080209558922,-0.3015092930877339,-0.5293261973584764,-0.041733958227493526,-0.03454283455721695,-0.46821480970630497,0.8829391974266896,-1.3692766823357498,-1.8570031126824973,4.159473876701052,-3.339815914929436,-1.3575861294511458,2.513547261455961,4.0,0.47965725252863667,0.4900642408140641,0.3191946577785843,-0.7233401353727078,0.3363996942616161,-0.2007499791057895,0.568606841454365
17.1,-4.004583754774846,0.43256288968796663,6.370577044047875,-0.30529865770695647,-0.5315228520461753,-0.03877512307960554,-0.03452186438293807,-0.46799819637468537,0.8830548679973166,-1.3692865371704102,-1.8569695209289643,4.159461060142968,-3.3398178822910856,-1.3575670799091637,2.5135159492492676,4.0,0.47964785079327593,0.4900754022065859,0.3191824075790791,-0.7233515218963702,0.3363915320833355,-0.20074794617675112,0.5685979027561106
17.2,-4.018932499856199,0.7441267881229101,6.4373295710316,-0.2995690139905485,-0.5345124812047148,-0.043782944691809385,-0.034505806459963505,-0.4678545108267036,0.8831316244747891,-1.3692597046752184,-1.857004814897534,4.1594624519348145,-3.3398414623730246,-1.35757287962355,2.5135559814805966,4.0,0.4796561848971088,0.4900722338043409,0.31917977553086674,-0.7233437841077797,0.33639362678079404,-0.20074576308924832,0.5686072778778137
17.3,-4.203234477832095,0.9080858080371312,6.4852606156160935,-0.2942334130397787,-0.5275997919811533,-0.0392161407868955,-0.03449361505915322,-0.4677575145703901,0.8831834619218956,-1.3692381148168122,-1.8569985828795375,4.1594624519348145,-3.3398094486834027,-1.3575751334021526,2.5135491112158848,4.0,0.47964861099755085,0.4900786804392813,0.31916719271532284,-0.7233435042877377,0.3364123252136242,-0.20072647658935433,0.5686033800859098
17.400000000000002,-2.8676279126448727,1.2009387820917643,6.615611817547534,-0.28977664229632577,-0.42164303037701645,-0.02517594342019062,-0.03456522712233824,-0.4686724676077921,0.8826952013234334,-1.3692664323760175,-1.8569895613143337,4.159465081960808,-3.3397871456541957,-1.357558629100448,2.513548605172981,4.0,0.4796476806919656,0.4900783755357288,0.319170288033361,-0.7233465691581005,0.3364003323449952,-0.20072975790959116,0.5686054181723377
17.5,-0.7975025926513606,1.0413273958935456,5.765869417775707,-0.2826670823324956,-0.20500574515780537,0.03656376242957114,-0.03462961089162257,-0.4690513240924404,0.8824917158138085,-1.3692607607246292,-1.8569913234721147,4.159440080393785,-3.339842565614597,-1.3575165907489222,2.513546876619907,4.0,0.47965777577835855,0.49008269770785373,0.3191851905796471,-0.7233382537788674,0.336403214543555,-0.20075519790773466,0.568605309839724
17.6,-0.5996191133605616,1.1772917281450441,5.52623153592492,-0.26785521906281823,-0.17334983692867303,0.04118703244663105,-0.03468724749578955,-0.46892976761519467,0.8825540502296181,-1.3693061432489255,-1.8569771037411598,4.159428480521542,-3.339834829370016,-1.3575218875339266,2.513552188873291,4.0,0.4796748487534414,0.49004795917755783,0.3191686000494998,-0.7233336247716113,0.3364416770292685,-0.20077372672027313,0.5685818990183811
17.7,-0.6700381238604716,1.2431829891808646,5.475184050422705,-0.25759062011206946,-0.15826531893047113,0.04467652969385719,-0.0344395699909472,-0.46640628361404585,0.8838912463432489,-1.3692865371704102,-1.8569866619505824,4.159411217326075,-3.339796681810941,-1.3575939043196377,2.5135423883257806,4.0,0.47967656464268965,0.49004050411454725,0.31916798790373463,-0.7233420198264007,0.33643489508638963,-0.20076902844482084,0.5685768909646218
