xiamingqian9007/apple-picking-rnn/training_data/grasper_20191127_133338_noimg.csv
,/manipulator_wrench.fx,/manipulator_wrench.fy,/manipulator_wrench.fz,/manipulator_wrench.tx,/manipulator_wrench.ty,/manipulator_wrench.tz,/ground_truth.x,/ground_truth.y,/ground_truth.z,/joint_states.elbow_joint,/joint_states.shoulder_lift_joint,/joint_states.shoulder_pan_joint,/joint_states.wrist_1_joint,/joint_states.wrist_2_joint,/joint_states.wrist_3_joint,/mode./mode,/manipulator_pose.x,/manipulator_pose.y,/manipulator_pose.z,/manipulator_pose.rx,/manipulator_pose.ry,/manipulator_pose.rz,/manipulator_pose.rw
0.30000000000000004,-0.32341135045835523,0.02736618044177791,-0.04781124316971222,1.2973249410552865e-05,-0.010326864874105814,0.003338563445266893,0.10334894848839561,0.2644446101804354,0.9588472417709695,-1.719760283747254,-1.7084065076887476,4.177085859334805,-2.6536840072737395,-1.339159121099618,2.63336185637634,1.0,0.4595124895508389,0.4724094149170253,0.34470173660638465,-0.5417194686138731,0.33048298360660244,-0.171507082555225,0.7535956047540195
0.4,0.07340261725075578,-0.057619548604556814,-0.24082382361479443,0.0067735566686470084,0.004879161061795912,-0.015465120997705847,0.10339453923699182,0.26450809361803435,0.9588248176298387,-1.7156577234839223,-1.7114335655228627,4.176278985395346,-2.654868181447164,-1.3399009452067505,2.6335467131280605,1.0,0.45990213445111267,0.4727759785815803,0.3448357704723275,-0.5417276012855777,0.3304609575208802,-0.171505043802071,0.7535998815752342
0.5,-0.07870247810837523,0.09235541056842142,-0.09445009717467528,0.007095675486012399,0.007509416318585301,-0.013019460909441834,0.10339969344763926,0.26452226286296276,0.9588203544519559,-1.7110203158288448,-1.714689924999549,4.175655246049593,-2.656251091706071,-1.340460210888863,2.6336817741394043,1.0,0.46086571495075884,0.4737678965008879,0.3450347086166623,-0.5417518732067199,0.330487735705102,-0.1715100292901436,0.7535695550368386
0.6000000000000001,0.3324348674854714,0.3877417635036331,0.007655513947583799,-0.003130547179389779,0.004470951786863731,-0.010387346357853041,0.10336223212175215,0.26448446052758207,0.9588348200974669,-1.7066711094621863,-1.7179510687911066,4.17498254776001,-2.6574530662396874,-1.3411373757492084,2.6338471116449025,1.0,0.4618585688494998,0.4748220815853081,0.34529581348462024,-0.5417454490723669,0.3305246359851001,-0.1715233333275155,0.7535549611942811
0.7000000000000001,0.1462482112935277,-0.2577357728798149,0.05234520351548472,-0.002731254647330106,-0.0021035048396414605,-0.01191147619612963,0.10332477079586502,0.2644466581922014,0.958849285742978,-1.7023988319698133,-1.721014169381211,4.1742563937839705,-2.6588908634581507,-1.3419517448857807,2.633968152999878,1.0,0.4624674204776573,0.4754916204340699,0.34541245203075777,-0.5417670121846011,0.3305229545460721,-0.1715240949936932,0.753540022734891
0.8,0.2857474701510242,0.014799656877252876,-0.11640788917657158,-0.0003798833774213961,-0.00017892425446279937,-0.009342836057346295,0.10348860204086652,0.2648874075778471,0.9587095060099644,-1.6980729227928941,-1.7239471347926634,4.173586151871642,-2.6600163849330944,-1.3427329079985832,2.634106803270961,1.0,0.46332803158451963,0.476374781524659,0.3456317869624802,-0.541815524478551,0.3305133230695862,-0.17151830965918602,0.7535106835070008
0.9,-0.02297304263953745,-0.1356241026836718,-0.030048800451238956,0.008202464615986851,0.0068258817943144924,-0.007224431347382078,0.10387140074869272,0.2658487288639904,0.9584019370781799,-1.6938039023425306,-1.726826963116468,4.172893343564221,-2.66126053897782,-1.3432945362285418,2.6342250722682987,1.0,0.4642854126106363,0.4773445892582157,0.34599868045838444,-0.5417866723605788,0.3304639289092558,-0.17150975112722455,0.753555040199843
1.0,0.06736833046279436,0.14569737381405923,0.0399235784976833,-0.0005030544677116977,0.006229531751350349,-0.011853083150966129,0.10394955480538727,0.26612910588528665,0.9583159551102923,-1.689918915498177,-1.7296651100070919,4.172215072106708,-2.6625266240667753,-1.34385271701282,2.6343722698542478,1.0,0.46556085180614526,0.47862387174619053,0.3463756559266226,-0.5417553675258563,0.33048222895739915,-0.17150497357441818,0.7535706085958449
1.1,0.020262543864498356,-0.33894038581297997,-0.007927710000955282,0.002487504582678535,0.004824360614412457,-0.011624975876013365,0.10368491798768889,0.2656432738853751,0.958479306222195,-1.686072920805644,-1.7324606963769484,4.171591281890869,-2.663624082007869,-1.3443802038775843,2.6344857215881348,1.0,0.4665899256983665,0.47957310454233726,0.3467501537689599,-0.5416801879029047,0.33052205164730375,-0.1715430938554128,0.7535985100561465
1.2000000000000002,0.09401253490737951,-0.41616642151599387,-0.023612158217956557,-0.0016551349422300214,0.004226833364370129,-0.00509085368765408,0.10342028116999051,0.2651574418854636,0.9586426573340978,-1.6823674616132465,-1.7349912798459812,4.171094553243546,-2.664731232807585,-1.3449992741804566,2.6345994798569454,1.0,0.4671180934023856,0.4801250464388299,0.34684064265443165,-0.5416916959658381,0.3305336871695027,-0.1715673742291238,0.7535796071205161
1.3,-0.2625815030855958,0.07172571402094455,0.2802528308381065,0.011939348007800629,0.009879449948540685,-0.011985632253219237,0.10351859302192339,0.26504532290764937,0.9586630617411039,-1.6787331471489084,-1.7375716204127991,4.17058448438619,-2.665908713863861,-1.3456004264485188,2.634689231594233,1.0,0.46816643992320167,0.4813416489657923,0.34716593899707143,-0.5417138423389135,0.3304815343448005,-0.1714883651045157,0.7536045442467142
1.4000000000000001,0.06795845332239442,-0.2970455217109975,0.1320350000248598,0.011113496577883537,-0.003834169976412241,-0.007989720106461536,0.10379821129456979,0.2655869098063651,0.9584821494111447,-1.6752173616316315,-1.7400472434277443,4.170051499864576,-2.6668739214758768,-1.3462522665606897,2.6348193741751906,1.0,0.468644622809251,0.48184547310391057,0.3473274221118735,-0.5417173998812452,0.33045633044565353,-0.17149691752780646,0.7536110930796845
1.5,-0.10730329445837775,-0.1235233405672246,0.14315739892529805,-0.004877321687036037,0.009637447636843616,-0.00619577887395535,0.10427846583409374,0.26689748954832104,0.9580657748181473,-1.6719401267626937,-1.7425525217858095,4.169463786668291,-2.6679481669416916,-1.3466662632977724,2.634932914514323,1.0,0.469382414574189,0.48265449386220777,0.34754163181091774,-0.5417359470620899,0.33041142432944554,-0.17145641370375247,0.7536266665486137
1.6,-0.07380554649999466,-0.15568643984180736,-0.01245445748105304,0.011694473829282489,0.005452989553476828,-0.010814735033285621,0.10445298652290767,0.2674179169717869,0.957902417554176,-1.6683644884701432,-1.7447692081255197,4.168963282486488,-2.6689702473082484,-1.3470736389217084,2.6350540751095477,1.0,0.4705374400804684,0.48377663541140153,0.3477168811375697,-0.5417900425189024,0.33048949849192916,-0.17148641335732842,0.7535467147083572
1.7000000000000002,0.03444664736505898,0.2041786160790112,-0.11717939532579377,-0.001532654616335595,0.0054219799743140465,-0.00322977992360534,0.10425064897000254,0.26696437500081105,0.958050938302796,-1.6654156232876505,-1.7472581464465917,4.1685230663142825,-2.6700016081711295,-1.3475063999613328,2.635136901976478,1.0,0.4709412675368907,0.4842059805242188,0.3479597128875349,-0.5417076356914597,0.3304572510670063,-0.17149586249842566,0.7536179481652008
1.8,-0.11061264812504605,-0.1270775569009886,-0.12333538513049289,0.0162127819873139,0.005593371202679794,-0.00294807767721696,0.10421575177246972,0.26698640766829057,0.9580485272365553,-1.6621596517473611,-1.7491265736021937,4.167975177444026,-2.6708829414093187,-1.3479751794727952,2.6352340936293577,1.0,0.471602709459704,0.4848689174683875,0.34791372940644577,-0.5418548352056853,0.33052932121579104,-0.17149964380383753,0.7534796464112383
1.9000000000000001,-0.05525004309107104,-0.02067665059094342,0.049641206322863486,0.01332673032195833,0.0027225286472238523,-0.006190006601716218,0.10440878601220879,0.26765582555322354,0.9578406573045903,-1.6591401914983874,-1.7512446674508788,4.1674675941467285,-2.6718783488833764,-1.3485274459157703,2.6353295004687545,1.0,0.47262427285330716,0.48585963296382345,0.3484341323793458,-0.5416767291545952,0.33050748849937117,-0.1715136154984169,0.7536140927801699
2.0,0.1887237626804156,-0.055853399614612664,-0.05526333651512122,0.00645800438128845,0.001485170769927862,-0.007503925556079306,0.10454359136115855,0.2680811544943414,0.9577072220017371,-1.6562161154367707,-1.753564623524129,4.16700763898817,-2.6728574900304887,-1.3489585704145701,2.6354588859460573,1.0,0.47300011149311877,0.48622045882733894,0.34857742494141347,-0.541671394866514,0.3304771459734177,-0.17151820254511116,0.7536301892628267
2.1,0.1896052620954416,-0.13116686874906822,-0.10131069263601399,0.0068242855659656765,-0.0036215805427716103,-0.0033693028015612447,0.10459654790246217,0.2681633824637586,0.9576784149265178,-1.6533476948902979,-1.7551946460135581,4.166584451366757,-2.6736872281447814,-1.3494506471826566,2.6355264140692323,1.0,0.4736436313757278,0.4869152891554444,0.34858824436815294,-0.5417944731532969,0.33050233471816853,-0.1715072881067753,0.7535331483966984
2.2,-0.057141596583814125,-0.26063367676984,-0.05802680849006414,0.0026577872207523487,-0.0011858517731918746,-0.003989087496076118,0.10464950444376579,0.26824561043317574,0.9576496078512986,-1.6504821763149529,-1.7572072513443755,4.166229786983756,-2.674527846486829,-1.3498319141571822,2.6355985230734182,1.0,0.4745724508255093,0.48782155168896757,0.3490449190217481,-0.5416659846224477,0.3304534479331322,-0.17150474380100142,0.7536475321434096
2.3000000000000003,-0.06547721108117688,0.03316532379047349,-0.008815978029176677,0.008308414104891807,0.004373405934542537,-0.0033049520241205136,0.10472959453180934,0.2684667736064493,0.9575788404622664,-1.6478467118907902,-1.7592949081872138,4.1658501625061035,-2.675370198964083,-1.3501944971612165,2.635673999786377,1.0,0.4749237231801309,0.4882220883101127,0.34919060846984357,-0.5416386927724284,0.3304336688727501,-0.17149066496657495,0.7536790223937447
2.4000000000000004,0.01964151302586494,-0.007406570682771979,0.004972641034876915,0.011785948008734323,0.002561642779822503,-0.0010916235677535394,0.10481240096214615,0.2687018455979793,0.9575038724216886,-1.6453191443839077,-1.7608287860925544,4.1654582422117,-2.676192859893912,-1.350518488765494,2.635778772095103,1.0,0.47554652672347475,0.48889719628216477,0.34917548298264167,-0.54174620648444,0.330474822487957,-0.17149740278985331,0.7535821655915211
2.5,0.16789581839376336,-0.17810523341005613,-0.12487656809991304,0.0070390935453651686,-0.0006933308005358954,0.0005828234272794721,0.1046617327413769,0.26826574389421615,0.9576424662956244,-1.6426166610266557,-1.762705764407105,4.165159552775645,-2.67703767740149,-1.3508530774933258,2.6358564506315716,1.0,0.4762221554590949,0.48959252203866915,0.3494403411685695,-0.541722635615236,0.3304746528333429,-0.17149555972589386,0.7535996038288939
2.6,0.13613998624589474,-0.09999904091962031,-0.19635261349297614,0.005428779528894951,-0.0005003166765229754,-0.002555129658250791,0.10448480269399282,0.26775414685453236,0.9578050821605727,-1.640452262546179,-1.7644283713871185,4.164799032958143,-2.677722564322702,-1.3511699525270604,2.6359143257141113,1.0,0.47659773514541504,0.489998067559224,0.34961055445583455,-0.5416815661678811,0.3304712857907387,-0.17149558163033385,0.7536305962625196
2.7,-0.009598813119741164,-0.32547212213746624,-0.10740210298192855,0.008784857791725968,0.0008267019447748711,-0.0006357167802779338,0.10465039311997187,0.268284840751017,0.9576381275507615,-1.637911825422739,-1.765895243619309,4.164486624571006,-2.678446847692808,-1.3515354996784417,2.635970715093918,1.0,0.4773744115749968,0.4908148233422587,0.3496306402991252,-0.5417793305784135,0.3304976849255996,-0.17148963088573838,0.7535500937001458
2.8000000000000003,0.051891295074730684,-0.3925526460390619,-0.09903244523178009,0.0016622059690718331,0.0043703628228840994,-0.001812054220112882,0.10485881950694169,0.2689458846188314,0.9574299565200399,-1.6357271541397618,-1.7675916170067227,4.164080593832502,-2.6793045136091607,-1.3518453409975881,2.63606023659425,1.0,0.47766765442850956,0.4910794908939579,0.34987196666739256,-0.5416685862674335,0.33048710881765486,-0.1715067787168932,0.7536304388827074
2.9000000000000004,0.052278491991144926,-0.2442007879509449,-0.11854683921684059,0.0035558030391907884,0.007356560102809008,-0.0023240345789922318,0.10475738414169959,0.2686210491609982,0.9575301902724509,-1.6333498457358153,-1.7691322276165389,4.163823559271154,-2.680015131349641,-1.3521941841305385,2.6361351963724258,1.0,0.47816284961886363,0.4915800501152972,0.349935505783081,-0.541735299121918,0.33050056094546293,-0.17149946525708334,0.7535782496307568
3.0,0.11131200229618494,-0.21026542864070463,-0.05954707108761502,0.006146478302351835,0.0010281307079651086,-0.002359992829775018,0.10414135865790337,0.26665895529536343,0.9581425945421391,-1.6311443531971423,-1.770573251845541,4.163525647041403,-2.6806905712614744,-1.3525229038445437,2.6361762602072356,1.0,0.478826539695579,0.49236531865879346,0.3501767210257247,-0.541740280388838,0.3304568099135379,-0.17145115666159993,0.7536048475596416
3.1,0.09556805584131708,0.20222551639851138,0.04983219854404971,0.0045573324058576885,0.00026024482451717564,0.0001533586786412939,0.10352533317410716,0.26469686142972865,0.9587549988118272,-1.6292317081353265,-1.7721853821521762,4.1631760597229,-2.6813175376967826,-1.35286164435074,2.6362475874295517,1.0,0.4791672678314852,0.4926864459337119,0.350343058392073,-0.5416971751120815,0.33043447479171173,-0.17147415366741656,0.7536403936684657
3.2,0.08688865362722123,-0.397730400911311,0.08509947252574612,0.0045186801017091495,0.0005967372662074575,0.003981926760972542,0.10320343058602013,0.26367540416090995,0.9590745083781557,-1.6270146414900502,-1.7735263309874476,4.162882800373963,-2.681987555168513,-1.3531320685826025,2.6363205421995075,1.0,0.479538359179613,0.4930568727905491,0.35026281177283924,-0.541786623716221,0.33047823424543626,-0.17146142073372844,0.7535598000505124
3.3000000000000003,0.06467315283644734,-0.31116158043604136,-0.06630579477614348,0.006106016606370789,0.00020188357354468107,0.0006870514601196821,0.10338976895201504,0.2642793560267914,0.9588878992925438,-1.6251106384745522,-1.7747998477720008,4.162607711034785,-2.6826599011503407,-1.3534048445359683,2.636355823464295,1.0,0.48012995231995265,0.4936329734453711,0.3505016689367477,-0.5417390715157228,0.3304651161778718,-0.17146686998029567,0.7535984991240288
3.4000000000000004,-0.14118991023205443,-0.3384527998419011,-0.12294743254245966,0.0024035098833903616,0.007491679270254725,-0.006490694537435432,0.10357610731800997,0.26488330789267295,0.958701290206932,-1.6231107711791992,-1.7761465511717738,4.162290765228235,-2.6832918592467614,-1.3536414655666555,2.636422547189789,1.0,0.4806031071476871,0.4941286483093087,0.35066362077062585,-0.5417298615177651,0.3304578238435288,-0.1714816597045834,0.7536049523361052
3.5,0.05619578959809496,0.02547275321598058,0.02152037363643393,0.005918333659656922,0.0037534958939001947,-0.004982994708864539,0.10480063342108499,0.2686371131965591,0.9574802106709749,-1.6212349025039985,-1.777590893787514,4.161997008088859,-2.683877765338177,-1.3538738650392137,2.636487150661882,1.0,0.48078927246087055,0.4942994837358805,0.35071626598955363,-0.5417434542604007,0.3304557418767357,-0.17149979725462194,0.753591966496677
3.6,0.21951616135023733,-0.09121052849075001,0.06346200996447937,0.00846566120860914,0.001462690876256625,-0.000267516675647436,0.10788296610638003,0.27802748907544705,0.9544079765286568,-1.6195048961391696,-1.7787719644223874,4.161689352142862,-2.6844455864959365,-1.3540926971630565,2.6365151405334473,1.0,0.4812013804613725,0.49468335963854193,0.35075121206012794,-0.54177384391166,0.3304895170353749,-0.17151262651147212,0.7535523871172098
3.7,0.17861753219363558,-0.24715971793041908,0.020305453329148834,0.00754952633275341,0.0041364921415617244,0.0001495328858480919,0.11096529879167508,0.287417864954335,0.9513357423863388,-1.6175879791490988,-1.779805517483834,4.161526620355317,-2.6850219845329444,-1.3543420633841328,2.63658278734612,1.0,0.48181324566043116,0.4952666210417374,0.35095467565767685,-0.5417236234791801,0.3305073413645181,-0.17152961819589682,0.7535768064041748
3.8000000000000003,0.11293714783659556,-0.30455816704712396,0.009320836576922453,0.0056449509052114285,0.002877336155247483,-0.004600174179912448,0.11554420969588516,0.3011404626418599,0.9464177448812826,-1.6159569148535236,-1.780851489933348,4.161294274179059,-2.6855772071159896,-1.3545776976605919,2.636582878366744,1.0,0.48217408767303616,0.49565314875952216,0.35115579491491816,-0.5416694549569799,0.33049509754523354,-0.1715143022504804,0.7536245989806237
3.9000000000000004,0.14198889545412463,-0.053833598335963684,-0.03214778123390437,0.014005130108484263,0.005461373193468901,0.0006611613016259273,0.12038790264673747,0.3156295385144212,0.9411731857607851,-1.6144027498664284,-1.7821700145039137,4.161077246531676,-2.6861737797435654,-1.3548007002665305,2.6366544558708815,1.0,0.48260228299600394,0.49608079199577165,0.35132166054452035,-0.5416611326039599,0.33049074731530526,-0.17152389337618854,0.753630305498817
4.0,-0.039620969934937494,0.11947175366768209,0.22999042944060144,0.018128893010811137,0.0020333358615289617,-0.005012340866790097,0.13426095980343883,0.35727956756158846,0.9234325844582221,-1.6126071325119533,-1.7833840942017,4.160847921519943,-2.6866858110081155,-1.3550081893559873,2.636714349822857,1.0,0.48285384962275324,0.49633976196765306,0.3512062476297983,-0.5417653152098151,0.33052942467690877,-0.17152535642966696,0.7535381176556609
4.1000000000000005,0.07986526888886,0.06916671688585567,0.018016122640907038,0.006269222919168046,0.002270322055057246,0.00010670277588621267,0.14474087603130498,0.38876546603508516,0.9098963800870956,-1.6111463350398096,-1.7843635785641354,4.160626997233727,-2.6871757265705725,-1.355234339151181,2.636739145039222,1.0,0.48320868351103813,0.49674861336459586,0.3513418993289683,-0.5417413229150623,0.3304991981816435,-0.17150797153635675,0.7535725809416195
4.2,0.310081301622107,-0.29652583146025585,-0.08361765929472978,0.0014640710477466616,-0.0018858430744612413,-0.002011130383938504,0.14484680912530878,0.3891320289481107,0.9097228277210255,-1.6096724994423277,-1.785305552066205,4.160440747302778,-2.6876829893326737,-1.3554699184255798,2.63678234382271,1.0,0.4835339820461295,0.49706562032957036,0.35145701431325344,-0.541735622304627,0.33050024041131293,-0.1715266423740714,0.7535719723889421
4.3,0.21303634357321524,-0.1826672418390649,-0.03706450488182632,0.006752429751413519,-0.0006305415465109173,-0.004070210357224501,0.14425747450637147,0.3872297128736177,0.9106235879387045,-1.6078477835426417,-1.786306849793176,4.1602077070291115,-2.6882185955202615,-1.3556815840109844,2.636847537416689,1.0,0.483788993941146,0.49734893186125817,0.3515379496094984,-0.5417337507600833,0.33048631887430985,-0.171499900626667,0.7535855096864346
4.4,-0.030569277325523836,0.06907586342685831,-0.08910212710687496,0.005938225699759022,0.0034753215857510292,-0.002835765964750225,0.14351301116488138,0.3848211625926322,0.9117640496924068,-1.606219430839066,-1.7875799252447235,4.160004252599755,-2.6887533241543906,-1.355874056127225,2.6368985176086426,1.0,0.4843043669480301,0.49788487944266563,0.3519120098240152,-0.5416028607660136,0.3304383276618961,-0.17148728062923435,0.7537034996631434
4.5,0.19051004709832084,-0.10993171922925085,-0.043175715414328436,0.0031827629224153147,0.0008438693769310807,9.850169609376366e-05,0.1429289399321094,0.383071616291111,0.9125927780802321,-1.60485969564029,-1.7887533679784664,4.1597933031674295,-2.6892663667859247,-1.3561060695573686,2.6369306727621042,1.0,0.4845253725401992,0.49810866229160583,0.35188187734369003,-0.5416589946238514,0.3304635381424007,-0.1715017435846853,0.7536488144015736
4.6000000000000005,0.043265377242497904,-0.0563037531084203,-0.0610426467098069,0.004669338678259849,0.00153121772141702,0.0021590235966273807,0.14208065867621447,0.3805531656887919,0.9137704589226872,-1.60309624693465,-1.7899302661248768,4.159592487307275,-2.6898293930772943,-1.3563455022887598,2.636973691792514,1.0,0.4849826524868958,0.49860088633497973,0.351729733243922,-0.5418300752637509,0.33050889565344876,-0.17149159465015978,0.7535082430856088
4.7,-0.13342714494643612,-0.2557601147454782,-0.238597162607446,0.005612674752584337,0.008015557738446193,0.0021856336926897196,0.14041979935061416,0.3755303844319215,0.9160938715462655,-1.6013392491613556,-1.7908549033718064,4.159389972686768,-2.69037673106956,-1.3565257686584788,2.6370076764084303,1.0,0.4851711883102634,0.49879280249681873,0.35177981379883516,-0.5418148941139052,0.3305105301371346,-0.1714951395578665,0.7535176355552908
4.800000000000001,0.08578628628854001,-0.1629175305237836,0.04774796097858991,0.01027564564723971,0.0025505286551123765,-0.0019100698789928229,0.13922785982176905,0.37191482559270145,0.9177662681747165,-1.5999233141514844,-1.7918526878186651,4.159201819438387,-2.6909028492369593,-1.3567462441070406,2.637062220629684,1.0,0.48553692372478224,0.49917547975494836,0.3520584819099389,-0.5417213417025497,0.330485215013828,-0.17147864808995875,0.7535997504315495
4.9,0.19392217736414402,-0.24823540683899536,0.05904032165371864,0.009331653730632081,0.0010272793928786834,-0.0014000645443843507,0.1393271321031405,0.37217417717066775,0.9176460351309608,-1.5983455728056748,-1.7930371284253148,4.158974630250343,-2.6913916302265504,-1.3569698193511173,2.63712530837086,1.0,0.48598758340061715,0.49962088809470956,0.35222444584427504,-0.5417323611006094,0.33045724091606304,-0.17149026970060383,0.753601451869963
5.0,0.10151723253610828,-0.04915689399113532,0.007714689037734146,0.011580382562471056,0.007199746059391631,-0.0027516306757466875,0.1394118833992177,0.37241375855783365,0.9175359970886449,-1.5965707872840869,-1.7941847307553267,4.158751950228124,-2.6919536704792906,-1.3571456114398401,2.637135884671023,1.0,0.48616863597001087,0.49983841251487515,0.3521867654214861,-0.5417730721235752,0.33047979956432366,-0.17147858387158263,0.7535649511987035
5.1000000000000005,0.028356651564177195,-0.12535563922470017,-0.05276404345761476,0.00547175204078562,0.0015017370887850585,-0.006316778459437919,0.13945436899238134,0.37259579557084144,0.9174556332656274,-1.5949811367160731,-1.7952296310694702,4.1585373878479,-2.6925295221165175,-1.3573523206071658,2.637185515714495,1.0,0.4866252989601668,0.50031274216813,0.3523227222934547,-0.541757425195938,0.33048331843384604,-0.17148730529299736,0.7535726724114716
5.2,0.05829067279676109,0.06396907160204765,-0.13790436861989708,0.010971512567795324,0.0029300552301692287,-0.0031499789261340383,0.13889386542170387,0.37095710619652605,0.9182023260077168,-1.5934320129622443,-1.7962816645350834,4.158314316303049,-2.6930843792357386,-1.3575696189493192,2.6372432957724454,1.0,0.48690633383294146,0.5005969444519146,0.35243351294668784,-0.5417509715806955,0.33047614657679625,-0.17149552314428065,0.7535785870608284
5.300000000000001,0.21665694657797607,-0.32185923558473234,-0.07605698536608048,0.006214118664645566,-0.0008679981069555634,0.0003001328805591287,0.13832298411237015,0.36926304255938464,0.918973098334203,-1.5917518276435316,-1.797374362503025,4.1581387699615,-2.69362932604233,-1.357742889013107,2.637287392066139,1.0,0.4872085571973233,0.5008953193918211,0.35252281318708784,-0.5417477385336221,0.3304851657206596,-0.17150548342024546,0.7535746891908474
5.4,0.33180091114250293,-0.7077535350159772,0.04207478887746209,5.3654691236660994e-05,-0.004655984188970469,0.0012098878395965633,0.13835979802071602,0.36932797246590965,0.9189414632382936,-1.5901420340764887,-1.7984772311762844,4.157914314628278,-2.6941231734631095,-1.3579532205967824,2.637331485748291,1.0,0.4876253558335483,0.5013297804596684,0.35265526307062467,-0.5417448393998765,0.33048746821861896,-0.1714981771844228,0.7535774263846214
5.5,-0.035154363599877336,-0.0786379649401692,0.0018759811996600095,0.005433802853074619,0.0005713947096993876,0.0009995770559189103,0.13871769345367316,0.3704421557026993,0.9184379927121928,-1.5885095047798046,-1.7995742115474913,4.157655541986343,-2.6946263142545175,-1.3581812968371663,2.637359137393176,1.0,0.487982026492218,0.5016854740462513,0.35277949894085486,-0.5417213804041391,0.33048945105773564,-0.17149060893055273,0.7535951431645636
5.6000000000000005,-0.06115954824002672,0.054694010661555825,-0.12913903363521,0.011721504135575092,0.005307360195519979,-0.0013773887012855411,0.1389078140702083,0.3710638271554748,0.9181574934501505,-1.5868083695732604,-1.8006560704901968,4.157487779875913,-2.695198538752681,-1.358397534809436,2.6374030113220215,1.0,0.48835673421367365,0.5020535845430857,0.35289944497766396,-0.5417015775399199,0.33048430377529037,-0.17150458106511038,0.7536084557133131
5.7,0.206045611821785,-0.17154493635749912,0.10314736047329634,0.012025543386593722,-0.0023641112865574526,-0.0018927420881322704,0.13810802136571634,0.36864389305300654,0.919249948109694,-1.585246453508583,-1.801705665926095,4.157251659867234,-2.695778237984522,-1.3585939715313973,2.637447326537791,1.0,0.48861903052776456,0.5023564353592488,0.35299966026416313,-0.5417001358731383,0.3304631318263709,-0.17149965982705812,0.7536198962193963
5.800000000000001,0.3476146681356699,-0.17470559632682536,-0.03284598105874519,0.0045122335089842844,-0.0052018694683417434,0.0019727146271151528,0.1376087761169948,0.36713306667076256,0.9199323229450492,-1.5837079486661425,-1.8029211963463199,4.157038758268618,-2.6963061395742884,-1.3588140646563929,2.6375107765197754,1.0,0.4890962382108729,0.5028231779015558,0.3531013245200387,-0.5417228446330277,0.33049194128775006,-0.17149930615585854,0.7535910192767787
5.9,0.24327607842719506,-0.3006452435836117,-0.01421863546473193,-0.0007732525215971096,-0.0037247722533894708,-0.0013886046683933388,0.1382070077888171,0.36894193147897264,0.9191172532538033,-1.5818438720990737,-1.8040135565518565,4.156814942020781,-2.696880424846349,-1.359033941592169,2.6375265312482434,1.0,0.4892647141425156,0.5029871915189661,0.35306952438626604,-0.5417572166496081,0.33050902242186786,-0.17149741998152446,0.7535592473359287
6.0,0.131132098649375,-0.09357604846484056,-0.0675702051692681,0.009766250930984988,0.001080535324359221,0.002914015522998307,0.13871092977711907,0.37047433198290525,0.9184268718770726,-1.5803442001342773,-1.8050114064082512,4.156568480294848,-2.6974285807021325,-1.3592282696323081,2.637564348796057,1.0,0.4897912096629983,0.5035328240094484,0.35335254426751284,-0.5416705615189445,0.3304790839896881,-0.17149612130581204,0.7536349634976804
6.1000000000000005,0.3947234228254279,-0.4653657298436501,-0.1752254742174254,0.0033507505741797255,-0.0036364616059743875,0.002755734251339075,0.13884862020151373,0.3709331422600372,0.9182206910057548,-1.5788630424724952,-1.8060440722070705,4.1563747422320665,-2.6979476663294037,-1.3594496885882776,2.6376459123187264,1.0,0.4899962070245123,0.5037175157464231,0.353367950015253,-0.5417066549963298,0.33048891843259653,-0.1715036434813692,0.7536029956141068
6.2,0.09596858910428122,-0.29844944260472356,-0.11867623544077766,0.0024859346169623215,0.002775670881216834,-0.0010897437874011367,0.1389863106259084,0.3713919525371692,0.9180145101344369,-1.5770469311970037,-1.807242200697584,4.156179364122384,-2.698435509472755,-1.3596739893596554,2.637686831654266,1.0,0.49030578407303843,0.5040144994971918,0.3534058353457551,-0.5417434604291531,0.3304964425475305,-0.17151413172390034,0.7535708507928569
6.300000000000001,-0.10490424424694558,-0.0577882516911582,-0.08636252931787425,0.00566113520533631,0.0028406581384045745,-0.010480487006127498,0.13902564685413496,0.3714116149820219,0.9180006875199047,-1.575377684255199,-1.8084874096470709,4.155964552073519,-2.699017951506926,-1.3598731643675828,2.6377148628234863,1.0,0.49079309248101816,0.5045456660560186,0.35359703814089466,-0.5416877862388517,0.3304750758487549,-0.17149892243215234,0.7536237032412281
6.4,0.11360645124940622,-0.07077224423484203,-0.06128748647589649,0.011617043487271349,-0.000431169249500523,0.002241887494682055,0.1390126562752955,0.37124573996421595,0.9180697565249605,-1.5739513355164254,-1.80956394853165,4.155779605001226,-2.699569709538987,-1.3600612981864093,2.6377524215680843,1.0,0.4910587617620113,0.5048576771927389,0.3535923664412021,-0.5417353434481982,0.3304778130470438,-0.1714803505682328,0.7535925438270354
6.5,0.16902492184543613,-0.25465286944540205,-0.05081431242440181,-0.004211837887964247,0.003046918165418074,0.0045590203758892915,0.13900904494094704,0.3712704949169896,0.9180602320842883,-1.5722354657051398,-1.810510446662603,4.155576702611943,-2.700184962465433,-1.3602540977272315,2.6377862384425623,1.0,0.491487962141811,0.5053083136083609,0.3535611463254256,-0.5418561540823038,0.33051790223342764,-0.1714825879519317,0.7534875888929141
6.6000000000000005,0.16086481556646057,-0.23134248226660287,-0.001088315831700784,0.011476752175307345,-0.0005816941363824828,-0.002666862372160167,0.13919663657992765,0.3719346036523364,0.917763011280617,-1.5703795335953987,-1.811437469694295,4.155343845384936,-2.7007838908455284,-1.3604629235168912,2.6378350257873535,1.0,0.49167608606391927,0.5054589925082688,0.35372797953224044,-0.5417868727591371,0.3305022509501136,-0.17150173987450412,0.7535399125745104
6.7,-0.04210630257978859,-0.19649360114951714,-0.1087652226138365,0.008006375292012573,0.005600992153685078,-0.0007511391484014608,0.13917386628993908,0.37192404167969617,0.9177706774024922,-1.5689040185335805,-1.812503450609871,4.155125861373894,-2.701355119744772,-1.36066180864443,2.6378667304840158,1.0,0.49200582670558585,0.5057859477557888,0.353994933179177,-0.5416825007763819,0.330479158600546,-0.17151474321239368,0.7536221115015846
6.800000000000001,0.9575528851620889,-0.59922580686565,0.4135606304541378,-0.02217856435066185,0.0065832613827193675,-0.025555316253210544,0.13895830248186167,0.3712478131451431,0.9180770131737795,-1.567595214068755,-1.813658176979487,4.1549763679504395,-2.701849490721379,-1.3607899779630817,2.637937268693019,1.0,0.49248504207628147,0.5063105738029151,0.3540880074339591,-0.5417390377562706,0.3304841419587296,-0.1715001063511175,0.753582616841888
6.9,0.37443907089426676,-0.21282851265788633,-0.13158928461300945,0.00941405568433287,0.001664953860352876,-0.006224705809208572,0.1387604085731599,0.3707166716404757,0.9183216387437546,-1.565809035138408,-1.8148359876677655,4.154748237669145,-2.7024004383905034,-1.3609661349661624,2.6379717612171105,1.0,0.492669164780878,0.5064724666701538,0.3539618690758172,-0.5418309281127891,0.3305230170117091,-0.17151410999820152,0.7534963109647159
7.0,0.1736724668475049,0.21858076904513257,-0.6446520656546226,-0.00539583911504914,0.0004837401484792701,-0.0005744466129375289,0.13886425557075022,0.37104670793161354,0.9181722849584004,-1.564089433213063,-1.8156986904148635,4.154577444314813,-2.703059281359401,-1.3611372334207548,2.638006723423499,1.0,0.4930276183866486,0.5068567934373819,0.35409635843239945,-0.541788662605448,0.3305317559718763,-0.1715148762172199,0.7535226941522996
7.1000000000000005,0.013422589802488364,0.7063161191358761,-0.17785246575052022,-0.04494197872908562,-0.00433620163505479,-0.00837576546891977,0.13913860149336252,0.37183206675028047,0.9178130840495904,-1.5636436930914508,-1.8159840890381016,4.154542807256216,-2.7032990073545182,-1.3612171464494889,2.6380152702331543,1.0,0.49346189532267265,0.5073347820822772,0.3544336889358473,-0.5417153851349196,0.33048818256949997,-0.1715128875789955,0.7535949389986307
7.2,0.15509640958083182,0.1893651891115098,-0.44031859491906483,-0.0224923393832705,-0.0020968772020758418,-0.0024226833567385737,0.13907560379190512,0.3715941088262665,0.9179189857186714,-1.563624937640984,-1.8159749424281015,4.154544747890676,-2.7032876343244383,-1.3612389668131695,2.6380010558986617,1.0,0.49349068712064537,0.5073856075707488,0.35447311175904234,-0.5417099762962375,0.3304817699167999,-0.17150992003605556,0.753602314661397
7.300000000000001,0.07396388072025022,0.054199783747642276,-0.5361605031172826,-0.011475450816742786,0.0035636193865919994,-0.0010056412775938447,0.1388260366026202,0.37079350185879756,0.9182807279364937,-1.5635984082079715,-1.8159844236719134,4.154528295064455,-2.7032919617195903,-1.3612292095817904,2.637979030609131,1.0,0.49350160139982935,0.5073753083907855,0.3544247904373792,-0.541749949249181,0.3304984741356101,-0.1714943246390285,0.7535698028047215
7.4,0.18763923898624474,0.05187273321950858,-0.5376091679686177,-0.013399306977193359,0.005891363045454461,0.0018600955458776018,0.13877253151366892,0.37060436827908505,0.9183650920127329,-1.563576407728806,-1.8160420130435504,4.154528256207244,-2.7033041711411605,-1.3612410931480425,2.6380103866760574,1.0,0.4935072469004799,0.5073887991062549,0.3544240349710001,-0.5417498192836628,0.33049010467694806,-0.17149505517844965,0.7535734005829021
7.5,-0.004590684099018333,0.2637977551387305,-0.6111722839431961,-0.01540143064752124,0.005496116384610081,-0.0002826061741176729,0.1391056905511706,0.3715253985793291,0.9179425191090492,-1.5635670478243022,-1.8160514518266844,4.1545402934598155,-2.703282495538229,-1.3612388953416121,2.638022287160638,1.0,0.493492505418553,0.5074033805690482,0.35442394394370774,-0.5417509654510749,0.33047533781970584,-0.1714856193885052,0.7535811999172486
7.6000000000000005,0.22849964695920919,0.30740090905894707,-0.6448368118261868,-0.011691158028662014,0.0026652011013657663,0.0011882206881536706,0.13900468704450128,0.3712265511881841,0.9180786956705429,-1.5635322426722114,-1.8160565742876649,4.15453577041626,-2.7033035862388197,-1.3612318125342469,2.637998470976656,1.0,0.49350564099347194,0.5074131834258128,0.3544223727599218,-0.5417480158230691,0.3304879157390395,-0.1714791282172704,0.7535792814880715
7.7,0.3173397476067563,0.007303113268212667,-0.5420754135579055,-0.01769511163885551,0.0020903916517795566,0.0013658017550380597,0.13897214783204767,0.3711751321675056,0.9181044352194018,-1.5635394171982575,-1.8160640640997445,4.154532388652839,-2.703306337396139,-1.3612257830490901,2.638006254230461,1.0,0.49350031085235296,0.5074204345211176,0.35444838619649965,-0.5417390942412674,0.3304697565861529,-0.17148970219403578,0.753591252466442
7.800000000000001,0.1251814530813932,0.1643719462067832,-0.5783448503054781,-0.014486580606588036,0.005745952596644248,0.0009097341714330263,0.13899978311704936,0.3713241182505544,0.9180399904108202,-1.5635381239932127,-1.8160400505825247,4.1545233726501465,-2.7032975636280767,-1.3612244764911097,2.6380152702331543,1.0,0.4935081197999538,0.5074087467055673,0.3544264276984111,-0.5417462678818171,0.33049088239412483,-0.17149902564235076,0.7535747090330194
7.9,0.32703430106065634,0.1532815673217133,-0.4949277982866904,-0.015627995344456278,0.0034081768891571405,0.0024388356651993234,0.13917608769664278,0.371809608011194,0.9178166944820914,-1.563532829284668,-1.8160673333406927,4.154542914683225,-2.703289937482985,-1.3612678603820987,2.6379957282000754,1.0,0.4935059636186438,0.5074087987362474,0.3544311844010709,-0.5417394352790554,0.3304853437811789,-0.17148993443157667,0.7535841188600115
8.0,0.08282896855068908,0.2440251730076425,-0.5561632360369849,-0.012156041514992316,0.007121988476045162,0.006176558573593326,0.13919042092640732,0.37186574487540347,0.917791828697117,-1.5635309305497176,-1.8160584164722646,4.15454172910562,-2.7033109265100075,-1.3612437292351514,2.638000606602981,1.0,0.49351699893725154,0.5074056842899212,0.35441969135980456,-0.5417455594583717,0.3304959365497365,-0.17148644034622595,0.7535758657949637
8.1,0.299943278350792,0.31020175953410756,-0.48964723302758817,-0.010858275437437342,0.0012160291998713827,-0.0008207581107070173,0.13907644213663709,0.3715725092131236,0.9179278737451826,-1.5635136811144097,-1.8160733134897196,4.154550954521392,-2.7032982347610157,-1.3612443449484026,2.637983082290244,1.8606869235391827,0.4935242480353535,0.5073992962660705,0.35445197391690103,-0.5417299970312711,0.33048921342223864,-0.17150351875548958,0.7535861153063629
8.200000000000001,0.21375059207193103,-0.08790000891574051,-0.533078345707777,-0.019523085216736777,0.004906570936174685,0.0024333200182731947,0.13885958658386943,0.3708592182542167,0.9182490380916112,-1.563521385192871,-1.8160948307159506,4.154530634253149,-2.703315789015906,-1.3612556787243895,2.6379815986906863,2.0,0.49350991352393403,0.5074074092794638,0.3544439173772905,-0.5417452792306211,0.33048125269898665,-0.17149530628234985,0.7535804893765287
8.3,0.33048963463557235,-0.14536947330627703,-0.5219254082535906,-0.01837651026700935,0.010611957176960165,0.007289364272167845,0.1383635022816474,0.3694174565562534,0.9189048590545247,-1.5635400542632838,-1.816066060296018,4.15451827548271,-2.703297198905834,-1.3612293776136448,2.6379981673894073,2.0,0.49351582241389275,0.5074149909499556,0.3544335501769382,-0.5417433578751848,0.3304990183398992,-0.17149641048198705,0.7535738280130729
8.4,0.2516709391756859,0.3440553087014121,-0.42910254767821515,-0.016890704220115415,0.003944313975701455,0.004172797274554075,0.1387775252075429,0.3707286326378216,0.9183136701490043,-1.5635576248168945,-1.8160730801024378,4.1545233726501465,-2.703294416467184,-1.3612501021449388,2.63803490019813,2.0,0.49353044371343796,0.5074079598972736,0.35442055910108544,-0.5417388037020221,0.33049386297834943,-0.17152340281809103,0.7535732196560949
8.5,0.413824732756356,0.03278195214721619,-0.30844596980436806,-0.022591626806865002,0.0030361335739569253,0.003000765752699295,0.13894291553510715,0.37124002394288647,0.9180826219070923,-1.5635589356059836,-1.8160611591734828,4.154533928173801,-2.703322381792093,-1.3612363974200647,2.637995075005085,2.0,0.4935226899762526,0.5073968338781687,0.35444166858433324,-0.5417430840272986,0.3304851911997712,-0.17151021183458082,0.7535769479905151
8.6,0.3557942899987292,0.04546391745375,-0.47574213700745843,-0.018712963267342324,0.005769509512170584,0.0016222494454812388,0.13887556598727846,0.37101095981215004,0.9181853809452801,-1.5635486732798265,-1.8160782919429506,4.154521815512299,-2.703306337396139,-1.361243106508507,2.6380162906439257,2.0,0.49353756359693834,0.5073983204922587,0.35446031547415047,-0.5417145043149655,0.3304965306042339,-0.1715100167927886,0.753592564462451
8.700000000000001,0.2772402182232573,0.4845195018805618,-0.5055443821223587,-0.006398701592189582,0.008556470698000952,0.008946573996261168,0.13879582816958316,0.3707492539327893,0.9183031596335599,-1.5635440479487228,-1.8161076637872446,4.154510974884033,-2.7033260113731488,-1.3612483183490198,2.6380177821748383,2.0,0.4935277240524638,0.5073963957185066,0.35446121251146523,-0.5417090382195291,0.3304974834649415,-0.17149890609746493,0.7535986043922764
8.8,0.12567847623932862,0.3347228695945517,-0.23427801059826298,-0.009351416805737915,0.014130055188578912,0.006391962858516922,0.13906418901446935,0.3716014006634295,0.9179177931484211,-1.5635375330011463,-1.8160973987975062,4.1545377462503845,-2.703301025617101,-1.3612363974200647,2.6379977731591646,2.0,0.49352537261432466,0.5074021701578343,0.3544545049227388,-0.5417203723233817,0.3304861550185428,-0.17151625447070004,0.7535914768647658
8.9,0.14313092291104007,0.11443117326541431,-0.1037524393268481,-0.01937143790178496,0.000688967063069105,0.009488613374029755,0.1391908860222767,0.37198765213534396,0.9177423824670429,-1.5635353320151077,-1.8161008568383012,4.154552221604975,-2.703316977477091,-1.3612470375010164,2.6380217072280328,2.0,0.4935328163487047,0.5074007246487561,0.35442437905285634,-0.5417331590843363,0.33050583354386437,-0.17150642028215726,0.7535758927566489
9.0,0.259562117168407,0.24705165407223545,-0.33946321700573623,-0.033765924166566846,0.0009081296357267389,0.013427104066713325,0.13917782259432565,0.3719142681369791,0.9177741066143453,-1.5635498547185736,-1.8160772533740874,4.154511307231341,-2.703314384496441,-1.3612244764911097,2.638015247792139,2.0,0.493529791015697,0.5074032217966474,0.3544052695992294,-0.541757002559854,0.3305027736362569,-0.17150372524749533,0.7535607069256829
9.1,0.5375981365595198,1.314971765557469,-0.31262273059415147,-0.12426313361559607,0.01636403759923065,0.007603825415868373,0.13945775998355825,0.37272922711738365,0.9174009110178755,-1.5635162362468158,-1.8160840216128054,4.154542065562001,-2.7033291998354616,-1.3612352034620583,2.637995335604973,2.0,0.4935298155037629,0.507413422586403,0.3544335350281903,-0.5417363752741898,0.33049851841991923,-0.17149910402347163,0.7535784540087165
9.200000000000001,0.6061066300392878,2.5598420537630733,-0.44660612440790837,-0.20929644474134595,0.033972893351422645,0.006996509243922706,0.13918813624017326,0.3719413437158613,0.9177613068480959,-1.5635169573607874,-1.8160999105832836,4.1545309735981695,-2.7033421001830042,-1.3612337011412838,2.6380076692851318,2.0,0.493535368463739,0.50739464833379,0.3543954180851425,-0.5417687750020703,0.3305023023301379,-0.17152410520358652,0.7535478113041955
9.3,-0.23127659602833706,2.755131241121064,-0.658396593408699,-0.18137645753693393,-0.021630144552932058,0.04827267407511632,0.13906865382568345,0.37158958274672615,0.9179221441489188,-1.5635621396170978,-1.8161158491378488,4.154564265778124,-2.703329041360229,-1.3612310059024972,2.638009663054884,2.0,0.49351777009534964,0.5074133177165492,0.35441817967651407,-0.5417559978180836,0.33048655781117103,-0.17149886953012092,0.7535696462067369
9.4,0.13932620518402983,2.208895517453874,-0.8358220065303136,-0.15274060604907438,0.014974817620535662,0.012629888796087826,0.1391429514108595,0.37180093243256335,0.9178253110232124,-1.563521385192871,-1.816108179763396,4.154510974884033,-2.7032455927882983,-1.3612417879030096,2.637979030609131,2.0,0.49352607041597873,0.5074146630832453,0.35438769332582526,-0.541775423375376,0.33049366548926457,-0.17150953591976617,0.7535501355493798
9.5,0.09310746800926684,1.493243282681017,-0.3675821751802575,-0.09023637606993287,0.01053716483336578,0.008773025058511782,0.13906661751879812,0.37150428719154516,0.9179569548975314,-1.5635323139157025,-1.8160928373470473,4.154531026507782,-2.7032436403441866,-1.3612383433005049,2.637969907708213,2.0,0.49352490124432985,0.5074166404905628,0.3544075096598055,-0.5417444857795317,0.33049230621254055,-0.17149084803715395,0.75357722676663
9.600000000000001,0.7006082556242268,1.63337636327172,0.06849043922409803,-0.12261717910165446,0.019087405705363547,0.015760016708107075,0.1390873103236181,0.37156086192366733,0.9179308664494117,-1.5635239007214214,-1.8161046694331038,4.154525111775841,-2.703306337396139,-1.3612363974200647,2.6380032768464288,2.0,0.493522910190019,0.5074298601704526,0.35440815564605643,-0.5417366341135055,0.33049759203037765,-0.1714826640633428,0.7535824154312727
9.700000000000001,0.6300178526648874,1.4971400287546652,0.2203335787832531,-0.14460024450529146,0.02928896667173009,0.02603092314182609,0.1392386961243586,0.37209068496706016,0.9176933441957117,-1.5635151265807101,-1.816139680972039,4.1545523999876925,-2.703305219549759,-1.3612188588881706,2.637997686987405,2.0,0.49353062244229196,0.5074145007108182,0.354435645546174,-0.5417235477136002,0.3304945776275341,-0.1715054406160802,0.7535879615880772
9.8,0.8620413456533278,2.66914841204651,0.8247087259365806,-0.19692797300456105,0.04000480327281458,0.025620793676459554,0.13921900347613242,0.37197437225783037,0.9177434926874122,-1.5635483613367815,-1.816085001031393,4.1545386962533595,-2.7033034101858577,-1.361216165312132,2.638023580038951,2.0,0.4935236946191728,0.507425955725943,0.3544167040165063,-0.5417479616600117,0.3304883207710991,-0.1714929285640735,0.7535760023538698
9.9,1.1218842611360624,3.475373432368066,1.3369694863917707,-0.2831431975489775,0.04815907782932531,0.030391057388413568,0.13908618034662323,0.3715480164003235,0.9179362197444004,-1.563521385192871,-1.8161291613395925,4.154527108340083,-2.7033171637942783,-1.3612350906069324,2.6379977776914463,2.0,0.49352926257149676,0.5074245185212933,0.35443804339607066,-0.5417348538185872,0.33049062083603953,-0.1714934416474821,0.753584299975434
10.0,1.108115860504387,3.8500306256561037,1.5747543662764136,-0.3356030830678985,0.054384567176015024,0.03385382542169061,0.1389729696729933,0.3712193952239345,0.9180863887377766,-1.563519453528218,-1.8161023531866436,4.154538841043304,-2.70333943660614,-1.3612413518092021,2.6380160021453656,2.0,0.4935146438355524,0.5074204829518197,0.35443144501530116,-0.5417486787289173,0.3304923781157207,-0.17149398316967682,0.7535734674465964
10.100000000000001,1.404948282015311,4.019654460613261,1.899267561578054,-0.3683983146563294,0.05888109803038716,0.03951282508632859,0.13907796070189085,0.37152721436292196,0.9179459861134075,-1.5635295628330805,-1.8161080734405175,4.154553410844479,-2.7033249710228855,-1.3612120787249964,2.6380043374094586,2.0,0.4935274219548403,0.5074190292797325,0.35440863861390504,-0.5417544573548755,0.33050716944862446,-0.17148612908963623,0.7535646132940661
10.200000000000001,1.5753083790216975,4.27239396742605,2.066485162097055,-0.37606221083152647,0.05833462048595994,0.034919804890201134,0.13905015053853206,0.37152168193522694,0.9179524471117201,-1.5635381532277781,-1.816092384011205,4.154558648020136,-2.7032789586267274,-1.3612291821206015,2.6380109105440783,2.0,0.493527734157555,0.5074209809752328,0.3544165296756026,-0.5417482695325432,0.33050017929514575,-0.17150670977436355,0.7535674438606963
10.3,1.1866605497326974,4.356564913745772,2.138378154730788,-0.3925025498657057,0.06996133717713558,0.034342620779240385,0.13907836170688975,0.37158394009638884,0.9179229708421494,-1.5635099411010742,-1.8160670644534354,4.154571056365967,-2.7033306560912074,-1.3612439059210724,2.637994047611146,2.0,0.49351674405851,0.5074174592161407,0.3544257413197748,-0.5417419743696699,0.33048860118509343,-0.17148775995152135,0.753581359827578
10.4,1.3597957809977568,4.261479610673179,2.123102507964121,-0.39107054530776897,0.06629004278267671,0.03518006685676697,0.13908572726605467,0.37159309153824305,0.9179181510084687,-1.5635364483799794,-1.8160730801024378,4.154542132163197,-2.7032904550684527,-1.3612405705831652,2.638017687157019,2.0,0.4935287566897956,0.507405019477601,0.35440969431989827,-0.5417520212129142,0.3304993791456207,-0.17150697122769948,0.7535650381462655
10.5,1.3953123098550653,4.303776575300307,2.1170854126778904,-0.38811339182199267,0.06752161792432751,0.03776085194115799,0.1391006905207311,0.37165180060566616,0.9178920875415425,-1.5635371766310693,-1.816113648617821,4.154554502864148,-2.7032976796134194,-1.3612376363208436,2.638022558589246,2.0,0.49352217259678977,0.5074105689433579,0.35444763889587505,-0.5417366177300308,0.33048216949147335,-0.17149532432834444,0.7535863098492114
10.600000000000001,1.2216243068209112,4.321986535872883,2.017607134717579,-0.38515394438643596,0.0684739124380709,0.03647959442311473,0.1392019867656603,0.3719572739342699,0.9177530013502994,-1.5635461807250977,-1.8161071173604968,4.154552139596599,-2.703319556166747,-1.3612506088096228,2.638002872467041,2.0,0.49352105100406535,0.507417097095866,0.35441311451371416,-0.541756914487025,0.33049295830168424,-0.17149999394155163,0.7535659242538421
10.700000000000001,1.4470574067522326,4.195384620910352,2.010366188427838,-0.38657787760345536,0.061839656333029625,0.036524403549847526,0.13927959640534554,0.3721231348459563,0.9176739883947932,-1.5635500560982962,-1.8160736676013745,4.154547778507036,-2.7032994956832566,-1.3612491560165143,2.6380152702331543,2.0,0.4935178408904011,0.5074132895835797,0.3544375161236607,-0.5417433676040864,0.33048483677138973,-0.17148910049559352,0.7535817040854854
10.8,1.4178654142779261,4.1120617664888615,2.028958107017545,-0.3882173941765685,0.06111715523096719,0.03340370868460807,0.13929473884170643,0.37215280432555387,0.9176596620174372,-1.5635277179485196,-1.8160819564373312,4.15453577041626,-2.7032974610612457,-1.3612363974200647,2.6379821969869552,2.0,0.4935172846646,0.5074084999453568,0.3544247912159395,-0.5417523079070192,0.3304843496368739,-0.17149446948062813,0.7535742687088438
10.9,1.2922898693587608,4.219183113900532,2.1361311478251195,-0.38460897535366134,0.06625766392920843,0.034697428882167335,0.13937662185820557,0.37246209414495546,0.9175213217634363,-1.563532829284668,-1.8160860717335954,4.154530334961836,-2.703306337396139,-1.3612610552423117,2.638002872467041,2.0,0.49352572423543484,0.5074148878843386,0.35441832667026624,-0.5417480196152673,0.33049620620497944,-0.17149423807703731,0.7535722043928026
11.0,1.4628647132791572,4.3075572991017514,2.1650760831113676,-0.38826412821291684,0.06328402561320182,0.03407599887728985,0.1397714200684925,0.37365695125716175,0.9169754806413549,-1.563521385192871,-1.816066803777056,4.15454118923569,-2.703282495538229,-1.3612483183490198,2.6379666328430176,2.0,0.4935236784141621,0.5074140960607655,0.3544230688936332,-0.5417419643699014,0.33050163520406806,-0.17149443710214088,0.7535741311981838
11.100000000000001,1.4080684775574992,4.511919322874923,2.1546200123115913,-0.3929537329370924,0.06217143759701108,0.03293372498440974,0.1398464338102872,0.37389466997846627,0.9168673558593925,-1.5635379499487663,-1.8160618275609373,4.15454049238461,-2.703318258325094,-1.3612363974200647,2.6380012658093084,2.0,0.49352015443641845,0.507409495407413,0.3544490576614901,-0.5417334878725243,0.33049104090760467,-0.17149208408910233,0.7535854066342141
11.200000000000001,1.1989869566783111,4.519568545024646,2.101639649914751,-0.39684378975814394,0.06656592726194359,0.03732819402459848,0.13979868124005126,0.37376867009021203,0.9169259412215705,-1.563531077099139,-1.8160588026257132,4.154541891620219,-2.7032967730149533,-1.3612483183490198,2.63801195458101,2.0,0.49351789178000816,0.5073959447735147,0.35444414462444046,-0.5417379264920819,0.33049355205577285,-0.17150687504486778,0.7535777483856342
11.3,1.2305419706652785,4.521379790275689,2.0735508651055974,-0.39937055750001144,0.06634159822588424,0.038253092223476025,0.13962504597308736,0.3732733429918153,0.9171541757144618,-1.5635664476961704,-1.8160574295336562,4.154513814530931,-2.703312797465675,-1.3612391278497742,2.6379844914685497,2.0,0.49352486220508374,0.5074037823381777,0.3544379084897019,-0.5417346191744173,0.33049899443091624,-0.17150636613988332,0.7535778549304608
11.4,1.0856180604455097,4.213969014646646,2.1090020065543604,-0.40494595862451954,0.07027092478734563,0.030727216553191494,0.13939999503709521,0.37259905348576794,0.9174622248940356,-1.563530917716583,-1.816065141606993,4.1545233726501465,-2.7032646273305843,-1.3612503892144452,2.638013199367729,2.0,0.4935218597841189,0.5074022384284742,0.3544377476754495,-0.5417398359508602,0.3304909922029267,-0.17151071104042837,0.7535766253109679
11.5,1.2174884509928294,4.381023507905153,2.076588056257217,-0.39987708140249845,0.06608845104842613,0.0357051264893016,0.1391641306366561,0.3718871255774777,0.9177870602653112,-1.5635121181729934,-1.816085001031393,4.154549482291306,-2.7032836294298535,-1.3612340842811506,2.6379902491279545,2.0,0.49351885115647814,0.5073931751751758,0.35442849115297537,-0.5417451597205895,0.3305068286692971,-0.17150210644797337,0.7535678108877695
11.600000000000001,1.1876669230538448,4.121079726876037,1.996192439282244,-0.4063542052027344,0.06863370217783617,0.03643179541231883,0.13927161406890798,0.37215944010425367,0.9176603127282419,-1.5635576248168945,-1.8160877479292614,4.154539735328785,-2.70329668799153,-1.3612555099238437,2.637993410831507,2.0,0.49352195003464094,0.507389184985662,0.3544420570061177,-0.5417382874959216,0.3304979835891424,-0.17150974347058473,0.7535748924951995
11.700000000000001,1.2080913842446535,4.075177351417711,1.912681721299582,-0.408699359330037,0.06607107627834335,0.03573666286737107,0.13945572613635351,0.3726514186198998,0.9174327805679756,-1.5635390689425597,-1.8161032713461929,4.154571056365967,-2.703312269015191,-1.361230524871378,2.6380146175644144,2.0,0.4935203320951703,0.5074140311884309,0.35445065699194406,-0.5417213955583029,0.33048326312211623,-0.17149110532382508,0.7535977330017226
11.8,1.2989693019816018,4.503469158309822,2.029762379835401,-0.39895763995659095,0.0635791001271442,0.03545137439289296,0.13933632389258896,0.3723163455836764,0.9175868969765215,-1.563521385192871,-1.8160901130582436,4.154568563876219,-2.7032753678587884,-1.361260716115133,2.6380219210754365,2.0,0.4935043282715194,0.5074209688233469,0.3544253573556897,-0.5417489373667862,0.3304844253357312,-0.1714936430814178,0.7535768466819643
11.9,1.4214329934895098,4.287829852978655,2.0382497327846325,-0.4009881127971119,0.059056767193540236,0.038385663303904784,0.13916956639200576,0.3718375942583496,0.917806379670468,-1.5635619050438185,-1.8160617373163892,4.15453577041626,-2.703314527145473,-1.3612685782744935,2.638011389806348,2.0,0.49352262680385023,0.5074086417143073,0.35442399376113254,-0.5417391970454669,0.33050104890016285,-0.17150022692028263,0.7535750601145955
12.0,1.3131829160033062,4.3413448096034815,2.114126435488108,-0.4001794787764328,0.06317866895623288,0.03420538901649112,0.139059911891534,0.3714800719591616,0.9179677249755253,-1.5635207548573375,-1.816085001031393,4.154541987392281,-2.70329375986767,-1.3612483183490198,2.6379916081376,2.0,0.49352311654971825,0.5074181357023784,0.3544185589716372,-0.5417510562324679,0.33049370202374334,-0.17149960958788035,0.7535698971594149
12.100000000000001,1.3437757058614763,4.158959727183256,2.3404249502174634,-0.40980337513941595,0.07116782775376267,0.03690135095510566,0.138966512939555,0.3711960320384053,0.918096837829371,-1.5635461807250977,-1.8160600751995524,4.154541665976602,-2.7032947779556085,-1.3612356599836786,2.6380092593240785,2.856852386585467,0.4935144738080887,0.5074384527920721,0.35442365430745154,-0.5417538419316669,0.33047844573228274,-0.17149509418933914,0.7535756128801163
12.200000000000001,1.49950866362143,4.56720052125699,2.9834532873748993,-0.41806557035628444,0.08286337695241143,0.03561717123671243,0.1389129062560242,0.37109187103899466,0.918147048248647,-1.5641374992972539,-1.8156119785704554,4.154548226907668,-2.7030879166150346,-1.3612219839693844,2.6379691840900374,3.0,0.4935165900123138,0.5074167597643103,0.35444724680259626,-0.5417276897666244,0.33048444186888115,-0.1714977254108477,0.7535911849282976
12.3,1.4607716228838152,4.484348429951277,3.0259279212184294,-0.4093831678272516,0.0860638674539336,0.042977366174146436,0.13885929957249343,0.37098771003958403,0.9181972586679229,-1.565585445820697,-1.8145570322447386,4.154655933380127,-2.7026029063766854,-1.3610353952257586,2.638007194665712,3.0,0.493373770132222,0.507198696685654,0.35447157673176916,-0.5416862633315658,0.3304801537277163,-0.17150665323413078,0.7536208118187941
12.4,1.7767216325523616,3.816113515118278,2.987566213927544,-0.4107363156398666,0.08979922044528778,0.07374561500324527,0.13918122751900447,0.37210986632569815,0.9176940384113473,-1.5674164419106116,-1.81340314344889,4.154968738555908,-2.701996613294255,-1.360794096397942,2.637845287562228,3.0,0.4932326709830588,0.5069587599823334,0.3544455327963538,-0.5416548069117156,0.33051208350418804,-0.17153027279336472,0.7536240430895144
12.5,1.6602457168233098,3.811232142040324,2.866565283880077,-0.39967558350133675,0.08859653820783303,0.07439238830798485,0.13931152517229295,0.37244866410160127,0.9175370784261833,-1.569092010185192,-1.8122052406020603,4.15519586911517,-2.701408469068169,-1.360557267630227,2.637881072702968,3.0,0.4928490459438459,0.506641302553494,0.3543155534755457,-0.5416906348643848,0.3304886567568034,-0.17151200764343194,0.7536127222183971
12.600000000000001,1.599863366464813,3.993527056962113,3.084513453053096,-0.3648738488567063,0.09167088869976205,0.08081457661883859,0.13939798956913343,0.3726023929013854,0.9174614568096554,-1.5705692372324411,-1.8113600629085034,4.155456978528163,-2.700794736663219,-1.3603371238174389,2.6378437908323558,3.0,0.4923187975382345,0.5061109133712285,0.35420702266240517,-0.5416649332893508,0.330484837336148,-0.17151743146146775,0.7536316361727416
12.700000000000001,1.42929831439026,3.501334071627623,3.1333090404427937,-0.354534259051217,0.09821726214989784,0.10159349695211398,0.13960057909089235,0.37314591373211076,0.9172097260467571,-1.5723687791477143,-1.810350296056784,4.155654065090831,-2.7002138911036493,-1.360131565724508,2.637786388397217,3.0,0.49216141452882267,0.5060036174920476,0.35417213334701536,-0.5416421889067022,0.33047367159668006,-0.17150212022307204,0.7536563635615089
12.8,1.5818075833184446,3.5667722702676317,3.0337303967012033,-0.3468079834977933,0.10700691843907133,0.11609684440719792,0.13958465956476945,0.3730960381694988,0.9172324810963668,-1.574206423849933,-1.8092366697270184,4.155868913628799,-2.699663341277229,-1.359899349990202,2.637695703778839,3.0,0.4918067556238411,0.5056791828579795,0.3539064128473571,-0.5417389155990887,0.33049198079853953,-0.171503968220882,0.7535783879848681
12.9,1.9252933128199798,3.510082208793664,3.1001305501579575,-0.36134652540038287,0.10863904428793279,0.12600786150181598,0.13952887983821705,0.3729212530125891,0.9173120678682245,-1.5755823501767292,-1.8080336882293286,4.156082630157471,-2.6991231164887592,-1.3597181177339075,2.637689902062869,3.0,0.4913498231954262,0.5052121341003806,0.3536560350881202,-0.5418118534926751,0.33051903469761496,-0.17149250670789104,0.753516690764334
13.0,1.8672118439816163,3.2452586160033934,3.17666072839973,-0.3457677020543616,0.11155714423673604,0.1417964502169385,0.13956787253756223,0.3729526882860589,0.9172933556531164,-1.5772232085007887,-1.8067533345251392,4.156322498321533,-2.6985928387670826,-1.3595317045794886,2.637643263890193,3.0,0.4910409095171193,0.5048782023429065,0.3537129872836012,-0.5417300907188535,0.33049889886791184,-0.17147773784961057,0.7535876671488332
13.100000000000001,1.7961770338057346,3.1035342938839134,3.1836224675618747,-0.3196269554738125,0.11045398983634806,0.1499438662719322,0.13938059735189795,0.37236774161501407,0.9175589995861198,-1.5791385300515044,-1.8057877590367053,4.1565086350008915,-2.698028796651546,-1.3593337607221254,2.637625657789212,3.0,0.49059964959791025,0.5043868780853265,0.35371960119655554,-0.5416668737475162,0.33046314330756243,-0.1715110002529021,0.7536412180820042
13.200000000000001,1.5547902672768263,3.155754574785161,3.0322342086975955,-0.31541237566669983,0.11994352539488055,0.16472959099138187,0.13911332621256256,0.37156487598708754,0.9179251763068381,-1.5805877292619577,-1.804813076935026,4.156712255781194,-2.697412182769987,-1.3591418523589736,2.6375699043273926,3.0,0.4903928497282324,0.5041973918280432,0.3535711889716778,-0.5417206218149037,0.33048740917072605,-0.17148499534464254,0.753597861363568
13.3,1.575189860746166,3.212832599969312,3.376154358633147,-0.30564056181670163,0.11188152102373929,0.17433242698258408,0.13904887091836068,0.3713533743303487,0.9180207420019578,-1.582096414422179,-1.8037382664623658,4.156914941187581,-2.696830978151521,-1.3589438537272047,2.6375102931918772,3.0,0.49005739950216987,0.5038930410261554,0.35340385791628787,-0.5417452968446094,0.3304795688827783,-0.17148172829349714,0.7535843050112405
13.4,1.5092958309163742,3.0608890020821247,3.3310910107530023,-0.29041178644527266,0.10260677008909075,0.1860804838882747,0.13905865874161888,0.37135834838706133,0.9180172473591324,-1.5839687011623298,-1.8026096109229737,4.1571694275222795,-2.6963365881965866,-1.3587189945200076,2.6374787429489124,3.0,0.48957146647046174,0.5033996393800129,0.3533241888962989,-0.5417051943453464,0.3304439218072306,-0.17149051885572608,0.7536267636585907
13.5,1.7276413246568985,2.984673499191116,3.5620339026556813,-0.3120953795029702,0.10412202943422617,0.19865305650630877,0.13909506234779861,0.37149056111800205,0.9179582170666368,-1.5855742275649238,-1.8014124111721546,4.157299108434071,-2.695752552972158,-1.3585360685931605,2.6374686853284426,3.0,0.4893710580473917,0.5031779593542143,0.3531877489473054,-0.5417534317732086,0.3304847876764758,-0.17148730043377525,0.7535749001037136
13.600000000000001,1.7925724795808509,2.885294045278152,3.656899532804347,-0.3165239818967444,0.1042861297972655,0.20898654811154602,0.13914159350015662,0.3716711893155366,0.9178780549570448,-1.5871136116827722,-1.800409241859261,4.157508175644416,-2.6952258860663814,-1.358350463313298,2.6374144554138184,3.0,0.4890506047173312,0.5028036216543206,0.3531119175218582,-0.5417372300752239,0.3304905060902565,-0.1714862539814748,0.753584277722161
13.700000000000001,1.5575952411117377,3.10360878336836,3.541092219071006,-0.2997227048146285,0.10703675220606007,0.2200158937096878,0.13928920719604834,0.3720892977589551,0.9176861503562902,-1.5887979950374032,-1.799357428330036,4.157720992911193,-2.694747335041713,-1.3581467434839536,2.6373357262080575,3.0,0.48853997300557306,0.502294705593804,0.3529646959794228,-0.5417464876880682,0.3304658051047774,-0.17148817761369387,0.7535880172035825
13.8,1.8038616538685035,2.9715106200109855,3.6701447186286296,-0.2981767971007537,0.10389762279019855,0.22945591920274286,0.13936092274004108,0.37229249379234475,0.9175927639393718,-1.5904409927487684,-1.7982375427173687,4.157932682236554,-2.6941694228117328,-1.3578982995165665,2.63731925202412,3.0,0.48837015417815594,0.5021157757321468,0.35288393473712537,-0.54177067289877,0.3304818906019934,-0.17148091990735884,0.7535652274877549
13.9,1.826975604480236,2.6657007058933586,3.5823600795387547,-0.29063703096290516,0.1056450019274074,0.2369196684014101,0.13898851900881212,0.37131226886232155,0.9180462496263722,-1.5920499222407087,-1.7971478338940106,4.158148485928502,-2.6935701214625967,-1.3577163292817058,2.637278192459579,3.0,0.4879079726232249,0.5015875675716887,0.35273794937055974,-0.5417751354939445,0.33049275606653705,-0.17151366219827097,0.7535498022210607
14.0,1.29941807977073,2.911143802135235,3.5082027171325594,-0.26494838504216117,0.10419661787950475,0.24877501086699924,0.13887027917484623,0.3709755823947835,0.9182005003793792,-1.5936724178661423,-1.7960565487028701,4.158345087141108,-2.693010604808254,-1.3575156370746058,2.6372240585602125,3.0,0.48769202599041284,0.5013738904358639,0.35269467399788873,-0.541734503912173,0.33050915950589066,-0.17149725745312996,0.7535755525757163
14.100000000000001,1.4421926606145288,2.553368540145138,3.580056694083082,-0.26037493154400654,0.098807847510541,0.25865707235823854,0.1388614388604872,0.37091589356303295,0.9182259517301855,-1.5952426924631866,-1.7950126898440495,4.158527851104736,-2.6924953510123677,-1.357277037457902,2.6372011748711115,3.0,0.487381094151291,0.5010689464120673,0.35260141636940073,-0.5417412640064522,0.3304866080326639,-0.17150065232754957,0.753579810660411
14.200000000000001,1.7000446228101447,2.087874614653371,3.686767579664278,-0.26142564284884323,0.09487077896122555,0.26906215308159176,0.13869442185941633,0.3704528395074699,0.9184378264494902,-1.5968305051412597,-1.7938710651793421,4.158774462515382,-2.692030178878806,-1.3570534267188188,2.6371266189699725,3.0,0.4869114369265805,0.5005431449952588,0.35243110067044164,-0.5417559359067418,0.3305148533650629,-0.1715255533109806,0.7535512074014901
14.3,1.528689388109111,1.9973668386295063,3.643625880628781,-0.24966066968286116,0.09272305968226655,0.27419545724502603,0.13845587391774702,0.36980737491806775,0.9187340058737133,-1.5985084077415477,-1.792701103107009,4.159032584899927,-2.691484590569967,-1.3568113658267023,2.6370800552902494,3.0,0.48673316440361736,0.5003718357267563,0.35243404026770053,-0.5417305054451859,0.3305120460970974,-0.17151453235326766,0.7535732293854752
14.4,1.4475409763292106,2.064434811042899,3.730655589255879,-0.23643562943260807,0.09263043860103261,0.27927663721657947,0.1380797126905966,0.3687382745454133,0.919219310317275,-1.6001139438478973,-1.7916070047849346,4.159199237823486,-2.6909331452915013,-1.3565732228936727,2.6370487175362096,3.0,0.48639959428339824,0.5000434135758355,0.35238039355461825,-0.5417193888526329,0.3305013072043905,-0.1715181715560737,0.7535851023629516
14.5,1.4265200034787613,2.0907425711015213,4.170374568321709,-0.2278813744472431,0.1030609059653402,0.2647018643538347,0.13763891418819393,0.3674701914754631,0.9197934472154164,-1.6015441031919384,-1.790674877298421,4.159440188377313,-2.6903389669934312,-1.3563924248445056,2.63701039123489,3.0,0.485843332226804,0.499476045753912,0.35220288608398864,-0.5417190628255427,0.33050824727608624,-0.17152738607684925,0.7535801956524261
14.600000000000001,1.4764551594499369,2.0081767764835843,3.957114755787482,-0.21127434540768364,0.07513112204439211,0.2593178508449506,0.13740591102334399,0.3666813742722455,0.9201435630592162,-1.6033394991818903,-1.7896538479486106,4.159649224521633,-2.689825049680223,-1.3561712073708199,2.63694078320899,3.0,0.4856599737381351,0.49927414409739573,0.35215083249586265,-0.541694427030186,0.3305171308467115,-0.17153476221193442,0.753592329641293
14.700000000000001,1.1864104174527403,1.7054149801188434,3.4110819400671044,-0.17111583460543378,0.07243438032156002,0.25421129289524325,0.13732870815853943,0.3663168437134009,0.9203003022266042,-1.6051259899343326,-1.7883853417704123,4.159897091417592,-2.6892482529150215,-1.355936541147598,2.63688046853484,3.0,0.4851443599605932,0.498813147494546,0.35186756783775697,-0.5417933155369363,0.33053124918669363,-0.17147670291319259,0.7535282588653184
14.8,1.1647238677713356,2.1020129485213377,3.2689360201943987,-0.19495195899895387,0.08956428705379763,0.2572339383363756,0.13752995336766016,0.36695007028875026,0.9200177395705976,-1.6065005188746169,-1.7871872034847536,4.160139806936908,-2.6887964477745308,-1.355758915615918,2.636880627651088,3.0,0.48492877614645064,0.4985548920363902,0.35180252433938275,-0.5418121821649241,0.330533211939366,-0.17149936546601166,0.7535086746066596
14.9,1.7851437859754848,2.8097312356763635,3.2491539704941896,-0.26578241642279654,0.13050440140176378,0.25164136028836603,0.1377002094865284,0.3674855737031899,0.9197787802468853,-1.6080454947552234,-1.7861822861874674,4.160359160141947,-2.6883468674358424,-1.355514913909788,2.6368178807434646,3.0,0.4845975947287801,0.49820523019983254,0.3519124630013605,-0.5416919536235956,0.33048070946229835,-0.17151078832696015,0.7536155369551594
15.0,2.063332258110004,2.7085718533523786,3.732080316221573,-0.269671541853961,0.11123589504572427,0.2579362393802857,0.1376823441923796,0.36742784191888633,0.9198045179638601,-1.6099213697782468,-1.7852611843752477,4.160560543904788,-2.6877821681876775,-1.3553249380942418,2.6367682103891887,3.0,0.48410976015889823,0.4977163007986433,0.35175404065137916,-0.5417153047471234,0.33050183968716107,-0.17150624791157332,0.7535905184471389
15.100000000000001,1.6038874452577678,3.00815037455085,3.7929591585619185,-0.2642752839842009,0.12203556718278065,0.2547210317242478,0.1377251916650592,0.3674749897124084,0.9197792590186905,-1.6114089942984087,-1.7842996418331294,4.160821492768339,-2.687145022046143,-1.3551187531111146,2.6367481899282423,3.0,0.4839191401343608,0.49753954015924085,0.35153722890170436,-0.5418274096380769,0.33051184915598586,-0.17150067758530027,0.7535067971293726
15.200000000000001,1.4783900763708935,3.2671219672724825,3.4799419628524446,-0.28558519605075433,0.1147708359208943,0.2545970234544374,0.13780343641881274,0.36758328530217077,0.9197242675596189,-1.611783778405349,-1.7839771601060803,4.160871568036512,-2.6869709340850347,-1.355109454475105,2.636718273162842,3.0,0.4834762710559928,0.49714551846848837,0.35136272518148626,-0.5417996192328068,0.3305050174988849,-0.17146794354406006,0.7535372255861141
15.3,1.7938678997132063,3.2718057372241476,3.7188218923726097,-0.3019956691823892,0.12200726491324695,0.25014247965659725,0.13772169127008435,0.3673062556876406,0.9198470836629093,-1.611788463402175,-1.78389243711595,4.160889038306748,-2.686941368930665,-1.355050810601149,2.636700098148125,3.0,0.48339435968656097,0.49708187342429005,0.3513802467163883,-0.5417865510205601,0.3304750833673985,-0.17147397199772718,0.7535583781857117
15.4,1.681530410767574,3.1098084568515603,3.685537686882265,-0.3007075528509633,0.12731913306206627,0.25069538743965736,0.1375587211979459,0.3668404024699983,0.9200574525880824,-1.6118369420648104,-1.7837614180782024,4.160894362103891,-2.686953844095796,-1.3550669511036912,2.636707495378745,3.0,0.4833992578706241,0.49706771349003737,0.35141124626374,-0.5417701446224827,0.3304660595991692,-0.1714912912614124,0.7535701897436134
15.5,1.7226777003534415,3.0478588759716456,3.566680895258345,-0.3016359965170831,0.12347987155066914,0.251054979047344,0.13753286543809537,0.3667603178906349,0.9200932433496132,-1.6118714639172786,-1.7837657575648906,4.160912990570068,-2.6869570217528285,-1.355061053941987,2.636726026193031,3.0,0.4833615604384575,0.4970369188553064,0.3514967933643863,-0.541717270016721,0.3304490782021135,-0.17148606020230053,0.7536168371508809
15.600000000000001,1.756699700696045,3.2170338890196115,3.378264816749921,-0.30088600834257656,0.11833448758704282,0.2537435624764019,0.13743096029631363,0.3664838998755887,0.9202185033985173,-1.6118783950805664,-1.7837933590773687,4.160869936760079,-2.686974049424773,-1.355076506239498,2.6367274538984575,3.0,0.4833756561679532,0.49700894733308604,0.3514564627758806,-0.5417244957669289,0.3304863540261002,-0.17148214074699186,0.7535961888793169
15.700000000000001,1.7658649872350758,3.177714205065683,3.549704036148283,-0.3018686233558328,0.11667364420093941,0.24908949950355422,0.13727886929933075,0.36607791918529,0.9204028052514053,-1.6119270385582305,-1.783775675508701,4.160873212530629,-2.6869649274292096,-1.355048472486772,2.6367197672258036,3.0,0.48337683916815954,0.4970108702992227,0.35146508018328226,-0.5417207752728415,0.33047355540138695,-0.1714954598867982,0.7536014450997118
15.8,1.7813467792242017,3.3222933523351172,3.6601868023144792,-0.2952426880352341,0.11899323611226444,0.2514367980030077,0.1370735900646344,0.3654718894629794,0.9206740661052695,-1.6118898391723633,-1.7837879236732506,4.1608801251745255,-2.6869359475082226,-1.3550555309768582,2.636731250964691,3.0,0.48338061691625,0.4970184056226222,0.3514245586152455,-0.5417583260407651,0.33048318153302014,-0.1714981483709476,0.753569617218381
15.9,1.7391271994221777,3.0702880598212725,3.5617409973564635,-0.3047448866503797,0.12044396406043512,0.24874384490479046,0.13684032983853406,0.3647570114937592,0.9209924088775878,-1.611871005954067,-1.7837783589286687,4.160863556077296,-2.6869273795631794,-1.3550578617895461,2.636727595254617,3.0,0.4833672307021227,0.4970097684377367,0.3514464130875298,-0.5417491373986626,0.33047673366178015,-0.17149435465835183,0.7535799141141976
16.0,1.8769510345755482,3.016186631665058,3.6637875182848174,-0.30701282759183746,0.11526930923346017,0.2507123622552637,0.1367072203696883,0.3643774249903193,0.9211623292032096,-1.611910892341467,-1.7837826214232386,4.160869937004243,-2.686931520252481,-1.3550554050444732,2.6367170430453517,3.0,0.4833758195231652,0.4970051761973521,0.35145197578340076,-0.541733087645569,0.33048755156014964,-0.17148165991913134,0.7535895967468997
16.1,1.7571380708315623,3.2203465462053913,3.644222152628321,-0.2980881416373513,0.11762127945734717,0.24367983504748075,0.1365848882926468,0.3640226801476306,0.921320821722,-1.6118898391723633,-1.7837879540311459,4.160891233529807,-2.686948654658979,-1.3550685087787073,2.6367076079470273,3.0,0.4833747873847894,0.49700772368376017,0.35142989253770834,-0.5417614852362188,0.3304805788890072,-0.17150308365300473,0.7535673642013322
16.2,1.623947081947793,3.1717277624032905,3.6412387673412927,-0.30144241853491377,0.11857958006658662,0.2421526441944815,0.13661856166496214,0.36404372389012896,0.9213074735511614,-1.6119026313412976,-1.7837759694953927,4.160881148707175,-2.686944623986715,-1.3550705071020444,2.6367359747796635,3.8071160111398545,0.4833649521891914,0.4970180765945419,0.3514320888398265,-0.5417558518581109,0.33048213272984267,-0.17148372776897453,0.7535751376168691
16.3,1.7033299327526872,3.0201636981156232,3.5288010135773216,-0.30321306259384684,0.11709834949827741,0.2429068454638741,0.13688108728021078,0.364835085032416,0.9209552252614998,-1.61190038380748,-1.7837984383759133,4.160857970512991,-2.686937975375318,-1.3550499392383555,2.636718273162842,4.0,0.48336766118368657,0.49701565844521206,0.35145364352442915,-0.5417352297160163,0.33047851485574886,-0.1714782588856561,0.7535927937771285
16.400000000000002,1.7153405585704027,3.2674653644984586,3.6374494171037557,-0.29728772538032217,0.11673112982752809,0.2395590286247755,0.13708441608510696,0.365424069344206,0.9206916171097422,-1.611909387785272,-1.7837826214232386,4.160885318630589,-2.6869281525941675,-1.355063018314525,2.636704434632683,4.0,0.4833709584194469,0.49701432216506064,0.35145863593136123,-0.5417331988388314,0.330476083225862,-0.17149432382707772,0.7535916643558592
16.5,1.8138375100009805,3.127556339471605,3.695904670498751,-0.3012559959747503,0.11613666644742081,0.24014443234064956,0.13701209345613252,0.3652151976588556,0.9207849570323586,-1.6119197228578648,-1.7837887329025865,4.160852619139583,-2.6869692447115243,-1.3550565878497522,2.6367243149904334,4.0,0.48335635601417487,0.49702958120670004,0.3514443943444556,-0.5417475425219641,0.3304672647974349,-0.1714646188896578,0.7535919794807661
16.6,1.6137159208950074,3.3188290340567312,3.6232453607736868,-0.29529419167063514,0.11717805332386275,0.23320997366299842,0.13673974784229373,0.36445102637928833,0.9211281773260394,-1.6119001263570054,-1.7837755729931393,4.160895654955327,-2.6869413564980893,-1.3550498105131181,2.636718273162842,4.0,0.48337101392452614,0.49700832223194735,0.35144124097624124,-0.5417424786423946,0.3304764803543303,-0.17148925381570854,0.75358597292727
16.7,1.645410153147516,3.280226184209677,3.5957255956825165,-0.295219164034618,0.11554375242683798,0.23838084711704322,0.13666858335981766,0.36427648627878456,0.9212080115627985,-1.6118843877256797,-1.7838189479584683,4.160870258913839,-2.6869511160189212,-1.3550503455110925,2.6367123674289346,4.0,0.4833853817303336,0.4969884871530015,0.351458127694774,-0.5417197694329529,0.3304859683755713,-0.17150068238823368,0.7535955361151893
16.8,1.6827742079852739,3.2636170399154425,3.6688539066084154,-0.2966262319222137,0.11470647285575053,0.24319278952754206,0.13678443810868504,0.3646500709906708,0.9210430004824132,-1.6119067185838645,-1.7837583027281703,4.160889148712158,-2.6869366699864026,-1.355065018687223,2.6367128378431373,4.0,0.48338050274393357,0.4969977629397582,0.3514218411634205,-0.5417455863697088,0.3304959285987703,-0.17149778996702517,0.7535732670848952
16.900000000000002,1.7263886080937645,2.8966089650082996,3.545410641296568,-0.30633120939677794,0.11437862680015304,0.24117351775687704,0.13682680898775446,0.3647832920030394,0.9209840214922744,-1.6119216878828995,-1.7837634038828551,4.1608631113975045,-2.6869570217528285,-1.3550565878497522,2.636749207585993,4.0,0.4833751131540568,0.4969984085942505,0.3514418414184857,-0.541738676059941,0.33049417307149465,-0.17149698503835664,0.7535791879752023
17.0,1.88602254961697,3.0718925399465795,3.612595947611678,-0.3002502982216215,0.1095014499446299,0.2409725649812266,0.13679816896640148,0.3646842422046206,0.9210275047128226,-1.6119086381948389,-1.7837702236571253,4.160876750946045,-2.6869300773460387,-1.355064256396908,2.6367159610675976,4.0,0.4833819502705189,0.49700493377965727,0.3514514007818103,-0.5417313319815219,0.3304844786213983,-0.1714984890039647,0.7535883767742346
17.1,1.7161972667776189,3.1940490629508678,3.687812396771106,-0.3005685531098702,0.11522868246625169,0.23939055446433022,0.13686340580116055,0.3649148277675654,0.9209264585219985,-1.6119277931595974,-1.7837702236571253,4.16087169148718,-2.6869519622939637,-1.3550685087787073,2.6367058753967285,4.0,0.4833927904323028,0.49700658632565814,0.35141903458314344,-0.5417449575114914,0.3304901578075754,-0.1715037097859705,0.7535749028018688
17.2,1.7482124749010626,2.9828959054790367,3.794158565280693,-0.3025653619716157,0.11316834313293116,0.237841403498496,0.1369266693540116,0.36510131431554516,0.9208431446396621,-1.6119136810302734,-1.7837945423521937,4.160846192759273,-2.686944623986715,-1.3550596381700906,2.63673539869189,4.0,0.48338398312136993,0.4970014876080602,0.3514337293885356,-0.5417483044855816,0.3304853176305179,-0.1715110768397266,0.7535729426796922
17.3,1.4633289476940914,3.2175325217705235,3.573455604785138,-0.29573155021096953,0.11945430009271338,0.23349002451053627,0.13698786423244796,0.36524157001145957,0.9207784202820833,-1.6119211176385442,-1.7837728899213166,4.160871789788202,-2.6869374734018394,-1.3550470471615934,2.636699010835248,4.0,0.48338618620378615,0.49700338249610077,0.3514290843650246,-0.5417428457859731,0.33049139197731703,-0.17148442933466237,0.7535802673666395
17.400000000000002,1.5795781194426826,3.1586226910349358,3.6539388470495946,-0.2978257094442643,0.11473702960876019,0.23479574343879062,0.1369967042190172,0.36524470392933855,0.9207758625851137,-1.6119351888213558,-1.7837774717390427,4.16087188830682,-2.686920782128805,-1.3550759719479624,2.6367231358020664,4.0,0.4833860152861059,0.497001082316984,0.35142781648526084,-0.5417412857232261,0.33048918312834663,-0.17149513282067255,0.7535799218377067
17.5,1.521540269117459,3.1481328892710883,3.537031802436215,-0.29906463950544165,0.11681625917844841,0.23522664183966988,0.13694900112176805,0.36509974684917945,0.9208404446448347,-1.611904061078346,-1.783763112704134,4.160884146337156,-2.6869472094018625,-1.3550517778737885,2.6367278931147693,4.0,0.483374918415957,0.4969970236438576,0.3514338509357131,-0.5417457423503181,0.3304958952687474,-0.17149666214347767,0.7535734262362613
17.6,1.4255901685959544,3.5344193009010922,3.5345749718214794,-0.28809999112816204,0.11757338678732732,0.2318243090433044,0.13697716113697997,0.3651710826282821,0.9208079462355582,-1.6119136810302734,-1.7837653431685057,4.16084822381906,-2.6869470655560446,-1.3550828712769918,2.6367034364774384,4.0,0.4833666194499879,0.49701026675424015,0.351449616551494,-0.5417401650148943,0.3304807093263069,-0.17148540666955323,0.7535866570423034
17.7,1.8560786366361675,3.0152296711208026,3.666143160002698,-0.3018793835117441,0.10896343276042204,0.23911640318950664,0.1370900176979198,0.3654838962145929,0.9206670633939141,-1.6119136810302734,-1.7837847074548685,4.1608841348429335,-2.686944623986715,-1.3550636877506066,2.6367279152190433,4.0,0.4833716495742904,0.49701844354109204,0.35143538739293967,-0.5417418781088198,0.3304779011098891,-0.17148931304798526,0.7535857681057022
17.8,1.6150409834836583,2.906915203365824,3.644836158528811,-0.30261397229677295,0.11318525814788136,0.2316532870700469,0.1370943772984773,0.3654881222993324,0.9206647403060115,-1.611915473869162,-1.7837962662357405,4.160871448482433,-2.6869517192892163,-1.3550548639662054,2.636726677369362,4.0,0.48338298234457344,0.4970083427779655,0.35143423240492255,-0.5417474922916071,0.3304811061632966,-0.17149428098777797,0.7535791960061822
17.900000000000002,1.561567762776548,3.305588215872515,3.4659050835141327,-0.29592609562044847,0.11818483538656625,0.23326191708659177,0.13709461057798006,0.36548061228473366,0.9206676868775278,-1.6119063280150117,-1.7837752684079768,4.160857565781228,-2.6869472552236777,-1.355058807334762,2.6367233179136935,4.0,0.48338617019329716,0.49699246172797357,0.3514577127607096,-0.541729605381604,0.3304901077473049,-0.17150601083578462,0.753585437479694
18.0,1.5318423098830563,3.112822628156778,3.4908026778137557,-0.3013029008453538,0.11706688651987253,0.23175054230899275,0.13709484385748286,0.36547310227013496,0.920670633449044,-1.6119086339045459,-1.7837846422209591,4.160869400305659,-2.6869430263586205,-1.3550565878497522,2.6367205766775,4.0,0.48336887159590924,0.49701277252063847,0.35143534641222235,-0.5417400471961211,0.3304939034950467,-0.1714774302619051,0.753582770455459
