xiamingqian9007/apple-picking-rnn/training_data/grasper_20191127_124156_noimg.csv
,/manipulator_wrench.fx,/manipulator_wrench.fy,/manipulator_wrench.fz,/manipulator_wrench.tx,/manipulator_wrench.ty,/manipulator_wrench.tz,/ground_truth.x,/ground_truth.y,/ground_truth.z,/joint_states.elbow_joint,/joint_states.shoulder_lift_joint,/joint_states.shoulder_pan_joint,/joint_states.wrist_1_joint,/joint_states.wrist_2_joint,/joint_states.wrist_3_joint,/mode./mode,/manipulator_pose.x,/manipulator_pose.y,/manipulator_pose.z,/manipulator_pose.rx,/manipulator_pose.ry,/manipulator_pose.rz,/manipulator_pose.rw
0.30000000000000004,0.3464695463572133,-0.03816205805008399,0.04801455680116795,-0.005585220052948269,-0.053822316874785184,-0.05017102600409383,-0.06281674927144684,0.10070485759478888,0.9929305564020006,-1.9357779004837514,-1.97166826544373,4.172524309218566,0.866237471068375,1.3282233696273045,-1.3827505032469993,1.0,0.4567908013301735,0.458490864696183,0.3219331913249657,-0.6680837621422279,0.0705564378723577,-0.4648123085970145,0.5767455189365283
0.4,0.6548219706037265,-0.034020666784015725,0.1601971097655665,0.005800410067708569,-0.04535176521105695,-0.07840246174472006,-0.06349915580077908,0.10170222654267176,0.992786207227563,-1.9315919169723332,-1.9737702517497522,4.171698703170457,0.8643326586387351,1.329108715057373,-1.382620157919021,1.0,0.45731313426591996,0.45895687960278886,0.3219528867800717,-0.6681056151674616,0.0705538538956377,-0.4648270375625204,0.5767086490014105
0.5,0.43779228838088724,0.020568654474632582,0.06998127163446909,0.011847311942564344,-0.052121014352670435,-0.11485562333555076,-0.06267785516998352,0.10051200233053846,0.9929584655373211,-1.9270844920989005,-1.9763832254497868,4.171051348409345,0.8621573998607847,1.3298055433457898,-1.3825488803154544,1.0,0.45861128115662453,0.460262260388428,0.3221845863870479,-0.6680817872034844,0.07054955347055204,-0.4648170666145084,0.5767448141908063
0.6000000000000001,0.41966423427248356,-0.12048099901155518,0.08727897129520065,0.015909042298557965,-0.043433427796104776,-0.14215232755073076,-0.06182475419182868,0.09927551497341663,0.9931374194512774,-1.9227332860875679,-1.9786682969177531,4.170364531896133,0.8603911886305698,1.3304735750174705,-1.3824995873723946,1.0,0.45926539453485343,0.46098878504673696,0.32223625804916467,-0.6681259623353111,0.07054225878486232,-0.4647785387149921,0.5767255830366819
0.7000000000000001,0.4782809393885178,-0.17325712389884365,0.09318285160144638,0.005499998290045837,-0.04652865417115307,-0.16820390873319427,-0.06227611553068036,0.09997605478359657,0.9930387899695031,-1.918541143054054,-1.981139085675824,4.16964969592435,0.8584472376057128,1.3312004795741468,-1.3824141661273401,1.0,0.46053291243726296,0.4623153126963543,0.32250612100425724,-0.6680594446853304,0.07055986251483626,-0.464807048390335,0.5767775064401177
0.8,0.5997406256526698,-0.0056859745415240555,0.03182920031741316,0.008982844788171244,-0.04953709083733242,-0.19224926798053282,-0.06251434563620273,0.10038255902521717,0.9929830290141466,-1.9145129011428208,-1.9834589218000909,4.168842265426716,0.8565733507596006,1.3320978441542382,-1.3823413937219862,1.0,0.4611621163280578,0.46297403085248756,0.3225258695265817,-0.6681168019122868,0.07053414807257594,-0.4647796476369704,0.576736293379069
0.9,0.7675978879227929,-0.017449136261763875,0.08243620149806541,0.005032568421589339,-0.05509531477174127,-0.2118768912568405,-0.06245565822142519,0.10037439278788132,0.9929875473509447,-1.9104297085388602,-1.985674538342157,4.168173313140869,0.8548299509235839,1.332777976989746,-1.382259607715348,1.0,0.4619834483325615,0.4637643947670856,0.3226005724882964,-0.6681417952012105,0.07050839324978024,-0.4647621515372845,0.5767245880704863
1.0,0.5593242687103868,-0.034581847430848696,0.03738861736948883,0.009079488078771146,-0.06027172852936041,-0.2320344018890919,-0.06258775279428087,0.10056373034352582,0.9929599604558247,-1.9064436512847385,-1.987787618623858,4.1673812150730205,0.8529468037389973,1.333437302683314,-1.3822229544269007,1.0,0.46331021852771914,0.46508291678971253,0.3227989006426977,-0.668114575113314,0.07051370051736047,-0.4647700988303415,0.5767490683076466
1.1,0.6998580381442406,-0.05875425774777697,0.038859695829506324,0.010856177411140342,-0.06257892275590202,-0.24831053709772427,-0.062952414542462,0.10099382909376385,0.992893236621243,-1.9027536930236613,-1.9899671939167818,4.166639479769311,0.8513892821283735,1.3339410069956628,-1.3821271101581019,1.0,0.4640367651198964,0.4657677193438339,0.32296493734841825,-0.6680774874464954,0.0705300040944737,-0.46480342183299694,0.5767631822004147
1.2000000000000002,0.5815713981835839,0.03663184163292976,0.18926315199770907,0.011741988060731652,-0.05916900731767066,-0.26834575892656265,-0.0628576652550063,0.10072216508061835,0.9929265289094991,-1.8991587937565746,-1.9919625682448017,4.166088079454207,0.8497383673534573,1.334565183559983,-1.3820898254694993,1.0,0.46489081669911425,0.4665215729459262,0.3230251207841914,-0.6680943887305092,0.07059032437959763,-0.4648360111343829,0.5767099588211271
1.3,0.6005180914402828,0.3262387337636282,-0.09306074885792233,0.018950118268914542,-0.06156776350862754,-0.28302711294825594,-0.06218455644342437,0.0995670412757041,0.993085733012497,-1.895545633494373,-1.9938245891492414,4.1655474684506615,0.8480508545854268,1.3353007806326238,-1.3819711844073694,1.0,0.46603175840138716,0.46767004738101164,0.32318369090583793,-0.6681073053596743,0.07058858787612876,-0.4648357031906656,0.5766954558741807
1.4000000000000001,0.611677558565534,-0.07201711204601663,-0.06942604951000773,0.006504490005255572,-0.06166638902821769,-0.28967046585722134,-0.062185207021983165,0.09981847904292498,0.9930605175963595,-1.8920949998149503,-1.996033988674852,4.165034964812261,0.8466269277739757,1.3359084607467246,-1.3819699890729937,1.0,0.46656746413658295,0.46828476042696576,0.32328152434269986,-0.6681126120388262,0.07051954557861607,-0.4647946804740206,0.5767308179116973
1.5,0.5688850735475539,-0.009139385494803587,0.16490648082072643,0.008198880537275174,-0.0617972938249311,-0.2982977884848517,-0.062139681108292294,0.09990635428594247,0.9930545212570965,-1.8889576989021255,-1.9976298492077367,4.164526428936122,0.8450208029504916,1.3363993990967342,-1.381899658833639,1.0,0.467253802591269,0.4690394186369091,0.32328022935339906,-0.6681564510716436,0.07049382690637049,-0.4647490577161839,0.576719941229155
1.6,0.4491675669868924,-0.057307282650731844,0.022293423763095385,0.011162790961590363,-0.055760964170190906,-0.301110237033273,-0.0619407785772651,0.09957653086621054,0.9931000590085918,-1.88550331168635,-1.9992811499737193,4.163949818945658,0.8436455473267894,1.3368919430315798,-1.3818470592612304,1.0,0.4682718174891126,0.4700964686661551,0.3234940198504573,-0.6681135204488463,0.07051449403351467,-0.4647630159881493,0.5767559006150227
1.7000000000000002,0.36110575312778426,0.2676157645791724,0.06144826839887565,0.016970391217469412,-0.05863300346148951,-0.29712070044676997,-0.06181358908966598,0.09933651737366862,0.9931320804129199,-1.8824305785663507,-2.001393648504253,4.163401698431965,0.8421672528168103,1.3373808164747178,-1.3817932561296902,1.0,0.46882984638016084,0.470622174261793,0.32368381091630005,-0.6680395979034541,0.0705294587699337,-0.464807033135662,0.5768042241750964
1.8,0.4673236972416279,0.13230835872026186,0.14384025905842623,0.014791212032830242,-0.059377720069061564,-0.2884964293052695,-0.061794360445782286,0.09923170879016366,0.9931437535490061,-1.8794124741695288,-2.002947201682189,4.162885067012364,0.8408415108989875,1.3378638946949155,-1.3816861852550215,1.0,0.46947132061172014,0.4712616370992367,0.3236313974551432,-0.6681283369504496,0.0705340594759214,-0.46478112872170974,0.5767217476407901
1.9000000000000001,0.4680811387085394,0.031570170579963974,-0.05619106405108828,0.01952467337931202,-0.057624522398797035,-0.29073732604791713,-0.06198245924818678,0.09950666627006574,0.993104299587705,-1.876384906943785,-2.004316971354728,4.162418764796826,0.8394953919116871,1.3384487477136315,-1.3816708755586298,1.0,0.470450483865039,0.4721794660996885,0.32376833294885166,-0.6681117845854889,0.07055943955618518,-0.46479357879898037,0.5767277849165465
2.0,0.4474870919117503,0.014688674392820955,0.1879155208699726,0.02402785654530177,-0.06081097230959293,-0.28442336715807004,-0.062492072846567645,0.10037054919414344,0.9929855598464473,-1.873525174404487,-2.0061723406423018,4.1618556658970265,0.8380996423908691,1.3389442123646997,-1.381625636243596,1.0,0.47098982998586236,0.4727387356481563,0.32395011176934696,-0.6680575697240868,0.07054225855943745,-0.46479852078195943,0.5767887034006324
2.1,0.7767415766937082,0.1126214401932884,0.09659535268220769,0.010965023249037812,-0.06751619221774308,-0.2830078910166767,-0.06212880888683398,0.0997711665166385,0.9930681979081771,-1.8707516050261497,-2.0077050499485245,4.16135194915722,0.8370069557300072,1.3393747402545175,-1.3816007587966075,1.0,0.4715504448040067,0.47328213215283815,0.32395839365441653,-0.6681098346896763,0.0705242743608939,-0.46478291052020343,0.576742942397366
2.2,0.5735739014546994,0.3559909936974158,0.09713774205981504,0.02149933955255269,-0.058909616032846335,-0.2791956311669307,-0.06164554682227603,0.09897062263684103,0.9931785202132324,-1.8679899783639415,-2.009082939879892,4.160970159540092,0.8357240011821984,1.3398280080461737,-1.3815634758082715,1.0,0.4723954898381051,0.47406667118041873,0.32403379856800113,-0.6681189310806013,0.07054376557086332,-0.4647961675901222,0.5767193369953303
2.3000000000000003,0.3781062725735418,0.19156451353830667,0.001011083841944052,0.014275744362005679,-0.06054870354717867,-0.2817844041057023,-0.06139149788315608,0.09854796219967334,0.9932368023948469,-1.86544711891262,-2.0104867421907664,4.160574436187744,0.8345056925796571,1.340144101438851,-1.381503893309838,1.0,0.4729497237638874,0.47465310499472074,0.32419416940886814,-0.668065724804545,0.07054814573358746,-0.46480927483884427,0.5767698713514063
2.4000000000000004,0.40802717795888854,0.19110736000328846,-0.1111027413548431,0.018019850878697515,-0.06033255365848497,-0.2790591327842038,-0.06154829936552164,0.09880263457833002,0.9932018058577626,-1.8629789352416992,-2.0119952982855764,4.160178965546222,0.8334613335598551,1.3405370712280273,-1.3814334347707093,1.0,0.47343892573487456,0.47515675480755504,0.32424613904717126,-0.6680756664455967,0.07054776879527336,-0.46480690861912066,0.5767603088989539
2.5,0.43307481381234664,0.42250441578276304,0.1058146299318,0.02569107258651366,-0.058979060776912375,-0.2763018696295464,-0.06185540234794204,0.09919297053027244,0.9931437468648674,-1.8603410720825195,-2.0133387157325657,4.159796237945557,0.8322483956421088,1.3409094578900915,-1.38143049624801,1.0,0.47414051854842915,0.4758425798445976,0.3242986815361533,-0.6680859917712976,0.07056384807638455,-0.4648245620269262,0.5767321540196026
2.6,0.45285479061431316,0.24755213576699547,-0.051697569764756944,0.013729101611638497,-0.059262347171718285,-0.27853834499172253,-0.06200425646349698,0.09936938887882199,0.9931168825567588,-1.858204167457506,-2.014593854242596,4.159413535026625,0.8311832310803149,1.3412690162658691,-1.3813838607874898,1.0,0.4746966919376378,0.47641618395892316,0.3243623721670874,-0.6680972405025897,0.07057810932705709,-0.46481854758130925,0.5767222256347027
2.7,0.7358644872936541,0.21373761241364614,0.03169257186027644,0.018969727629739117,-0.06422709910212954,-0.2800894124317057,-0.06178518911756191,0.09907297799983113,0.993160159894019,-1.8557095360778868,-2.015828030044798,4.159089579669413,0.8302561692519773,1.3416781402529145,-1.3813484350787562,1.0,0.47525131335968784,0.476983565498075,0.3244049182198442,-0.6681249749006032,0.07056659475955361,-0.4648010918133626,0.5767055736398038
2.8000000000000003,0.5647086183008762,0.17011902072195517,0.028579040745476347,0.016327543507032978,-0.05943993638924707,-0.2819543224062077,-0.06161882333944253,0.09897476226169492,0.9931803021943078,-1.8536975478164894,-2.0170728168883265,4.158790771685402,0.8291901233963389,1.3420721568056146,-1.381289669619325,1.0,0.47568044557282263,0.47746474954326074,0.32455161525585813,-0.6680618068467074,0.07054684051921448,-0.4648029299850287,0.5767796822035269
2.9000000000000004,0.2785567784534426,0.17369960814810007,-0.05798311562387426,0.020221581522968414,-0.05513364089529826,-0.2770753941704497,-0.06220901186657602,0.0999830202255302,0.9930418812437586,-1.8514721445301,-2.018199675436533,4.158442161319887,0.8281566339680175,1.342409795435036,-1.381288283145009,1.0,0.47607369804712596,0.4778874552199313,0.32459873026389235,-0.6680816951393458,0.07051945605457614,-0.464780863720981,0.5767777766664418
3.0,0.3372400310063829,0.13892036430802368,0.01778674459868137,0.020669074530389214,-0.05769339998706324,-0.28052290689278575,-0.06260639998525679,0.10063671846242844,0.9929513454865722,-1.8492458578374362,-2.019434085644339,4.158128474570707,0.82725636541333,1.342732584806121,-1.3812642359600122,1.0,0.47669437693145766,0.4785116751931185,0.32465227423792825,-0.6681215800353304,0.07050406938145082,-0.4647620829843786,0.5767485905589809
3.1,0.33562212134491176,0.17478220588480992,-0.16538063837641134,0.011970472715960506,-0.05725969260050513,-0.275715559924282,-0.06212727011917198,0.09985178311719581,0.9930607046282227,-1.8474341487015444,-2.0206085199504713,4.157817880674717,0.8263900972126873,1.3430447177444724,-1.381204907094137,1.0,0.4771806209451322,0.47898869387803483,0.32476046960455324,-0.6680785923818413,0.07051983047941857,-0.4647860777489118,0.5767771231949427
3.2,0.22387615014502935,0.21177930144332746,0.04397927261804596,0.015411237890406639,-0.059459845433573855,-0.27165087138246263,-0.062458331330648466,0.10038045736176547,0.9929864180032975,-1.8453465099009625,-2.021650428601794,4.1575069504755,0.8254272617168084,1.3432969642414714,-1.381204459804628,1.0,0.4777608167461238,0.4796106971431999,0.3246675937821363,-0.6681816911153788,0.07049510190140358,-0.4647345391374426,0.5767022424083439
3.3000000000000003,0.383829138545474,0.2915560266499189,0.10068875673186464,0.01714788805981746,-0.06012004029830477,-0.27267679884274065,-0.06267597629393394,0.10072257138652124,0.9929379878080363,-1.843442904559597,-2.0225847581691854,4.1571831703186035,0.8245516399322255,1.3435728105627933,-1.381121796002853,1.0,0.4780378619348069,0.4798807428798095,0.3247535616183256,-0.6681577890169066,0.07050360709237788,-0.4647552201329054,0.5767122295583971
3.4000000000000004,0.41629753851829365,0.21225167065343814,0.05057686317834091,0.015820284618030252,-0.061372195633562596,-0.27218835175699546,-0.06184095621289897,0.09935015143764488,0.9931285974042852,-1.8416581251691078,-2.02355422107013,4.156870720104632,0.8237257323185904,1.3438718270028485,-1.3811096564262497,1.0,0.4784233129676425,0.480222473009169,0.32487308777838825,-0.6681190353750617,0.07052615863736603,-0.4647800776473158,0.5767343365359039
3.5,0.47617213610476283,0.3872231412925506,0.0046309495553262005,0.021474387563857517,-0.06399364454159,-0.2682163016147972,-0.061707134148740614,0.0990822391324437,0.9931640900534514,-1.8398128003426033,-2.0245619169535924,4.15658508982988,0.8228835004622355,1.344146646581175,-1.381050296337975,1.0,0.4789752608931988,0.48072081967605046,0.3250107157080312,-0.6680747574992834,0.07055223501057303,-0.464816097987915,0.5767534096809277
3.6,0.4351585956985704,0.35094965007130463,0.01691313796249174,0.01805719213526053,-0.06002596558901375,-0.2737815229182082,-0.06181128962421916,0.09918918243896087,0.9931469380166171,-1.8381494606282214,-2.0256404166906004,4.156295986623507,0.8220793085684183,1.3443873107710886,-1.3810611227817886,1.0,0.47943913251344483,0.48114265251700167,0.3250695335680956,-0.6680685640447178,0.07057312432469064,-0.4648238751759295,0.5767517602268004
3.7,0.41975796797329834,0.5000972858652848,-0.09416692505740806,0.016960512890232527,-0.05725064225291744,-0.27058594716775664,-0.061899300798553394,0.09928274619269942,0.993132121967561,-1.8364098650094964,-2.0267050404107234,4.1560683639136995,0.8213102801062558,1.3446282581465758,-1.3810132185565394,1.0,0.47963239079503184,0.4813639101270291,0.32506000762111553,-0.6680975121459005,0.07055644142629876,-0.46480936106234494,0.57673196608696
3.8000000000000003,0.5379887262003279,0.42773170211082623,-0.11749269043845997,0.014011619297910076,-0.05771691679880793,-0.26678611430776256,-0.06193548578247097,0.09933335910924805,0.9931248048710034,-1.8347602071844693,-2.0274720488541047,4.155782314237204,0.8205773254664518,1.3448907323475636,-1.381001407245058,1.0,0.4799376321595368,0.48168440627677594,0.3250447040166142,-0.6681365293267232,0.07055109448375081,-0.46479605676633967,0.5766981418912736
3.9000000000000004,0.5395408370566689,0.20201927578742487,-0.2575371158743041,0.012693932400952396,-0.066327820807861,-0.2699884726374912,-0.06216932361800581,0.09966593461217416,0.9930767898163141,-1.8332041110488828,-2.0282640739550555,4.155576070735162,0.8198818239971576,1.3451304582050325,-1.380988264664016,1.0,0.4803371507415078,0.482084496184547,0.3250483598997241,-0.66816800102388,0.07055537975496481,-0.46478955494219026,0.5766663943841585
4.0,0.5484525602571441,0.4570141446009075,-0.09845234775062336,0.019076097653829352,-0.06409920464658504,-0.27298676586713666,-0.06249712137973725,0.10016902040958693,0.9930056162542432,-1.831560383892048,-2.029007430188165,4.155349235177503,0.8191135806261735,1.3453952515592789,-1.3809529737111277,1.0,0.48083343367632725,0.4825445878942512,0.32521968343085605,-0.6680933304835356,0.07056901367677719,-0.46482464286373804,0.576722955550325
4.1000000000000005,0.5578083013696878,-0.1108835283707599,-0.057599955340538106,0.01520730748378012,-0.06739634390079552,-0.27166181107337534,-0.06280081242973024,0.1007389446531797,0.9929288585514481,-1.8298739334099272,-2.029893949840987,4.155121326446533,0.8183676320333415,1.3456816027707759,-1.380929262938143,1.0,0.48132098066933277,0.48306715236451814,0.32543192107490965,-0.6680192859002008,0.07055974410773028,-0.4648319937682241,0.5768039300718183
4.2,0.6154500381045889,0.2847995045629824,0.06110585048476819,0.016262559434975545,-0.06652121175059938,-0.2724587013334063,-0.06272027501055487,0.10063211842777893,0.9929447805256135,-1.8284368515014648,-2.0308785296858862,4.154833728802799,0.817660272595593,1.3458979533208681,-1.380894801574336,1.0,0.48167297185203284,0.4834311759601733,0.3254058861588866,-0.668068827387249,0.07053017281839796,-0.464824048357151,0.5767565696760651
4.3,0.3799580738687208,0.33106088729015426,0.016416572326994512,0.019521486454250794,-0.06362136076130977,-0.27085484519703906,-0.06258418212642047,0.1004166383861826,0.9929751580219636,-1.8269504173177538,-2.031884332696432,4.1546418368123215,0.8170357647460889,1.346114627446493,-1.3808705684608877,1.0,0.48187929500373183,0.4836450713800452,0.3253427486285757,-0.6681249446243974,0.07053717492070372,-0.4647879196864164,0.5767198236912139
4.4,0.30348563760975295,0.2109358904497037,-0.01112389409752478,0.020215044368155265,-0.05927203696198907,-0.2709058480208188,-0.06252116961788058,0.10030147447409002,0.9929907427808885,-1.82516495929166,-2.0326270277914027,4.1543897525904,0.8162798232855566,1.3462949647976077,-1.38084584871401,1.0,0.48223055112654667,0.4839944159307135,0.3252670161927486,-0.668194264159026,0.07054232820807352,-0.4647613397978,0.5766603006149427
4.5,0.4102717229429732,-0.018983022648532993,0.057637934643832045,0.013725764402294107,-0.06354771391130942,-0.27425255314924113,-0.06288147677946913,0.10082916063523743,0.992914519388954,-1.8236804775325677,-2.0334449869240503,4.154185296576532,0.8155452583243334,1.3465819358825684,-1.3808000573587988,1.0,0.48274447180062263,0.48449424481349795,0.32550632749746544,-0.6680692824665206,0.07055668806973875,-0.46482370474357726,0.5767530763695617
4.6000000000000005,0.5489170310553256,-0.0791228199119011,-0.011718974590469985,0.012287762993676175,-0.057811373624833386,-0.27184002532676327,-0.06273309599192964,0.10058564568838389,0.9929485333644508,-1.8223037506411757,-2.034185392710353,4.1539225578308105,0.8148007373898821,1.3467982638408256,-1.3807744877543036,1.0,0.48295712027224347,0.4847122516799526,0.32555743870714665,-0.6680626628975457,0.0705586203574958,-0.46481943660603003,0.576763947285837
4.7,0.2813847035384256,0.3624385197010304,-0.06910571255844927,0.019971972461015956,-0.05853391448152617,-0.2691622678540875,-0.06241013095537245,0.10008811165528458,0.9930193075114206,-1.82055924980084,-2.0349748942361825,4.153751922057847,0.8140364601096336,1.3470341933908176,-1.3807821684170836,1.0,0.4832348574653651,0.4849798186853626,0.32557670601751787,-0.6680987812379744,0.07056784244516205,-0.46480454391122694,0.5767329833470981
4.800000000000001,0.37898705359379137,0.14587997678840214,-0.0243602792583012,0.014054583684827435,-0.05780501481494353,-0.2688447684945952,-0.06240327025069952,0.10012159709807078,0.993016362656929,-1.818878850635614,-2.0359965710244134,4.153443935170795,0.8134197982100121,1.3472657203674316,-1.380797155724825,1.0,0.4836915887430817,0.48544284269159615,0.3257298296643428,-0.6680444445270741,0.07057048087607787,-0.46482595638276736,0.5767783435933408
4.9,0.6917249507663634,0.05370173259797467,-0.015375260591921626,0.014386364512376461,-0.06527264976795252,-0.2702468106745784,-0.062396208179542376,0.10014684063005264,0.9930142614478229,-1.817473042154347,-2.0369042908095034,4.153289501573208,0.8126952965447278,1.3474564220347642,-1.3807574757035994,1.0,0.4839938928986544,0.4858065836381003,0.3257267758159236,-0.6680517892875923,0.07054770055976464,-0.46481003831515677,0.5767854514954747
5.0,0.7133247910932686,0.0032092389772199192,-0.025842045881047215,0.009028683232407825,-0.06467730537021472,-0.27322249642421953,-0.062388118648172224,0.10013003031447688,0.9930164648878773,-1.8159875214350676,-2.037831531002458,4.153082811481321,0.8119074902418238,1.3476629748752376,-1.380726162587301,1.0,0.4844375543413233,0.4862543546588329,0.3256630687215333,-0.6681343010325794,0.07052967418128447,-0.46479163084053865,0.5767069106090036
5.1000000000000005,0.4596864621144434,0.4298370174727893,-0.037732127741230165,0.017026265497806642,-0.059573628382368224,-0.2693294129345583,-0.06226998915408544,0.09993987728067807,0.9930430033918407,-1.8142306557272914,-2.0386325321593226,4.152832102656562,0.8111973007862396,1.3478894233703613,-1.3807134906993273,1.0,0.4846459314604788,0.48648937867255737,0.32561830099232186,-0.6681898707305086,0.07052539321949908,-0.46476093682879344,0.5766677875192994
5.2,0.466813246401496,0.23091504180258887,-0.11895007075283531,0.016776973245622977,-0.06138874236459025,-0.27283946358854316,-0.06210627478564933,0.09967947916171686,0.9930794556584145,-1.8126616319265347,-2.039360923989349,4.152645858447051,0.8104451298266747,1.3481449480235925,-1.3806417624102991,1.0,0.48499680895552716,0.48682254226007904,0.32574901373830695,-0.6681375938337553,0.07055066008264266,-0.4647779533445398,0.5767115519501962
5.300000000000001,0.5914637685592942,0.007536391462322989,-0.0549026280474173,0.011164214961292603,-0.06551726314881205,-0.2703415689863846,-0.06201846591778818,0.09954793588914229,0.9930981287187677,-1.8111634259939156,-2.0401793961150627,4.152376651763916,0.8097812372395019,1.3483577917690286,-1.3806416433380992,1.0,0.48532461568401825,0.48715655857316653,0.32587012019467293,-0.6680951125900187,0.07055546129707195,-0.46478875308160894,0.5767514737071167
5.4,0.44537600137152816,0.3548165901765927,-0.03266282076478825,0.017898248994808512,-0.059942443485359855,-0.26748053300223307,-0.061963910282355,0.09946902781298084,0.9931094447386656,-1.8095456845445796,-2.0411390612133626,4.152136063803678,0.809058905621698,1.348584924897546,-1.3806057266729095,1.0,0.4858008684662019,0.4875951786908305,0.3259486673304297,-0.6680886494303722,0.0705419850090567,-0.4648085311529898,0.5767446698675968
5.5,0.45179327920063733,0.26313264820490573,-0.07561949365844803,0.01513923243123414,-0.06041753892433791,-0.26837325719370236,-0.06212115148035433,0.09972536437661628,0.9930739022200671,-1.8079313808535262,-2.0420376082017415,4.151896470620494,0.808314546849931,1.3488603122833034,-1.3805945313022168,1.0,0.4860903307672713,0.4878869389726713,0.32595920662806244,-0.6680997130208545,0.07054622437291433,-0.46479525736995264,0.5767420328141326
5.6000000000000005,0.4240992418109864,0.16458788922345893,-0.12099477040788292,0.014289355641890957,-0.06041037850680815,-0.27100858734092975,-0.061978697665897774,0.09950032390999644,0.9931053505155029,-1.806481312089144,-2.0428520651203392,4.151669025421143,0.8075115871741784,1.3490891456604004,-1.3806059275695641,1.0,0.4865224450191399,0.48832818757810087,0.3260125262167291,-0.6681068472586268,0.07054604247778795,-0.464791820581095,0.5767365603616365
5.7,0.3798783252349694,0.34032797955429867,0.0025908775548114382,0.01872325475962888,-0.05884517268955572,-0.2725533721293586,-0.061617495533756436,0.09896552179665624,0.9931811813862069,-1.804743475058798,-2.043751666940005,4.151442334982711,0.8068153101154785,1.3493171659459804,-1.380557743107998,1.0,0.4867758380230328,0.48858494619037307,0.3260167651809483,-0.6681458296664462,0.07052718197707376,-0.46478008556672135,0.576703163648597
5.800000000000001,0.46557781834882844,0.22479208370918657,-0.022198959930407325,0.015315887816324142,-0.06092294272799678,-0.27187506484023044,-0.06134027851619404,0.09857903865524228,0.9932368003470242,-1.8032361401268366,-2.044601498810334,4.151224260937571,0.8061675454389191,1.3495790772375944,-1.380533813747896,1.0,0.48707479837181755,0.4889107509010226,0.3260635006831651,-0.6681323857182591,0.07052224542654897,-0.46477220315681694,0.5767256949600768
5.9,0.536323186716093,0.07324540982094932,-0.009743055417096962,0.01629754115435126,-0.062360918968473365,-0.2739432841750817,-0.06196938383747695,0.09954375741556301,0.993101323041508,-1.8017263904422542,-2.045452684838406,4.15099765050912,0.8053848478355649,1.3497724164120837,-1.3805339603165234,1.0,0.4874815237629952,0.48931546040416907,0.32612754705707014,-0.6681101607045441,0.07053496377240256,-0.46477213871512635,0.5767499381214893
6.0,0.48628318513429764,0.03602950194686505,-0.018349392911506876,0.014193234141318452,-0.059465049982578205,-0.2679542081137643,-0.0621340170877609,0.09978215450795154,0.9930674017536599,-1.7999638736992358,-2.0462924249157965,4.150745925252879,0.8045922952839355,1.3500122651815643,-1.380545880924383,1.0,0.4878312509866267,0.48964612964431486,0.3261785042089164,-0.6681141044734568,0.07053290078007288,-0.46478479367833125,0.5767354236359774
6.1000000000000005,0.44411427057987857,-0.1231755770599691,0.07203717418184223,0.010044108460195968,-0.06309942196787417,-0.267450482486779,-0.061999096643145256,0.09957004273292613,0.9930971131203862,-1.798407295680572,-2.04715612583515,4.150554039882905,0.8038612262915036,1.350181170780844,-1.380461859934004,1.0,0.4881458792895191,0.4899685194455478,0.32628318310865906,-0.6680859142046949,0.07053731121559409,-0.464798087993594,0.576756826023976
6.2,0.7680465940403339,-0.04026086188474255,-0.01795667167718211,0.01707807834560415,-0.06845038551603927,-0.26456163989774917,-0.061872902839996496,0.09938433892868523,0.9931235888455444,-1.7969832655771214,-2.048029553442334,4.150315038836169,0.8032001809716661,1.350407128891505,-1.3804381529437464,1.0,0.48848733881094036,0.4903235001069069,0.3263431525164102,-0.6680853664404105,0.0705419740760341,-0.46479211578348906,0.5767617030864188
6.300000000000001,0.5502511575718105,0.0638068644675525,-0.058123438600808035,0.012612301095257137,-0.06412680585584467,-0.2675281488833903,-0.06170411416804589,0.0990870366451215,0.9931637635445989,-1.7953389996539613,-2.0488814818591177,4.150074850941803,0.8025151926228027,1.3506597550150985,-1.380413649759832,1.0,0.4888775574754583,0.4907151050736262,0.32631860474588176,-0.6681368881372143,0.07053200763432148,-0.464774575808905,0.5767173729748778
6.4,0.4749748835598162,0.30273690624203087,-0.05083806220890504,0.02259271744609472,-0.060379393412339846,-0.27143016924959645,-0.06154452509871411,0.0987733119986321,0.9932049310038422,-1.793508166250419,-2.0497073251467657,4.149846569335692,0.8017345216876985,1.3508516243042448,-1.3803786539568617,1.0,0.48936712667546944,0.4911611921243191,0.32645398206766596,-0.6680796882992354,0.0705561021084202,-0.4648105022530472,0.5767517347460107
6.5,0.5387024907361417,0.06561231898537985,-0.004299538548416526,0.014100884795533068,-0.0637411847857086,-0.2665378541924489,-0.0619488332542001,0.09937392922851751,0.9931196453557967,-1.792133095330954,-2.0506078277275,4.149595909706822,0.8010129833249167,1.3510676538366577,-1.380342556721296,1.0,0.4896296495861415,0.49142609671535914,0.3265684565204716,-0.6680328838822919,0.07056491231644112,-0.46482778877611103,0.5767909378476681
6.6000000000000005,0.38731931073180603,0.10625957535581297,-0.1770084335971265,0.01054820469942597,-0.061938153933775546,-0.2693620337712599,-0.0623475608357943,0.09996815158234393,0.9930353024148748,-1.7906587416484492,-2.0515912796800553,4.149415493011475,0.8002806539297734,1.351259711728278,-1.3803779883683862,1.0,0.49003318885305364,0.4918260376466979,0.32648673729485805,-0.6681216659037663,0.07055846616878063,-0.4648037011091637,0.5767082987413206
6.7,0.48253110555242873,0.09673324901610436,-0.03522247429783018,0.01699386484224613,-0.060489078552638395,-0.26572632414890374,-0.0626556855572844,0.10045855055309347,0.9929662647030048,-1.7888241736852684,-2.052416660005004,4.149187368736349,0.7996103765766072,1.3514639908217556,-1.3803179899798792,1.0,0.49030278491209256,0.4921074350326384,0.3263781626226361,-0.6682118798018022,0.07054755046351523,-0.46476292483754816,0.5766379717914762
6.800000000000001,0.4706667912630365,0.22047128379349923,0.0637925797004211,0.020744592671335677,-0.06250380168833211,-0.266131748957323,-0.06291607978272017,0.10087292675279798,0.9929079067312981,-1.7872445827022767,-2.0531344675611716,4.148995506500424,0.798840570298087,1.351726170328866,-1.3802481353223206,1.0,0.4906055238693289,0.4924229639788012,0.32649166523737966,-0.6681504844998967,0.07055115938154091,-0.4647858383004008,0.5766902014841828
6.9,0.3602506560435104,0.2653746355091798,0.048887460460371734,0.013090168933482702,-0.06027323450699412,-0.2680178382159127,-0.06227433588214994,0.09985042200900143,0.993051402952899,-1.78589044785491,-2.053987307679155,4.1488036467841365,0.7979861932941894,1.3518724974863856,-1.3803052575651409,1.0,0.49105090836763415,0.4928731404135962,0.3267007917916924,-0.6680712485000085,0.0705655934601534,-0.46482084963457304,0.576752010566283
7.0,0.5318491016973841,0.2745946318551558,0.15682619612443466,0.021705140667933165,-0.06040613479424225,-0.2688931328645069,-0.062095647720769594,0.09956206132976249,0.9930918603787708,-1.785130894515369,-2.054378739484328,4.148625669303847,0.7976064340553037,1.352013883071013,-1.3802582946482822,1.0,0.4913520240877116,0.49315381336983083,0.32667971828081926,-0.6681428541271635,0.07056950004589349,-0.46479304563711954,0.5766909890655921
7.1000000000000005,0.29945759036030456,0.12554407250565844,0.11879137983740409,0.010981685078190287,-0.07219763513462629,-0.26377374354991034,-0.06231151772470003,0.09990054577679769,0.9930443821541702,-1.7850716401817284,-2.0543540916288983,4.148661136627197,0.7976180750080566,1.3520493220161764,-1.3802710215747567,1.0,0.4915128622125933,0.4933230229372445,0.3266640001572667,-0.668182128382895,0.07055949491501433,-0.46477424625792285,0.5766618601940154
7.2,0.4169596235511766,0.01483568665525134,0.17389648170395056,0.021976054099839985,-0.061126482516327026,-0.26929407915374376,-0.0626149265781949,0.10042157835403902,0.9929727474301633,-1.7848920822143555,-2.054378755172996,4.148673163931642,0.7976301023125016,1.3520382771083967,-1.3802468063707656,1.0,0.49157405113585195,0.4934007256019594,0.32675536024605134,-0.6681223634984883,0.07056187224202462,-0.46478796247439974,0.5767197582169264
7.300000000000001,0.47084648317573985,-0.2638438542596496,-0.08334360612155918,0.00798144871414571,-0.06265880320514453,-0.2627521528575016,-0.06254771852242662,0.10033143160675086,0.9929860894134397,-1.7849293960948365,-2.0543905094353905,4.14864995035695,0.7975939538434674,1.352049767284613,-1.3803052633585808,1.0,0.4915715761181395,0.49341355477700055,0.3267931235666861,-0.6680896361039249,0.07055867097403182,-0.46479596927651246,0.5767516094691119
7.4,0.40464459751613774,0.2081327805445531,-0.005022146743790222,0.01623956273284762,-0.0609302585033809,-0.2630317246194161,-0.06248019119977407,0.10024058833887581,0.9929995214635003,-1.7849167472833882,-2.0544160808051797,4.148650861538979,0.7976304727741699,1.3520491354092634,-1.380245856524288,1.0,0.49158506842595767,0.4934196882742785,0.3267765397434386,-0.6680972946147807,0.07055631115462363,-0.4647968513682157,0.5767423158073767
7.5,0.45159406705163413,0.12091615552055707,0.05390521533556548,0.017761606946507875,-0.06142721134712081,-0.2576065047661831,-0.062350745629141544,0.100014662678982,0.9930304209608819,-1.7849626541137695,-2.054405250710588,4.148651975753413,0.7976077268609061,1.352027558499578,-1.3802452771327818,1.0,0.49159400293092437,0.493407881715807,0.32675035943495134,-0.6681188046064669,0.07056160636096347,-0.4647961413414924,0.5767173221198109
7.6000000000000005,0.6002073239315282,0.020591241154218537,0.15867950966438474,0.011900059881174572,-0.0639989157983028,-0.25661975372278,-0.06260994979427109,0.10040127448678425,0.9929745606585131,-1.7849296819463152,-2.0544155968110798,4.14868445870916,0.7976087844204922,1.3520503044128418,-1.3802815188034638,1.0,0.4915872663340307,0.4934179160856888,0.3267726144699489,-0.6681045665861411,0.07055208474405657,-0.46480300032782174,0.5767294533238849
7.7,0.5647350760576573,0.12482739560659262,0.2202913115473038,0.012488928106104906,-0.06439201621710389,-0.26052817998118144,-0.06326374122465134,0.10140978169808608,0.9928306150984761,-1.7849391179737442,-2.0543831753623616,4.148626300908775,0.7976059289634588,1.352037258690297,-1.3802579084979456,1.0,0.4915892982797166,0.4934183970767688,0.32677729569834635,-0.6680983340998233,0.07055962284647325,-0.46480311821522724,0.5767356559934593
7.800000000000001,0.2888621981795773,0.18826196584123128,0.16824678283612354,0.0143800865139844,-0.06052291785206698,-0.2658455949002966,-0.06327588211557378,0.10145753091631446,0.9928253513278982,-1.7849375907641774,-2.0544171542194447,4.1486567862952,0.7976034776056402,1.352030994150762,-1.3802486395721472,1.0,0.4915889218917305,0.49342351792491906,0.32677523409413806,-0.668098030699189,0.07056117751746441,-0.46479779508550734,0.5767401072293006
7.9,0.24583564155735294,0.5045041626984268,0.07807586639352403,0.02310257641174367,-0.05549118426140909,-0.2672640832954072,-0.06265554477042917,0.10053211867774924,0.9929588559889504,-1.7849288337557558,-2.0544257428559494,4.1486735343933105,0.7975829445383498,1.352038461223887,-1.3802692397695235,1.0,0.49158154590489933,0.49343382966472304,0.3267746353712364,-0.6681004171320021,0.070548667590425,-0.46479176437558894,0.5767437332974561
8.0,0.757484866623614,0.06548583215561504,0.1645078843289337,0.013164074563345732,-0.06735819224390527,-0.26387364697416704,-0.06258218883272311,0.10041264201886928,0.9929755119446639,-1.784929651548189,-2.0544135033071442,4.1486735343933105,0.7976094011450309,1.3520306733026637,-1.3802688657450979,1.8892396283819226,0.49158029703788336,0.4934180564405125,0.3267661118966416,-0.668107257999218,0.07055168120949683,-0.4647921091908564,0.576735162202891
8.1,0.33601976736215533,0.23044630173851632,0.06515683975551559,0.024099570646234286,-0.06480771946515693,-0.2673228487194891,-0.0630805245771635,0.10116693264578534,0.992867586768932,-1.7849035263061523,-2.0543951066904618,4.1486506669658425,0.7976160449446353,1.352062702178955,-1.3803030239557923,2.0,0.4915872174079152,0.4934146304322034,0.32675930528116,-0.6681038677925715,0.07055834588198448,-0.4647946044004244,0.5767362632844039
8.200000000000001,0.4899045512117142,0.3148340232390141,0.11438110598538306,0.0103491937421315,-0.06174788931363977,-0.26375332956272035,-0.06277415095805332,0.10067322882675972,0.9929370977517196,-1.7849279819070831,-2.05443873027944,4.1486499839050825,0.7975824666850111,1.3520264625549316,-1.3802585276585202,2.0,0.491588101050896,0.4934226288723044,0.326764973213391,-0.6680940975412355,0.0705611900762816,-0.464803217467788,0.5767402919141102
8.3,0.5583776063273308,-0.021006395663695443,0.12811974328147088,0.015179714998747092,-0.06545142157109536,-0.25866510055365594,-0.06249702131337102,0.10025203068415826,0.992997281967733,-1.784955067235862,-2.054406760931528,4.1486735343933105,0.7976266793352161,1.3520244899666758,-1.380231705177244,2.0,0.4915873558453927,0.49342145003453985,0.32676650987778266,-0.6681048735421403,0.07055091330378903,-0.46480714977499005,0.5767258968516081
8.4,0.5704984539786309,0.1559050935469678,0.1394846389119653,0.01669019591545808,-0.06679900604118699,-0.2585619459256357,-0.062302750037160924,0.09999297334559247,0.9930356299240742,-1.7849286980055827,-2.054449475685883,4.148674318074985,0.7976066309162597,1.3520845691590453,-1.3802352578361807,2.0,0.4915808425393948,0.4934297219748367,0.3267568153599945,-0.6681166782427702,0.0705434551112077,-0.4647898054900861,0.5767271121659774
8.5,0.5275753584823284,0.10239789392317372,0.04541457011290788,0.0151424504680359,-0.06415780243800594,-0.25944916577495253,-0.06252153866795597,0.10031901045507632,0.9929889454540198,-1.7849388392627674,-2.054404186791796,4.1486735343933105,0.7976069235480729,1.3520270722045424,-1.380271220738475,2.0,0.4915776690322179,0.4934299207435726,0.32675613074478443,-0.6681112271038656,0.07054496232733692,-0.4647892717725133,0.5767336728102306
8.6,0.3414282472684984,-0.006123832430968394,-0.04755329162672925,0.012284889263794257,-0.06123994673451131,-0.25614431912290253,-0.06264478807646479,0.10049524772530649,0.9929634088565621,-1.7849274003375568,-2.0544148884215296,4.148661136627197,0.7976061701658487,1.3520379066467285,-1.3802583692483565,2.0,0.49158509990988564,0.49342165209454203,0.3267400226519166,-0.6681209200747622,0.07055273544439317,-0.4647946860914341,0.576717129501918
8.700000000000001,0.3943635438514147,-0.04968752709887283,-0.03703068978461099,0.008327683958153148,-0.0638520063208846,-0.26050014546820405,-0.06259769376551849,0.10041051575242627,0.992974952303419,-1.7849156027907849,-2.0544384262444226,4.1486735343933105,0.7976063147198419,1.3520146728588527,-1.3802588327643976,2.0,0.4915864855275129,0.49342319500226367,0.32676358407254613,-0.6681082097706674,0.0705556982095997,-0.4647960235587425,0.5767304135999514
8.8,0.1942934832791483,-0.13212459432402357,0.05510952062505945,0.02299024285689198,-0.06724325617514805,-0.2591398506679825,-0.06160294177174559,0.09889230817037829,0.9931893294100849,-1.7849509423901408,-2.0544500936420786,4.148695993486756,0.797618364942541,1.3520379066467285,-1.3802584772155881,2.0,0.491582443490977,0.4934286102150073,0.3267569515117082,-0.6681179817630277,0.07054353927967288,-0.464792927443036,0.5767230757562318
8.9,0.12477186187384794,-0.2940606772817905,0.09843129480860387,0.05254686752191161,-0.08140565355078455,-0.2549149310973409,-0.06132209065407252,0.09848279711646381,0.9932475132025904,-1.784927847120497,-2.05443873027944,4.1486735343933105,0.797617668107015,1.35206141365899,-1.3802575015969039,2.0,0.4915814525918785,0.49343166649479303,0.32675511461854373,-0.6681178440367078,0.07054552535098302,-0.46479222445059026,0.5767235589283373
9.0,0.025497786040008494,-0.6991729883483125,0.146287807568586,0.059324455518290145,-0.09286545906728928,-0.2586807036505431,-0.061125759986261304,0.09820417087475969,0.9932872492107294,-1.7849435602031678,-2.0544189046150843,4.148681788507571,0.7976145994775147,1.3520423996774416,-1.380266385809286,2.0,0.49157288074051947,0.4934403153720524,0.326765709268691,-0.6681065076856878,0.07053849139058029,-0.46478971771845246,0.5767395720111255
9.1,0.11683337850306602,-0.5346502894128269,-0.1222965331388109,0.040543497910985146,-0.09103960358261012,-0.26363471365614405,-0.061522574516414165,0.09880654783000224,0.9932024966792022,-1.7849259932720885,-2.054435371770367,4.148672370110165,0.7976180750080566,1.3520480654067935,-1.3802907448327755,2.0,0.49158124688917293,0.49344076420301985,0.3267661557504313,-0.6681071567535273,0.07054592088334168,-0.4647902616241476,0.5767374730679421
9.200000000000001,0.21314868341194565,0.2864804114487984,-0.3355024286255903,-0.0071299213415264295,-0.09501160231855979,-0.25684825453668525,-0.061986651597453014,0.09950883037761703,0.9931036271713213,-1.7849512100219727,-2.0544544602183703,4.148665515208758,0.7976154524300165,1.3520348829040865,-1.3802813491912538,2.0,0.4915836795333564,0.49343846037142647,0.3267662774366913,-0.6681115186823581,0.07054030204625103,-0.464794959844128,0.576729320994409
9.3,0.3064774632260055,0.6167628020215385,-0.5928883921069493,-0.04511508658011041,-0.0900027241250544,-0.25857547649163537,-0.06252099217146369,0.10030638120047432,0.9929900176210543,-1.7849286791107357,-2.0544383581207346,4.148695530344043,0.7976184620531099,1.3520264625549316,-1.3802464644061487,2.0,0.4915881530235714,0.493431283536645,0.3267611914247888,-0.6681125577834903,0.07054489776783623,-0.46479492649826093,0.5767275819937904
9.4,0.43322229251153943,0.9535036109306793,-0.615724798281316,-0.06842372508706311,-0.08786603948536782,-0.25995706136085295,-0.06316579292220166,0.1012537018408386,0.9928532354726423,-1.7849273257532294,-2.0544377725052576,4.1486735343933105,0.7976070906478672,1.3520493466386596,-1.3802698082214842,2.0,0.49159954805078493,0.49342103965066186,0.326751507225632,-0.6681135477031679,0.07056170876579991,-0.4647977102091772,0.5767221351880324
9.5,0.5062935988734611,1.5695273650731545,-0.33411116758473064,-0.10137984336412531,-0.08468068248769947,-0.2599576584421024,-0.0630874470176399,0.10112374529641081,0.9928715430454107,-1.7849616462611404,-2.054451015155178,4.148672834495652,0.7976059030226942,1.352026098608149,-1.380236180330966,2.0,0.4915952069814057,0.49341962298024933,0.32675125078011,-0.6681151782608377,0.0705623215936591,-0.4648010099033896,0.5767175119082056
9.600000000000001,0.5151027399934872,2.2054504091310676,0.06200012367423097,-0.14461213556300118,-0.08420688731406825,-0.25852514094994844,-0.06302033619757766,0.10101615667399784,0.9928867728122226,-1.7849504942340637,-2.0544502784021925,4.148648917098499,0.7976169416772009,1.352014452507269,-1.3802571628855405,2.0,0.4915970943650983,0.4934129047187399,0.3267533251005862,-0.6681143805621453,0.07056819743209662,-0.4647983944385023,0.5767198249797174
9.700000000000001,0.5047423320586544,2.5743378488367346,0.501955065030125,-0.1921364916581715,-0.0760023571077621,-0.25881607127416717,-0.063141948977788,0.1011993273396916,0.9928603867039549,-1.784939463818117,-2.0544516078965804,4.148661463915261,0.7975713479804218,1.3520264625549316,-1.3802931914337835,2.0,0.4916068581361283,0.49341151814655326,0.3267522584254159,-0.6681169857333009,0.07057601443120351,-0.46479644645614915,0.5767174203397976
9.8,0.5995757206540874,3.029287048517286,0.9912169299637046,-0.22454122612314312,-0.07369578673982521,-0.2636129531634335,-0.06300435449087625,0.10098695236550695,0.9928905202067112,-1.7849753185273125,-2.054450651208395,4.148661136627197,0.7975600017585611,1.3520140647888184,-1.3802585823127769,2.0,0.4915883991617257,0.4934225011196584,0.3267456045463005,-0.6681148470511196,0.07057291119693924,-0.46478625987084,0.5767284872366928
9.9,0.7725235648420896,3.1753896219446105,1.3610346387947438,-0.24503892072376132,-0.0672433228071786,-0.26502457734968077,-0.06240698633733259,0.10007297102362162,0.9930209064110433,-1.7849760055541992,-2.054463048974508,4.148638680429238,0.7975832033385428,1.3520145327732558,-1.3802694062939866,2.0,0.49159162804124323,0.49342667204844765,0.3267214153829545,-0.6681439294206163,0.070561704213342,-0.4647832111919459,0.5766986232608766
10.0,0.8163743882280347,3.2683099750956113,1.550197535309329,-0.2596786389977014,-0.06524704431343636,-0.26087243854728615,-0.06219174215770137,0.09975580532755562,0.9930664271281978,-1.7849164753799691,-2.05445015614852,4.14865068265515,0.7976056011917197,1.3520493142930918,-1.3802231556332254,2.0,0.4915888260789554,0.4934325892177759,0.32672443282582225,-0.6681371037953008,0.07055014401487522,-0.4647892099045169,0.5767031108532735
10.100000000000001,0.8815358451245435,3.2732807349255837,1.7937806820500728,-0.27276023763915397,-0.0597891776069663,-0.26664563765799965,-0.0621611371856542,0.0997206628011182,0.9930718637696713,-1.7849512100219727,-2.054472929736827,4.148661136627197,0.7975869733804392,1.3520312053208448,-1.3802871675741735,2.0,0.4915962119385014,0.49342698816472813,0.3267206943160155,-0.6681396039315288,0.07055356164589818,-0.4647908595444774,0.5766984666887921
10.200000000000001,0.9629719677188844,3.384000228397278,1.9135989206201331,-0.28249279519427245,-0.05781691466617287,-0.262431580121642,-0.062359157574623535,0.10003016258139273,0.9930283300799163,-1.7849538625946006,-2.05443873027944,4.1486620440862545,0.7976083760298308,1.3520282076685026,-1.3802711788208444,2.0,0.49159576938504923,0.49343349816432364,0.32671270747525943,-0.6681431649183103,0.07054424674628822,-0.4647909200757121,0.5766954317827697
10.3,0.8344706970664661,3.7936184938745012,2.1810469914361947,-0.28174904497583586,-0.05002490480588307,-0.26852682348831536,-0.06229429154610619,0.09991681703878823,0.9930438117822189,-1.7849512100219727,-2.0544368561532727,4.148659337466077,0.7976143267557219,1.3520245134637177,-1.380275928642561,2.0,0.49160528077415305,0.4934215362071039,0.32675127784826213,-0.6681152620479841,0.07056599554543291,-0.4648007179109229,0.5767172006457988
10.4,1.0099293041269994,3.4873253275892493,2.136192469521609,-0.2991467478555719,-0.044550837199808194,-0.2694078982969997,-0.06211584291481519,0.09963919927755084,0.9930828570129576,-1.7849461740486612,-2.054464823715861,4.1486668592698885,0.7976148709488139,1.3520413777109082,-1.3802636311406364,2.0,0.4916051021331605,0.4934273613918954,0.3267227112903329,-0.6681333590076257,0.07055743843782496,-0.4647886220181128,0.5767070307398583
10.5,1.19788456282883,3.7467273619132175,2.1850698782615763,-0.30831918056642443,-0.03274602278442156,-0.2636129583559467,-0.06182334837561457,0.09922435193761578,0.9931426515853626,-1.7849393213415095,-2.0544286803277885,4.148661136627197,0.7976176304193903,1.3520278704190416,-1.3802703062640589,2.0,0.49159636396479456,0.49343502990165816,0.32672412384982424,-0.6681260066791618,0.07055407023246753,-0.46478385039826087,0.5767198061290733
10.600000000000001,1.5077019403119103,4.111163010368514,2.541791768574081,-0.31253845027491317,-0.01551796917903842,-0.2676615487172387,-0.06219271022140323,0.09980516475631797,0.9930609042493168,-1.7849414794710343,-2.0544636126392644,4.148637617139077,0.7976422843289368,1.3520281760957902,-1.380247591735661,2.0,0.4915866909194827,0.4934311083035388,0.3267472932926672,-0.6681130694769986,0.07056149425989586,-0.4647902446161498,0.5767287321015779
10.700000000000001,1.5031562802199903,3.809210747554557,2.390162719275521,-0.3174248178129879,-0.0010856865945134686,-0.2674865545301061,-0.06275308039599985,0.10067331994607708,0.9929383086507133,-1.7849611227168047,-2.0544517359479118,4.148661689631656,0.797595296620261,1.3520492409427274,-1.3802816954579566,2.0,0.49158463854904255,0.49342650112501396,0.32674242521207475,-0.6681143508729519,0.07055412827404332,-0.46478950619437887,0.5767287439279313
10.8,1.6459686732379495,3.6613248604378446,2.426774854230309,-0.31690917533843116,0.003154933422280013,-0.2634199307422052,-0.0629896389034062,0.10103507406305998,0.9928867928014171,-1.7849107395184385,-2.0544401845561104,4.148664161522672,0.7976124480229421,1.3520264625549316,-1.3802673977107176,2.0,0.4915860474315498,0.4934279433361858,0.32672604473291295,-0.6681294683554773,0.07054186699108203,-0.46478909058599055,0.5767130653875356
10.9,1.7195439713755365,3.6641132834799253,2.560709946599495,-0.314446248374513,0.011898688197866842,-0.26684337510430295,-0.06310849828273357,0.10120640552272202,0.9928618122101898,-1.7849521126481398,-2.0544382963245518,4.148638665040296,0.7976185263211402,1.352037490050036,-1.3802574919012531,2.0,0.49159609073367644,0.49344056452375734,0.32670824648730745,-0.6681416283886924,0.07055020499445466,-0.46478051772049755,0.5767048667531884
11.0,1.825117869420191,3.500775531054177,2.580776073809441,-0.3097217980612845,0.016630420580841864,-0.2654376243115584,-0.06317219367686855,0.1012731372820541,0.9928509570330564,-1.7849250092077507,-2.0544570152544352,4.148676610407465,0.7976308031001378,1.3520468980727192,-1.3802639422180183,2.0,0.49159839546389816,0.4934291983857957,0.32673124484365496,-0.6681284809945003,0.070563013705097,-0.464787187970647,0.5767131556321345
11.100000000000001,1.6210652339109937,3.528936326584626,2.2421166119513454,-0.29692085497475657,0.025763219957970124,-0.2685531017932116,-0.06278429371820815,0.10070387496128388,0.9929331978118882,-1.7849379329442245,-2.054474366947558,4.148662390775479,0.7976187020821979,1.3520264625549316,-1.3802715121758689,2.0,0.4915898929464631,0.49342985314475585,0.32674488158643883,-0.6681218862400908,0.07055920786584322,-0.4647862581621211,0.5767220106220861
11.200000000000001,1.5588234383358688,3.614838145574961,2.0810965361284253,-0.2874869177661419,0.02410875716321259,-0.2671802773157472,-0.06227609331960348,0.09995616871588052,0.9930409606560453,-1.784965479718339,-2.054460277708488,4.1486735343933105,0.7976304727741699,1.352064006304141,-1.3802262211022862,2.0,0.4915767761970234,0.4934420471366242,0.32676563071168846,-0.6681036326979283,0.07053545886124195,-0.46479295189289993,0.5767406669290369
11.3,1.563200432119795,3.3689818305526416,2.0741125950619153,-0.2894824902534561,0.027229000155539584,-0.26682870783242185,-0.062034822554954454,0.09956643979453275,0.9930952372526993,-1.784938632047756,-2.05443873027944,4.148661703568407,0.79762990583296,1.3520264625549316,-1.3802464644061487,2.0,0.4915874517033045,0.49343162971203997,0.32676776186101597,-0.6681000896563942,0.07054811055122537,-0.46479899537282904,0.5767383533277277
11.4,1.648789389325105,3.4367848827334724,2.1597820863225934,-0.28440581096865397,0.025582040741931114,-0.2682981458865223,-0.06250706974325836,0.10026046365977422,0.9929955119638675,-1.7849276688870683,-2.05443873027944,4.1486735343933105,0.7976416579164207,1.3520609298825408,-1.3802567425134624,2.0,0.4915895235431795,0.49342691548015427,0.32675180063247994,-0.6681156899103315,0.07054926944919176,-0.4647997222579435,0.576719553738874
11.5,1.6940942048004102,3.6870222342194303,2.1703996016071017,-0.2762541536300449,0.02263309786737435,-0.2677931329778101,-0.06314212898086156,0.101272343463936,0.9928526278803329,-1.784973116238645,-2.054449206550618,4.148695931593443,0.797641368096195,1.3520279072127088,-1.3802348178620796,2.0,0.4915814662445406,0.493432722841967,0.3267484117910901,-0.66811277574256,0.07054551279789674,-0.46479314917235764,0.5767286866422512
11.600000000000001,1.7160138164423122,3.3823057099306224,2.074605126818394,-0.2822512216403618,0.02264571903446747,-0.2655166964753239,-0.06228392298363067,0.09998119563023695,0.9930375424322022,-1.7849115283064496,-2.0544413625163798,4.148697376251221,0.7975994976240262,1.3520264625549316,-1.3802543611169684,2.0,0.49158030963827676,0.4934373837877856,0.32673621672939757,-0.6681208047809072,0.07054425803280565,-0.4647797334977105,0.5767303505168692
11.700000000000001,1.750245098656122,3.356286088027384,2.0109479088895528,-0.2792429972798346,0.02067321301924154,-0.26606221494693827,-0.06223010138434232,0.09988391948109161,0.9930510808406592,-1.784928321838379,-2.054428275507422,4.148685932159424,0.7976166674973968,1.3520264625549316,-1.380252329033898,2.0,0.4915855416228486,0.49343585370643067,0.3267315566885078,-0.6681341341855068,0.07054763579082082,-0.4647856677492394,0.5767097128325502
11.8,1.843645726801145,3.208610758265139,2.021990176653208,-0.2820400885752625,0.02038433700347598,-0.263691703239343,-0.06253935748953808,0.10033301572479895,0.9929864238752381,-1.7849397659301758,-2.054462227570001,4.1486758722369075,0.7976188964125636,1.3520503044128418,-1.3802364676685943,2.0,0.4915808827074815,0.49343829109562976,0.32674957918246605,-0.6681192879424451,0.07054182620130077,-0.46479585911613014,0.5767194094045769
11.9,1.7370816060245042,3.223022685541967,1.8087980981140508,-0.2811527544638345,0.023443787417442137,-0.25831088632388477,-0.0628429870620144,0.10080817540298533,0.9929191029354072,-1.7849728189018808,-2.054446458244818,4.1486952797694325,0.7976283762923815,1.3520161612706068,-1.380237253292354,2.0,0.4915832498469438,0.4934371638410689,0.3267181864833609,-0.6681380928106752,0.07053620375202449,-0.4647898203223343,0.5767031782644335
12.0,1.6489862193972888,3.280531520162258,2.0231660249370624,-0.2750799715412375,0.02557362277505947,-0.26679826321641104,-0.06259195753219611,0.10043842400956869,0.9929720822134459,-1.7849678575121535,-2.0544588934730648,4.148677608414333,0.797626398753147,1.3520584651970913,-1.3802863012140367,2.92465903724234,0.49157349696672825,0.4934376500434234,0.3267260882122542,-0.6681277003172319,0.07055470703512759,-0.46477831079530296,0.5767222305393295
12.100000000000001,1.6017589032877044,3.1273834532992506,2.661720176841679,-0.272609608908186,0.02668331214123707,-0.26757359140264597,-0.06206667473039816,0.09965090317008986,0.9930845443850926,-1.785595153591501,-2.054055664714191,4.148745915537365,0.7979119219994711,1.3519685018275849,-1.3802444013025426,3.0,0.491571598501673,0.4934371012772818,0.32672374968648193,-0.668131761152457,0.07054817166582843,-0.46477224265073724,0.5767232158282941
12.200000000000001,1.5293161467001362,3.165859786625027,2.8938891676818765,-0.27026867862083126,0.02039376608125039,-0.26296502141974626,-0.06260642945657431,0.10052982026046482,0.9929618387712985,-1.78706340558271,-2.053213068626804,4.148957855520143,0.7985962256260435,1.3517959926010072,-1.3803057518290889,3.0,0.4913654982741858,0.4932469220599258,0.3267187205967615,-0.6681181552522135,0.07052930466492116,-0.4647651655367779,0.5767469884701899
12.3,1.662828326327075,3.0249924362150717,2.9497780281015102,-0.2494107624900318,0.030166619951137317,-0.2621459182606287,-0.06268647612812007,0.10065255316053627,0.9929446279980705,-1.7886681081466667,-2.0523981729241747,4.149207920575664,0.7993279123088801,1.3515909253287157,-1.3803184668170374,3.0,0.4912015318997783,0.4930197892504029,0.32673745595015463,-0.6680866316210219,0.07054605587754847,-0.46479847377260425,0.5767546145702318
12.4,1.537206118945079,2.9786439828720193,3.0860752328720977,-0.24917085824236046,0.03934191449152829,-0.2403815535311466,-0.06239044293894566,0.100169368039673,0.9930122254327304,-1.7904759452587962,-2.051480630335008,4.149394744269467,0.8001205164143066,1.351322703400615,-1.3803128027943774,3.0,0.49086840280521804,0.49269910442716336,0.3266720552168512,-0.6680978644142874,0.0705329249569864,-0.46479129598081587,0.5767489932739842
12.5,1.6516843790050042,2.850979051616133,3.157538909515121,-0.26729879558317937,0.03694415585268274,-0.21919238880533112,-0.06298394956878468,0.10109596478826796,0.9928807498675283,-1.7920677209559037,-2.0505744419493617,4.149644001595091,0.8009121766741436,1.3511151784493787,-1.380410109151483,3.0,0.49037894432100954,0.4922283892193637,0.3265432359582437,-0.668150595117418,0.07053768419597072,-0.46476587398341757,0.5767078114027411
12.600000000000001,1.7464856702217082,3.066660391663968,3.1620321504748765,-0.2742774796302517,0.03366169325322872,-0.22398241284020598,-0.0621050870291473,0.09973669507149789,0.99307320390886,-1.7934848849100011,-2.0497361622252406,4.1499182764810465,0.8016189561630852,1.3508514024601637,-1.380401913319723,3.0,0.4900701708790335,0.491905836531865,0.32654789558171954,-0.6681086067101785,0.07053231790902326,-0.4647861450447073,0.5767407746506612
12.700000000000001,1.778897825902311,2.9045082111261187,3.23766617122377,-0.25380580585640017,0.04336363920992207,-0.22363155786111782,-0.061846831669168115,0.09933215217296981,0.9931304338341503,-1.7951367259570803,-2.0489405266851164,4.150089740753174,0.8023613254195197,1.350620338334363,-1.3803927707738728,3.0,0.48978262249227644,0.4916237597954735,0.32655619639894545,-0.6680694069801255,0.07054272570738493,-0.46480825441640394,0.5767670915832244
12.8,1.7690728286489328,2.5801133734541044,3.3031363549180965,-0.24323790767337303,0.04970235927707118,-0.22315163659239093,-0.06195757896126492,0.09950276681053848,0.9931064666253812,-1.796926330304551,-2.0480604666451296,4.150352954864502,0.8030291332731604,1.3503780307471056,-1.380430159049235,3.0,0.48928742237217865,0.4911429678786711,0.32643148888850704,-0.6681162871704366,0.07053655090975654,-0.4647809749141356,0.5767355261826789
12.9,1.6369086207876142,2.854113921059021,3.243177025689569,-0.26037884215037976,0.038396139792750764,-0.21394938057574805,-0.06182352870910212,0.09934770483232454,0.9931303414678622,-1.798325124372062,-2.0471693046383637,4.150554885385804,0.8037762811072273,1.3501839440555896,-1.380440308726155,3.0,0.48903049320110464,0.490915470534014,0.3263252829399816,-0.6681720881033657,0.07053258475693974,-0.4647381804584035,0.5767058511852519
13.0,1.8988765060958177,2.7871100435521274,3.3840069540112174,-0.2533974640624871,0.03365188267757147,-0.19723161291425007,-0.06172544414384709,0.09908819521781143,0.9931623550274309,-1.7998152454595018,-2.046309324541922,4.1507063461360785,0.8045522409626464,1.3498902320861816,-1.3804371243548639,3.0,0.4887386490731548,0.4905772886963425,0.32632376840599275,-0.668131776905597,0.07054457224082118,-0.46477537790362494,0.5767211112061637
13.100000000000001,1.8311531169228483,2.8207593407768243,3.271327117325404,-0.23015927464874472,0.047259679961636776,-0.17730204608197278,-0.06132385419088893,0.09843238993892306,0.9932521080987953,-1.8016423439917049,-2.045479600713706,4.150998087821047,0.8052739478608387,1.3496630330395498,-1.3805694773417883,3.0,0.4883295008506676,0.4901468012703333,0.326316214889844,-0.6680880319393829,0.0705575769399335,-0.4648049975633556,0.5767463256544046
13.200000000000001,1.8692681807193472,2.279627427134909,3.4174215488183846,-0.24646076281965845,0.05058570139664566,-0.1872777210507043,-0.06076883850279662,0.09758815036347782,0.9933698507435829,-1.8031452774198928,-2.0446244697966516,4.151236330164541,0.8059472592097409,1.3494155114617679,-1.3805119262617445,3.0,0.4878502202324058,0.48969318675336565,0.32617400824137593,-0.6681674402631036,0.070531550314254,-0.46478057118217514,0.5766771998562898
13.3,1.730094528593035,2.8660676523381508,3.460844523543139,-0.24965946632469163,0.04705772175886962,-0.18037931873754784,-0.061137785845328835,0.0981148048521359,0.9932952521137205,-1.8047163760749183,-2.0437321142324154,4.151451354032296,0.8066665369221191,1.349255084991455,-1.3805144567179801,3.0,0.4876592578918515,0.4894699676398506,0.3261302592170354,-0.6681719706794351,0.0705581243734807,-0.46477650725273045,0.5766719752070578
13.4,1.8713894447631696,2.675501673873075,3.5149489749509066,-0.2509655604243722,0.04563584437411395,-0.17424520066938887,-0.061209715887024604,0.09823036871183466,0.9932794805549301,-1.8062810897827148,-2.042822898667756,4.151670932769775,0.8074602292669371,1.3490348646622212,-1.3805560293924515,3.0,0.48736945878965926,0.4891821493776255,0.32613159965612776,-0.6681340372271246,0.07056644347649042,-0.4647813490192012,0.576711004713413
13.5,1.7851413243812468,2.754914232742609,3.5665141762462906,-0.2453681419396549,0.05169284397534475,-0.16548258603451363,-0.06104735227187687,0.09801783203927202,0.9933104858257146,-1.8079530324118283,-2.0419474354911262,4.151910290654789,0.8081589457712621,1.3488005762192588,-1.3805391281012445,3.0,0.486876203917188,0.48870316578311995,0.32610225590614017,-0.6680986011086165,0.070561965695403,-0.46479189105623175,0.5767441080776488
13.600000000000001,1.7405841400527389,2.66577214298729,3.6056416948416024,-0.24142822369993402,0.05616965670129568,-0.15298644188061664,-0.06093553178764606,0.09779146223704417,0.9933396496114116,-1.8094654067722098,-2.0410865429460516,4.15209357435545,0.8089095758083354,1.3486185471863914,-1.3805920886375997,3.0,0.4865605016590959,0.4883606250766867,0.3260641659023551,-0.6681007361167497,0.0705674354288563,-0.4648001672211516,0.5767342958489994
13.700000000000001,2.025223284801509,2.426598725074837,3.780065896757281,-0.2346251932437078,0.057743516031898215,-0.1398402245782176,-0.0608965398440155,0.09775326120465577,0.9933458100156954,-1.8110265811015764,-2.040248836359816,4.152355591126078,0.8096047158074533,1.3483821277397372,-1.3806561552483467,3.0,0.48626988318152603,0.4880786565406136,0.32602899339014496,-0.6681078795338775,0.07055407332364988,-0.46479044441999695,0.5767354912072331
13.8,1.745858124469958,2.250462697995937,3.7444143761524953,-0.22929712999154905,0.06819892282247651,-0.1444356943653556,-0.060921000193407474,0.09787900331630311,0.9933319285890444,-1.8126255795264585,-2.039507978628994,4.15260661921193,0.8103402825466599,1.3481853205350716,-1.3806693795493845,3.0,0.48581605050419635,0.4876612228551384,0.3259137619147275,-0.6681553573137271,0.07052158504705544,-0.4647646211079163,0.5767052726495848
13.9,1.8107769885987899,2.2379934506402748,3.716397843342365,-0.2343494981029847,0.0637787361913639,-0.14492206203482413,-0.06100643020630918,0.09802067503468215,0.9933127040082781,-1.814138000594648,-2.038635603151783,4.152802500070073,0.8111170640600979,1.347921589487557,-1.380686363046532,3.0,0.4854990947954396,0.48732946989571974,0.325840532292973,-0.6681580141050866,0.0705256251628209,-0.46476486966200004,0.5767015001806431
14.0,1.9550993487564332,2.2885222251128843,3.798627934380498,-0.2347261154196078,0.05746172222031786,-0.1299329350741038,-0.06114694122245565,0.09817673782346517,0.9932886523336387,-1.8158127179931935,-2.037703938272434,4.153025980603967,0.8117975279569654,1.3477176503871178,-1.3806991748091504,3.0,0.48509729424340264,0.48686574281549433,0.3258044964315825,-0.6681254875185169,0.07056821658511005,-0.4647795738146375,0.5767221232975418
14.100000000000001,1.8632149249616112,2.465074338076873,3.7344150340072733,-0.23891371172108863,0.05801037502597421,-0.12545161465596122,-0.0613794228473302,0.09849508919551038,0.9932426429085532,-1.8174177515934906,-2.036813828275335,4.15328782970378,0.8124588152551809,1.3474459287574927,-1.3806923180559298,3.0,0.4848471885947072,0.4866226563413539,0.3257834755421856,-0.668124307582683,0.07055558143500931,-0.4647856583967763,0.5767201325549534
14.200000000000001,1.609398730163376,2.5988645979471774,3.9997755561848938,-0.2547697560592535,0.05590606505442766,-0.11849994093578613,-0.061697617053023394,0.09896468642208646,0.9931761698213722,-1.8187596877851204,-2.0358574719297233,4.153516062144251,0.8131425450612318,1.347222113461336,-1.380775556579953,3.0,0.484353508587577,0.4861176662031418,0.32577180107500137,-0.6680983665661321,0.07056311941155737,-0.4648001984219316,0.5767375437038147
14.3,1.7695112627876384,2.328221879385113,3.816410129758161,-0.24269450757575625,0.06552741139386331,-0.11091674749525905,-0.06201276413974419,0.09942975976221587,0.9931103362335378,-1.8204348293907004,-2.0350789181736806,4.153752874993466,0.8139663786289267,1.346975326538086,-1.3807694479822332,3.0,0.48416180275269954,0.48591562421550455,0.3258267015760957,-0.6680527444833695,0.07057762839077861,-0.46482763208699507,0.5767665051018201
14.4,1.8568672206229613,1.6256997188375033,4.019659677439337,-0.21505559382655418,0.08177941670972183,-0.09838825377647867,-0.06199088747921506,0.09939447286823333,0.9931152338734905,-1.822165197615858,-2.034302410340489,4.153987000691427,0.8147256315771695,1.3467293271175316,-1.3807767893085996,3.0,0.48384380536903504,0.4856101247622605,0.3257377463163374,-0.6680809406083412,0.07056831338787264,-0.4648223090641673,0.5767392746620614
14.5,2.135341955637081,1.8773961573135562,4.108040155157588,-0.21734406706151993,0.08058536904058014,-0.09678670089795088,-0.061961230326946545,0.09937496934370024,0.9931190365144965,-1.8236442077688797,-2.033584915189855,4.154223713858543,0.8154276371269862,1.3464939141300623,-1.3808479712089647,3.0,0.4833242064585854,0.48515454502833955,0.3255131198612021,-0.6681626971011146,0.07054322349758488,-0.4647749630659754,0.5766857875205138
14.600000000000001,1.7052507166671518,2.238373669161784,3.9062092877327332,-0.24050818770565116,0.07174861478060902,-0.09634211594808484,-0.06192380171531992,0.09937123086568596,0.9931217454277412,-1.8251265971521617,-2.0326697906332707,4.154480407225711,0.8160975223974537,1.346247459476972,-1.380838006120213,3.0,0.48306929458753534,0.48491178109331556,0.32541635417989134,-0.6681976359211413,0.07054883842098156,-0.4647545631712047,0.5766610588191223
14.700000000000001,1.8175529451839303,2.2330318773757662,4.052925683305363,-0.2451413100143445,0.06467112216741802,-0.08904930711887771,-0.06190493392691777,0.09934279473519508,0.9931257662961044,-1.826798239108832,-2.031697054561625,4.15469419922115,0.8167523965753847,1.346005022355326,-1.3809018372376043,3.0,0.4826144308660528,0.4844654948301906,0.32544464773248205,-0.6681506539665828,0.07054385173280112,-0.46478208301532675,0.5766939256613187
14.8,1.7115797631427354,2.568457795385025,4.179915336842469,-0.2581313180634982,0.0544059380711518,-0.08229508553812157,-0.061680625849731226,0.09900147308805245,0.9931735597375196,-1.828386416893272,-2.030678403040458,4.154951846852314,0.8174449098731943,1.345811109566567,-1.3809286074936025,3.0,0.48238432870736997,0.4842315481697508,0.32542528103728713,-0.6681624140631122,0.07054809398827903,-0.4647718598476691,0.5766880206504326
14.9,1.7587193658867077,2.7506071779351218,4.212793669625682,-0.2700652613886741,0.046513421537128535,-0.07346732708378756,-0.06123642472260956,0.09832568013539354,0.9932681628245411,-1.8297349108684429,-2.0297950112332295,4.155168792917656,0.8181510974320525,1.3455895370303042,-1.3809626477384365,3.0,0.4819009585697999,0.4837179689213117,0.3254930593349515,-0.6680972964909855,0.07054859333056455,-0.4647930977988698,0.5767462827266815
15.0,1.793002708137319,2.602523199058909,3.9009390120810106,-0.26629658165457853,0.05058741399922633,-0.07606991799091997,-0.061134915240726936,0.09817348380544744,0.9932896651213217,-1.8303956709955276,-2.029535605950092,4.155286671621129,0.8185010410322616,1.3454738903101653,-1.3809263168744457,3.0,0.4816951807562085,0.4834977369364287,0.32552822847051227,-0.668044044254674,0.07054965572831343,-0.4648282307121046,0.5767795219540393
15.100000000000001,1.814340275531229,2.4958980385725935,3.8882483266563694,-0.26175248746707486,0.05798902953600257,-0.07963904233798226,-0.06141434747130183,0.09860332615915253,0.9932299073681324,-1.8303624744932254,-2.0295583003145534,4.155277729034424,0.8185021874173934,1.3454698008466095,-1.3809524595146256,3.0,0.48153030684834147,0.4833446642248668,0.3254926631545183,-0.6680437078350141,0.07055070640698091,-0.4648238894407245,0.5767832817035523
15.200000000000001,1.9121973225554145,2.201505740798183,3.9364769093119523,-0.25521639431722815,0.05754046626794867,-0.07800179375430233,-0.06049308348029867,0.09720417313803395,0.9934235296012773,-1.8305388375690175,-2.0294993776112324,4.155266284942627,0.8184909215540601,1.3455025997735766,-1.380920302982183,3.0,0.4814475479254258,0.4832765018630579,0.3254523888435911,-0.6680590839576,0.07055073412874757,-0.464806979885464,0.5767790961064565
15.3,1.9805280932766185,2.182407205895456,4.100125226939271,-0.24897451703016024,0.06322041016000832,-0.07597713182614747,-0.06029283717810456,0.09690364178696186,0.9934652860057019,-1.830519469455764,-2.0294842753846263,4.155244285396942,0.8184700988998722,1.3454828245281971,-1.380953613911764,3.0,0.48144124222039425,0.4832643191294489,0.3253886814506296,-0.668109565768784,0.07054779127695458,-0.4647807962681062,0.5767420816054398
15.4,1.8964652439927532,2.6591463623783937,4.120049379394529,-0.23458570252041663,0.061554256561694484,-0.0833195260920768,-0.06099378903566422,0.09797625373583467,0.9933172060729968,-1.8305201762461654,-2.029506345788473,4.15524374708563,0.8184507341187793,1.3454812924113857,-1.3809203588189634,3.0,0.48144258158015896,0.48326176000833876,0.3254146257802349,-0.6681015900399643,0.0705466032143717,-0.4647909241517537,0.5767433042412751
15.5,1.7364449756625449,2.395791569200587,4.071670918492968,-0.23847262633727662,0.0635623389692302,-0.08477747034196799,-0.061440723011219944,0.09865648959042854,0.9932229897714898,-1.8305706257491667,-2.0295114535525833,4.155279043904393,0.8184558588215332,1.345491553712061,-1.380954878209811,3.0,0.481444214902094,0.483257376840444,0.3254161728200099,-0.6680966272819957,0.07054146354823987,-0.46479989663328636,0.5767424508605041
15.600000000000001,1.6645433257835136,2.4534418697713924,4.0166312062724705,-0.2360360002673303,0.06554690377850317,-0.08744733545832856,-0.06157455652518513,0.09885308572931951,0.9931951653619947,-1.830500765491324,-2.0295083717510316,4.155216575264248,0.8184902283262717,1.3454993969195215,-1.3809458217480768,3.0,0.481451454632329,0.48326146966659866,0.32537581549276257,-0.6681197717339261,0.07054749223125896,-0.4647876573906665,0.576724765807212
15.700000000000001,1.720429693914881,2.6212303979765315,3.9818333413454994,-0.22992540368944112,0.06415223225076273,-0.08471996804942176,-0.06154256128118689,0.09881103584382714,0.9932013326565972,-1.8305462090923472,-2.0295093507303554,4.15525484085083,0.8184544447312355,1.3455331845534944,-1.3809327180753073,3.0,0.4814626600459332,0.4832434828568875,0.3254136704091631,-0.6680902005388238,0.07055414780453752,-0.46480750590689124,0.5767422115851976
15.8,1.6632407767481312,2.165408836243312,3.8866068369878475,-0.24007217564497974,0.06557754238055484,-0.08123863723124951,-0.06150009177383788,0.09875391232853914,0.993209646973615,-1.8305183680080672,-2.0295199917800115,4.15527712988622,0.8184800052765387,1.345478829249595,-1.3809747870787612,3.0,0.48145777346181473,0.48325313209853793,0.3253772648057433,-0.6681180980433035,0.0705385622283249,-0.46479171890854076,0.5767245237891344
15.9,2.0454556978436855,2.201409461349721,3.880535177971563,-0.2411480599444268,0.05738922127805157,-0.0875506303268555,-0.06142383500250733,0.09866530809889332,0.9932231680875625,-1.8305640491627706,-2.0295187435545863,4.155256043776184,0.8184584651598,1.345512866973877,-1.3809335311955848,3.0,0.4814458156812186,0.48326454307546585,0.3254089383963675,-0.6681033556061051,0.07053625748776697,-0.46478277429219317,0.5767490921785087
16.0,1.7952437621554957,2.402165780391184,3.9075123377042966,-0.23639638797513096,0.06337882206889964,-0.09079252553109293,-0.061579527146023404,0.09890323743379158,0.9931897048772103,-1.8305292129516602,-2.0295213976730815,4.155269496633212,0.8184610081504782,1.345492236806552,-1.3809268391493135,3.945166140537151,0.4814462352802282,0.48326060899830814,0.32539779974982685,-0.6681092753217546,0.07054651474341543,-0.46478189129334746,0.57674169175843
16.1,1.8014426558875358,2.378513840301821,3.934911617416982,-0.2362890224620395,0.062224458829930274,-0.0930723742938856,-0.0620515243637486,0.09958489068796042,0.9930923291641061,-1.8305279299215909,-2.029529327993886,4.155265001912558,0.8184867524869349,1.3454877420858975,-1.3809738696782798,4.0,0.4814593269488715,0.48324587529587226,0.32539024304354147,-0.6681141714062373,0.0705409279900996,-0.4647974428570165,0.5767241702564849
16.2,1.747393402921999,2.089657642004874,3.9804901651664166,-0.24069147686329678,0.06368020724616205,-0.09268487410622263,-0.061796519647099306,0.0992339599044355,0.9931433155828859,-1.830540657043457,-2.029547018146273,4.155259633295745,0.8184558588215332,1.3455104707514198,-1.3809178511248987,4.0,0.48144879721791906,0.48326632055069807,0.3253878209950999,-0.6681219290928986,0.07052689381103938,-0.4647877549434847,0.576724707264346
16.3,1.5388561339816205,2.0700030926902304,3.9609149145121743,-0.2406557834237462,0.06915278834751094,-0.09245846798579081,-0.0616204283994117,0.09898339749565092,0.9931793437199137,-1.8305596660923313,-2.0295017158285416,4.1552504431234825,0.8184473079714124,1.345512866973877,-1.3809207443665747,4.0,0.4814454682302037,0.4832633247958856,0.32539582993268557,-0.668117530091564,0.07052681370454883,-0.46478899801204454,0.5767288113663054
16.400000000000002,1.7981055001781172,2.4947350519073246,3.910064914238634,-0.23158328496680305,0.06179523953278836,-0.08944940241380195,-0.06165545483523935,0.0990157208687358,0.9931739483044261,-1.8305318671474855,-2.029548921471069,4.155224130801443,0.8184627270130103,1.3455027499799928,-1.3809458954595324,4.0,0.48144784500650323,0.4832531327448124,0.3253860366161086,-0.6681220233801877,0.0705325134220385,-0.464787901404206,0.5767237927578573
16.5,1.7707003585323846,2.294501145810629,3.8394611545833808,-0.23630530033922764,0.06149816120915958,-0.09550635444713379,-0.06169695420825294,0.09904975584489936,0.9931679774336659,-1.830520779499492,-2.029507976551605,4.1552532100876975,0.8184606256676118,1.3455029282018944,-1.380927322095397,4.0,0.4814478188304957,0.48324703718686524,0.3253732548428809,-0.6681238719798469,0.07054250309618866,-0.46478747684727545,0.5767207715294504
16.6,1.7587354951257084,2.2333811782641164,3.823992438226447,-0.23625650675971024,0.06280431839620498,-0.0977010398234085,-0.062261078260102964,0.0999132402763784,0.9930455912317381,-1.8305634947085854,-2.029522239745833,4.155251204811933,0.8184770183148629,1.3455146849933253,-1.380923095411769,4.0,0.48144166943285027,0.48325654731846157,0.325389164092976,-0.6681127974592326,0.07054785974714417,-0.46478486420650666,0.5767350512677678
16.7,1.8694730887904125,2.260868474276497,3.879508178635363,-0.23743719096425953,0.061303456855908045,-0.09829162223414183,-0.06289276241070721,0.10088406942794219,0.9929081436699724,-1.8305752118964622,-2.0294997599677425,4.15524426825332,0.8184736344745167,1.3454925350555884,-1.380965534840719,4.0,0.4814506419775913,0.4832482431840435,0.3253954790677338,-0.6681152886699944,0.07054972456114161,-0.4647884112742947,0.5767290786451417
16.8,1.63502473426584,2.1959715870844367,3.8511542362563884,-0.23510873316185943,0.06579866884911853,-0.0932490265920265,-0.06197958992850627,0.0994669956883425,0.9931073898224209,-1.830552101135254,-2.0294876908424517,4.1552300453186035,0.8184716690296786,1.3455146414437338,-1.380951907690748,4.0,0.48145495872210253,0.48324285340457473,0.3253917184838974,-0.6681167807849453,0.07054874547989266,-0.4647963346786115,0.5767210842461918
16.900000000000002,1.6016012753446627,2.003296372594902,3.891646518833392,-0.2415130794501165,0.0652030777469246,-0.09705992402737756,-0.06130361906881312,0.09843063518483246,0.9932538337026804,-1.8305440193359601,-2.029524133876949,4.1552218342003675,0.8184871843257445,1.345512866973877,-1.380943309469589,4.0,0.48145072540131445,0.48324247493219175,0.3253910467321356,-0.668109987307521,0.07054388730537338,-0.46479221535652016,0.5767328682915247
17.0,1.6329017955427856,2.25039225409323,3.958684969649072,-0.23411090146596297,0.0648922704220876,-0.09900125092935728,-0.06151055397239369,0.09878599765812922,0.9932057308098576,-1.8305276193431967,-2.0295080721976415,4.155253114441662,0.8184699829968152,1.3455062269386127,-1.380953613911764,4.0,0.4814534620575349,0.4832447492471968,0.3253792535677012,-0.6681162242082759,0.0705387352311613,-0.46478205774079434,0.5767344593345345
17.1,1.850857541966736,2.199993924205707,3.960705730636605,-0.23593296522389337,0.05878527935066032,-0.10040054130420986,-0.06192047470444386,0.09942734864132237,0.9931157185747358,-1.830531030264536,-2.0295268026936806,4.155232014074219,0.8184682565876464,1.3455032401949558,-1.3809721777827257,4.0,0.48145246344511944,0.4832536233562162,0.3253890747681104,-0.6681076236335473,0.0705415441251273,-0.4647843999034219,0.5767421914526396
17.2,1.8607907590707295,2.2645690001657477,3.9981858996760224,-0.23369589241320693,0.05942693521347518,-0.09885511345345344,-0.06274672248267656,0.10065526644282487,0.9929397496360431,-1.8305416425069174,-2.029495410322978,4.155242780216954,0.8184450630609602,1.3455119074436657,-1.3809300962194657,4.0,0.48146547337121853,0.48323394390000074,0.32535733984159926,-0.6681373747205408,0.07054926782981683,-0.464786479047023,0.5767051050626237
17.3,1.7119330995448552,2.291191808997138,3.826528128573081,-0.23347766377401938,0.06316325331637666,-0.10251737224700852,-0.06308591920470845,0.10114762874482167,0.9928687641345456,-1.8305568429766863,-2.0295333752974067,4.155261725479711,0.8184658856669302,1.3455307321224717,-1.3809178511248987,4.0,0.4814646337806664,0.48324196198707164,0.32536987954497215,-0.6681290154095719,0.0705564136067344,-0.4647901462754662,0.5767109598334528
17.400000000000002,1.6082012491346307,2.617497692096641,3.968938858635905,-0.2251616296760598,0.06575182764107186,-0.1018383588962105,-0.062367103108326216,0.10004215620543139,0.9930258323881103,-1.8305694988437353,-2.0295264496209873,4.155265253041264,0.8184806543537597,1.34550142288208,-1.380953613911764,4.0,0.4814457465850531,0.4832450679262553,0.32538171542620004,-0.6681097269528197,0.07054386050618257,-0.4647908830257246,0.5767342469041356
17.5,1.5504306488967996,2.298181484907507,3.9254452643823288,-0.23185298793763398,0.06658804354533895,-0.10577681916094428,-0.061782561461684066,0.09914354454010287,0.9931532477559533,-1.83054643479773,-2.0295175679650415,4.155255173876718,0.8184587476986697,1.3455040895378985,-1.380945280612332,4.0,0.48146353341776116,0.48324180263000194,0.32537305058229565,-0.668119048121042,0.0705528789966105,-0.4648002356755686,0.5767148079588893
17.6,1.6834687985212349,2.461900410678961,4.002852944401527,-0.22793975112096207,0.06286545763120564,-0.10284071390982015,-0.06150133597123064,0.09871221645186368,0.9932136794248543,-1.8305375463894569,-2.029535004815727,4.155243239928448,0.8184716264628134,1.3455120701301455,-1.3809416929828089,4.0,0.48146347843566706,0.4832403289481658,0.3253954506605837,-0.6681054589557003,0.07056187741990058,-0.46479448823770503,0.5767340815943012
