xiamingqian9007/apple-picking-rnn/training_data/grasper_20191127_131257_noimg.csv
,/manipulator_wrench.fx,/manipulator_wrench.fy,/manipulator_wrench.fz,/manipulator_wrench.tx,/manipulator_wrench.ty,/manipulator_wrench.tz,/ground_truth.x,/ground_truth.y,/ground_truth.z,/joint_states.elbow_joint,/joint_states.shoulder_lift_joint,/joint_states.shoulder_pan_joint,/joint_states.wrist_1_joint,/joint_states.wrist_2_joint,/joint_states.wrist_3_joint,/mode./mode,/manipulator_pose.x,/manipulator_pose.y,/manipulator_pose.z,/manipulator_pose.rx,/manipulator_pose.ry,/manipulator_pose.rz,/manipulator_pose.rw
0.2,0.034077547566913544,0.2003558843694635,0.007096329276111164,-0.008646510499687095,-0.020586212032963548,-0.01828936055141692,-0.18535626135693817,0.4081742322135332,0.8938883460148956,-1.4453163054829767,-1.7494243108615766,4.168187667211693,-3.099549905024102,-1.3406820698847617,1.910556990479518,1.0,0.4721953682740884,0.482745093424112,0.3897366712002528,-0.7015182708573695,0.11542928111466316,-0.4035958523985528,0.5758980679263686
0.30000000000000004,0.16831320165048302,-0.1358540469651811,0.18665763640185112,0.008857044245307408,-0.004332546060873596,-0.026184006835382443,-0.1851325403275538,0.40773811060151055,0.8941339357506329,-1.4419364956925533,-1.7525606108494567,4.16764580456791,-3.100056310693258,-1.3411888120195379,1.9105801582336426,1.0,0.47229912864618945,0.48287383461835925,0.38974942407259394,-0.7015103538879984,0.11542540777395227,-0.40359495433457254,0.5759091173647337
0.4,0.3970254032013141,-0.19270669004297689,0.3733356454595972,-0.0019361798266098044,-0.008038589605873609,-0.029442476239216864,-0.18539254853663423,0.4082297197218097,0.8938555325384863,-1.4373867422784248,-1.7559922501295053,4.166746788877826,-3.100822097849246,-1.3420655204323984,1.910579436317862,1.0,0.4728507533085596,0.4834483079022867,0.38968886935728264,-0.7015298777809089,0.1154419135585595,-0.403584395190546,0.575889426134325
0.5,0.13764012931144107,0.1420459469053393,0.26650023389329414,-0.00023045049812874712,-0.007713841615503974,-0.03090522664164406,-0.18564033273301014,0.4087123340080096,0.8935837187528597,-1.4331527024211177,-1.7597910231063618,4.16600457159819,-3.101529820345924,-1.342928376919389,1.9105923903321198,1.0,0.47412900672844,0.4847061240353447,0.3896700393992813,-0.7015320159975031,0.11545290521937593,-0.4035859681553472,0.5758835155784509
0.6000000000000001,0.1559845189850168,0.04875471340477472,0.5024026324448763,-0.004009602744612352,-0.008416796490876177,-0.02422789708595642,-0.185779475252834,0.4091150061442399,0.8933704689070755,-1.428968519664187,-1.76317785165807,4.1653807042368935,-3.102116713616123,-1.3434915848708526,1.9105436681040815,1.0,0.475177060357983,0.4857306322652381,0.3897562335125374,-0.7014894422383593,0.11543411100112509,-0.40359190824988506,0.5759349790043247
0.7000000000000001,0.04057393827866565,-0.16050629250293103,0.3212119104858044,0.004116352996971889,-0.006310976509109731,-0.023873084192174977,-0.18567446125235068,0.4088991311048252,0.8934908888156824,-1.4248405238560269,-1.766556053473671,4.16479328427996,-3.1027875658158517,-1.3440449165109898,1.9105210958208356,1.0,0.4758660713293757,0.4864622334616933,0.38970023853661,-0.7015045354507168,0.11542879327482235,-0.4035845416676031,0.5759228230866902
0.8,0.30279330699692997,-0.10063628009711104,0.2618538839659434,-0.005966894449414156,-0.011591563675364576,-0.01981440702751123,-0.18539657535021872,0.4082453016483889,0.8938475593265329,-1.421012712598518,-1.7699177931936172,4.164182103194618,-3.103434225121969,-1.3446803486689638,1.9105447824408368,1.0,0.4770282365826126,0.48769319880391027,0.3896477831702383,-0.7015080986933551,0.11543419772266696,-0.40360214319554666,0.5759050646345449
0.9,-0.1592448388591654,0.4752539966917112,0.3342618295331013,0.00018016591655004325,-0.009954562922904267,-0.017293207276624426,-0.18541881489091194,0.4083172200589986,0.8938100013517247,-1.4173355349699475,-1.7731719384225346,4.163522284266021,-3.104081346269936,-1.3453638330695188,1.9104962348937988,1.0,0.4780359437186063,0.48876686578540296,0.38963816374191784,-0.7014977254996457,0.11543185731566531,-0.40360247465425814,0.5759179367656808
1.0,0.2059969699623767,-0.06384143981280353,0.331288641078846,0.009770858377697807,-0.011541776389322876,-0.019342755427343483,-0.18566144860200276,0.4089220842857637,0.8934829455615165,-1.4133879309053183,-1.776130382529256,4.162886193855051,-3.1047275462610764,-1.3460963408099573,1.9105087239533731,1.0,0.4786651482094701,0.489431938396325,0.3896834581034806,-0.701466812595515,0.11541575197697626,-0.4036014909051304,0.575959505140625
1.1,-0.12246924723516417,0.1105859152289424,0.13207214367793618,0.0008353696541775098,-0.004724274833535753,-0.012734148074100619,-0.1858814853582728,0.4094638798617174,0.8931894482858231,-1.4098173115566281,-1.7793840255839792,4.162288193298656,-3.1053744209645715,-1.34663564145372,1.910461167160596,1.0,0.4798338302447275,0.4906207260324147,0.38955569100529586,-0.7015355478411374,0.11539090227256568,-0.40355747591263247,0.57591160643191
1.2000000000000002,-0.0638120648828568,0.1064555044040367,0.12471629073339342,0.002392137745176351,-0.003968044220421933,-0.014803375154630894,-0.18579057283037814,0.40913780841848324,0.8933577387221817,-1.4063520519245272,-1.781910081902975,4.161640644073486,-3.1059614549149632,-1.347091971490234,1.910508632659912,1.0,0.4809440558054,0.491693925320569,0.38949798739000874,-0.7015661925939126,0.11541531792969466,-0.40355274534729046,0.5758726973204527
1.3,-0.02828086525076767,0.09575441317856913,0.16029024650301482,0.0008741979826312513,-0.006768622320223324,-0.013034673446465046,-0.18584385973925324,0.4090827126255156,0.8933719042845559,-1.4029948537785308,-1.7849839043832734,4.161114327513989,-3.1065242577969125,-1.3475357958747822,1.9104486721464005,1.0,0.4815036376867667,0.492173645660589,0.3895872842621475,-0.7014990841491312,0.11547059821099216,-0.40361060795075454,0.57590281561766
1.4000000000000001,0.047853157129263864,0.04254930236048884,0.21980191508209948,0.006199791736035036,-0.006629840985222309,-0.006576660986830883,-0.18598909682345333,0.4092052362418679,0.893285565817517,-1.3995990651176575,-1.7872792893157763,4.160694593847754,-3.1071478480056487,-1.3480637811244287,1.9104723930358887,1.0,0.48220434337842116,0.4928481635861037,0.38955821660518963,-0.7014988124073638,0.11549365719817478,-0.40363499699742017,0.5758814292343011
1.5,-0.017518250597923515,0.1375136634727423,0.11880686850510361,0.008758741737609927,-0.007826993903915024,-0.008042058622850502,-0.18567797577124023,0.40857814859526603,0.8936372756113282,-1.3965260822193537,-1.7901901014982062,4.160166329082449,-3.1077705192558542,-1.3486279965081418,1.9104847580509388,1.0,0.48301374741088804,0.4936833711147982,0.3895424441014466,-0.7014994196704526,0.11548845204503413,-0.40363245614852916,0.5758835142541989
1.6,0.22914970590415543,-0.13152152872962997,0.17690476672793826,0.007098765432119341,-0.007690790373681023,-0.008948295742444656,-0.18544302149949154,0.40833120257779726,0.8937989021622494,-1.3932695216327726,-1.7925410990194117,4.1597113609313965,-3.10833277324819,-1.3491214377509622,1.9104615565361949,1.0,0.4837622435019877,0.49447596071826966,0.3896509582857998,-0.7014398891484136,0.11546840075808691,-0.4036271828523751,0.5759637380951047
1.7000000000000002,0.25708132933029537,0.25753233785456864,0.47550617237082365,0.0014366596618149464,-0.015378761486200328,-0.010944103364876688,-0.185722401407898,0.40897184680753784,0.8934474167355997,-1.3903464233806047,-1.795210148218452,4.159280174578801,-3.108883876270784,-1.3496227821381588,1.9104485511779785,1.0,0.48460844256325997,0.49538493053041,0.38957747324476905,-0.7014847121134284,0.11544762643987548,-0.4035928084445632,0.5759374004111641
1.8,0.20774498171895606,0.17372778169859232,0.3314144518232506,0.008512640277891826,-0.007141988806505392,-0.017557401649439443,-0.18600178131630443,0.40961249103727837,0.8930959313089499,-1.3874198514161504,-1.797505875850756,4.1589084566906775,-3.109352249914353,-1.3500307548322397,1.9104484922742317,1.0,0.4851264529026767,0.4959250965685137,0.38951188313446794,-0.7015186305424715,0.11542645730250764,-0.4035795364536912,0.5759096298137684
1.9000000000000001,-0.17176776193814014,0.14584239611245853,0.24261058375570252,0.009553897843258864,-0.007000050081249784,-0.009721748088422801,-0.1861228683377052,0.409898216556296,0.8929399345908995,-1.3845516990646431,-1.7998222951209233,4.158479011788945,-3.1099246071265125,-1.3504150720060328,1.9104481418764638,1.0,0.48603500469614963,0.49691794661759575,0.38954726140932683,-0.7014760575091264,0.11541732339983861,-0.4035950504217557,0.5759524437622695
2.0,0.15401462983184064,0.023567168846006695,0.20866873241607764,0.004481149500971364,-0.010717298116667748,-0.009406200363987868,-0.1860943616565086,0.40984852836808744,0.8929686832539492,-1.3818389593717146,-1.802035145953549,4.1580094678025885,-3.110464937693478,-1.3507980423162549,1.9104721450607085,1.0,0.4866172334502773,0.4975220446922387,0.38951035273667706,-0.7014856548031193,0.11541313089028814,-0.40359145115351003,0.5759441169760693
2.1,-0.028881624630531278,0.17175833913912827,0.2482337874287629,0.00283897000482404,-0.009731054342307376,-0.0035990605894716575,-0.18603848399100023,0.4096775071177154,0.8930587690723795,-1.379170321285746,-1.8044025226047071,4.157625659552783,-3.1109568081297816,-1.3511708574961871,1.9104247262727532,1.0,0.48730622955747366,0.4982214229833174,0.38949702107721906,-0.701486632031291,0.11542088440901715,-0.4036028360756986,0.5759333947908293
2.2,0.0400276655268581,0.055967680018162325,0.23889628955327963,0.0037614837085014276,-0.010825066649951268,-0.005849940574380336,-0.18595572664019758,0.40938733068864774,0.8932090910669991,-1.376482872631574,-1.806276843352746,4.157267184588885,-3.1114601592780717,-1.3515678545207974,1.910424997266454,1.0,0.48794261287165686,0.4988470267879064,0.3894338153763434,-0.7015143086292824,0.11543577478395896,-0.4035987199861334,0.575899583186133
2.3000000000000003,-0.037706640420965276,-0.021643944488441147,0.24878556419500306,0.003025924422583429,-0.005816480846703321,-0.008020285145881005,-0.18595689926039696,0.40947626832368555,0.8931680760655553,-1.37397332267227,-1.8085243818733345,4.156906039094426,-3.1119864935552903,-1.3519860976267015,1.9104485511779785,1.0,0.48850315157630236,0.4994280368684108,0.38946687573723315,-0.7014942751719586,0.11543331214514405,-0.4035941081781308,0.5759277109082955
2.4000000000000004,0.06251185714571492,0.11222078336217342,0.26146482993474046,0.007132732520917087,-0.007881579062412566,-0.005671056164861077,-0.18601097033582792,0.40956025521635364,0.8931183043510753,-1.3715260377654623,-1.8105278705851375,4.156476045467523,-3.112442134982097,-1.3523565783144538,1.910446461629259,1.0,0.4889786867945181,0.4999011147283305,0.3894028627495858,-0.701528646414036,0.11542892654974549,-0.40358477818533633,0.5758932609374384
2.5,0.08918926480942381,-0.012173150614500236,0.3388714751363673,0.0044711492362748415,-0.013163779029070894,-0.007694003341095787,-0.18612226720524042,0.40963681185935547,0.8930600108452927,-1.3690188152970235,-1.8121272787662257,4.1561150550842285,-3.112878993358431,-1.3527490131127897,1.9104128934755986,1.0,0.48967339870567517,0.5005591338595754,0.3893453500219138,-0.7015495003957165,0.11543227310873488,-0.4035991332479131,0.5758571250414503
2.6,0.3302679380150517,-0.07995401942743777,0.3737132521699007,0.001805373455222468,-0.013026486324699528,-0.008700564988831885,-0.18621262873658787,0.40988033886010644,0.8929293792205959,-1.3668154694030175,-1.814244139265761,4.155816262160311,-3.113363514144774,-1.3530902953835986,1.9104014306600083,1.0,0.4902581071500061,0.5011352860699136,0.38955017980500706,-0.7014353729402407,0.11543665209390364,-0.40364114031983134,0.5759658208460313
2.7,0.12108159543834976,0.2356494779842912,-0.08192787228661597,0.022150034113455622,-0.011898781789939701,0.0011592084477960209,-0.18630228069237192,0.4101295251000493,0.8927962957911408,-1.3644335115494854,-1.8160439372919708,4.155479907989502,-3.1138192058466583,-1.3533661443801055,1.9104245398588657,1.0,0.49066417241608,0.5015774873539844,0.3894566006821932,-0.7014841118108077,0.11542670584519985,-0.4036105989183979,0.5759298576176273
2.8000000000000003,0.09831821720134201,-0.2638791859643601,-0.38628409348181725,0.026911090325030987,-0.009313724101773072,0.0188124964654246,-0.18637389494505513,0.4102387487970051,0.8927311580541865,-1.3624753952026367,-1.817309256537035,4.155185990721869,-3.1142671409549663,-1.3535870540460826,1.9104046532170689,1.0,0.4912663174620939,0.5021786852338729,0.3893266785633839,-0.7015476089411518,0.11543001851487676,-0.40359524359432075,0.575862607366244
2.9000000000000004,-0.1000512475427308,0.059296883261484384,0.2702454986671643,0.011273335718723975,0.00038875442300396047,0.006525936245146288,-0.18644473955131124,0.41034200046578573,0.8926689194756879,-1.3604897212172584,-1.8191587374266276,4.154881163753826,-3.1146941337171574,-1.3539302560409694,1.910388512137152,1.0,0.4917808970328065,0.5026747882905611,0.38952586294474184,-0.7014463564902865,0.11544223135386027,-0.40364250213775793,0.5759503716940494
3.0,0.2958295538508458,0.044042693485876847,0.3084612400077289,0.001840634669344061,-0.0018422928392892112,-0.003125377283745343,-0.1864313043300094,0.4102666512532901,0.8927063563463448,-1.3581837944874378,-1.8209971989092124,4.154606342315674,-3.1151253161992445,-1.3541824269613179,1.9103536004349548,1.0,0.49223961034954633,0.5031625594055742,0.38945107055905404,-0.7014873912846815,0.11544082715108649,-0.4036254329194612,0.5759126367738969
3.1,0.21595004597781514,-0.0773895004595247,0.26387570481838424,-0.002759821862177791,-0.008734527957161772,-0.003420911925154203,-0.18640926037911631,0.41019953315521973,0.8927418038221078,-1.356380457081094,-1.8224492046644731,4.154342035395268,-3.1155200701664048,-1.354433838521139,1.910412311553955,1.0,0.4927064600915962,0.5036619681732265,0.3893975840838605,-0.701502131187597,0.1154513370644595,-0.4036229033599342,0.5758943484638352
3.2,0.11198532526102778,0.10558555878217293,0.24268530842526947,0.004644289240878721,-0.0080139115492012,-0.00408836358078673,-0.186382019650632,0.41015504372155803,0.8927679318104776,-1.3544645309448242,-1.8239501706503938,4.154055118560791,-3.1158904581700297,-1.3546973718688593,1.9104350980327551,1.0,0.4930454432139362,0.5040012839986779,0.3893768054390797,-0.7015087161590492,0.11546217334929723,-0.4036136698933085,0.575890626033794
3.3000000000000003,0.10933787184256236,-0.20033973195947466,0.26716163610619814,-0.002359121609658157,-0.008198812025288993,-0.002147161926680385,-0.18623007108932113,0.4098636882327553,0.8929332041108682,-1.3523147690152177,-1.8255866178886144,4.1538271781189495,-3.1162865807385542,-1.3550097206343832,1.9104247093200684,1.0,0.49358136113559614,0.5045368332595522,0.3893894622123597,-0.7014962765928643,0.11547442866313629,-0.40360825464284716,0.5759071166737082
3.4000000000000004,0.10451543392291834,-0.2441692726747026,0.3360430803969868,-0.006370378737153223,-0.012156165292791548,-0.0017967485963771954,-0.1859132554911268,0.40924596932237967,0.8932824288535559,-1.3507023569363266,-1.8270035278943773,4.153574485209451,-3.116598340429905,-1.3552501659435514,1.9104370529971906,1.0,0.49402617341961175,0.505017732880993,0.38942217787548,-0.7014617331358955,0.11546757757432621,-0.40362273722268294,0.5759404148624854
3.5,0.1585164408945705,-0.26164341179941,0.3449437527041471,-0.006107923952633,-0.01351083629164234,-0.002367989816843503,-0.1858429969873125,0.4091393941225563,0.8933460083710141,-1.3489541059863577,-1.828361751187154,4.153370384349873,-3.1170299029090587,-1.3555019044022476,1.910400966168691,1.0,0.494374306665255,0.5053847478112009,0.38935606532088424,-0.7015024214569427,0.11545122093148125,-0.40360288799201083,0.5759080456808922
3.6,0.1065880486430924,0.04426971438499595,0.34181594699406526,0.006566470061390904,-0.009891087059350264,-0.004874186885009674,-0.18611195772843106,0.40973606286702796,0.8930165902427759,-1.3470927276214204,-1.829719519669868,4.153154818697972,-3.117389209638888,-1.3557417363163107,1.910412246328681,1.0,0.4947786805479305,0.5058156679003203,0.38934056661561217,-0.7015142627637525,0.11542590367781207,-0.403596614755927,0.5759030929390337
3.7,-0.049676876786837666,0.17731484468662223,0.3181890928864351,0.009185907403726542,-0.006437204425392292,-0.00461158289616439,-0.18622010132026484,0.40998394510612945,0.8928802492034154,-1.3455077526888644,-1.8310174421276184,4.152915412290822,-3.1177477970487106,-1.3559815889925664,1.9103533096345375,1.0,0.49508885202462893,0.5061383762413846,0.38939445745075263,-0.7014829386979012,0.11542052858897911,-0.4036088989452985,0.5759337157938932
3.8000000000000003,0.1628762200437819,-0.0352338382893497,0.36605057951860936,5.670221434899911e-05,-0.010924050820346348,-0.006384382556273169,-0.18631262658226358,0.4101979537023569,0.8927626595327433,-1.3438867566717574,-1.8322683525474408,4.1526751826794515,-3.1180836162962855,-1.3562205782074264,1.9103774685577597,1.0,0.49554098626286436,0.5066131961924111,0.3893651079942681,-0.7014968564055075,0.11542401200601804,-0.403594767440111,0.5759259688541474
3.9000000000000004,0.24000903805609025,0.13763273773839188,0.23130492149874687,0.005449523587462472,-0.013731429636514251,-0.004519953319618996,-0.18634473683559286,0.4102787035777871,0.8927188867980507,-1.3422860872679028,-1.8336134913969135,4.152496769414956,-3.1184432159972095,-1.3564131459948139,1.910377025604248,1.0,0.4959163188287582,0.506996959860337,0.3893327046583268,-0.7015115044584863,0.11541630420428899,-0.4035934667076383,0.5759105828747415
4.0,0.17833012268305812,0.0032594515685160277,0.38018930223439307,0.0006111508284959118,-0.014433385741671363,-0.005760735182148487,-0.18628767472643135,0.41016276400108115,0.8927840676283426,-1.3406901976889314,-1.8349693661005408,4.152220249176025,-3.1188019041538335,-1.3566409830838915,1.91037641412452,1.0,0.49630057047936726,0.5073904654201563,0.3893182533440546,-0.7015174584368096,0.11541857975030329,-0.4035873228772073,0.5759071798211853
4.1000000000000005,-0.036647830935993664,-0.004322716939270799,0.36196419223829474,-0.0022920353035534614,-0.006810687937510689,-0.005646162222976798,-0.18615642643966446,0.4099122071712986,0.8929264351083543,-1.339075807104527,-1.836051489893114,4.152065621562429,-3.1191494702638978,-1.3568810890800753,1.9103879969305513,1.0,0.49664557602427994,0.5077371279430115,0.3892433740854559,-0.7015568076833592,0.11542100720147151,-0.4035679822558852,0.5758723125725402
4.2,0.19214607356432106,-0.06012823298516805,0.0819479333971962,7.038016498412775e-05,-0.01014218820144877,-0.004799654498221953,-0.1859104111647751,0.4094533956883772,0.8931882113461366,-1.337502278229456,-1.837228001153352,4.151812263512101,-3.119425539009632,-1.357049649840609,1.910353183746338,1.0,0.49690513508273193,0.5080183555430823,0.38928356550286203,-0.7015322262143258,0.11541619986888071,-0.40356852675745625,0.5759028395497061
4.3,0.1656312415667124,0.030532505327342307,0.29362786566994575,0.005741828750863542,-0.010595250519021002,-0.0036854871856408225,-0.18578334974729907,0.409131557618219,0.8933620683545839,-1.335976740442461,-1.8385362727130328,4.151596546173096,-3.119749267667341,-1.3572419325457972,1.9104008674621582,1.0,0.49730167871535946,0.5084203862004729,0.38939325585957835,-0.7014653893898175,0.11542126350798758,-0.4035940394015658,0.5759653555361975
4.4,0.10232608729717207,-0.18906263968449294,0.19731898432154757,0.0009242347925644072,-0.010195169954753367,-0.0031340828846948615,-0.1856719100993451,0.4088277077590476,0.893524379256271,-1.3344006105105044,-1.840010232603229,4.151380682853699,-3.1200973863282115,-1.3574449645905287,1.9103649885056804,1.0,0.4976672126703659,0.5087482745066956,0.3893440035262063,-0.7014839306808999,0.1154363761632964,-0.40360939687442904,0.5759289824356992
4.5,0.13093492560792203,0.26188084257620736,0.18233460557734124,0.008910527178561745,-0.005847305985047162,-0.0058595692230212675,-0.18572880717229315,0.4089148305338748,0.8934726845912643,-1.332634217780933,-1.8410650682343124,4.151142599206222,-3.1204792451752303,-1.357661549245016,1.9103772504706131,1.0,0.4979808359192887,0.5090774167395662,0.38924584352949637,-0.7015312985994858,0.11543636611619243,-0.4035974382783186,0.5758796664915217
4.6000000000000005,0.06638334611318632,-0.1097518905960713,0.2595954799597378,0.0007215834324288066,-0.007949835851654385,-0.0072756296781669085,-0.18580972855217112,0.4090577512742917,0.8933904479542419,-1.331238522128284,-1.8421925549910114,4.150985708161901,-3.120814705668908,-1.3578539482325824,1.910400156498681,1.0,0.49844163243937,0.5095563733620825,0.3893045884985763,-0.7014981717881592,0.11543896206456347,-0.40361331903975595,0.5759083691951689
4.7,0.1823276947869656,0.11605854880605705,0.3083375974054054,0.005534432442261922,-0.00849509236679322,-0.009245588355713957,-0.18598551850289444,0.4094147757288305,0.8931902358414958,-1.3297149084673987,-1.8433431819410795,4.150724626249737,-3.1211966708631986,-1.3580574219703967,1.9103757748338912,1.0,0.4987197180882309,0.5098167493271254,0.3893908325958302,-0.7014576621122088,0.11544643373233787,-0.4036312208066456,0.5759436663361239
4.800000000000001,-0.05337458168862325,-0.2627170512123031,0.36985542272121513,-0.002898280443167268,-0.013951662601199137,-0.0071153760508120825,-0.18593518133106046,0.4093276523058419,0.8932403969008987,-1.3279580907015858,-1.8448446669500531,4.150578022003174,-3.121580748161069,-1.3582738081561487,1.9104005439921232,1.0,0.49895941851408415,0.5100577869985793,0.3893819651771571,-0.7014643747300312,0.11545160901149101,-0.4036241772640474,0.5759393895968438
4.9,0.14118089422996014,0.14168434937087462,0.29200452341521727,0.004400515681137788,-0.01052468195420035,-0.0038155417227909816,-0.18545667036779145,0.4083919644573157,0.8937681664567023,-1.3263490006017749,-1.846139963255169,4.1503741796034745,-3.1218934162797902,-1.358489467462195,1.9103879547646476,1.0,0.49937458606100854,0.5105110740510326,0.38931287349759064,-0.7014949179969117,0.11545094014962144,-0.40360010431656185,0.5759191924556216
5.0,0.3236268028488424,-0.2715205962423028,0.32719128035526773,-0.0033617062361341664,-0.014430207391447682,0.0017263593729883976,-0.18627129956959135,0.41005411991273977,0.8928368440564421,-1.3250138447960376,-1.8471689464832934,4.1501225362289365,-3.122217553377831,-1.358693068558247,1.9103646278381348,1.0,0.49981668913076865,0.5109948187495119,0.38921300376727125,-0.7015378396422861,0.11544003423621901,-0.40357979292083157,0.5758833291488418
5.1000000000000005,0.1585733510694312,-0.12921426963279722,0.19682758283902538,0.003074373253944794,-0.010491839738319547,-0.006286149851134658,-0.1862341055329304,0.40995384820744135,0.8928910615592605,-1.323267407522084,-1.8482612469052557,4.149918946826035,-3.1225761206436955,-1.358933498742249,1.9103411176129257,1.0,0.5000909832673278,0.5112473569887793,0.3892210417305723,-0.7015400528989171,0.11543633107480358,-0.4035888248283611,0.5758750455786704
5.2,0.14781190446466233,-0.04619679094991919,0.23547322938291063,0.005388409440771409,-0.010493808728456816,-0.00458569409075893,-0.18595720518132144,0.4093865404105864,0.8932090123252545,-1.3215268402071976,-1.8496172578052084,4.149691261290123,-3.122934957543844,-1.3590901783210376,1.9103879874589924,1.0,0.500419546366293,0.5115556368575386,0.3893384636485179,-0.7014822180403149,0.11543243702946221,-0.4036183456744328,0.5759255865905883
5.300000000000001,0.15975241766629042,0.01939815380468725,0.3673515748258646,0.010760711162466947,-0.010443122754940661,-0.009920376749273159,-0.18562926223061793,0.40876755243471047,0.8935606915444549,-1.3200737976583825,-1.8509129456038074,4.149452402547299,-3.123294040118021,-1.3593297609988269,1.910352712997505,1.0,0.5007075394280525,0.5118617878305319,0.3894019958454704,-0.7014368296905655,0.11543161106095184,-0.4036330150059913,0.5759707512701451
5.4,0.1299278518506185,-0.07499351682745604,0.4028933347767138,-0.002342268806975881,-0.017519152275838428,-0.0040306509623427925,-0.18612093606226826,0.40977904740201304,0.8929947604419588,-1.3186283117265072,-1.8522921787800517,4.14930770618106,-3.1236778413722965,-1.3595336332761423,1.9103407933808718,1.0,0.5012057022780704,0.5123795997364698,0.3892761792243236,-0.7014887938855416,0.11543604679435908,-0.4035983761344673,0.5759308482232219
5.5,0.11628147387485743,-0.11855610894354679,0.29588027301201375,0.004386694701484327,-0.010744372840224403,-0.00442072497210427,-0.18588658451489293,0.4092784163706394,0.8932729338525257,-1.3168383376372745,-1.8533708759030396,4.149056262677283,-3.124001950198669,-1.359785229506106,1.910377025604248,1.0,0.5015538067925708,0.5127263141840028,0.38913898551807635,-0.7015721574357445,0.11542577365584099,-0.4035669554698986,0.5758533764246434
5.6000000000000005,0.12807191693008016,0.10898973531131961,0.35302844000315214,0.009437755547532576,-0.008251016123410887,0.0010911749968560156,-0.18576116817597757,0.4090090367185742,0.8934222290001744,-1.315251350402832,-1.8544985299386805,4.148864483236693,-3.124396940270895,-1.3599894725309656,1.9103644138580338,1.0,0.5017973999202857,0.5129674167773028,0.38921090505487554,-0.7015323352030574,0.11542965704105315,-0.4035856843613739,0.5758879859126182
5.7,0.05740852257048557,0.13065896128150764,0.30593049927096577,0.005400315933623272,-0.011825221977009312,0.006307920693474185,-0.18644910251292082,0.4104333832009844,0.8926255065909333,-1.3136894030419652,-1.8559137355522737,4.148683983730133,-3.1247917186455356,-1.3601811567889612,1.9103047209489958,1.0,0.5021723782070152,0.513344522295079,0.38935245727764134,-0.7014545640193687,0.11543686373876252,-0.4036203915347055,0.5759569468666272
5.800000000000001,0.09521467403927605,-0.04804919002333011,0.3140219020874666,-0.0017527324574446112,-0.012573423256652965,-0.0016578621808070748,-0.18600078586026667,0.4095199180941717,0.8931385578468718,-1.312018296474027,-1.8571731015103556,4.148468584873303,-3.1251398525633753,-1.3603737010046875,1.910353183746338,1.0,0.5026029552781086,0.5138142887172454,0.3892009914912239,-0.7015393972142518,0.11541768306414252,-0.40358498121252145,0.5758822757578653
5.9,-0.14699438396195405,0.038764247467275074,0.25877671828394866,0.010171126036447622,-0.0008954170261577169,-0.00548218166357515,-0.18578239630040164,0.4090889042647723,0.893381862050725,-1.3103353303958467,-1.8583584824672255,4.148324002633407,-3.125570584327297,-1.3605648461877677,1.9103171020553196,1.0,0.502853733452918,0.5140842936329825,0.38923095502585436,-0.7015211647296969,0.11541557875013134,-0.403590997364889,0.5759006914947019
6.0,-0.029756110026273028,0.08220392930909148,0.17851676547297782,0.005015844951569695,-0.0055200744424968445,-0.005155387006765278,-0.1857204393121024,0.4089824518240299,0.8934434870693044,-1.3087728643673264,-1.8595835171141566,4.1480488777160645,-3.125930448571676,-1.3607333342181605,1.910353366633434,1.0,0.5032265057932716,0.514461994348599,0.3892654114600325,-0.7015036512181277,0.11544180767512119,-0.40358735509042354,0.5759193200262103
6.1000000000000005,-0.03963970662213437,0.10882927045519859,0.28924785446269563,0.002065826341860255,-0.00345969296164407,-0.0057768331904768195,-0.18547525145219634,0.408426134932771,0.8937484767972494,-1.3070786553158065,-1.860818087050508,4.147859313264148,-3.12627630482831,-1.3609250781473445,1.9103296694086496,1.0,0.5036528315936171,0.5148751144285703,0.38926553266231334,-0.7014964405533693,0.11544494599135553,-0.40360090430608836,0.575917978864451
6.2,0.10389507443629493,0.019327698362911178,0.368344934351726,0.005098120280687427,-0.015682269779083418,-0.009916699418837435,-0.18517361350240383,0.40773122300866815,0.8941284427538092,-1.3055144861934307,-1.8620652402625677,4.147700641820282,-3.1266246510888727,-1.3611058193192704,1.9103881048749023,1.0,0.5040049437777991,0.5152230026111787,0.38927158657181704,-0.7014891823709373,0.11545522334579801,-0.4036179354786886,0.5759128237664508
6.300000000000001,0.050944175791717845,0.08739814751519134,0.19741847192101297,0.0033142195566116515,-0.008506025636225724,-0.0006594786934104031,-0.18531003010843242,0.40802225030753997,0.8939672819438779,-1.3039889416132064,-1.8633365492641212,4.147461414337158,-3.1270203324328887,-1.361309830342428,1.9103283882141113,1.0,0.5043109268983498,0.5155480592144454,0.3892807638500803,-0.701479174588454,0.11544769959874845,-0.4036172436169529,0.5759270065998916
6.4,0.1579572980982285,-0.059633702733406554,0.05755045918336801,-0.007749336871269929,-0.007495718389789068,-0.004072005516490481,-0.1855885982461592,0.40863322125006246,0.893630522004392,-1.3021605145976918,-1.8646430650500225,4.1472585332439325,-3.127402289587254,-1.3615244715919277,1.9103754080849134,1.0,0.5045740648199328,0.5158284307533069,0.3892533940106961,-0.7014885908194699,0.11544883491312184,-0.4036053065916778,0.5759236754626039
6.5,-0.07997866300696616,0.2049931316620262,-0.12416289824733168,-0.018810246709122284,-0.007808233230048099,-0.006993379712920437,-0.18570421770359727,0.4088261940329366,0.8935183727490555,-1.3006119957136795,-1.8659631422763396,4.147101750019856,-3.127774810972181,-1.361739373167119,1.9103510598428384,1.0,0.5050027235252134,0.5162751059756083,0.38921411208660645,-0.7015032074849655,0.11544924294275596,-0.40360551938462064,0.5759056406344016
6.6000000000000005,-0.025223844533652937,0.6330723928067512,0.051612426708779344,-0.013687774129848205,-0.009179881186896804,-0.0025334232214154124,-0.18574167138387038,0.40886454499299424,0.8934930411781727,-1.299156511748684,-1.8671259723463702,4.146886025940525,-3.128135680169327,-1.3619209815259266,1.9103172669061548,1.0,0.50540571526145,0.5166672042766803,0.38918090900413166,-0.7015149803647853,0.11544750637059387,-0.4036154443834252,0.5758846921491978
6.7,0.20513716207866095,0.37795349445319726,-0.09308182957159553,-0.021843360353810137,-0.010603779476573469,-0.003972489668135723,-0.18570532359379752,0.4088654334209144,0.8935001891343094,-1.2973756745841378,-1.868275947744474,4.146695261107817,-3.1285786382908913,-1.3621587790766507,1.9103172445828394,1.0,0.5057241168685597,0.5169715656612944,0.3891417103408874,-0.7015514593535783,0.11545101455957574,-0.4035985717673327,0.5758513749079693
6.800000000000001,-0.058724607700664615,0.3929484791712928,0.01390768072916334,-0.019019589800216032,-0.0072816338740806985,-0.004573058404600276,-0.18566897580372466,0.40886632184883454,0.893507337090446,-1.295621723085762,-1.8695594139958864,4.14648988404434,-3.1290115705914636,-1.3623371947642782,1.9103407859802246,1.0,0.5060402322373393,0.5173477800595023,0.3892427593227699,-0.7015070195155763,0.11542878480396966,-0.4035998787848525,0.5759090510262053
6.9,-0.024176638488948465,0.4461438695179776,-0.05607386987153036,-0.022957550092912175,-0.009478434328387093,0.0010026011187301252,-0.1857041344799491,0.4089344247862069,0.8934688587522303,-1.2941451125593315,-1.8710490626015182,4.146311034084706,-3.129403021802945,-1.3625550972077303,1.9103169441223145,1.0,0.5063137644806437,0.5176572435278428,0.38928684395284074,-0.701481815530711,0.1154261807326478,-0.40360008574986617,0.575940127152044
7.0,0.5435161947118821,-0.19046037315556008,1.3806254578789783,-0.01526112562481674,0.00919859159000486,-0.010768728663470327,-0.18579700448325687,0.40909885122156586,0.8933742350513111,-1.2927714137834565,-1.8720818455882753,4.146120225991496,-3.129591114339134,-1.3627692736017492,1.9102819439475007,1.0,0.5067559078769133,0.518101379868814,0.38912553678293954,-0.7015623101138135,0.1154299460201397,-0.40357105887570605,0.5758616613627777
7.1000000000000005,0.2148216189118458,-0.2594416582567882,0.06953912992323297,-0.03420640283919265,-0.014229111341266792,-0.005197203256639207,-0.18600760728640223,0.40953696979918136,0.8931296277787139,-1.2927560806274414,-1.8719890555140952,4.146107642885728,-3.1296777448254782,-1.3627344768790128,1.9103404520351925,1.0,0.5070494714847934,0.518385620841187,0.38906154161770795,-0.7015876410081514,0.1154288726668506,-0.4035568870055614,0.575840947041679
7.2,0.35715553448507803,0.18863270363352047,-0.009080139375069775,-0.03791488360582153,-0.010618457666882665,-0.0012048602982272865,-0.18595410637853807,0.4094379395849384,0.8931861076815792,-1.292708347475158,-1.8719774685301722,4.146120497823099,-3.1296541193765477,-1.3627579724327752,1.9103169816940264,1.0,0.5071098346611315,0.5184173202416053,0.3891306857995613,-0.7015465737742707,0.11544479758554957,-0.403576744539424,0.5758738705680038
7.300000000000001,0.2414454008490149,0.30034090793429646,0.01282264128070481,-0.03086253022258325,-0.013566352877928142,0.0036056943640120163,-0.1857854177482501,0.40910463418501036,0.8933739054892934,-1.2926377976148347,-1.8719893405352481,4.146059587456338,-3.1296541188639635,-1.3627460394009963,1.9103045463562012,1.0,0.5071097725823892,0.5184277602594461,0.38916193764115214,-0.7015259659037465,0.1154433554407847,-0.4035831347815077,0.5758947856747094
7.4,-0.031230873876522833,0.3436918039574543,-0.11675416644892257,-0.027436668422029204,-0.0044628881046615086,0.0004129178407638234,-0.1856570957334444,0.4088379472913939,0.8935227893313213,-1.2926378037225377,-1.8719774875388056,4.146071910858154,-3.1296779117979945,-1.3627579467746243,1.9102931205126923,1.0,0.5071085252756935,0.5184309600733401,0.38919203544831843,-0.7015082061450864,0.11543835860718954,-0.4035886148304415,0.5759135803681197
7.5,0.014777726838046984,0.40430172450462826,0.03778677195804653,-0.02646650653449935,-0.0030585197630192493,-0.003495476946447222,-0.18572659132159317,0.4089186605424195,0.8934713845107971,-1.2925889589212456,-1.872001104429704,4.146095546757686,-3.129701444718337,-1.362746166842125,1.9102936212795176,1.0,0.5071203376361988,0.5184144940392527,0.3891985735746241,-0.7015110175977368,0.11544079139888674,-0.40360268395837134,0.5758998084491658
7.6000000000000005,-0.0024704045192551483,0.2065755875618777,-0.08014815148385059,-0.029107705487984532,-0.000355726185272914,-0.0004855640484226903,-0.1859129773027693,0.40931847522571624,0.8932494885154892,-1.2926605325220417,-1.8720133254179536,4.146095662379185,-3.1296539758391684,-1.362721654830988,1.9103169441223145,1.0,0.5071200578940432,0.5184225489895482,0.3892037043080618,-0.7015075101731365,0.11544303467388592,-0.4036037430359897,0.5759028889694076
7.7,0.2351590163122032,0.2039539679186807,-0.13144071581315167,-0.029394526845766402,-0.00819262249982215,-0.0002355336900439605,-0.18582916340086433,0.40913992532410703,0.8933485135776184,-1.2926131026825396,-1.871989465711793,4.146108150482178,-3.1296662196270364,-1.362769676962849,1.9103046256589735,1.0,0.5071078843950451,0.5184374274905089,0.3892096556662584,-0.7014996887596905,0.11543452694438414,-0.4035988034787784,0.5759175830704268
7.800000000000001,0.11174683822172345,0.38329218522343583,-0.10559628769195534,-0.026609692666796348,-0.006705594085446579,-0.004877713883201087,-0.18558927831753053,0.40862730405639075,0.8936329070714747,-1.2926489548776308,-1.8720011036602053,4.146059728089033,-3.129666094232978,-1.3627107145318247,1.9103169441223145,1.0,0.5071074671469017,0.5184287854227142,0.38921070296943056,-0.7015018190047799,0.1154299139448213,-0.4036037365669697,0.5759124557854748
7.9,0.16577566676905464,0.4281040304653621,0.003230004452967509,-0.030190160693495546,-0.006884845056147374,-0.004074826253857985,-0.18538918246058744,0.4081991388339778,0.8938704069699596,-1.292660653051264,-1.8719775311807312,4.146095692571528,-3.1296425249144835,-1.362746251814613,1.9103282027684565,1.0,0.5071202798177881,0.518421654699842,0.3892120460889754,-0.7015020437802955,0.11544538972951914,-0.4036078085305573,0.5759062262690247
8.0,0.07930917777169501,0.38014274106037893,-0.001732416030391341,-0.0294285049856025,-0.005346341444762943,-0.007279459801755546,-0.18546751528988423,0.4083619623759078,0.8937797647220224,-1.2926244927986206,-1.8719655476012171,4.146095770569562,-3.129713605917562,-1.362769905720846,1.910328423921106,1.7468027700976405,0.5071146345515337,0.5184197500857434,0.38921303545798125,-0.7015084011405333,0.11543252765429447,-0.40361119961868197,0.5758986839982897
8.1,-0.09231693154343412,0.37045070090749993,0.02624093692636096,-0.0260202800836045,-0.003727729925041091,-0.009377811749118661,-0.1855269065187284,0.40848782781300735,0.8937099377789409,-1.292637724820386,-1.8719893894591273,4.146084394502972,-3.1296779117979945,-1.3627460638629358,1.9102811553614856,2.0,0.5071214942990061,0.5184192381545291,0.3892233923424444,-0.7014961179553413,0.11545429230666401,-0.4036070082465204,0.5759122205474084
8.200000000000001,-0.16197381959217647,0.3498606583709289,-0.18235627478604166,-0.026138745349588047,-0.012443663737002293,-0.010257643586641954,-0.18544225611156642,0.40833264488269,0.8937984010802822,-1.2925888303777322,-1.8719654628810498,4.146108150482178,-3.1296544088207536,-1.3627104705164053,1.91034061653989,2.0,0.5071223008778034,0.5184260508251093,0.38921328127543875,-0.7014943148246195,0.11544517235052049,-0.4036055932101005,0.575917236744325
8.3,-0.03199830679010521,0.3316265517645659,-0.15068368724387915,-0.030443598994241306,-0.011736428231601453,-0.006979200223874957,-0.18537103829684284,0.4081922715571519,0.8938773111605658,-1.2926607131958008,-1.8719652855903144,4.146095501185598,-3.12965459396189,-1.3627346669557865,1.9103278641923056,2.0,0.507110656177218,0.518426214154661,0.3892115234136261,-0.7014993020241419,0.11542851333196134,-0.40361198443179636,0.5759100221324877
8.4,0.14177904355914014,0.36402580646392646,-0.01665303987810381,-0.03571971360022089,-0.012121044322852994,-0.004003518636012934,-0.18540865118332542,0.4081783677248336,0.8938758594919518,-1.2926498475994368,-1.8719893894591273,4.146084308624268,-3.129667798667267,-1.362757984791891,1.9102831148959276,2.0,0.5071261587485033,0.518418334552815,0.38922592080767054,-0.7014879382715674,0.11544231853890191,-0.4036267301999274,0.5759107623738102
8.5,0.3126314681748318,0.24531360736564556,0.009836803178391688,-0.03919942807804736,-0.013673410713380862,-0.0017866482231300696,-0.18541215480761933,0.40820187401111746,0.8938643868988642,-1.2926246348405348,-1.8719661235610652,4.146108000732617,-3.1296661348590016,-1.3627693240013994,1.9103048343361253,2.0,0.5071264189400952,0.5184221712776674,0.38922538623378494,-0.7014870783107503,0.11544429785490107,-0.4036238462819103,0.5759134342663255
8.6,0.17145677097187814,0.566203141464441,-0.014872524354824751,-0.032089249043454955,-0.010431955150408137,-0.004270175595890151,-0.1855439753071389,0.40850080481554646,0.8937003923336294,-1.2926237434293557,-1.8719893894591273,4.146084308624268,-3.1296863008443054,-1.3627460638629358,1.910298047164116,2.0,0.5071161878687015,0.5184200079027367,0.38920186100429033,-0.7015076439050044,0.1154385447805067,-0.4036110309372964,0.5758985185147998
8.700000000000001,0.03475408842947759,1.1113376892773927,-0.032665603491628316,-0.05762262030849414,-0.012522258492455073,-0.0023619299048041427,-0.1856937797025756,0.4088343888663359,0.8935167392371482,-1.2926131060225812,-1.8719653849481908,4.146084385166868,-3.1296779117979945,-1.3627578253281396,1.9103049482048546,2.0,0.5071203524043487,0.5184170899948234,0.3892079381233974,-0.7015039576981035,0.1154448752313482,-0.40360379917457156,0.575906807919969
8.8,0.2579968225034111,1.928006146590771,-0.05103424265419425,-0.17096269775833173,-0.031843288966784566,0.007935096530756008,-0.18608696697033592,0.4096369484201765,0.8930670397943977,-1.2926730612702082,-1.8719679689832096,4.146094138461403,-3.129725232938549,-1.3627547562825677,1.9103292276265353,2.0,0.5071151677591628,0.5184237960488618,0.3892261913029326,-0.7014935860305558,0.11543521254445278,-0.40361295084285514,0.5759149645344626
8.9,-0.054082910453769506,2.8646328671630945,-0.016151549060601456,-0.25041381113621597,-0.03191867538031027,0.01651540661357106,-0.18611713285960949,0.4096878773439382,0.8930375194275674,-1.2926279221940151,-1.8719797373605918,4.146067373197315,-3.12971254016965,-1.3627217451678675,1.9103283882141113,2.0,0.5071123765800108,0.5184149279169449,0.38921042899977687,-0.701513240765663,0.11544486704378065,-0.4036028883718916,0.5758961401169199
9.0,0.05659553364698667,3.3625987119063603,0.09455686564157756,-0.32232662305927584,-0.0412520332034963,0.018659047750142432,-0.18587597438053174,0.4091738264691517,0.893323510640421,-1.2926131581558054,-1.8719656094645944,4.146059641767866,-3.129666238322549,-1.3627340785960682,1.9103285168899362,2.0,0.5071149042751399,0.5184110187097056,0.3891978911363295,-0.7015221242737979,0.11545093849610072,-0.40359757730252366,0.5758878237558777
9.1,0.20823495773238276,3.912348263043697,0.13426186811170568,-0.3747912995428642,-0.043473913478841456,0.021474820459487516,-0.18604774830006351,0.4094373029830055,0.8931669887843573,-1.2926591096945124,-1.8719996400742405,4.14609495096542,-3.129699248185142,-1.3627226137310653,1.91035231518314,2.0,0.5071282599649273,0.5184086107843546,0.3891818353923978,-0.7015250847102241,0.1154589420848264,-0.4036026474027324,0.5758790595467693
9.200000000000001,0.31874033751800923,4.401780654350561,0.2680335969780502,-0.4141560521720125,-0.041464379893055764,0.01993584225515355,-0.18617856584161951,0.40969559044728066,0.8930212859806783,-1.2926721572875977,-1.8720011923534097,4.146072090270857,-3.1296540699400843,-1.3627458868109268,1.9103045463562012,2.0,0.5071393183368411,0.5184107289045308,0.38917336822796483,-0.7015204566310962,0.11545711157483018,-0.4036149801409724,0.5758764208757792
9.3,0.32948981567302915,4.491731525560293,0.12432173415485609,-0.44743609592426475,-0.04104876648194881,0.02182224945540981,-0.18629478054831108,0.4099926555178419,0.8928606267196534,-1.2926249591845083,-1.8719781074942918,4.146072076988825,-3.1296779117979945,-1.3627220622639957,1.9103045463562012,2.0,0.507125978572857,0.5184201361335168,0.389182485426021,-0.7015176872835569,0.11543990505870431,-0.4036120929913443,0.5758852673402174
9.4,0.09290821574598576,4.779467708847525,0.219201489192547,-0.4519098487649486,-0.05855171108560205,0.018796157212505132,-0.18744941800698145,0.41235255691897194,0.8915313143114018,-1.2926720920186827,-1.8719895934244861,4.146071981566146,-3.1296661948343982,-1.3627218158758585,1.9103281162602996,2.0,0.5071361545374594,0.5184044608587445,0.3892013169277761,-0.7015020633902697,0.11546010583241724,-0.4036149026751283,0.5758982803923864
9.5,0.023109254955009872,4.441811575373411,-0.023481424682154806,-0.4690908462326076,-0.05318096809084938,0.020206317831740612,-0.18740941037835254,0.41230066977597535,0.8915637206145145,-1.2926385461579843,-1.8719784701215296,4.146071910858154,-3.1296659908690394,-1.3627348941274988,1.9103397843888672,2.0,0.5071454161280393,0.5184071470960159,0.3892030355960092,-0.7014943800029791,0.1154640783175974,-0.40361549366991,0.5759064287817064
9.600000000000001,0.30484494404565127,0.07409108284650756,-0.42244488265247687,-0.152246901120241,-0.05170215835649951,0.020151127836409783,-0.18762699723297643,0.412722347917471,0.8913226393412005,-1.292647792110347,-1.8719281775058028,4.146059696960998,-3.1296187839903773,-1.362781826649801,1.910316760253357,2.0,0.507137704280133,0.5184143520799954,0.3891842004698872,-0.7015135287307319,0.11545101044247087,-0.4036072126998379,0.5758915271578817
9.700000000000001,0.20768238509095951,3.1401399438027537,-0.5406864668975823,-0.34501063242453534,-0.042860168449338765,0.015087421327420622,-0.18782074425068337,0.41315791796409956,0.891080185665467,-1.2926142746022289,-1.8719399319038066,4.14607325974059,-3.1296757946304683,-1.3627269850573298,1.9102956962690887,2.0,0.5071254866184661,0.5184036367471465,0.3892106557605164,-0.7015000691785731,0.11544714693107389,-0.403606079404529,0.5759094910449363
9.8,0.1870516479316809,4.2608948063891,-0.33886509016109356,-0.40808740189773096,-0.04053913092507218,0.014798666054632412,-0.18772702897194865,0.4131245625781054,0.8911154011273069,-1.2926128185458847,-1.8719653872913045,4.14607185601529,-3.1296659381355156,-1.3627218000107324,1.910304651823249,2.0,0.5070970297642929,0.5184336847993428,0.38923858736404376,-0.7014811267093326,0.11542587197629453,-0.40359929159145475,0.575941584517035
9.9,0.14821414856053766,4.523089975367902,-0.8322286813011345,-0.46234970780369106,-0.05301891444146834,0.023666111690225484,-0.18800729537525562,0.41364550093087776,0.8908144702488441,-1.2926132663744225,-1.871953626672262,4.146071910858154,-3.1297135966590566,-1.3627697498692395,1.9103283134053402,2.0,0.5071030279325351,0.5184295387338875,0.3892392578849178,-0.7014823889372742,0.11543946372742361,-0.4036032180062067,0.575934571492469
10.0,0.38227004753201244,4.062002287926236,-1.8748805173280092,-0.49988417797532114,-0.05278762473122001,0.01637733095679391,-0.1881606298955079,0.4139333649724689,0.8906484976224258,-1.292637651638147,-1.87198888600753,4.146059853171928,-3.1297136745848597,-1.3627343096398077,1.9102932689702312,2.0,0.5071122885729215,0.5184149918648767,0.3892442444869307,-0.7014812733175351,0.11545876979543114,-0.4036017042568539,0.575933121102701
10.100000000000001,0.51344733954078,4.585517748489999,-1.8958593410792863,-0.5448813400182217,-0.05437746934073369,0.018731823190681784,-0.1881668305608486,0.4139534053918231,0.8906378734396259,-1.292647280572722,-1.8719655476012171,4.146049580284019,-3.129712183186398,-1.3627107783235783,1.9103269167009627,2.0,0.5071023520609506,0.5184091592599177,0.3892644074673692,-0.701478092229055,0.11545757387910133,-0.4035998965200821,0.575938502173293
10.200000000000001,0.4840866053932691,4.85524981478145,-1.8717446160403504,-0.5861160241919148,-0.051551365468481256,0.015001533272952672,-0.1879173577919631,0.4134133588451495,0.8909410306001764,-1.2926239932245838,-1.8719655476012171,4.146059993439234,-3.1296661488779844,-1.3627217451678675,1.910317095810902,2.0,0.5071067791713846,0.5184161228442707,0.3892301271188734,-0.7015012592540493,0.11545026571086128,-0.40359629419462656,0.5759142737635863
10.3,0.43143656520979634,5.174815087807948,-1.8880290259682806,-0.6081444609846364,-0.04934055320525547,0.020400589457400805,-0.18783782809136268,0.41319694767738435,0.8910582929872551,-1.2926133786623006,-1.8719422428778865,4.146084134033107,-3.129701082151443,-1.3627106368283015,1.9103169441223145,2.0,0.5071309302900393,0.5183949463009463,0.38922804725062576,-0.7014991214671695,0.11545896104456084,-0.4036152283416629,0.5759018652044873
10.4,0.5614802144119625,5.126460914367338,-1.6631593216956828,-0.6182819302909379,-0.050762776377873284,0.022110780843089678,-0.1879772920734319,0.4135072731154986,0.8908850543669101,-1.2926488373351452,-1.8719654055719872,4.146036897604569,-3.129701327568215,-1.3627462058921658,1.9102815680360083,2.0,0.5071102623736833,0.5184183132607919,0.38925216442316624,-0.7014754888568558,0.1154512462494984,-0.40360811724755924,0.5759371805712434
10.5,0.7757804986851402,4.730491432209377,-1.591892762983499,-0.6288205092847481,-0.0523685398128097,0.01967581610677969,-0.1877547154879642,0.4130716657563241,0.8911340578064446,-1.2926376189564366,-1.8719532513563946,4.146059513092041,-3.1296779117979945,-1.3626990145392905,1.9103404180234917,2.0,0.5071237503482794,0.518417359880292,0.3892339594863184,-0.7014919646501615,0.11545005479082285,-0.4036045187078617,0.5759198736444572
10.600000000000001,0.7106533100998993,5.013521530847823,-1.4230699274004441,-0.6244564810928162,-0.048288110292672624,0.014195392961972595,-0.18763464851963013,0.41278649422908686,0.8912915017436345,-1.2926445930729566,-1.8719355221763487,4.146082708929436,-3.1296706053733625,-1.3627595229599985,1.910253047862398,2.0,0.5071250167187973,0.5184092329619243,0.3892291310658978,-0.7014955541316541,0.11544961853539804,-0.403620023370978,0.5759047228904842
10.700000000000001,0.7527489964968113,4.868339530354121,-1.3609207299533417,-0.6284329831475778,-0.049109812139992166,0.019028775546155646,-0.1877171202318104,0.41296547175131293,0.891191073028878,-1.2926247089611982,-1.8719538368413877,4.146107511568036,-3.129678542305372,-1.3627345632722323,1.9102809230741817,2.0,0.507104811451349,0.5184269484951668,0.38923206726877085,-0.701487277527693,0.11543026873328961,-0.4036144475654771,0.575922590495772
10.8,0.6386257597833316,4.9686493629882955,-1.3628689005391976,-0.6192496954556768,-0.0508954372337295,0.012586649225618411,-0.1880151811974874,0.41358672035874583,0.8908401866974314,-1.2926489224339013,-1.8719890473504732,4.146095296571192,-3.1296777977617767,-1.3627341429339808,1.9103286254094447,2.0,0.5071203337480327,0.5184198734910944,0.38922106347266194,-0.7014919255979277,0.11545076922257683,-0.4036070648941408,0.5759179936191992
10.9,0.6806098797922621,4.657947953151751,-1.6745968769071924,-0.6285109650510979,-0.05143260768234474,0.01940701769442277,-0.18810322602224597,0.4137849892868252,0.8907295545494062,-1.2926246584243366,-1.871989122844859,4.146071910858154,-3.1296659019976167,-1.3627459749915132,1.9103168516960347,2.0,0.5071200691752759,0.5184113441246677,0.38921063954261176,-0.7015044702662374,0.11543904592255927,-0.4036084866724895,0.5759040669754969
11.0,0.5586979773206114,4.60065409851544,-1.7860559672378291,-0.6288947984058244,-0.04745965571520033,0.01846229846218835,-0.18810205460143659,0.41379132624376314,0.8907268426341394,-1.2926376902787862,-1.8719657881966116,4.146084183514662,-3.1296545511308733,-1.3627458184556334,1.9102934583455882,2.0,0.507116979443971,0.5184190353717776,0.38924529486499987,-0.7014746726279639,0.11544664299715388,-0.4036145250770854,0.575934606903403
11.100000000000001,0.30395290373606043,4.892846292595588,-1.7882017220899187,-0.6203851342210709,-0.04297431540436205,0.015516896293224303,-0.18799862260462463,0.4135732620454445,0.8908499380141093,-1.2926303230038794,-1.8719746563032,4.146068062262036,-3.1296750995710223,-1.362748876089908,1.910325688476218,2.0,0.5071164217877686,0.5184223513432203,0.38924629941936073,-0.7014733763159751,0.11545065704234331,-0.4036150446334933,0.5759350170408642
11.200000000000001,0.5685693915259951,4.723318116584029,-1.771389483802349,-0.6194990980346624,-0.048823501674125344,0.01747967113052656,-0.1881021288573603,0.4137759939130223,0.8907336895151425,-1.2926376092949607,-1.8719655476012171,4.146107835203125,-3.1296659908690394,-1.3627461675731505,1.9103878474347578,2.0,0.5071130702987304,0.5184233460289528,0.38923144244078006,-0.7014864819895075,0.11544358539102338,-0.40361301292539586,0.5759218957248753
11.3,0.765413323444515,4.937080539086035,-1.7303157744697917,-0.6122758585502751,-0.054478727715385214,0.017483948363804194,-0.18853086627432117,0.41464006313467583,0.8902412800668736,-1.292649269104004,-1.8719654623805888,4.146048587141664,-3.1297014979940196,-1.3627580700125193,1.9103170259341176,2.0,0.5071139298474276,0.5184258148948973,0.3892158020785721,-0.7014991166331933,0.11543746360802243,-0.40361116116925017,0.575909030957325
11.4,0.6757860171277876,4.710546868257436,-1.8275633119905508,-0.6162423004775018,-0.05139081746093993,0.017413440389653864,-0.188495479632818,0.414582699911898,0.8902755672934994,-1.2926244735717773,-1.8719537731380558,4.1461315470840745,-3.129712795790097,-1.3627344358655684,1.9102699868768314,2.0,0.5071142736408119,0.5184277545859737,0.3892249680691949,-0.7014929288245442,0.11544179480731084,-0.40360775199106647,0.5759180891008266
11.5,0.6505975408796733,4.5047185133771475,-1.845486113589069,-0.6247749952314897,-0.051050336865847715,0.016866166472110394,-0.18839743110781995,0.4144009331133339,0.8903809643992137,-1.29263747378455,-1.871954881056751,4.146060466424252,-3.1296659908690394,-1.3627341429339808,1.9103166179823474,2.0,0.5071161064531858,0.5184288829020051,0.38922775167965584,-0.7014910368598648,0.1154414731318312,-0.4036060372518958,0.5759216597595944
11.600000000000001,0.6924269399609887,4.634307124518962,-1.72238383355253,-0.6235808742944092,-0.05047729407556622,0.017099774349583922,-0.1883740295350236,0.4143535061054709,0.8904079943029988,-1.292637825012207,-1.8719653317171503,4.146072135377584,-3.129678783969625,-1.3627573285043275,1.9103637643018672,2.0,0.5071183797513724,0.5184247099674617,0.3892075030663905,-0.7015014718679038,0.11544460526897996,-0.40360405021734413,0.575909714043451
11.700000000000001,0.6982091411839422,4.4644236469625715,-1.8790491705066354,-0.6258411211086613,-0.049804756818559934,0.014148011920079692,-0.18836621922421448,0.414328076399916,0.8904214801637444,-1.2926247953294634,-1.8719655476012171,4.1460840098492735,-3.1297122381666185,-1.362769905720846,1.9103039717889048,2.0,0.507115805152895,0.5184262706742548,0.3892226894041579,-0.7014932359127212,0.11543853020305422,-0.4036091861048358,0.5759173643892409
11.8,0.6591840464611632,4.480888615128472,-1.7882254705501943,-0.6231849953508837,-0.05077890510871872,0.015518249565974402,-0.18836669656813526,0.41430699017393896,0.8904311907219677,-1.2926244735717773,-1.87195477641264,4.146093453235308,-3.1296421490111292,-1.3627437183925646,1.9103146446415582,2.0,0.5071199716743947,0.5184208872625475,0.38922280737752113,-0.7014918875144067,0.11544725545940354,-0.40361103756277333,0.5759159602892316
11.9,0.7147489314200991,4.448696250598124,-1.6616461462964007,-0.6240409330564921,-0.050373180231687874,0.012390795602709791,-0.18830251349201854,0.41416086589637113,0.8905127267415884,-1.2926494135037119,-1.8719655476012171,4.146071910858154,-3.1296548220218967,-1.3627219016008845,1.9103048471889261,2.0,0.5071193473289841,0.5184151975145448,0.38921408107867317,-0.701490866004357,0.11545360670979157,-0.4036115862490631,0.5759155468084473
12.0,0.7946049293750028,4.329105074785693,-1.6740597276361249,-0.6266055018339005,-0.05066696138697498,0.01452974030112441,-0.18833481892899506,0.41422730770416255,0.8904748694219321,-1.2926246894674098,-1.8719651543627438,4.146084308624268,-3.1296548409959146,-1.3627691269544575,1.9102702165157237,2.6513260726782573,0.5071195694434592,0.5184119034152527,0.38922868859151305,-0.7014897778395264,0.11544786931905586,-0.4036154344099444,0.5759153255144493
12.100000000000001,0.5009011816734089,4.587565922221304,-1.4935079810020475,-0.6147760656566692,-0.04394797231478826,0.005994417243972101,-0.18857946969671338,0.41475572652487414,0.8901769971510829,-1.2926980052886454,-1.871917257722312,4.146096149624548,-3.1296432939394485,-1.3627679975069806,1.9103743388391257,3.0,0.5071128749333178,0.5184268164162775,0.3892193836587599,-0.7014924197750668,0.1154444286069482,-0.4036100948897713,0.5759165392700636
12.200000000000001,0.2792413384235357,4.479383588452407,-0.3282176754293991,-0.5906405348278041,-0.08293012266090759,0.02372201751388628,-0.188455155486609,0.4145207677796641,0.8903113984785095,-1.2938102232044326,-1.8710964240537782,4.146240239087273,-3.129400698468124,-1.362658332037996,1.9103277669971572,3.0,0.507094033188068,0.5183962065874476,0.3891846381982958,-0.701517132687937,0.1154506272369353,-0.40359200850721344,0.5758978693179952
12.3,-0.1940397757424284,3.8497103521714853,0.17204125767545075,-0.5613171887831161,-0.12109335360721862,0.03787817038013516,-0.1875713253745413,0.41271439322165526,0.8913356367596403,-1.2952356706540962,-1.869758477497905,4.1463645185618585,-3.1290004624104815,-1.362411239022161,1.9103132997364811,3.0,0.506919042176941,0.5181857400473396,0.38920900819685034,-0.7015113191282243,0.1154480522246957,-0.4035981050879149,0.5759011946002084
12.4,-0.11135574688211781,3.6367567875624487,-0.1402751372210894,-0.5122100965306126,-0.08715669249579157,0.01587614449606355,-0.18675903761102913,0.41106667645814365,0.8922693857349302,-1.2969374049428637,-1.8682814424961731,4.14656608040061,-3.1286331615843714,-1.3622285676261723,1.910270380327367,3.0,0.5065535449091648,0.5178130429259861,0.3893901762992622,-0.7014049567245746,0.11544450546761012,-0.40364725077695496,0.5759970050093515
12.5,-0.03061166248169924,3.4337613566371847,-0.28956996021198383,-0.49937578991711873,-0.08636297532793485,0.011903230931987894,-0.18653893464860882,0.4106320480406429,0.8925150857193732,-1.2988600961285839,-1.867343047696836,4.146827766870859,-3.128224616164296,-1.3620150089676661,1.9103279693234891,3.0,0.5062862083613534,0.5175492494029678,0.38942820902921904,-0.7013789359646087,0.11544767885910254,-0.4036566876908203,0.5760214406718507
12.600000000000001,0.28881834273735985,3.015182039494108,1.9798624919401622,-0.3509926853022973,-0.04936453781017418,0.0009994356503339938,-0.1873097834364469,0.41216870452494525,0.8916451233113647,-1.3003351905900746,-1.866095478981718,4.147067693078367,-3.127701503415893,-1.3618338174111595,1.9103045463562012,3.0,0.5059263808916916,0.517185846303525,0.38925422728810377,-0.7014878824892774,0.11544829936409653,-0.4036050697686455,0.5759248115437419
12.700000000000001,0.58402732851997,3.149730867398297,1.5558011643231047,-0.37242479654844407,-0.029396890791023776,-0.004822911484984983,-0.18819035335256437,0.41402670627375954,0.890598288040924,-1.301958348344589,-1.8648707761161043,4.14721155166626,-3.1274964494491937,-1.3616063763466648,1.9103418330708721,3.0,0.5054453783462579,0.5167164638077733,0.3891823790612876,-0.7015181741610703,0.11544257929907284,-0.40358779268565975,0.5759011684322342
12.8,0.6667438348756911,2.667881905819106,1.719593108158501,-0.3238706694987788,-0.016383571537450833,7.5809207485443356e-06,-0.18777367837295386,0.4131136562224678,0.8911092716577044,-1.3037343897689588,-1.8634787225707445,4.147462290722701,-3.1271006069579066,-1.3614261786090296,1.910353183746338,3.0,0.5051907250443776,0.5164498663569286,0.3892299505337854,-0.7015023821373598,0.11543660072606415,-0.40360723122596776,0.5759079804712981
12.9,0.26518741013202296,3.3279759634728943,2.7841438677600676,-0.3367786860453215,-0.03698562840778699,0.010542144018211665,-0.18731810236276397,0.41212345965534264,0.891664670483407,-1.3053498084089137,-1.8623653850951136,4.147667407989502,-3.1267072511783502,-1.3612125352266244,1.910317896508831,3.0,0.504882237970769,0.5161299928792568,0.3892189243068504,-0.7015214626166866,0.11542754760611573,-0.4036055850027249,0.5758877064987505
13.0,0.08763167477797573,4.558696056956952,3.2109956017325048,-0.41471999263724946,-0.04043768603034757,0.018219322012010496,-0.1876641506839681,0.41287582309242676,0.8912437747559809,-1.3069323934068429,-1.8611656628050746,4.147857311534042,-3.126380156002854,-1.3609955946551722,1.910353183746338,3.0,0.5044199428342947,0.515668181384853,0.3891758325311432,-0.7015448260833673,0.11543411866498937,-0.40358164013282666,0.5758747094563126
13.100000000000001,0.46670701282906,4.356402173787214,3.443725214078817,-0.42186457555324297,-0.03979809664716594,0.01827569330242841,-0.18756080529537908,0.41268906605524286,0.891351977278231,-1.308510147977166,-1.8598373569188233,4.148038816906595,-3.12596345171024,-1.3607790633562011,1.9102941100842217,3.0,0.5041030520806984,0.5153796082064154,0.3891715990602724,-0.7015521365835738,0.11542497833190901,-0.40356492488037465,0.5758793497238797
13.200000000000001,0.5458537770373557,3.8478692724375123,3.4553916505941467,-0.41238593164290255,-0.027865969658843213,0.013564118199853452,-0.18732249441894575,0.41222026489907804,0.891619082788727,-1.3102043879616694,-1.858600358126386,4.148252846061035,-3.125556210634931,-1.3605516887505702,1.9103289147940286,3.0,0.5038289305809976,0.5151024212886524,0.38920047946775316,-0.7015373230676308,0.11542015120212963,-0.40357646354327625,0.575890276974254
13.3,0.5736068873447576,3.8311240889698515,3.6728304613698763,-0.4002009287029849,-0.022112060962795676,0.013295193483399359,-0.1877579207093006,0.4130331717033013,0.8911504931839381,-1.3117532787720783,-1.857402058915908,4.148464650989722,-3.1252076740316515,-1.3603261296492024,1.9103463155707952,3.0,0.5033982199316734,0.5146110713981694,0.38920966417725683,-0.7015281597841708,0.1154437050314163,-0.4036070805661002,0.5758752612461867
13.4,0.7787702089598166,3.4331255425506937,3.6815402718431707,-0.38991829272648754,-0.014440850808440878,0.015773860316758148,-0.18844190756463114,0.4143556764995912,0.8903915845978871,-1.313367931475012,-1.8560930251925687,4.14867365554144,-3.12487193065453,-1.360085026300362,1.9103288211277285,3.0,0.503057696355817,0.5142516064591209,0.38921106949384504,-0.7015286357200334,0.1154539117720624,-0.4036054854654256,0.5758737531990289
13.5,0.6247414412622604,3.438553423914493,3.8002047680554467,-0.3752161153942856,-0.003846444333510831,0.015074069224139305,-0.18923364260873893,0.41599249230862495,0.8894587744598499,-1.3149608723046864,-1.8547449077922336,4.148872617356126,-3.124515792456637,-1.3599256256787076,1.9103206516064934,3.0,0.5027233447901732,0.5139094259981053,0.38925707951040905,-0.70150779758923,0.1154621456692218,-0.4036105806235422,0.5758939156196168
13.600000000000001,0.7749213006227426,3.35520234264147,3.8924537736277487,-0.36464296956975584,-0.005751164951355242,0.00967257179005851,-0.18951543906357934,0.4165976258453843,0.8891158247805826,-1.3164783489147291,-1.853567755583723,4.14912205635649,-3.1241558857914393,-1.35970061749479,1.9103158352372758,3.0,0.502357704261592,0.5135381063157088,0.38932222402418026,-0.7014802361216252,0.11545159199193569,-0.4036280973783163,0.5759173267440709
13.700000000000001,0.9083946434275189,3.183205849707703,4.039038608047675,-0.3426038931224824,0.0001955594359256841,0.009594829737412262,-0.1881971885850058,0.4139656243804922,0.8906236948628734,-1.318108911159713,-1.8525297344675202,4.149323005803258,-3.123798729227621,-1.3595260731282508,1.9103427125293322,3.0,0.5020618160287885,0.5132615509128026,0.3893326550502648,-0.701478627675551,0.11543775556120989,-0.4036207020156521,0.5759272422883018
13.8,0.7041268298105842,3.6667223502658373,3.961070442487917,-0.346806992352754,0.015694437891014705,0.00510921305707952,-0.18760600620314882,0.41281758681485425,0.891283069680609,-1.3198321580248893,-1.8511749706664027,4.149537563323975,-3.1234368381060826,-1.3593382231759328,1.910341658739532,3.0,0.5016708787892653,0.512902114045997,0.3892581256702792,-0.7015196125831509,0.11543087335180244,-0.4035873184142025,0.575902095024544
13.9,0.809538553214428,3.770165821273595,4.179505863668268,-0.35840445465460447,0.011704550483753323,0.015357484432947382,-0.18759913154821,0.4127929173167504,0.8912959726557503,-1.3212386763871706,-1.8497992032529675,4.149737927142439,-3.1230567705688603,-1.359134982513388,1.910374256793318,3.0,0.5012841622588269,0.5124999648009894,0.38925489126799045,-0.701522066863681,0.11543262660471004,-0.4035877489248971,0.5758984522779873
14.0,1.0674574699160684,3.387867257804035,4.473547243478454,-0.3497826269649978,0.010058075127419509,0.01704878735905465,-0.1877151597268201,0.4129917114165723,0.8911794599913159,-1.322922519032203,-1.8485292712417873,4.149898087274693,-3.1227166835789557,-1.35894538858481,1.9103521126184526,3.0,0.5009347926577293,0.5121090143543294,0.389369359122593,-0.7014717874808192,0.11543082732524851,-0.4036247016300421,0.5759341591757974
14.100000000000001,0.9660155269277589,3.294489232820597,4.364162657473163,-0.3244957353189793,0.03340504004583291,0.004996703622577654,-0.18819947615424465,0.4139956028902702,0.8906104473648926,-1.3246803283691406,-1.8474492204202282,4.150159294931808,-3.1223565540709437,-1.3587402613483675,1.9103499609638677,3.0,0.5005680414150766,0.5117501803405367,0.3893888101568985,-0.7014689203657531,0.11542041438945932,-0.40362440989048165,0.5759399425666104
14.200000000000001,0.9777447073792884,3.420187876152395,4.259183034072737,-0.32857698980505384,0.03322850062264632,0.0031800170116619477,-0.18835915942819004,0.4143380442683308,0.890415919734548,-1.326165796750313,-1.846346396969068,4.150319932467216,-3.1219731346638175,-1.358513389657472,1.910339685350025,3.0,0.5003029901310244,0.5114939224661297,0.38927599684722913,-0.7015280050276411,0.11541921753461046,-0.40359279598582554,0.5758903692665646
14.3,0.9310122394427806,3.7076664316222643,4.300413097285655,-0.3658236532044686,0.015303257196989918,0.011439515722496,-0.18678832636042086,0.4110716438081502,0.8922606172481075,-1.3276376724243164,-1.844926496545309,4.150521699780676,-3.1216021602601463,-1.3583123793359393,1.9103637296016476,3.0,0.4999030558506317,0.5110749534336317,0.389222756657006,-0.7015445606969462,0.11542374802659158,-0.40359338634217495,0.575868879389118
14.4,1.0003584449158176,3.675014202500154,4.532725224927726,-0.36347923513668384,0.018934667752344824,0.010477623022176589,-0.1876684300970671,0.4129379435002316,0.8912130437460267,-1.3294057846069336,-1.8434434845300296,4.150724156579783,-3.1212545833983363,-1.358126970437119,1.9103756193194072,3.0,0.49954398054824173,0.5106906946734683,0.3893884263634854,-0.7014523778908146,0.11543098148618691,-0.4036289172669588,0.5759548135143586
14.5,0.8628602020231251,3.7437671969431623,4.50324880504421,-0.371927552391116,0.017714935765658253,0.009692465687308511,-0.18583061260958367,0.4091635793453138,0.8933031929065282,-1.3310136795043945,-1.8423656789070981,4.150939294792608,-3.120968607670252,-1.3579124288736495,1.9103992254956041,3.0,0.4991724070791494,0.5102770841118965,0.38941349171227857,-0.7014514117378525,0.11543581895258456,-0.40362302542678863,0.5759591496096277
14.600000000000001,0.9445234690225004,3.9132878785165004,4.183193343941982,-0.4042316956654324,-0.0006267600699712177,0.009764656011847884,-0.1825961310023481,0.40249063493106196,0.8970057304694804,-1.332492560408782,-1.8413430653014125,4.151151948935819,-3.1205759189451814,-1.3577068487750452,1.9103324532654404,3.0,0.49883617684769077,0.509941539319842,0.3893265389171704,-0.7015104338208666,0.11543645376137829,-0.40360226665503773,0.5759016814825012
14.700000000000001,0.7175247362147886,3.832087812901445,4.131130014371524,-0.3839208212790468,0.014545861233519865,0.00638506989299221,-0.1812337187548078,0.39969815153894356,0.8985518172112363,-1.3341163573930916,-1.8400233385595144,4.151405494285798,-3.1202467664713143,-1.3574686902076825,1.9103775594536838,3.0,0.4985785936024346,0.5097048450559315,0.38926871167484517,-0.7015376592955909,0.11543467257203074,-0.40358911102561656,0.5758780933668202
14.8,0.889142137496249,3.5300188686337597,4.175768734344319,-0.3768027435466902,0.014836093494815822,0.0029606500528093754,-0.1809113968073124,0.3990575089317111,0.8989016083911172,-1.335853649639707,-1.8386379525414402,4.1515656091758775,-3.1199131465644703,-1.3572461146108945,1.910379279392423,3.0,0.4981664277802546,0.5093011990060221,0.3892633291964231,-0.701540616780032,0.11542610078330884,-0.4035838933957556,0.5758798652995057
14.9,0.7550215426565084,3.76500764051659,4.258582960441075,-0.3812772194509382,0.009345877803376777,0.00901787645082495,-0.18057004590932152,0.3983544343319831,0.8992818139181934,-1.3372622743011602,-1.8372901712251068,4.15175664278258,-3.1195911203217865,-1.3570253042914464,1.9103990807891973,3.0,0.49777682388435246,0.5088842983968854,0.3893086134045897,-0.7015283072137776,0.1154268877506211,-0.4035947514789968,0.5758870933964264
15.0,0.6103866117700668,3.91186918955016,4.379704583352285,-0.3712240962249397,0.01685587187598402,0.005230602253974699,-0.1799514967083208,0.3970997475157668,0.8999601146273574,-1.3387040285892562,-1.8362633626398126,4.151992685050236,-3.1193105375811885,-1.356799408386138,1.9103834757218092,3.0,0.4974986784599184,0.5085796900659659,0.38938753031426,-0.7014847615751598,0.11544434118544411,-0.40361210078842014,0.5759244789581859
15.100000000000001,0.690934483404148,3.7992067964730385,4.134640944334242,-0.37895090227483236,0.00763146718652705,-0.0004360891191841391,-0.17908470364589696,0.39530125978088915,0.9009227463650484,-1.3403231068933168,-1.8350891904604294,4.1521992683410645,-3.118973954982924,-1.356583223867876,1.9104016018748788,3.0,0.49708127547455677,0.508174396388178,0.3894386043716695,-0.7014610833962099,0.11544784884639855,-0.40361772813589003,0.5759486715079543
15.200000000000001,0.7641587515842978,3.913952009554468,3.5146658063830745,-0.4105997024981804,-0.004278264236791141,0.005837164021948813,-0.17813558051232445,0.3933105033099955,0.9019835951394476,-1.3404467915158265,-1.8350046251023322,4.152241864337445,-3.1189522532524094,-1.3565484580296778,1.9103608117964825,3.0,0.49678412864891236,0.5078810800700855,0.3893616289628585,-0.7015061189359304,0.11544717480824448,-0.4036060631963106,0.5759021276878725
15.3,0.4947325843596337,3.9441389724760554,3.4762609163968294,-0.41705482193038074,-0.0048225031444889856,0.0030108307140688352,-0.17776071857742093,0.39248196168892635,0.9024181896729984,-1.3404521705725383,-1.8350050651326268,4.152243936233892,-3.1189394917126023,-1.3565686384784144,1.9103934165089993,3.0,0.49671025054051665,0.5077964665548848,0.3893222387217142,-0.7015321016676836,0.11544417869526241,-0.40360591837104715,0.5758711788160289
15.4,0.7695175295124485,3.8722317068886394,3.4717306847145877,-0.4313485118362936,-0.013889201557082629,0.006133478311952599,-0.1777503211541357,0.39245207520529174,0.9024333112856947,-1.340429932893354,-1.834940095941061,4.152233600616455,-3.1189674683680106,-1.356579878550628,1.910377025604248,3.0,0.49670378129651205,0.5077957384299931,0.38933135764465976,-0.7015329895803284,0.1154382355276266,-0.40360365861669567,0.5758728723077458
15.5,0.47422808400904654,3.8766319740755497,3.625111288328037,-0.4387071481441853,-0.014216208153420392,0.0036599401949343716,-0.1779796007246898,0.3929473955836496,0.9021725816002194,-1.3404550552368164,-1.8349508077665084,4.152246346275087,-3.118921134533006,-1.3565689729904513,1.9104008674621582,3.0,0.49669579964231575,0.5077780086105868,0.3893682801216737,-0.701515232553919,0.11544267461362193,-0.4036076500831326,0.5758908161858862
15.600000000000001,0.509754978588604,4.389053562481882,3.538395857713007,-0.4284884497635229,-0.01473330828534935,0.003152675256412865,-0.1779929804306224,0.3930117402896521,0.9021419898534242,-1.340463759031073,-1.8349162540831507,4.152245998382568,-3.1189232058064724,-1.3565805594073694,1.9104247093200684,3.0,0.49668532786894937,0.507765977448516,0.3893903462103697,-0.7015044876876435,0.11544453036125199,-0.4036108170807348,0.5759013131598055
15.700000000000001,0.3796405823630188,4.404298178056986,3.541827040801184,-0.4290834419979172,-0.01203050403126432,0.0009627925443153728,-0.1778578836096282,0.3927796986540815,0.902269666301513,-1.3404838193720465,-1.8349150357803905,4.15223905685726,-3.118956228295797,-1.3565924803363245,1.910380576849719,3.0,0.4966757298972086,0.5077827768677239,0.389397902304062,-0.7014992883689102,0.11542855876896693,-0.40360807448842173,0.5759127698238513
15.8,0.6180994994961234,4.017676511488836,3.5276671024008515,-0.4378359464959769,-0.015725329160950412,0.005578301919073017,-0.17774770108162777,0.3925949494716764,0.9023718303386911,-1.3404496753271662,-1.8349084218855298,4.1522445996060595,-3.1189429623894296,-1.356581904384782,1.9104220193652433,3.0,0.4966765530104468,0.5077797882181797,0.3894132243711402,-0.701488206998347,0.11543320076909185,-0.4036053720068547,0.5759272308978414
15.9,0.5794130036621914,4.124849604624861,3.5043210557487843,-0.435710432623563,-0.016389308624966695,0.007240898717194011,-0.1779655645147721,0.39303289900512217,0.9021380730089485,-1.340416365304689,-1.8349117571913043,4.152245998382568,-3.1189346348838103,-1.356563462887229,1.9103598391462706,3.0,0.4966698817697575,0.5077801239971511,0.3893925118159303,-0.7015027496879294,0.11543449331835937,-0.40359220094229964,0.575918488391507
16.0,0.6820707238492036,4.189341924161468,3.691061261528462,-0.43590907920504124,-0.016712184715076767,0.009530125190785775,-0.1781590733162179,0.3934194391541856,0.9019315209019825,-1.3404283410915327,-1.8349189358609495,4.152258396148682,-3.118944307366842,-1.3565781639571541,1.9103838974662497,3.0,0.4966747962275545,0.5077734514323956,0.38938668850647956,-0.7015086118604021,0.1154262322714311,-0.4036023139365209,0.5759059164259381
16.1,0.6460941957597779,4.171860084907386,3.669257206430754,-0.4364257009262771,-0.017701548038907406,0.007064501853825023,-0.17797943216086615,0.3930183094341777,0.9021417941377019,-1.3404550552368164,-1.8349162540831507,4.1522796841536165,-3.118944307366842,-1.356605262145316,1.9103762255149186,3.77446049318194,0.49667965425676647,0.5077675689647692,0.38939527144479963,-0.7015054667957705,0.11543343536148305,-0.40361171793895606,0.5759017131409307
16.2,0.4344738505531751,4.4097623306324065,3.613425096320253,-0.43294295073878913,-0.014164562560691903,0.006067689306593057,-0.17792239410352467,0.3928968366615919,0.9022060123450284,-1.3404773914793893,-1.834939411402321,4.152245699414515,-3.1189797826844257,-1.3565805594073694,1.910377025604248,4.0,0.4966756177875648,0.5077718522509392,0.38941486661594543,-0.7014935289809233,0.11543804061945678,-0.40361476793253886,0.5759131937042198
16.3,0.611566913738743,4.136810443763091,3.519113831395164,-0.44078044316779647,-0.016019943963973007,0.007311755800683417,-0.17797019907442377,0.39301344843805325,0.9021457891490169,-1.340454596257689,-1.8349378895156285,4.152270722892647,-3.118920906835016,-1.3565805594073694,1.9104110052287466,4.0,0.4966699832963232,0.5077772896185331,0.38942364652513456,-0.7014873903893761,0.11543001579564195,-0.4036136532205229,0.575923060410073
16.400000000000002,0.6630289570459801,4.25369318632779,3.5192210759183014,-0.43671645524293756,-0.017590105770687647,0.0037685288367213963,-0.1781179473972957,0.39333396018787264,0.9019768503786434,-1.340419208857478,-1.8349035138944354,4.152246817642329,-3.1189434881070817,-1.3565924803363245,1.9103412119953,4.0,0.49666260494713166,0.5077827122427486,0.3894271684694824,-0.7014842074593157,0.1154210485544021,-0.40360447526800936,0.5759351662986147
16.5,0.7555266008652146,3.9141706607087596,3.035831409096471,-0.4196585151891837,-0.002020646540125187,0.00904295571888369,-0.17827775046728625,0.39367706336617264,0.9017956331740861,-1.3404345691481365,-1.8348952473854687,4.152256921865363,-3.118932386437887,-1.3566005686588911,1.910388469696045,4.0,0.496672151497814,0.5077654485945301,0.38940636155934594,-0.7015021232626968,0.11543151613499639,-0.4036004099068687,0.5759140953855112
16.6,0.7788657535755117,2.374541794418318,1.9046709392812633,-0.3063013884121639,0.015547557195285364,0.002755789274920364,-0.17875642052757815,0.3946172116667373,0.9012898522058541,-1.3404550552368164,-1.8349005209079374,4.152247302572078,-3.118941799310093,-1.3565805594073694,1.9103983594054095,4.0,0.49668031706541177,0.5077667825988191,0.38939785351112627,-0.7015001515298558,0.11544303629427852,-0.40360508553959296,0.575910911253924
16.7,0.33151561919485145,0.11212837145674184,0.6127559279934695,-0.1360541182300753,0.00886418347496325,-0.011496669821355792,-0.17867062430797825,0.39447463194295873,0.9013692728206091,-1.340454576000406,-1.834820409814352,4.152294161334799,-3.1189200047046914,-1.356616801430645,1.9103765463678377,4.0,0.4966730012754849,0.5077764461592869,0.38943449917694856,-0.7014713398841745,0.1154386066093083,-0.40361517214160314,0.5759398234558072
16.8,-0.057203346591933005,-0.3749856042490527,0.4974662546023554,-0.05178966908178184,-0.014114282168761982,-0.0179258273227779,-0.17824103095032676,0.39365424299499424,0.9018125813049859,-1.3404056530837576,-1.834832330743307,4.152293682098389,-3.1189215960597467,-1.3566389450630807,1.9103758950534333,4.0,0.4966600987264921,0.5077748776063438,0.3894712235068,-0.7014505668705036,0.11541987235746251,-0.4036190656068891,0.5759661493357561
16.900000000000002,-0.018570469763822234,-0.32863790531359155,0.18497280015629405,-0.04586620967305322,-0.014819696239958425,-0.019314488568183703,-0.17799185219635508,0.3931641782314628,0.9020758361121751,-1.3404195802383982,-1.834796887604289,4.152259160774287,-3.1188878886620883,-1.3566179151642455,1.910377025604248,4.0,0.4966565004043689,0.5077708558047768,0.3894762716238417,-0.7014483999191413,0.1154195008721256,-0.4036171656559575,0.5759701942437276
17.0,-0.08476429562995867,-0.2881520994012591,0.2682048964140301,-0.0478268297712849,-0.018423755022875514,-0.024868296855500557,-0.17793057430118622,0.393018144364945,0.9021515659636007,-1.3404631661602082,-1.8348328042047282,4.152247399828375,-3.118956228295797,-1.3565805594073694,1.910388962095923,4.0,0.49665522255534383,0.5077631249042117,0.38947301156037284,-0.7014558332042073,0.11543378142353398,-0.4036135911660693,0.575960784425541
17.1,0.2261462120052601,-0.43342455503887717,0.27911344735835164,-0.046143596359221085,-0.017636163908519305,-0.02156617036278562,-0.17791922459816775,0.3930000969518626,0.9021616667171645,-1.3404422071821767,-1.8348469106768943,4.152280868681328,-3.11893195346815,-1.35658185831658,1.9103642121871873,4.0,0.4966494292867614,0.5077725697275979,0.38946304622263855,-0.7014681029496348,0.1154192029604206,-0.4036086102217831,0.5759522531313359
17.2,0.4221891595634217,-0.3993643463992571,0.34643362377048215,-0.0440152241678999,-0.02197690008962132,-0.022857695569538292,-0.17790893916715053,0.39298477770483353,0.9021703685173853,-1.3404091258451891,-1.8349025612867607,4.152246875544665,-3.1189319478568387,-1.3565924803363245,1.9103999903000617,4.0,0.49665174407688073,0.5077823264061789,0.3894449483359734,-0.7014798527532499,0.1154099375405847,-0.403607157910001,0.5759408169091411
17.3,0.328691561048017,-0.33640990708981866,0.2397818981042521,-0.038165442244475795,-0.022736538961043825,-0.02009158168270724,-0.1781730907928708,0.3935111769653083,0.9018884876079535,-1.3404197252267762,-1.8348456342855166,4.152234073615726,-3.118932386437887,-1.3566048781024378,1.9103761159902648,4.0,0.4966679007493025,0.5077783879325652,0.38941708286910126,-0.7014917891802745,0.11542544286747018,-0.4036095432106657,0.5759214994083686
17.400000000000002,-0.04038301174742456,-0.2126144664171501,0.2600989925242841,-0.03618012253342249,-0.012454094857899205,-0.022549134967118398,-0.178446154501551,0.3940551680201902,0.9015971703008065,-1.3404664993286133,-1.834881387869152,4.152245998382568,-3.118910786012143,-1.3565814739116933,1.9104100880532464,4.0,0.49665823261866876,0.5077844733299501,0.3894106259813335,-0.7014962898520302,0.11542269062173766,-0.4036002808828524,0.5759230600390625
17.5,-0.052399483612810105,-0.45180874349249006,0.25522692803599306,-0.040445339423176054,-0.009105506778809638,-0.021358506819350653,-0.17849139707746375,0.39412094483431553,0.9015594832381781,-1.3404191804412227,-1.834903177864168,4.152259125805541,-3.11893352652673,-1.3565805594073694,1.9103777856634767,4.0,0.4966571289903075,0.5077879102625843,0.3894091999375993,-0.7014956416882442,0.11542576722453683,-0.403604726925435,0.5759201171659755
17.6,0.21784020655903674,-0.7007047410612541,0.38105473714409543,-0.04462016324329655,-0.01279723640023565,-0.01655043965380128,-0.17843151419861417,0.3939371471124868,0.901651646181024,-1.3404426574707031,-1.8349034372574793,4.15223453234904,-3.1189107843217676,-1.3565920323879663,1.9103527178800455,4.0,0.49667150863133813,0.5077680150413628,0.38942353192489076,-0.7014819417487854,0.115449354358503,-0.4036114465475882,0.5759273671170019
17.7,0.2686312395479604,-0.6052766775714606,0.23650053119679304,-0.03277134607596094,-0.013104472557056242,-0.033124963274249686,-0.1784171380339549,0.39389846764487546,0.901671395543409,-1.3404302597045898,-1.8348928986704833,4.152246504285621,-3.1189219248446607,-1.3565810458526122,1.910388469696045,4.0,0.4966729719453892,0.5077679030479442,0.38940200101429906,-0.7014971058309307,0.115451364309067,-0.40360691886683775,0.5759116668663874
17.8,0.1271870553048792,-0.34472684691658084,0.15752384626908814,-0.030205033238068512,-0.014106009721987512,-0.029973540678300492,-0.17846700583335987,0.3940595628233389,0.9015911407478252,-1.3404550552368164,-1.8348924122252406,4.152247408797281,-3.1189557518043403,-1.3565796064244553,1.910388469696045,4.0,0.49667066558571676,0.5077753828071694,0.3894057134179368,-0.7014961019005925,0.11543776397789857,-0.40360172927400684,0.575919252841132
17.900000000000002,0.2983815251576663,-0.4909801594972815,0.21441639883482544,-0.03323643608148548,-0.015871076100779664,-0.02788721888458957,-0.17864537698386385,0.3944273082953645,0.901394978648033,-1.3404426574707031,-1.8349039452702347,4.15224677415049,-3.1189435315989202,-1.3565932561042464,1.910388469696045,4.0,0.4966703954095039,0.5077793414419617,0.3893911640345864,-0.7015070976817539,0.11542670269781032,-0.40359980771071435,0.5759094229323809
