xiamingqian9007/apple-picking-rnn/training_data/grasper_20191127_112212.csv
,/manipulator_wrench.fx,/manipulator_wrench.fy,/manipulator_wrench.fz,/manipulator_wrench.tx,/manipulator_wrench.ty,/manipulator_wrench.tz,/ground_truth.x,/ground_truth.y,/ground_truth.z,/joint_states.elbow_joint,/joint_states.shoulder_lift_joint,/joint_states.shoulder_pan_joint,/joint_states.wrist_1_joint,/joint_states.wrist_2_joint,/joint_states.wrist_3_joint,/mode./mode,/manipulator_pose.x,/manipulator_pose.y,/manipulator_pose.z,/manipulator_pose.rx,/manipulator_pose.ry,/manipulator_pose.rz,/manipulator_pose.rw
0.2,-11.98795893672006,-4.767014435888392,-8.711283310286689,-0.1349447891867993,0.13088730689390307,0.45221896629387365,-0.06712058955940452,0.10720543770016998,0.9919685165371535,-1.7333804082500386,-1.7118395865301383,4.167412857940606,-0.06775744379077153,1.357064237626327,-1.3433933298401268,1.0,0.46425717439899267,0.47509565609559723,0.41145795836200877,0.8211440142328791,-0.0548231718507702,0.36905422329816123,-0.4318748753788825
0.30000000000000004,-11.498490990494036,-5.065664476746254,-8.825262690736842,-0.1340782637374792,0.1381773683434593,0.4505178287892987,-0.0672084636226426,0.10722310577129983,0.991960795403641,-1.7303922765995075,-1.7155672886219733,4.166594381264761,-0.0667514229622997,1.3576395603977,-1.343675828726578,1.0,0.4645230534664314,0.4753231348875228,0.4112878937817654,0.8211584627996207,-0.054854249535935505,0.3690508946045922,-0.43184630075058394
0.4,-11.607347456512821,-4.978526105291831,-8.646444205115527,-0.13217747471418376,0.13818322802920802,0.4473524422020375,-0.06707007936932934,0.10693063551450047,0.9920016951046245,-1.7277639827610534,-1.7192041391721302,4.166109792501838,-0.06589730203662114,1.3582377144951878,-1.3438826387442482,1.0,0.46571619552359733,0.4763868412111145,0.41076841603725417,0.8211063062745219,-0.054920286866020775,0.3691131401124618,-0.4318838798601809
0.5,-11.627602068136445,-4.998671492892175,-8.552494184113508,-0.13178762633432184,0.13326453123091792,0.4482248789050885,-0.06694969690403105,0.10673012748897409,0.9920314384991259,-1.7248561421748312,-1.7229025837953533,4.165493546930047,-0.0651276868632813,1.3588036460515738,-1.344149128816174,1.0,0.4662999935167812,0.4770641158347745,0.41023691150501823,0.8212044065029457,-0.054890949574481276,0.36904758060946846,-0.431757095646678
0.6000000000000001,-11.484943830090469,-5.2151377986235605,-8.804478427446229,-0.1193452212414224,0.13870756811524423,0.4505431507734043,-0.06702885045713727,0.10701541109357997,0.9919953100961484,-1.7223338123260432,-1.7260994630293258,4.164936231512389,-0.06426561315875577,1.3594422340393066,-1.3443757457408398,1.0,0.46737958547345543,0.4782611777300889,0.40972834309983724,0.8211606284467795,-0.05486344687463013,0.36907694114701406,-0.431818753644962
0.7000000000000001,-11.619657249095138,-4.926988621612151,-8.468098678630492,-0.12777517848509407,0.13491916325964248,0.44580942600347734,-0.06710800401024351,0.10730069469818586,0.9919591816931709,-1.7195487344898464,-1.7295352390565237,4.164403059816591,-0.06345668773942696,1.3601159413079709,-1.3446114698993128,1.0,0.4685271363369411,0.479505455658805,0.40909350928362,0.8211545197822511,-0.05481445908535383,0.36901484254628786,-0.43188965685334413
0.8,-11.67878344750207,-4.747636871896789,-8.647571293832932,-0.1281243922490823,0.1335757502798677,0.44763688314084493,-0.0671331391973116,0.1073999791768878,0.9919467654835017,-1.7171230082360769,-1.7327798043385014,4.163815710224761,-0.0627426798801732,1.3605776066931223,-1.3448004596077885,1.0,0.46920324107658146,0.4802461463232706,0.4087057404205509,0.8211599750501091,-0.054784059405989655,0.36901315885564345,-0.4318845804171351
0.9,-11.521773104275601,-4.94272497274755,-8.538934087693699,-0.14035289425622116,0.1369122220939047,0.44804564918822487,-0.06713535763633166,0.10742035539867414,0.991944408933159,-1.714589288546424,-1.7358489239122936,4.163216833259528,-0.062067255058523216,1.361072063446045,-1.3450241886772558,1.0,0.4702012555205979,0.4812754531293614,0.4081706837034757,0.8211469328163129,-0.054781492720029745,0.3690256303416636,-0.4318990471541525
1.0,-11.314838593336956,-4.976153777236635,-8.399481155254637,-0.13953223896685832,0.137780812071181,0.4476192175097066,-0.06710937458546684,0.10737018347557796,0.9919515807600335,-1.7122060878003917,-1.7388859724587125,4.162612438201904,-0.06144316614184575,1.3615331121640284,-1.3452501159598955,1.0,0.4708107080659379,0.4819012482755282,0.4078332708850119,0.8211591545045616,-0.054787984884412874,0.36901244118624604,-0.43188625578435175
1.1,-11.507384490907379,-5.45002173238507,-8.530520967778973,-0.14291363658665865,0.13093439807966256,0.44579035733728584,-0.06696269370194147,0.10701807685965874,0.9919995325061095,-1.7098473486455412,-1.742034925101299,4.162086339484959,-0.06082498196320177,1.3620027109581136,-1.3454429969657042,1.0,0.4717388654675479,0.4827865938279982,0.40734477134000313,0.8211608653828929,-0.054802962928121854,0.3690357546971741,-0.43186118160006576
1.2000000000000002,-11.559462499937233,-5.023583443879758,-8.474683721139831,-0.13908558880589306,0.12976141261635873,0.4513434558694212,-0.06705586368913621,0.10700399805318082,0.9919947677128388,-1.7076344441944893,-1.7447179245449238,4.161481553553382,-0.060130746597837875,1.3625240325927734,-1.3456106074303813,1.0,0.47272002073636726,0.48375566289369476,0.4067377708442947,0.8211921767108338,-0.054837223640830886,0.36904763400929635,-0.4317871369603648
1.3,-11.428972397460461,-5.065276829293877,-8.55434863327781,-0.1408471479896536,0.12691403055143155,0.4499201353316037,-0.06723698098306889,0.1071759332784209,0.9919639540078375,-1.7053216332894594,-1.7477103900022262,4.161026107134266,-0.05959435850090129,1.3630445117309,-1.345810442793771,1.0,0.47333252129835746,0.4843124941458977,0.4064302702115442,0.821179922469873,-0.054868777539455016,0.3690509103620174,-0.43180363331572985
1.4000000000000001,-11.292003824286995,-5.029587643740143,-8.518889889442777,-0.13399458504660539,0.1289081666066402,0.4454115618067873,-0.06729623295833317,0.107474870828635,0.9919275840364525,-1.7033080488095655,-1.7500183659271284,4.160565941918431,-0.059054211979248095,1.3635191917419434,-1.3459910827072645,1.0,0.4742558902172364,0.48531022266921037,0.4059375788251672,0.8211704049419905,-0.05482476213625198,0.3690177799957973,-0.43185563508085
1.5,-11.40369087468525,-5.226583442514872,-8.485350297873072,-0.14044278334958654,0.1324604873455656,0.4487732994216491,-0.06725757289241317,0.10745020280172272,0.9919328847904908,-1.701045743345966,-1.7528110665856298,4.160123283152913,-0.05859475025783756,1.3638934811731334,-1.3461276096075083,1.0,0.4746903220417904,0.4857866644086024,0.4056764757203092,0.8211789745732812,-0.05480457583128585,0.36900330914251145,-0.43185426711866964
1.6,-11.360148970019006,-4.935538484855089,-8.63278355696355,-0.14058393155846494,0.1263713229462557,0.44971260169087945,-0.06719199227811633,0.1073049802511523,0.9919530605489512,-1.6990517946578214,-1.7550997700600315,4.159699658330789,-0.058070354298902345,1.3642392781876376,-1.3463375580752006,1.0,0.475476370526172,0.486525610056449,0.40534670819507446,0.8211418459517794,-0.05485463039423043,0.3690497207285194,-0.43187885104670076
1.7000000000000002,-11.597020773418697,-5.082250139217295,-8.738475877078827,-0.14004872804628557,0.12824860570460758,0.4476313177440685,-0.06725314554625016,0.10740333152049641,0.9919382699750313,-1.6972767474814932,-1.757417421497031,4.159338037549103,-0.05762513101611333,1.364639397340837,-1.34644193263538,1.0,0.4762773593917697,0.4873584268757101,0.4049301989842886,0.8211381552444811,-0.054840701785983666,0.3690581471041593,-0.431880436562431
1.8,-11.591278387442962,-4.95315155021392,-8.745738317076432,-0.13029055832581404,0.13014590031917347,0.4472665628580853,-0.06740210731498462,0.10761323150416784,0.9919053741470255,-1.6951265335083008,-1.7599697394949727,4.158976264702136,-0.05714924294996071,1.3650160013319588,-1.3465945245555195,1.0,0.47671160455423783,0.48782020159412753,0.40467239488757145,0.8211394968733788,-0.05483590688116474,0.3690455498311327,-0.4318892591173017
1.9000000000000001,-11.393161918844365,-4.831437726684603,-8.840871637525257,-0.1290312807562111,0.1272966068223251,0.4495625058266287,-0.06760255473263577,0.10788732620212146,0.9918619606070568,-1.6933713262537398,-1.762097822709631,4.158617090595242,-0.05667101018733366,1.3653346732027376,-1.3467219511615198,1.0,0.4774087124312786,0.4885902344475077,0.404240523799416,0.8211602739007708,-0.054827208488624005,0.3690314501964707,-0.43186290711572545
2.0,-11.297272738909044,-4.8524232364656115,-8.742304323719834,-0.13419650900719673,0.12639610648864683,0.4469194546468332,-0.06675251480415131,0.10677746687498196,0.9920391551436846,-1.69168888402353,-1.7643887482308094,4.158236192174468,-0.05627467902905946,1.3656964793613215,-1.34684008271884,1.0,0.47810428790853915,0.48928775848468375,0.4039469531580062,0.8211090505590402,-0.05484335961776858,0.3690661853946088,-0.4319285632996973
2.1,-10.982451028760888,-4.996026859528186,-8.779486403055474,-0.14858733949306743,0.13054819142849225,0.4506689493696127,-0.06633510008176625,0.10624980484453271,0.9921243029485648,-1.6897566135059279,-1.7664124026673849,4.157788526445318,-0.05589682512955401,1.3660798055337708,-1.3470099573096281,1.0,0.47852060966905047,0.4897334519458379,0.4036292225953528,0.8211523501061095,-0.0548213438250337,0.3690324381277126,-0.43187787369341624
2.2,-11.598835223743553,-4.812395013045942,-8.633625813838131,-0.13325085211272328,0.12845847423028378,0.4463651933993874,-0.06632743435269067,0.1062735548743681,0.9921222712383837,-1.68810755169451,-1.7685168306720565,4.157486734142209,-0.055544700687366305,1.3664382073782924,-1.3471354994613862,1.0,0.4791484944793093,0.49036226713366626,0.4033430553819931,0.8211310416182851,-0.05481151446137281,0.3690487268570423,-0.4319057160752988
2.3000000000000003,-11.536975718691421,-4.956602704174462,-8.822486119227158,-0.12763461699192047,0.12869290645328896,0.445501248160495,-0.0663197686236151,0.1062973049042035,0.9921202395282026,-1.6864665590750205,-1.770550555210765,4.157120200427803,-0.05515478680773105,1.3667936325073242,-1.3472837064127599,1.0,0.479827510577608,0.4910878911451929,0.4029521672566102,0.821142989176713,-0.05479507061765983,0.369023714906386,-0.43190645908417347
2.4000000000000004,-11.597282154698176,-4.9750791043429805,-8.725905625428355,-0.13674322276606965,0.1267608980341139,0.44353453570026286,-0.06631210289453954,0.1063210549340389,0.9921182078180215,-1.6848557775714486,-1.7725994471721291,4.156763834343456,-0.05478694350868114,1.3670751595345068,-1.3473699728595179,1.0,0.4801492858131971,0.4914234562745474,0.40270572922685344,0.8211792304985421,-0.054782568496688805,0.36899696349293165,-0.4318619947618961
2.5,-11.458260962228685,-5.2679230273826185,-8.68504392952168,-0.1426177654577865,0.1275683873420763,0.4485243749240182,-0.06645270322958624,0.1064360949075241,0.9920964563853677,-1.6832842277175069,-1.7743599710539555,4.1563931061142805,-0.05449385825994171,1.3673827051543823,-1.3475347247927596,1.0,0.4806635800157476,0.49192213865895856,0.40244308037391074,0.8211725000603356,-0.054801602584345174,0.36900917642301856,-0.43186194230847813
2.6,-11.343360012253083,-5.346745183611697,-8.66480473860272,-0.13143322478783342,0.12544462464831882,0.44889129465400657,-0.06663853317429864,0.10663626188770807,0.9920624524676492,-1.6817597859477642,-1.7761262938016233,4.156079420904577,-0.054159889292162644,1.3676487337225596,-1.3476384144260842,1.0,0.4815249895510798,0.4927270113364492,0.40199888740906087,0.8211728900873188,-0.05482412139585745,0.36902403725849414,-0.43184564397971437
2.7,-11.4417473669452,-4.803064340385229,-8.7478300018591,-0.1421659844079154,0.12214465093767543,0.4442964320645539,-0.06687157114529144,0.1069255816046489,0.9920156272226586,-1.6802137792094158,-1.7781087711989794,4.155841144066389,-0.05387906318006991,1.3678872681046192,-1.3477538267718714,1.0,0.4819222563447623,0.49313584823198114,0.40178342127333294,0.8211738791771014,-0.054835987661544454,0.3690175268421175,-0.4318478198367352
2.8000000000000003,-11.549540926378766,-4.912461379607128,-8.745277684996493,-0.13369664274027224,0.12342247429390621,0.44812513731616116,-0.0669296738828673,0.10695972462834925,0.9920080635184234,-1.6789160304144557,-1.7795903664513038,4.1555274901074,-0.05356433711536202,1.3681283483746283,-1.3478516027200498,1.0,0.4822708614695271,0.49350124022738756,0.40157034207264636,0.8211858294056913,-0.05483158850315359,0.36901335359711523,-0.43182922012355573
2.9000000000000004,-11.848222448632205,-4.89444841865889,-8.715899580703383,-0.12936267884648542,0.14130774490055095,0.4429937018201808,-0.06679888440227748,0.10671833201140767,0.9920428937869576,-1.6775609023895097,-1.7810413106999572,4.155216693878174,-0.053307170864756594,1.3684005737304688,-1.3479837844964493,1.0,0.48284304092531044,0.49406366714110944,0.40126661337269864,0.8211820278351758,-0.05484374446795211,0.36903097183981143,-0.4318198497941092
3.0,-11.274091757628852,-5.067987119460229,-8.641222825876065,-0.13391489886898755,0.1270148174076333,0.4451707290404268,-0.06700497314994171,0.10697782456672454,0.9920009537252016,-1.6760893501277372,-1.7828745951892664,4.155012607574463,-0.053008141720970514,1.3686156676848684,-1.348052270605972,1.0,0.48328124783994364,0.49448186463284033,0.40114173236194395,0.8211227327216819,-0.05485228533906496,0.36908390831167304,-0.43188627348659725
3.1,-11.684460422220692,-4.867188084872344,-8.554246875417814,-0.13345280321112488,0.1371362304401242,0.4436155990747335,-0.06722192226184887,0.1072534647830013,0.9919565387224133,-1.6747478123246073,-1.7844377956786097,4.154751390253947,-0.05275041748208279,1.3688559532165527,-1.3481537615940373,1.0,0.4835939124547861,0.49481885738242815,0.4009472752506417,0.8211407072478134,-0.05484222145462807,0.3690757133481974,-0.4318603795939164
3.2,-11.588380465547443,-4.82642140129956,-8.615797229441561,-0.13977709489561926,0.12092881241287771,0.4429545969161934,-0.06743672781442667,0.10754922940457562,0.9919099650462226,-1.673614501953125,-1.7856879446339997,4.154510021209717,-0.05254246471011687,1.369107723236084,-1.3482675964667554,1.0,0.484077046956545,0.4953544978304622,0.4006696685747105,0.8211471326596084,-0.05483809368488356,0.36907394718966974,-0.4318501956833506
3.3000000000000003,-11.532520822935554,-5.057380632001252,-8.640022602108848,-0.13354149429750456,0.12596748055588386,0.4416031650422693,-0.06764902378726592,0.10786855474550756,0.9918608640954387,-1.6724831323747154,-1.7870561752028955,4.154251665639534,-0.05230196613249288,1.3693395543873739,-1.3483293692218226,1.0,0.4845163666373785,0.49578272128483747,0.400466308764934,0.821125954442286,-0.05484203571715012,0.36907703006592485,-0.43188732782678385
3.4000000000000004,-11.703761103844151,-4.867055998087405,-8.52215214500975,-0.13296080668016022,0.12651038552797306,0.44209601047147645,-0.06724243548800163,0.10733556347181895,0.9919461922408405,-1.6712222171732094,-1.788720367647074,4.154027906698353,-0.052113644997528186,1.3695635795593262,-1.3484038532691442,1.0,0.48473454204429545,0.49599695060385945,0.40034319137373253,0.8211241141831698,-0.054838446365035265,0.3690724137731367,-0.43189522722397045
3.5,-11.311383557255047,-4.995346414798317,-8.63407664476644,-0.1339060203831139,0.12169407650751507,0.4489256015085696,-0.06621371703724292,0.10599570746532785,0.9921575383453388,-1.669870376586914,-1.7900858819046612,4.153779724331029,-0.051875679380914516,1.3698262241247396,-1.3485210577594202,1.0,0.48516446717296446,0.49646231748686814,0.40001916407612564,0.821166264936006,-0.054825516756621055,0.36904973361781107,-0.43183610566978026
3.6,-11.491142881329692,-5.005583591885141,-8.53281253953486,-0.1308106046226674,0.12515405743578287,0.4399903422003043,-0.06443967919520732,0.10369246803273899,0.9925192619622588,-1.6688502530855158,-1.7912751771412752,4.153587214202397,-0.05166057072653392,1.370053967205356,-1.3485685457528571,1.0,0.4857191199229366,0.49704234893523513,0.39977544525297387,0.8211564337409818,-0.054812672058409895,0.36904136613856076,-0.43186358075924225
3.7,-11.68962775146418,-4.919979951349506,-8.641058107087044,-0.13173748318356765,0.1246136272517641,0.44041523888268436,-0.06409026456001507,0.1032925462705704,0.9925840133449768,-1.6678917199947594,-1.7925015216621702,4.153406741889692,-0.05147976252838561,1.370199312298405,-1.3486649537740034,1.0,0.4859464854707272,0.4972917988367762,0.3997083599074607,0.8211217118422507,-0.05480516130063387,0.36906262147676605,-0.43191238702398965
3.8000000000000003,-11.381877628005698,-5.072240945461536,-8.461509627850832,-0.13551840617699062,0.12445993702572938,0.44244530927788017,-0.06510401059940892,0.1046606017476184,0.9923698665594247,-1.6668596008915286,-1.7938588207692518,4.153204134358511,-0.05128684138416536,1.3703796180621237,-1.3487138700964463,1.0,0.48632451747894684,0.4976935296608548,0.39941309789380813,0.8211561805939405,-0.05480224154337962,0.3690271430625328,-0.4318775394452663
3.9000000000000004,-11.421345447040771,-4.792543575940312,-8.592876054914049,-0.13451319704409287,0.12343568718065162,0.4514478268120278,-0.06787678143772086,0.10830380989088732,0.9917964467907768,-1.6656908831399073,-1.7951085323492117,4.153046891193165,-0.05108285046123389,1.3705705407665993,-1.3487864255156385,1.0,0.4865440852837186,0.4979312547817866,0.3992000314140594,0.8211958713536677,-0.05480017204692382,0.36900063763831975,-0.43182497778362877
4.0,-11.503783329667797,-5.133163899709744,-8.617740872611863,-0.13553873653552045,0.12195656387841611,0.4454138069966292,-0.06814493363051717,0.10868716799833904,0.9917375486651046,-1.664534921834456,-1.7962351121196691,4.152805216679097,-0.050918168978556,1.3707603583572725,-1.3488990246875883,1.0,0.48692721653534604,0.49836173061376,0.39903240204072316,0.821174840948851,-0.05478485558403018,0.369004205420422,-0.4318638634724017
4.1000000000000005,-11.380933720331027,-5.073841890566694,-8.718538290866222,-0.13581681195062145,0.123075290398692,0.44965535497857095,-0.06815291956840203,0.10873191049382525,0.9917320962682515,-1.6635605234299262,-1.7974473225508965,4.152621720390599,-0.050713840408800163,1.3709257831991155,-1.3489481319133483,1.0,0.4873347682998003,0.49876054892408805,0.39893708097720015,0.8211206371282056,-0.05480351478646164,0.36904785442915156,-0.4319272568274196
4.2,-11.69242563994251,-5.178300451907227,-8.721173177030487,-0.12862978840260036,0.1323538713728226,0.44211069498772604,-0.0684132231943151,0.10906789705813723,0.9916772162015367,-1.662611961364746,-1.7986581968712203,4.152394142655786,-0.05054266870532231,1.3711021788186841,-1.34899281316956,1.0,0.4875445958525146,0.49898104091528456,0.39882225146595396,0.8211273102590977,-0.05479331701765031,0.3690509065365533,-0.43191325650113027
4.3,-11.62708350519136,-4.900674635834007,-8.703457860857558,-0.1293783042867675,0.12984625102340452,0.4471686686429992,-0.06850265038993744,0.10914052406260269,0.991663067251096,-1.6617157308469654,-1.7998746984986365,4.1522384766671685,-0.05038229376093569,1.371283754528606,-1.3490867324474345,1.0,0.487885907733117,0.4993099199085595,0.3986030563465498,0.8211392338096359,-0.05480134815308285,0.36903937631848316,-0.43189942077478405
4.4,-11.650965651165667,-4.761349082542039,-8.61575750713934,-0.12296705238650713,0.1272509180482656,0.4443160432722046,-0.06827303880520007,0.1087399457844323,0.9917229350535794,-1.6604915308925083,-1.8010803435912073,4.152009839978899,-0.05015909466095848,1.3714440601893834,-1.349195773074013,1.0,0.4883452190972833,0.4997500024010594,0.39820241116371596,0.8212104009242427,-0.0548077148679182,0.3690029075904341,-0.43179444877696993
4.5,-11.461539468943197,-4.733764074072042,-8.626756900194339,-0.12435730303539104,0.12406582901475469,0.4395618142995752,-0.06855369173254787,0.10906419031680735,0.9916679680539607,-1.6593737525661496,-1.8022700609616793,4.151800017670123,-0.04998096845521183,1.3716152601868568,-1.3492516963330599,1.0,0.48860342482255376,0.4999745213585091,0.39812877507758715,0.821182987291456,-0.05483052264611269,0.36903412203213326,-0.4318170121074518
4.6000000000000005,-11.389917635609306,-4.903127910302646,-8.553069346525241,-0.12543360436376683,0.12456876846467803,0.4400456809167974,-0.06876633133465625,0.10941321521665875,0.9916147713634494,-1.6582877863509227,-1.8036114717257667,4.151627802155906,-0.04980737779585282,1.371842384338379,-1.3493353877940124,1.0,0.48893109308631305,0.5003286280827407,0.3980603990341095,0.8211272956190001,-0.05483317359936709,0.3690670045021442,-0.43189447050206997
4.7,-11.303700578910913,-5.268157469779004,-8.865734640320431,-0.13707190502169797,0.12213389471938584,0.4442331894927294,-0.06889091772735106,0.1096088759740613,0.9915845574348774,-1.657370526814835,-1.8046605086066279,4.151392982585058,-0.049677706353813016,1.3719978433786888,-1.3493736324715517,1.0,0.489354215816441,0.5007934714763845,0.39775947295276604,0.8211585301916147,-0.05482964451853115,0.36903082425825817,-0.43186644824851694
4.800000000000001,-11.462578624053553,-4.881332107077395,-8.641807194767189,-0.12841520487373045,0.12079705353812907,0.4433155059991329,-0.0688971244026467,0.10955543055733931,0.9915900328762045,-1.6563482284545898,-1.8058465503603938,4.151208322615851,-0.04949999750170902,1.3721865723625062,-1.349457089100973,1.0,0.48954769367154666,0.5009746183938337,0.3976734207865221,0.821150727884022,-0.05483554665542575,0.36905151745724474,-0.4318628513556668
4.9,-11.516367929192356,-5.174951567773988,-8.750338853424717,-0.13489991822102226,0.12785596487509254,0.43701747867876545,-0.06878349829601955,0.1093923318828798,0.9916158906629224,-1.6551958265199158,-1.807127462606367,4.1510217594223455,-0.04931848828919371,1.3723689779463746,-1.3495405356036585,1.0,0.48991647326376425,0.5013260356009845,0.397470820947279,0.8211611329272449,-0.05482949450113862,0.36904643438283147,-0.43184817884496374
5.0,-11.428328479260935,-5.173999142551605,-8.82508574194032,-0.13783992706375953,0.13032049306954552,0.43995409685225806,-0.06864927187241654,0.10921038284184627,0.9916452523554082,-1.6541746074298147,-1.808520357724816,4.150854587554932,-0.049186445198550026,1.3725619316101074,-1.349600163267074,1.0,0.4903248325432926,0.5017323901823199,0.3972651963750644,0.8211595665675963,-0.05483393650232121,0.3690531985147524,-0.4318448127605653
5.1000000000000005,-11.1891948424033,-5.001911711354977,-8.561371620296612,-0.13716654730815978,0.1230679035857581,0.44102067656718713,-0.06859605930216688,0.10914697934610233,0.9916559298591405,-1.6530694047338288,-1.8097202036609188,4.1506350625028885,-0.049021059198917735,1.3727441748254974,-1.3496363798724573,1.0,0.49049912048754934,0.5019567842792622,0.3971514311238698,0.8211619247376292,-0.05483521462159583,0.36904098311916045,-0.43185060539153947
5.2,-11.441071158202604,-5.013782234614231,-8.669983386932088,-0.13318650328955645,0.1277137729118937,0.4373087538354718,-0.06869755826429241,0.10930996136603076,0.9916309263113785,-1.6520414352416992,-1.8107147359196678,4.150434970855713,-0.048878238749231404,1.372925329157436,-1.3497288356713224,1.0,0.4908807594887252,0.5023421245127696,0.3968492252396467,0.8212090118262109,-0.054823259635922814,0.36900889326026726,-0.4317900019606092
5.300000000000001,-11.350395222805815,-5.0653212105674195,-8.489871388393272,-0.13294332956878194,0.12450210468228136,0.4410282963150854,-0.06879905722641795,0.10947294338595918,0.9916059227636165,-1.6509430140740664,-1.8118121225936423,4.150236818242767,-0.048683533536705126,1.373110606019858,-1.3498091536573773,1.0,0.4912922437225237,0.5027653948499973,0.3967652781936171,0.8211411807622602,-0.0548302530708416,0.3690413143952753,-0.43189039451457645
5.4,-11.20477554345166,-5.2054734901165105,-8.755322628968596,-0.13840495851494541,0.12079001561302413,0.44814836991909945,-0.06883236501820096,0.10953459234378528,0.9915968216508081,-1.64978412035211,-1.8131958137116244,4.150002956390381,-0.04851414023876627,1.3733230095623588,-1.3498588708740826,1.0,0.491516901978399,0.5029717283404359,0.39668235565164267,0.8211306225198147,-0.05483430178772604,0.3690506389706613,-0.4319019865467405
5.5,-11.346791171283906,-5.170359837352436,-8.658483993294253,-0.1386011231502543,0.11901997128183332,0.4422685716592872,-0.06873099178295437,0.10939610335402308,0.9916191286552251,-1.648809405919048,-1.8146149256048278,4.149860795614179,-0.048350803106321706,1.3735100974137535,-1.3499606291400355,1.0,0.4919395027516509,0.5034120864012269,0.3964294686491707,0.821142739377064,-0.05481259800283392,0.3690446322320601,-0.4318868371335417
5.6000000000000005,-11.424156402505773,-5.075958871695074,-8.696501011600429,-0.1389833493636243,0.1176311446407463,0.44330320045574095,-0.0686296185477078,0.1092576143642609,0.9916414356596419,-1.6477575302124023,-1.8156529328106035,4.149654865264893,-0.04820187509570317,1.3736835601171162,-1.3500284475274154,1.0,0.4921814537480421,0.5036668202566458,0.3962420404026788,0.8211654961149414,-0.05481427784954883,0.3690302585254846,-0.43185563702092494
5.7,-11.429775966559504,-5.042803019118166,-8.711415741709994,-0.12767145080804215,0.12475383169024677,0.44010123088590425,-0.06851661098996481,0.10913536063771483,0.9916627104329225,-1.646751790347904,-1.8167004272144278,4.149433504847933,-0.04802746067135339,1.3738521989724288,-1.3501016023506582,1.0,0.4925299588466597,0.5040380001743886,0.39600800375569956,0.8211845594702575,-0.05481504598430147,0.3690134668785629,-0.4318336384345738
5.800000000000001,-11.565154929998885,-4.807697206744743,-8.608633933715996,-0.12980022624476323,0.12198861877646107,0.4422073474989225,-0.06850128196782726,0.10913289711746633,0.991664019740153,-1.645650303210525,-1.8178278949089492,4.149247646331787,-0.047925894509751224,1.3740407658306668,-1.350170383425321,1.0,0.4928965196119832,0.5044084683210118,0.3959015459640999,0.8211408565415269,-0.0548088770984953,0.3690435758278915,-0.4318917918294034
5.9,-11.400064442573429,-4.949808719125425,-8.426851056608635,-0.13093034294297345,0.11601567545191706,0.44357620156120997,-0.06870593684294604,0.10938600441741547,0.9916219532236262,-1.6444098937453564,-1.8192308299468607,4.149085967390251,-0.04776650839569201,1.3742235749236436,-1.3502155141735477,1.0,0.4930745334581813,0.5045683409063072,0.3958677271793525,0.8211135354446811,-0.05481714536027187,0.3690685199613439,-0.43192137022568206
6.0,-11.438039269590506,-5.132931761436069,-8.667523982869039,-0.13418594175338108,0.12623841324262947,0.4411676924690427,-0.06872840569596127,0.10940327378350365,0.9916184279623006,-1.64347416360403,-1.8205433371088415,4.148879518955431,-0.04760296307988835,1.3743596031514216,-1.3503096693947285,1.0,0.4935931488001344,0.5051288234014366,0.39558122228870474,0.8211203349680551,-0.054815632697210806,0.36906495833254893,-0.4319116789865115
6.1000000000000005,-11.419115352095508,-5.083664536937557,-8.768773357454062,-0.13551102903915335,0.1267718727804714,0.44138324270437146,-0.06833734860976828,0.10888523806979084,0.9917023836645045,-1.64245718351719,-1.8216897449889125,4.148685603623519,-0.04744912437827406,1.3745478100727702,-1.3503936848573708,1.0,0.49379960445812787,0.5053353707659406,0.39545489903877684,0.8211295562175361,-0.054810202540302534,0.36905398827388897,-0.431904210841501
6.2,-11.483078804166178,-5.250543403068504,-8.582280113799696,-0.13427718562823343,0.12208641267388207,0.43718176042541057,-0.06809636053924673,0.10856318023314095,0.9917544574267216,-1.641535537735994,-1.8227080135578502,4.148543452809869,-0.04727460210386392,1.3747265740498296,-1.350459377829862,1.0,0.49412874760419584,0.5056767918686466,0.3950954192489419,0.821210159196879,-0.05480700854284373,0.36899179728642145,-0.43180449254466796
6.300000000000001,-11.419991569946822,-4.9692706558065405,-8.633777385432849,-0.13152762970060358,0.12152390782817477,0.4385608637700781,-0.06821284361914953,0.10870795052125735,0.9917305869727804,-1.6403410276321115,-1.8240307857705869,4.148319150462648,-0.04716051845672229,1.374899919911312,-1.3505175124193178,1.0,0.49446478760850937,0.5059671386034635,0.39499266650363873,0.8211701706253334,-0.05482982482936771,0.3690321868865302,-0.43184312687142173
6.4,-11.668068499685603,-4.8238328143776545,-8.646357328210604,-0.12846508319078395,0.12683082728505501,0.43664559276297615,-0.06849507320248545,0.10906827373509384,0.9916714516749237,-1.6390863907263504,-1.8253181523850655,4.148144245147705,-0.047051656605045254,1.3750615992584803,-1.3505914410678022,1.0,0.49493932400845797,0.5065000884543338,0.3947559310680993,0.8211616598654721,-0.05480532351620848,0.36903876054648377,-0.43185680276635846
6.5,-11.310450446280726,-4.723631830445951,-8.548643007336933,-0.1270700660822573,0.11667636184000069,0.4408345441757243,-0.06902825317478764,0.10975684653706057,0.991558631063963,-1.6379804611206055,-1.8265028663990601,4.147957977880945,-0.04689473368776883,1.3752444381283555,-1.3506501113825455,1.0,0.49521480552666297,0.5067691535091384,0.39467700107676884,0.8211352399347495,-0.05483427581580856,0.36905654078427164,-0.43188816797569796
6.6000000000000005,-11.326675880355925,-5.168830336417207,-8.742444528849601,-0.12883841766971457,0.1214826976655206,0.43744605925437413,-0.06915860982985211,0.10992641552208758,0.9915307639582631,-1.6370884509548373,-1.8276081723543356,4.147750375109346,-0.04671839633901534,1.375393866219834,-1.350692097340719,1.0,0.4954367712193989,0.5070104025754828,0.39456625835648107,0.8211292396041969,-0.05483236642879417,0.36906340133329535,-0.43189395602989306
6.7,-11.427140136976524,-4.992830180733514,-8.512148447282526,-0.1336070394749827,0.11861302564596654,0.4418856979503956,-0.06875431604015131,0.10934585731949303,0.9916227915301894,-1.6361583169169873,-1.828876921305573,4.147574258926768,-0.046564887043579216,1.3755550384521484,-1.3508197976586562,1.0,0.49578168214185886,0.5073680613475169,0.3943193052274575,0.8211550675993193,-0.05481856271576159,0.369052430245161,-0.43185597583902463
6.800000000000001,-11.299862521105789,-5.06396730356016,-8.741583082965397,-0.129461975956816,0.12105754846506363,0.4443301771772179,-0.06836401464570953,0.10879986590565228,0.9917101037339596,-1.6349476606310454,-1.8300518578437615,4.147402286529541,-0.04642356904755281,1.375758171081543,-1.3508463862739832,1.0,0.4961814936514335,0.5077546879100313,0.39401096474312775,0.8211918908023216,-0.054827746634564564,0.3690281496808916,-0.43180553658166676
6.9,-11.64621789498216,-4.944898273421478,-8.945365105790902,-0.1300511668385251,0.12550833522298785,0.44476841907000836,-0.06848857247278949,0.10901941040323794,0.9916773987242037,-1.6335667093795583,-1.831259740650976,4.14722204208374,-0.046375714882858236,1.375928578982436,-1.3509351824267195,1.0,0.4964253021159209,0.5080079556818958,0.3938912747693133,0.8211837919162392,-0.054839486003596324,0.3690170687344387,-0.4318289171090457
7.0,-11.522752460153828,-5.048924776515114,-8.679427330871663,-0.1454741352737326,0.12405256279275587,0.43340448487614486,-0.06857220942190691,0.10915464425119141,0.9916567450712955,-1.633603762441358,-1.8313092597498197,4.147177255504373,-0.04637384310853432,1.3759588834116419,-1.3509377130634819,1.0,0.49673122443535117,0.5083544337503154,0.39386093413863416,0.8211229490143384,-0.05483040478896265,0.36905751089757644,-0.43191119800574795
7.1000000000000005,-11.638886425146747,-4.963239930943238,-8.693465200067337,-0.13126966924837544,0.12191616273446935,0.4357456000236585,-0.0686421192524632,0.10926159565895566,0.9916401341079021,-1.6336522937593398,-1.8313105293761303,4.147164585858133,-0.04635324456903487,1.3759497760953965,-1.3509541330952546,1.0,0.4968690533712975,0.5084682961091742,0.393808271148178,0.8211243026290069,-0.05482437058276607,0.36906688694257817,-0.4319013787715256
7.2,-11.449212836530153,-5.140503957642945,-8.8027595486925,-0.1321176276083888,0.12239905226358758,0.4400515547887307,-0.06872898616596018,0.10936898562998747,0.9916222691044102,-1.6336660385131836,-1.8313168683150247,4.14721155166626,-0.04636788641925104,1.3759493827819824,-1.3509333773520722,1.0,0.496869731287479,0.5084690656878363,0.3938108575140786,0.8211196272049678,-0.05482663536961827,0.36906735549072583,-0.43190957963896026
7.300000000000001,-11.721437840688441,-5.307369601554799,-8.921698429523632,-0.13476649486413098,0.12628844036370485,0.43547886795023205,-0.06882187120584468,0.10947653124861402,0.9916039590378237,-1.6336693888105638,-1.8313334842770552,4.147218948860848,-0.04634173334155278,1.3759691777426841,-1.3509595344857996,1.0,0.4968595979549962,0.5084845652804975,0.3937730379495989,0.8211428633268631,-0.05481156637812563,0.36905111328626433,-0.43188119428924626
7.4,-11.445315523781934,-5.161311312715357,-8.755029069753054,-0.13424477883600602,0.12317552173291994,0.4398564089838055,-0.06881301413976915,0.10946635140713654,0.9916056675452531,-1.6336497312030223,-1.8313445672791955,4.147189793645996,-0.046369131067591586,1.3759463452700194,-1.350931469594137,1.0,0.49687650039287456,0.5084773139402756,0.3937719965431801,0.8211425312169406,-0.054830447163599715,0.3690529189438346,-0.4318778861084588
7.5,-11.377811275908119,-5.229989846498111,-8.735622343147032,-0.13516028417818282,0.11881915668722745,0.43623500360683193,-0.06845830673530506,0.1090559892632609,0.99167542487605,-1.633669531317969,-1.8313914657728387,4.147175312042236,-0.0463782727827453,1.3759486061276551,-1.350919548665182,1.0,0.4968649574271639,0.5084905002583574,0.3937702213356004,0.8211424821096799,-0.05482187783533024,0.36904097557447163,-0.43188927299992563
7.6000000000000005,-11.54764556263528,-5.262794525476624,-8.665813580379785,-0.1386251256961402,0.12291764049534339,0.43454671993008753,-0.0685476712098689,0.10917059991452717,0.9916566424095521,-1.6336840587015857,-1.8313402778533698,4.147193880238689,-0.04634173334155278,1.375952400333976,-1.3509284520421434,1.0,0.49686086907604377,0.5084968136083637,0.39377492516844315,0.8211449301462767,-0.05480807458462464,0.3690423902233908,-0.43188516167333113
7.7,-11.550046467984355,-5.089661933130686,-8.721632512417854,-0.13259689467394434,0.12615676215057287,0.43263535161319905,-0.06877005916960818,0.10944236990150485,0.9916113372441773,-1.6336660385131836,-1.83137142960346,4.147199136172714,-0.04637200397829431,1.3759732423673257,-1.3509257216389132,1.0,0.49686697066527596,0.5084942611983154,0.3937511471801872,0.8211591111030092,-0.05481111024005765,0.36903800220059074,-0.4318615627473288
7.800000000000001,-11.539667398094718,-5.049957206166691,-8.803089647240245,-0.13299069375913788,0.12376866849114673,0.43568706188912903,-0.06882843924048242,0.10951985505508798,0.9915987312235337,-1.6336774826049805,-1.8313471279540003,4.1471991539001465,-0.04638279382367229,1.3759511851575872,-1.3509147278070859,1.0,0.49687414905209526,0.5084840804789015,0.393777663920626,0.8211363470800552,-0.05482641138934362,0.36905110501420285,-0.4318917063408201
7.9,-11.726041345257917,-5.107333798220087,-8.719435904966204,-0.13181469775212026,0.12962558704872587,0.4349548699942996,-0.06878720899800714,0.1094599426770073,0.9916082029371817,-1.6336675119474182,-1.8313787000615793,4.1471749942299,-0.04637052780965086,1.3759369850158691,-1.3509052939780046,1.3615411918722606,0.49687103311706743,0.5084780850818321,0.3937701937077829,0.8211415788839846,-0.05481870594050087,0.3690528595129246,-0.43188123806465506
8.0,-11.364256811015819,-5.030773832334967,-8.711363339615877,-0.1320088418261471,0.118833007385817,0.43439956021798437,-0.06870670836523513,0.10934650522110764,0.9916263044792101,-1.6336555651866407,-1.831348663771944,4.147196244496697,-0.04637612254291239,1.3759542166250023,-1.350935445866497,2.0,0.4968688456431958,0.5084722153301515,0.39379525276989696,0.8211321555639571,-0.05482797575357418,0.369061098377553,-0.431890937434451
8.1,-11.55128285638426,-4.65781721024838,-8.773636286616616,-0.12227894636339187,0.12050571798153363,0.43581372233170385,-0.06864960358180207,0.10926826109180404,0.9916388835336183,-1.6336552427869344,-1.8313663713830968,4.1471991539001465,-0.04636833392428222,1.3759832492428383,-1.3509369304217607,2.0,0.49686795062310923,0.5084888139009822,0.3937513590119111,0.8211529020964407,-0.05483038292479181,0.3690441835157423,-0.43186564010130934
8.200000000000001,-11.326595304560465,-4.953061579151742,-8.68516051521232,-0.13164573626976145,0.11685206189341248,0.4362205865759805,-0.06879187295990986,0.10945935570681815,0.9916078758249858,-1.633669068008933,-1.8313937106446094,4.1472130664141345,-0.046356873109741605,1.3759808257044026,-1.3509438673602503,2.0,0.49686193487364394,0.5084940316151333,0.39374319556362897,0.8211585458596306,-0.05482639592559842,0.3690302496619767,-0.43186732187782656
8.3,-11.668622123471458,-4.853625768140798,-8.842073970630276,-0.12240547651771676,0.12469281981176183,0.4323158990420047,-0.06903210725979553,0.10978279319322,0.9915554512296373,-1.633652687072754,-1.831363201386758,4.147187599099797,-0.04633001686939363,1.3759691318813845,-1.3509076277362269,2.0,0.4968708436240231,0.508480850944592,0.3937643485580204,0.8211490947880544,-0.05482831898936976,0.3690400206839816,-0.43187669849058274
8.4,-11.562164095216191,-4.997399801320716,-8.794264216563292,-0.1342595953776588,0.11932806226496169,0.4386774897516235,-0.06873479507004689,0.10940201104929681,0.9916179834387526,-1.6336517376098354,-1.8313600202320504,4.147186281402574,-0.04635365427050786,1.3759598378499058,-1.3509547794848544,2.0,0.49687128602086167,0.5084848547110535,0.39375900102957473,0.8211514321295728,-0.05482174225564118,0.36903952611287655,-0.4318735118689166
8.5,-11.596656725635437,-4.804239304667067,-8.653707383382063,-0.1293636061074863,0.12069674243062342,0.43671562698449895,-0.06828999690109322,0.10882555049949127,0.9917123731697826,-1.633652687072754,-1.8313868926810053,4.147186756134033,-0.04637261480904447,1.3759626599273296,-1.3509402717552093,2.0,0.49687854696773076,0.5084814663361785,0.3937659065691765,0.8211497836999112,-0.054828627864028937,0.3690347209571381,-0.4318798780033914
8.6,-11.642639727258452,-4.983400787903345,-8.651968342402874,-0.1326906479094725,0.12221373675640357,0.4369399990615147,-0.06857591275315253,0.10919240368884399,0.991652294147443,-1.6336860473593815,-1.8313833675780238,4.147196034617968,-0.0463807759927781,1.3759493827819824,-1.350961710598586,2.0,0.49688492652152894,0.5084761319387,0.3937526273216424,0.8211515942914849,-0.05483085672473092,0.3690406439682363,-0.43187109123312994
8.700000000000001,-11.699781897046263,-5.106845962733563,-8.57634320062165,-0.13822230529930202,0.12007867518822536,0.433469113066498,-0.06863617662613954,0.1092582935371359,0.9916409088780533,-1.6336836506110195,-1.8313689603592531,4.1471946488006495,-0.04635815937000445,1.3759493827819824,-1.3509403065200727,2.0,0.49687157324523384,0.508481959970259,0.39376096275179745,0.8211464076890915,-0.05482574468722015,0.3690411238329725,-0.43188119174014583
8.8,-11.630235572821114,-4.909380548898551,-8.818416476743748,-0.1370414805846713,0.11964528540550344,0.4446349328770385,-0.06857768070494628,0.10916220845823932,0.9916555416997217,-1.6336825321544302,-1.8313700456148003,4.147164371351762,-0.04634173334155278,1.3759627047452059,-1.35093313706767,2.0,0.4968688749989345,0.5084710714770933,0.3937636533182976,0.8211506559414247,-0.054832368338217044,0.3690425031915402,-0.43187109473488994
8.9,-11.50696256048543,-5.044148854126952,-8.720440467273308,-0.14028941852358093,0.11475929575942029,0.4376493997094662,-0.0685678581398156,0.10910741582957888,0.9916622506160028,-1.6336889266967773,-1.8313720503534947,4.147181667764851,-0.046384558768918865,1.3759369850158691,-1.350942786818666,2.0,0.496876457596081,0.5084793100412826,0.3937281992536405,0.8211675410330375,-0.054824565404714656,0.3690385852179967,-0.43184332714798135
9.0,-11.394684107247238,-5.221960820968976,-8.58442421055094,-0.13371542114812687,0.10747782716827282,0.44498994295084976,-0.06852051272303634,0.10906079169202448,0.9916706506345206,-1.6336629340966287,-1.8313812995566408,4.147216281061894,-0.046367922999852824,1.3759633717323205,-1.35093588541591,2.0,0.4968883252013683,0.5084646140417635,0.3937483793413399,0.8211575203407798,-0.0548278992400308,0.3690537404456479,-0.4318490070797698
9.1,-11.740486951321081,-5.781882079913008,-8.481173075155098,-0.11252726111204836,0.10116224487922433,0.4341442545341038,-0.0684725664035583,0.10904167635876405,0.9916760629827565,-1.6336302980463555,-1.8313600456755255,4.147188336798485,-0.046365511282992794,1.375961908381036,-1.350921129329634,2.0,0.49687478730283835,0.508474831606697,0.39376343946361386,0.821148013230897,-0.054826099351583335,0.36904635709916617,-0.4318736221496695
9.200000000000001,-12.131289215582065,-5.919224275384521,-7.9867056317685305,-0.10082903615479455,0.0730675311780033,0.4350957579771332,-0.0685989825237123,0.10919970414104367,0.9916499310503136,-1.6336889266967773,-1.8313925379045672,4.1471741367339625,-0.04635009517288386,1.3759772605746747,-1.3509474264578742,2.0,0.4968801283514898,0.5084672355392917,0.39374187365937935,0.8211582857689124,-0.05483289904148955,0.36904140358157317,-0.43185745951448995
9.3,-11.954852589921597,-5.897072927164516,-7.681664864096218,-0.09265847459475132,0.07144483683321556,0.43969920132853785,-0.06823472761714379,0.10871391051566145,0.9917278779135216,-1.6336660385131836,-1.8314027043520515,4.147179817126118,-0.04638247804945855,1.375951545222246,-1.3509801982646872,2.0,0.4968698785995378,0.5084854329990421,0.39374094200407483,0.8211610462490572,-0.05481619043933515,0.3690359004160576,-0.4318590344000945
9.4,-12.434306737063256,-5.926776604880265,-7.063876061286831,-0.08290044778909685,0.049218279327838045,0.4315502489947524,-0.06754555909497542,0.10780178981985632,0.9918747439016837,-1.63369661428608,-1.8314180057419316,4.14721155166626,-0.04637875799504465,1.3759517692715664,-1.3509438673602503,2.0,0.4968820783317491,0.5084825702941024,0.3937344550780509,0.8211629074716621,-0.05483962786023946,0.3690317719197607,-0.4318560476855674
9.5,-12.745140347108771,-6.295056424923695,-6.854077518494861,-0.06825450890833662,0.016892707298032134,0.42406294945091283,-0.0671278566021985,0.10722763512744846,0.9919656681498101,-1.633665763758932,-1.831407464564882,4.147163915166611,-0.04638964857823517,1.3759734797688405,-1.35094312159871,2.0,0.49686597786592146,0.5084997670528051,0.393748401407085,0.821155906394939,-0.05482745830484023,0.3690338847913617,-0.43186909947845686
9.600000000000001,-13.17493143155828,-6.329022891007525,-6.800426133281098,-0.04373987142131481,-0.009268042256408364,0.4251845592091313,-0.06689574132864151,0.1068845302312231,0.992018347936945,-1.633675961402839,-1.8313833675780238,4.147233737756557,-0.046378704312759596,1.376009464263916,-1.350919548665182,2.0,0.4968691111223663,0.508500636372285,0.3937310178790629,0.8211642525009882,-0.054823118018294474,0.36903284163326344,-0.4318546722467221
9.700000000000001,-12.944352865612647,-5.682372464911196,-6.758233181801599,-0.09037358168785847,-0.012259748475383903,0.42120763767236546,-0.06668352067977243,0.10657527615489473,0.9920660351359447,-1.6336549992435316,-1.831417460186325,4.147222995758057,-0.04640333098394135,1.3759576405347602,-1.3509438673602503,2.0,0.49688719268617987,0.5084762742511828,0.3937313725603928,0.8211599915484062,-0.05483556294286696,0.36905236903002847,-0.4318445070048752
9.8,-13.085916695933882,-5.202627485822374,-6.155202004274815,-0.10403221737221233,-0.013894082594298635,0.421615209457476,-0.06668574103085573,0.10663089469022895,0.9920599080203312,-1.6337052112904256,-1.831437849758261,4.147202065537028,-0.046413735752441454,1.3759338278905826,-1.350937180881867,2.0,0.4968633365200935,0.508508902417734,0.39374576526998545,0.8211529397984677,-0.05481413620939199,0.36903129706364074,-0.43187864235162143
9.9,-12.86205341275873,-5.453154996692962,-5.540920978619557,-0.11210668970836392,-0.020949065410933623,0.4279858339221357,-0.06668557200989693,0.10667993416016101,0.9920546486336684,-1.6336860368101116,-1.8314196072020472,4.147213844450282,-0.04635389043023639,1.3759608268737793,-1.3509468776588605,2.0,0.4968707307253177,0.5084948038855527,0.39371471156395144,0.8211699614110112,-0.05480750867392165,0.3690303746416692,-0.43184790616723606
10.0,-12.72483850901366,-5.244265174173525,-5.016412580748412,-0.1026715718490886,-0.019861708607011863,0.4300078187833207,-0.06665684918299347,0.10665035156811163,0.9920597589021437,-1.6336889266967773,-1.831426745210613,4.1472065774290545,-0.04637797296557622,1.3759496468428343,-1.3509219037533584,2.0,0.4968669625595778,0.5085047074159854,0.3937080081991409,0.8211721260400959,-0.0548101054091641,0.3690176559392209,-0.43185432887137754
10.100000000000001,-13.089004297027198,-5.045267627616818,-4.947436249216372,-0.10122013123385178,-0.02318261918697662,0.4331449250873469,-0.06666588681145509,0.10666895173395118,0.9920571152965232,-1.633672012657774,-1.831405052173931,4.147211868100817,-0.046371615865240697,1.3759382551247432,-1.350931469594137,2.0,0.4968643752614203,0.5084934654844073,0.3937212202971493,0.8211699520280351,-0.05481634194247255,0.36902107276702384,-0.43185475150355257
10.200000000000001,-12.977958972174267,-4.888280166722074,-4.839458397457624,-0.12224485370743812,-0.024167014281477925,0.4309394981558864,-0.0671983253930974,0.10735541729394756,0.991946994568253,-1.6336670196243837,-1.831414100085756,4.147204385390445,-0.046372942686443146,1.3759356014823385,-1.350952417169596,2.0,0.49686510086586116,0.5084897779839648,0.3937497452767172,0.8211518435076841,-0.05482932182031615,0.36903600606768877,-0.4318747753669628
10.3,-13.090960496612011,-4.660742045501449,-4.635297346028557,-0.1256294970929046,-0.032512241456192206,0.42756510081524374,-0.06725025751528016,0.10741950383786467,0.9919366408682823,-1.6336812064088984,-1.8313873754236534,4.147178998209204,-0.04637409400316179,1.3759571407068112,-1.3509237116693082,2.0,0.49687790051737535,0.5084822963947415,0.3937350015895792,0.8211597339283616,-0.05482982024762108,0.36903405424147184,-0.43186137706029964
10.4,-12.900256500714956,-4.751050118651602,-4.432060745283529,-0.14544732779996175,-0.03936628798261411,0.427951196072121,-0.06695709441176463,0.10703715771033971,0.9919978750217063,-1.6336948221690302,-1.831407209435934,4.14717803302943,-0.0463293423047489,1.3759581058865857,-1.350910462097887,2.0,0.49687115680153104,0.5084988455084558,0.3937207723902082,0.8211677854885053,-0.05481372894036725,0.3690294639841203,-0.43185203242215814
10.5,-13.097093900788993,-4.794036853232845,-4.341623089138867,-0.14605396791671732,-0.04979329609822595,0.42993552061865237,-0.06723005076720374,0.10739931922936655,0.9919402656364705,-1.6336865572662713,-1.831392820350202,4.147201720783195,-0.046356221153555956,1.3759493827819824,-1.350924583705007,2.0,0.49686903838415136,0.5084844691891607,0.39372849506278945,0.8211668132697214,-0.05481781615731057,0.3690280658244137,-0.43185455705605985
10.600000000000001,-13.751234744155774,-4.643991350143508,-4.4542354051285455,-0.13141522462678307,-0.06349136078677947,0.4346296194283563,-0.06750951254842168,0.10779414898972896,0.9918784060012084,-1.6336840176768468,-1.8313901749445511,4.147192074238958,-0.046374348664751326,1.3759629975150374,-1.3509144351027542,2.0,0.49685421756273285,0.5084963651376251,0.3937357180590234,0.8211582903991841,-0.054808741146637904,0.3690328123965777,-0.43186785869902655
10.700000000000001,-13.643719703476043,-5.006146598323062,-4.468824202021311,-0.12924187973290638,-0.09673387730715537,0.4320413530533226,-0.06741942664323218,0.10768924660886678,0.9918958655921656,-1.6336889266967773,-1.8313835126938744,4.147186901249884,-0.0463537516508813,1.375996875555894,-1.3509437699798768,2.0,0.4968572548433085,0.5085046065800117,0.39372784530663757,0.8211660293984323,-0.05481303340393981,0.3690198366329371,-0.4318636864827509
10.8,-14.11056103743788,-5.013841871188013,-4.3707479527147655,-0.12122160578631776,-0.12454606913618603,0.4311023558438281,-0.06703231302212197,0.10718212346457252,0.9919771424120769,-1.6336983953316535,-1.8314275302626921,4.147244858473239,-0.04640082525212249,1.3759493827819824,-1.350930480022773,2.0,0.4968572909328746,0.5084931967877316,0.39375461975558834,0.8211521513777517,-0.05481558430692458,0.3690321488461639,-0.43187922978856397
10.9,-14.287217167220087,-5.167464573633112,-4.287153630012049,-0.12357612022616099,-0.15581513909956982,0.43588601996472237,-0.06727509171932683,0.1075094128104623,0.9919252078014598,-1.6336846329598724,-1.83138992574081,4.147184178482302,-0.046368963518412354,1.3759493112784336,-1.350919548665182,2.0,0.496874087363797,0.5084892757005136,0.39374317735477987,0.8211595020844698,-0.05482093356468361,0.3690397416009349,-0.4318580860636946
11.0,-14.336601685088713,-5.09340601776872,-4.3520820282603045,-0.12364306305332338,-0.17035990374446963,0.4251028848844262,-0.0675113309457464,0.10782808592096906,0.9918746510354018,-1.63366880341885,-1.8313924083969098,4.147222995758057,-0.04635365427050786,1.3759617041996157,-1.350961948998022,2.0,0.49685600689135634,0.508511571329659,0.3937262211035607,0.8211645349701968,-0.05479361822894964,0.3690270997138923,-0.4318627855989834
11.100000000000001,-14.46991673540475,-5.200152616502644,-4.5119854484141815,-0.1218143997745224,-0.17881656555173847,0.42330140984624864,-0.06744400756864338,0.10774679289792877,0.9918880538916657,-1.633673835953265,-1.831407209435934,4.147211448027624,-0.04637797296557622,1.3759727478027344,-1.3509354201334955,2.0,0.4968547116393228,0.5085134379759172,0.3937308359978655,0.8211613846147399,-0.05479017539558678,0.36902975785076225,-0.4318669412195518
11.200000000000001,-14.41749605291652,-5.13766182455604,-4.542040011735283,-0.11355438893848922,-0.18400582705429033,0.4277263809242765,-0.06737668419154035,0.10766549987488849,0.9919014567479295,-1.6337032396405349,-1.8313605668870665,4.14721155166626,-0.04635569262917695,1.3759608268737793,-1.3509404878255367,2.0,0.49685464813675345,0.508511860563479,0.39374237345790875,0.8211566537237933,-0.05481216627301667,0.3690165140194303,-0.4318844623907521
11.3,-14.706089345521137,-5.279458791222011,-4.688591597935394,-0.11432241120705505,-0.18179886784179028,0.42469415743181493,-0.06731084918980641,0.10758598086775571,0.9919145658376088,-1.6336979685201896,-1.8313714466490687,4.147213711285624,-0.04634847212945049,1.3759408800616022,-1.3509404845150537,2.0,0.49684532128312364,0.5085097735833278,0.39373243386019935,0.821165779337531,-0.05480323300049129,0.3690153033907021,-0.43186927925142715
11.4,-14.436134577650698,-5.5011362306435165,-4.8970671542486235,-0.1208831801286501,-0.1900711547586799,0.42794837901359833,-0.06740220353025957,0.10769381808763297,0.9918966498396976,-1.6336660385131836,-1.8313921761049057,4.1471991539001465,-0.04634821159250359,1.375931760044985,-1.3509205842381284,2.0,0.4968463896457407,0.5085173149865839,0.39372456312000675,0.8211658002618227,-0.05479558718779942,0.3690212489101862,-0.43186512936085797
11.5,-14.450970578659797,-5.465592137533394,-4.901506959820813,-0.1191213225250782,-0.19017264768601252,0.42938542564786236,-0.06749355787071272,0.10780165530751024,0.9918787338417865,-1.633693724781741,-1.8313906749637447,4.14721155166626,-0.04636605203662114,1.3759499723819926,-1.3509371495745395,2.0,0.4968499803727546,0.5085176776804637,0.3937156577214034,0.82116709173166,-0.05479958285544371,0.36902264818379726,-0.431860971034955
11.600000000000001,-14.452841263104052,-5.420862873664819,-4.76726787521335,-0.11871453744431731,-0.19273590906631916,0.42865946572496694,-0.06708049207853325,0.10721220168626051,0.9919705045041176,-1.6336774826049805,-1.8313760931644854,4.14720440969639,-0.04634173334155278,1.3759563662189793,-1.3509241951805986,2.0,0.4968551002352744,0.5084993020774273,0.39375185806610463,0.821151127023658,-0.05480250630780589,0.36904492437706893,-0.43187192045985406
11.700000000000001,-14.58234598760859,-5.340281063807825,-4.896057431096414,-0.11730538150455266,-0.19053568567311208,0.42640418030626703,-0.06707917694641244,0.10719326596520518,0.9919725136025547,-1.6336914827103142,-1.8313595257201136,4.1472042716114865,-0.04635365427050786,1.3759442650706426,-1.350931469594137,2.0,0.4968687415320195,0.5084916716090299,0.39374137547834265,0.8211571155093581,-0.054827925249879714,0.3690396328792429,-0.4318618293221773
11.8,-14.337955247398531,-5.431708574580241,-4.909945292417846,-0.11503775312108674,-0.1974690527341473,0.4290778806242996,-0.06750801207779046,0.1077703378214959,0.9918807508161258,-1.6336707006656779,-1.831373021700587,4.14722813964378,-0.04635844242712364,1.3759338349128325,-1.3509076277362269,2.0,0.496872205503636,0.5084872117255788,0.3937438130692154,0.8211552716310622,-0.0548260235374174,0.36903727104089135,-0.43186759498517885
11.9,-14.378514887603515,-5.286109909742154,-4.7379954198108045,-0.10931319732423879,-0.19841040253857917,0.4246586090882351,-0.06793684720916848,0.10834740967778664,0.9917889880296971,-1.6336417723539416,-1.831360077150306,4.147200256760531,-0.04635477918810013,1.375950485642367,-1.3509546633716132,2.329597519880125,0.4968683174120523,0.5084812268111979,0.3937413063302411,0.8211548754039325,-0.05482519759804256,0.36903299024678193,-0.431872111183631
12.0,-14.62911051263417,-5.0754828193901655,-4.4399366514811085,-0.12070121088586087,-0.21096601581313607,0.42410534800788696,-0.06780447221147894,0.10817884013885654,0.9918164463512681,-1.6337381005818563,-1.8312002198339636,4.147232284423088,-0.04637840752742421,1.3759497999613566,-1.350919548665182,3.0,0.4968651818913751,0.5084855958395429,0.3937507839633827,0.821154244928482,-0.054821305920097006,0.36903806487766744,-0.4318694676919131
12.100000000000001,-14.672743690707827,-5.415977684199858,-4.467157545314445,-0.11561828130085547,-0.22189207313505288,0.4202515426157977,-0.06821267572620557,0.10871465325264941,0.9917295047320358,-1.6345727530473713,-1.8302683669350872,4.147238470241977,-0.04639263302419459,1.3758622434753172,-1.3509299312352336,3.0,0.49681965099454883,0.508434491293723,0.39378407522283754,0.8211518965229033,-0.054816391463071205,0.36903845681263353,-0.43187422180208523
12.200000000000001,-14.43610905478409,-5.257466678446027,-4.561263358043472,-0.1269843208441465,-0.22000485301771916,0.3976313949019315,-0.0685999963121612,0.10918093970239999,0.9916518205337639,-1.6357977572064915,-1.8291774193088004,4.147414626850266,-0.046618298893310595,1.3756960826756008,-1.3508226090167033,3.0,0.49667557715624744,0.5082322836718285,0.3938979185804895,0.8211388399190468,-0.0548354923481682,0.36905526865603683,-0.4318822559825263
12.3,-14.635121861951058,-4.20350921882372,-4.11907123790648,-0.1757067325180141,-0.24159660261901114,0.3800808211280616,-0.06822768869505183,0.10860701506428788,0.9917406222549249,-1.6367622239717048,-1.827981026695711,4.147654559354455,-0.04673201954601273,1.375484656101576,-1.3507682835274981,3.0,0.4963964923515577,0.507875609999351,0.39400656277775875,0.8211634578208943,-0.05486755494460154,0.369040550706337,-0.4318439520109054
12.4,-14.690163859047061,-4.681177349777121,-4.259986700636566,-0.1842720799615583,-0.2646853594371032,0.3491337873313226,-0.06796244654213618,0.10838817848219931,0.9917827638780309,-1.6376787021878125,-1.8268062381809804,4.147870881502887,-0.04687480679987539,1.3753049303551839,-1.3506667459829846,3.0,0.49596286184496996,0.507520462854263,0.39422866330375905,0.8211667846619626,-0.05481624672161904,0.36902842065718805,-0.4318545074565619
12.5,-14.625707442784787,-4.784122055491568,-3.978724272646064,-0.1574840767301134,-0.2755356435973692,0.32647717571002316,-0.06775721651152533,0.10817380911696747,0.9918202214642369,-1.6388135787203708,-1.8255379307657076,4.148074626922607,-0.04704088652557445,1.3751104226813426,-1.350598643920685,3.0,0.49572311026254606,0.5073539919362536,0.39440016005074024,0.8211333384456254,-0.054800390488577266,0.36903239187459874,-0.4319167181792735
12.600000000000001,-14.703474278598314,-4.651859882610833,-4.0445533358429335,-0.16809627339676225,-0.28421030710442535,0.2979662030730645,-0.06762201213295588,0.10793934049615192,0.9918550065321577,-1.640090812217635,-1.824286253480506,4.14832028642645,-0.04715961392252784,1.3749241664045566,-1.3505236368612061,3.0,0.4953921372131892,0.5069662136653769,0.3945983775330699,0.821128727819846,-0.05482316269823101,0.36905639441824833,-0.43190208487541093
12.700000000000001,-14.934863730427884,-4.869919826594949,-4.228718834629334,-0.16482938308156256,-0.2841373838410491,0.2768687588970376,-0.06748704931164812,0.10771308154669773,0.9918887802289869,-1.6411748017319687,-1.823079289604787,4.148439876350197,-0.0473090056790453,1.374733678285066,-1.3504696446443398,3.0,0.49493405382235905,0.5064968995747874,0.3947520844494205,0.821173654185088,-0.05482206260238275,0.369024477853992,-0.43184407587567786
12.8,-14.838450005454243,-4.779161167932746,-4.21654364268561,-0.1614302596792112,-0.31452018414743393,0.2632078082058005,-0.06737951455026614,0.10755213358726326,0.9919135724012575,-1.6420927047729492,-1.8219369602846793,4.14866304397583,-0.047453159633080486,1.3745837211608887,-1.3504018360349472,3.0,0.4947055001604739,0.5062348755927165,0.39486678289342136,0.8211808269711354,-0.05483455065378638,0.369025615831454,-0.431827878129488
12.9,-15.090376144381477,-4.725789505202808,-4.033923223250892,-0.14933252104868447,-0.3372710780337717,0.24738509740828074,-0.06731058813117914,0.1074822174784607,0.9919258320469435,-1.6430584032393971,-1.820879701878212,4.148851600153509,-0.047587998865059954,1.3743773342583359,-1.3503046342312885,3.0,0.494335233573903,0.5058760968437214,0.39510607731304265,0.8211618941477938,-0.05482890925319943,0.36903544477525496,-0.43185619690962157
13.0,-15.17354766592439,-4.882811573740688,-4.1725198910336285,-0.16975599089622334,-0.33791302896010167,0.23653518597084264,-0.06847568459687131,0.10908097086675961,0.9916712896214487,-1.644153432543927,-1.8194850759169907,4.149081507059657,-0.047758567457585534,1.3742064429982124,-1.3502476851092737,3.0,0.49411097357486505,0.505678067781423,0.39520417108981,0.8211695702282015,-0.05482301126380118,0.3690141331389427,-0.431860560726393
13.100000000000001,-14.939524361889271,-4.775976827267886,-4.25746015110428,-0.15723102023379826,-0.3290079493346608,0.2552178587651159,-0.06827392561436925,0.10880637553693859,0.9917154889748427,-1.645347561605591,-1.8181752101713986,4.149283919565064,-0.04792173980823666,1.373997688293457,-1.3501655634419107,3.0,0.4938196346626192,0.5054132262336524,0.39539536986045004,0.8211510938817335,-0.05481982495297949,0.36903308279333785,-0.4318799041550819
13.200000000000001,-14.744684965085758,-5.105579443517696,-4.294397497627591,-0.16100842588988645,-0.31335337050661116,0.2529213375183284,-0.06809170402871255,0.10854232767030021,0.9917570635746953,-1.6465314175120571,-1.8170659947707386,4.149454281187894,-0.04806982426359056,1.373817419185973,-1.350104272167893,3.0,0.49325829822351,0.5047964108673767,0.3957503672028835,0.8211279841346106,-0.05482895031459814,0.36905949793814596,-0.43190011213250923
13.3,-14.541010916764579,-5.083873492968507,-4.5352320013871825,-0.15538701615475403,-0.30932830481999163,0.26606692787811403,-0.06813733390434196,0.10857897189779096,0.9917499162946172,-1.647490124385786,-1.8160066112284363,4.149635574861256,-0.04820435353599984,1.3736387241678358,-1.3499754997818154,3.0,0.49306371804680116,0.5045885370508402,0.39577629128360114,0.8211668168366905,-0.054827666440285056,0.36903093535332165,-0.43185084771395665
13.4,-14.574139007650745,-4.802454609566185,-4.769698170926415,-0.15769675992379067,-0.30500030841773607,0.26256171683054647,-0.06803121926105742,0.10843246165448191,0.991773234377574,-1.6484684554716977,-1.8148460706473069,4.149809408874901,-0.04836189761944855,1.3734911999171089,-1.3499681027167414,3.0,0.4926780189011882,0.5042219130900961,0.3959136787944391,0.8211987599320443,-0.05480676514498873,0.36900997955354126,-0.43181066472507373
13.5,-14.62190345408419,-4.476137576051508,-5.053502109818293,-0.1555633124361538,-0.2883458922583092,0.2599026088792883,-0.06803426631309308,0.10846183071406407,0.9917698159783239,-1.649531364440918,-1.8134132668288208,4.150037898161213,-0.04853270192386579,1.3733186241243591,-1.3498827239691478,3.0,0.49245603939161825,0.5040032842589873,0.39606661062127274,0.8211757842527807,-0.05480153309732524,0.3690379229841935,-0.43183114145059714
13.600000000000001,-13.56300778160534,-4.391001296780352,-5.062168702896412,-0.20809494316145918,-0.23121725274805652,0.2661033107540901,-0.06793131923607047,0.1083345049977004,0.9917907240673259,-1.6506923399081528,-1.8119946194428582,4.150197805876002,-0.04873876338047872,1.3731249516151691,-1.34983198590815,3.0,0.49207800262133405,0.5036067003126996,0.396407614680587,0.8211096528312225,-0.05481498284199087,0.36907308830420904,-0.4319251221832496
13.700000000000001,-13.60519014566307,-4.1278356525987805,-5.0203122512255485,-0.20085476563551377,-0.1943521191852137,0.2679990799782502,-0.06760891583070841,0.10787880189040869,0.9918624572463279,-1.6517974669096487,-1.8110742982792734,4.150379272486201,-0.048895879811376344,1.372962856924297,-1.349748054503336,3.0,0.491651937685013,0.5030900538380848,0.3966993471017556,0.8210971821477825,-0.0548521259181735,0.36908317826901177,-0.4319354920240673
13.8,-13.306563874366827,-4.394887275618449,-5.105542637604737,-0.21060568250439426,-0.17612225339077905,0.27603257467512815,-0.0681921149172554,0.1086409412436697,0.991739266474051,-1.6527613550662583,-1.8099695123352741,4.150578126287502,-0.049000822298407,1.3728021532535142,-1.349667298839787,3.0,0.4914531461883915,0.5028852632671754,0.39669624277911153,0.8211488587986618,-0.05483121821564635,0.3690479980789311,-0.431869962276351
13.9,-13.488082292222801,-3.974320785902796,-4.909734023568924,-0.20799660776012657,-0.1611363565284459,0.2675852948043357,-0.06839460492514315,0.10889972208088476,0.9916970429423636,-1.653850848586471,-1.8087115659049824,4.150766937679714,-0.04917042687273044,1.3726077590518528,-1.3496057157110577,3.0,0.49118366579223555,0.50262763183981,0.39676321877095894,0.8211861992365475,-0.054814690476660516,0.3690203962042989,-0.43182464389680664
14.0,-13.217459598831153,-4.088205788313354,-4.815001261565303,-0.22339819128801816,-0.1636830120605822,0.27005074556110087,-0.06834901805318161,0.10887047275549688,0.9917033964783428,-1.6549171136033185,-1.807329165452269,4.150993522316796,-0.04935717736199547,1.3724416203101726,-1.3495406872838567,3.0,0.4907160551762692,0.502152130797308,0.39700305194719876,0.8211892501892006,-0.054819201678332666,0.3690253244358924,-0.43181405769848813
14.100000000000001,-13.171603456870264,-3.8636729695116503,-4.888340595589646,-0.21990065345740847,-0.15297572979969984,0.27679762859800444,-0.06856117417310471,0.10922398984139786,0.9916496318588909,-1.6559457848856725,-1.806088300132231,4.1511603437579705,-0.04948885858569341,1.3722527510090252,-1.3494744484227184,3.0,0.4904276372048179,0.5018883988222943,0.3972477175704074,0.8211442504249041,-0.05479953035940258,0.36904180262788566,-0.43188804032951866
14.200000000000001,-13.174345787150651,-3.734622237349115,-4.676838779481327,-0.22795170649166044,-0.15330318304072507,0.27218999625336493,-0.0689482926536932,0.10980538534425875,0.9915586207003358,-1.656970752538013,-1.8050326785233928,4.1513672218900215,-0.04973284274554694,1.3720529555071366,-1.34940204849846,3.0,0.4900250681820023,0.5014966481840888,0.39751649200075934,0.8211213822094063,-0.054806774141842624,0.369043669150315,-0.4319290027848932
14.3,-13.144771782104495,-3.8082370272299375,-4.931959340923968,-0.22333999048073874,-0.1448862994901624,0.27291011609976107,-0.06836696037966837,0.10893958945811429,0.9916944267983099,-1.6579869728162842,-1.8038545213620465,4.15155993353309,-0.049857681916272906,1.371888119860404,-1.3492995676074906,3.0,0.48983393277154086,0.5012774151512304,0.39755253192655915,0.8211587757071959,-0.0548106370584513,0.36903284302287775,-0.43186666914078714
14.4,-13.114012423108095,-3.98011356735605,-4.927130205402931,-0.22755840601706437,-0.14713062509025593,0.2712480802700428,-0.06823292116115184,0.10872760323936365,0.9917270668116966,-1.6590701105282153,-1.8025876587898142,4.151754856109619,-0.0500524801066895,1.3717083930969238,-1.349230596630086,3.0,0.48947449693032274,0.500911528734393,0.3977346382585714,0.821159448883872,-0.05483626958241961,0.3690325072523992,-0.43186242211846537
14.5,-13.210634738747089,-3.7518337497364245,-4.792730539534717,-0.22329021121730153,-0.13778279778211389,0.27253598442941374,-0.06825199173991772,0.10874521525263989,0.9917238158070136,-1.6601969864319701,-1.8012857670460212,4.151934425591151,-0.05022062496324872,1.3714808222558756,-1.349180046712057,3.0,0.48904713990988796,0.5004759293682564,0.3979808895111926,0.8211504885312685,-0.05481502486673953,0.36904630853846637,-0.4318703629422248
14.600000000000001,-12.950010555202631,-4.217543111601179,-4.894261668156891,-0.22348753469131974,-0.1296667090714962,0.2716134454852455,-0.06837215425815882,0.10892454573794828,0.9916958598667506,-1.6612296030789273,-1.8001683666275823,4.152126982843767,-0.05037729936082468,1.3713365569889002,-1.349096216521612,3.0,0.48882537509912394,0.5002460371011295,0.3981274717018598,0.8211350275970387,-0.05480768096635118,0.3690582927097409,-0.43189045039508867
14.700000000000001,-12.95733633632531,-3.908168052319938,-4.759328997453166,-0.21696253211493358,-0.1237286911633897,0.27716726915036455,-0.06830626306669538,0.10882221820874349,0.9917116275704946,-1.6622300551924947,-1.7990000554691685,4.1523308753967285,-0.05053490949459751,1.3711593353049876,-1.3490457526529627,3.0,0.4885336265411719,0.4999378889806404,0.3982760806901386,0.8211410163290764,-0.05481998915708047,0.3690472944101586,-0.43188690021741905
14.8,-13.034953669825812,-3.9392901188998213,-4.545320046542172,-0.22758113732370572,-0.12335487115795252,0.2758234351437405,-0.06822106053598287,0.10868480405566007,0.9917325749001503,-1.6631658370134708,-1.7977455895985541,4.152532590894353,-0.05070050180468755,1.3709210170044726,-1.348942477242718,3.0,0.48807747705549553,0.49947216937416095,0.39850753197033983,0.8211470930118114,-0.054824198911209744,0.36904894379284814,-0.4318734026741854
14.9,-12.786435580703898,-3.921770578808663,-4.686795344539391,-0.21668197518868118,-0.11355683028543637,0.2746365009567733,-0.06822324806750546,0.10866402497362308,0.991734701402361,-1.6641969819315232,-1.7965844809913911,4.15272268933522,-0.05088521540951093,1.370769831364028,-1.3489068328733165,3.0,0.48784490616697457,0.4992148810568195,0.3986854300915969,0.8211227922384359,-0.05483206606474851,0.36907079903405265,-0.43189993042137864
15.0,-13.198230314195271,-4.073395992388899,-4.424401453374025,-0.21112287790174702,-0.11403331860695097,0.27158462782562126,-0.06831463242557706,0.10878099744814697,0.9917155753972968,-1.664917055840895,-1.7958853208156846,4.152861454046061,-0.05101235330615239,1.3706302642822266,-1.3488237857014842,3.0,0.48745411906609365,0.49881716828340766,0.39889495805530467,0.8211200333691087,-0.05483486089088167,0.3690836845061115,-0.43189380947448675
15.100000000000001,-12.993036822440082,-4.314667668467337,-4.721969372126247,-0.20385342476460672,-0.11484510471940614,0.2785887062055761,-0.06837758407820597,0.10886675066279156,0.9917018338040039,-1.6649322509765625,-1.7958761167063644,4.152864674612428,-0.05100043237719731,1.3706225861644734,-1.3488448301898401,3.0,0.4872981234829856,0.4986711782036917,0.3989213816809245,0.8211443287804905,-0.054836043488329426,0.36905487571098583,-0.4318720856458923
15.200000000000001,-13.175336640903552,-3.905633069405486,-4.785068457454013,-0.20573465148916986,-0.11878065989285978,0.27161125674305214,-0.06827302164689762,0.10873147880217277,0.9917238781058566,-1.6649262654958075,-1.7958660000868878,4.152893543243408,-0.05101840042683277,1.3706420118987759,-1.3488567511187952,3.0,0.48726243646802525,0.49862952222755225,0.3989805189158528,0.8211311683253952,-0.05485195437996763,0.3690591714104475,-0.4318914163341333
15.3,-12.909753278121102,-3.9598221953115154,-4.591748242397358,-0.209371171532151,-0.12625488554707923,0.28201082115429854,-0.06819209314180395,0.10863221649540425,0.991740322730508,-1.664968490600586,-1.795816813730498,4.152857751402327,-0.05102977238953474,1.3706201925934725,-1.3488253049552756,3.0,0.4872549244801246,0.4986305709037362,0.39894431379223055,0.8211548925239216,-0.05484302798895568,0.36903876128733876,-0.43186488330557304
15.4,-12.802772509451685,-3.9741350518781293,-4.641078798906902,-0.20985352487016623,-0.12589699292437467,0.2839251228265782,-0.0681194150608257,0.10854552485035196,0.9917548125503843,-1.6650081251059143,-1.7958117924132289,4.152889194687787,-0.0510439347895355,1.3706461992625245,-1.3488367809793482,3.0,0.4872285230781557,0.4986449417337069,0.3989148750143728,0.8211683733320181,-0.05481041883874884,0.36903179685802995,-0.43184934124495594
15.5,-13.233411639606787,-4.3871154299304145,-4.660867939788662,-0.21933768343652224,-0.11502831930291092,0.27465876699147534,-0.06797098507574557,0.10835292907528568,0.9917860190207379,-1.665012886063071,-1.7957998714842738,4.1528953755177636,-0.05104251872816855,1.3706627388157566,-1.3488388824591149,3.0,0.4872341351404794,0.49860223738545173,0.39896929014845495,0.8211432744854842,-0.05483362900052062,0.3690570011228239,-0.4318725805374982
15.600000000000001,-12.841133384982701,-4.047026588786407,-4.605954778408432,-0.21521071557536714,-0.12230564620145408,0.2826436239380297,-0.06779457107830349,0.10812121055447944,0.9918234008996063,-1.6650096134986194,-1.7957998714842738,4.152874407340108,-0.05103176217907147,1.3706421852111816,-1.3488153287030031,3.0,0.48721949873286663,0.49860670564947707,0.3989618822971286,0.82115007700271,-0.05481441372754566,0.3690481980627821,-0.4318696083226541
15.700000000000001,-12.783052634503797,-3.834086946401924,-4.507675377294524,-0.2087240875651255,-0.12312817046900754,0.2817609438705551,-0.0681367653143194,0.10856887591770567,0.9917509841023298,-1.6650147377451021,-1.7957811333161946,4.152893543243408,-0.051022892916545784,1.3706727890554733,-1.3488022501638508,3.0,0.4872325859068403,0.49860748044804415,0.3989451751422699,0.8211520510509884,-0.05482793298289645,0.3690522800053751,-0.4318606504908873
15.8,-12.83415177677743,-3.8516018921384707,-4.600796048697866,-0.21028121665333713,-0.12478581544723093,0.28237483820180925,-0.06841554320415588,0.10896341777139573,0.9916885738839792,-1.664992332458496,-1.7957755527892054,4.152897173280169,-0.051032413875769796,1.370649747787767,-1.3488363649635513,3.0,0.48722372493052213,0.4986161559510452,0.3989652719655729,0.8211469170015968,-0.05482509984900831,0.36904267953774816,-0.431878975877407
15.9,-12.871700939054397,-3.9995325921590505,-4.69657113711391,-0.21700301560871746,-0.12114159366280498,0.28614282162079124,-0.0686180819499033,0.10925412686453735,0.9916425922362417,-1.6650161743164062,-1.7957871394537932,4.15290256993458,-0.05102546703146864,1.3706882785318537,-1.3488209090935588,3.3289763392511786,0.4872232258284005,0.4986091649104362,0.3989889511805941,0.8211311885604942,-0.05484281772968066,0.3690474945633353,-0.43190251593759443
16.0,-12.98982914595463,-4.080737621009756,-4.707092957630723,-0.21521846038459555,-0.1209819023620876,0.28113025228185357,-0.06892625326634184,0.10962337781553794,0.9915804567617387,-1.6650161743164062,-1.795764601633093,4.1529249501017445,-0.05103716493690516,1.3706421852111816,-1.348802527064831,4.0,0.48722921312351314,0.4986060489754739,0.39894353969452956,0.8211570402307841,-0.05482720881037767,0.3690457631529356,-0.431856824830116
16.1,-13.083773645946891,-4.021805668388843,-4.796775855762495,-0.2157635746492169,-0.11799718190831862,0.28134071429752044,-0.06857765725294729,0.10915754440658933,0.9916557470577807,-1.6649857769920253,-1.7958150955384493,4.15291326042679,-0.05100208393980751,1.3706437707112875,-1.348822163057382,4.0,0.48721807698320485,0.49861316967522695,0.39895977841149893,0.8211468625214323,-0.05482743552090859,0.36904747495058865,-0.4318746852016259
16.2,-12.931797222598751,-4.007235846481436,-4.858210088033523,-0.2181496562853426,-0.1210452839782179,0.2840444389767672,-0.06813990410831894,0.10859187956531742,0.9917482827282964,-1.6649868593645525,-1.7957730859401848,4.152893543243408,-0.051039305058777816,1.370636007234499,-1.348826855679991,4.0,0.48722291550563196,0.49861868256906056,0.3989650529035035,0.8211522039614354,-0.05482913373354982,0.3690403687225041,-0.43187038596836413
16.3,-13.206758351281167,-3.7780715562301657,-4.831164419066607,-0.20841534153701,-0.11278870947240896,0.2830437801221059,-0.0685049235421161,0.10910471658871321,0.9916668206980613,-1.6650408327249475,-1.7957879505553187,4.152883109253297,-0.051020683849578516,1.3706384512102314,-1.34882166126714,4.0,0.487220750137344,0.4986150181368451,0.398951344776773,0.8211552828018192,-0.05480896561265855,0.36903855305761396,-0.4318686434232951
16.400000000000002,-12.718184335209509,-4.251973027871373,-4.931252228761835,-0.21974984695717178,-0.128414352478529,0.2889005070811985,-0.06844157358399171,0.10903373067097238,0.9916790577191629,-1.665042273428987,-1.7957742492088513,4.152891285988738,-0.051019767213243215,1.3706465119521714,-1.3488085905658167,4.0,0.4872116548604687,0.49862576836914607,0.3989642592540662,0.82114881552708,-0.05481859079796874,0.3690357022222422,-0.43188215446662653
16.5,-13.08831406926918,-4.018601385569282,-5.001103070992719,-0.21599823489229256,-0.11858136923587423,0.28514195410819465,-0.06832640181713122,0.10887277968274822,0.9917047024245594,-1.6649985267051406,-1.795788715563325,4.152893543243408,-0.05103619516406255,1.3706297874450684,-1.3488490569333762,4.0,0.4872111178521981,0.4986209025832434,0.3989875750616291,0.8211420432185276,-0.05482263486704683,0.3690437545862985,-0.4318876367366687
16.6,-12.906125792774676,-3.9743379523031157,-4.818259346602337,-0.2146123699747696,-0.1218402421755808,0.2854114225792094,-0.06827617909621982,0.1087906308561663,0.9917171739756512,-1.6650116498527754,-1.7957636318602503,4.152885669940926,-0.051001220260268064,1.37064060944504,-1.3488318672015738,4.0,0.48722569242588337,0.4986116147140411,0.39895265493368737,0.8211550781661043,-0.05481967714318542,0.369038869215519,-0.43186740280793035
16.7,-12.999610185740492,-3.9286841864906963,-4.65646645321691,-0.21681057731636386,-0.11625750528241631,0.2870152624679852,-0.06818186542117845,0.10864734664152542,0.9917393598199828,-1.665034004105631,-1.7957776095495452,4.15291057757065,-0.05101032064806144,1.3706421852111816,-1.3488388181211548,4.0,0.4872226210338975,0.4986048237670606,0.3989497666948742,0.8211595029737226,-0.0548188158154115,0.36904683592240584,-0.4318522907247402
16.8,-13.062336879478528,-3.9642138207373447,-4.835833881628864,-0.21426852909616825,-0.1191343436129975,0.28680201270346745,-0.06811626999701731,0.10855164304300366,0.9917543578974316,-1.665003776550293,-1.7957998714842738,4.152893333472855,-0.05105426253343599,1.3706597396563331,-1.3488324324237269,4.0,0.48723437237126543,0.4986191750401624,0.39893465144881446,0.821162186931218,-0.05482463003083095,0.3690356474471281,-0.43185601027379605
16.900000000000002,-13.02457913094928,-4.034386718986741,-4.846033543412802,-0.2172681449778318,-0.12043636986575056,0.28722901674942364,-0.06821279060780339,0.10872453452214664,0.9917287806532137,-1.6650106747407782,-1.7957728030013913,4.1529023475389035,-0.05102427423510747,1.3706564890823052,-1.3488352922030535,4.0,0.4872071225720287,0.4986240556481542,0.39894860105319135,0.8211541851391789,-0.054804131890090216,0.3690336539505947,-0.4318755302260793
17.0,-12.729204852565811,-4.16651978043493,-4.803363147852723,-0.22107080557052528,-0.1267353205482405,0.2895338990121092,-0.06811366446859958,0.10858870587709758,0.9917504213667233,-1.6650149886581032,-1.7957818198281414,4.15287649851631,-0.05101235330615239,1.3706464747136289,-1.3488324324237269,4.0,0.48721456752360015,0.49860596591078993,0.39896724015385476,0.8211505321489836,-0.05483240785592007,0.36903202837667387,-0.4318802758084246
17.1,-13.040374701580877,-3.80162270513052,-4.799830143908823,-0.21029262114190225,-0.12197132837329397,0.28709974013832784,-0.06790547634694663,0.10828078324751736,0.9917983834174249,-1.6650198913599572,-1.7957879505553187,4.1529024758192925,-0.05099792086128455,1.370673301342743,-1.348855495360839,4.0,0.4872152328632002,0.4986084755747163,0.39896922664906426,0.8211426801754346,-0.05482626672591029,0.3690504821394043,-0.431880215920892
17.2,-13.107436830963678,-4.356322321878834,-4.881175161728199,-0.22438152458345564,-0.11718896684565831,0.2885500901225981,-0.06763886054538319,0.107928885213394,0.9918549333030974,-1.6650163256422985,-1.7957520019426267,4.152905127020644,-0.051035904152731064,1.3706658757431995,-1.3488085905658167,4.0,0.4872241862612826,0.4986085811683991,0.39894551914900445,0.8211523491977688,-0.05482302094750812,0.36905025664021857,-0.4318624362629422
17.3,-13.005894471394939,-3.944066882800244,-4.922207602945072,-0.2145838713278621,-0.12211399301912346,0.28705237724290983,-0.06742159570460346,0.1076583605712401,0.9918991299323189,-1.6649936052385912,-1.7958092213974366,4.15290437640076,-0.05102300145501227,1.3706291765106227,-1.3488211478848193,4.0,0.4872144099555116,0.4986205337157655,0.398943368608413,0.8211558643087049,-0.05480681758028755,0.36904148985625945,-0.43186530078580876
17.400000000000002,-12.8948986596018,-3.794175381809581,-4.805622198652157,-0.2123370663481388,-0.1227519214005915,0.28938423038619077,-0.06781387064294686,0.10816988402649248,0.9918164617626457,-1.665036702254645,-1.7957812564375828,4.1528967246062924,-0.05102261727527183,1.3706536293029785,-1.3488033637545975,4.0,0.4872060942533651,0.4986314385057862,0.39894783518292637,0.8211505160307458,-0.054821427599262874,0.3690371780065864,-0.4318773001065852
17.5,-12.916886571289888,-4.007426417456872,-4.898393278187771,-0.21705065101043086,-0.12258624706624466,0.2877453716312552,-0.06820614558129025,0.10868140748174485,0.9917337935929725,-1.6650145991280936,-1.7957548928116867,4.1528942993337985,-0.051013140900308694,1.3706206746319742,-1.3488440110919175,4.0,0.48721485359774397,0.4986129617101333,0.3989645729296057,0.8211423902964313,-0.05482094514801973,0.3690421713172732,-0.4318885442110888
17.6,-12.981703118271016,-3.868470129534168,-4.7389027044169145,-0.21542051163769924,-0.12115549855129511,0.2925516110335139,-0.06828279936445648,0.10880709935024745,0.9917149063622077,-1.6649861026609754,-1.7957727369489345,4.152902408724495,-0.05101828404518368,1.370641648923131,-1.3488324324237269,4.0,0.4872240306713886,0.498602697528481,0.3989654180529051,0.8211424265533344,-0.05483846418806186,0.3690452536172114,-0.4318836173579692
