xiamingqian9007/apple-picking-rnn/training_data/grasper_20191127_125312_noimg.csv
,/manipulator_wrench.fx,/manipulator_wrench.fy,/manipulator_wrench.fz,/manipulator_wrench.tx,/manipulator_wrench.ty,/manipulator_wrench.tz,/ground_truth.x,/ground_truth.y,/ground_truth.z,/joint_states.elbow_joint,/joint_states.shoulder_lift_joint,/joint_states.shoulder_pan_joint,/joint_states.wrist_1_joint,/joint_states.wrist_2_joint,/joint_states.wrist_3_joint,/mode./mode,/manipulator_pose.x,/manipulator_pose.y,/manipulator_pose.z,/manipulator_pose.rx,/manipulator_pose.ry,/manipulator_pose.rz,/manipulator_pose.rw
0.1,0.17275828323507542,-0.49452497526813277,0.027962131181536003,0.011963610621196798,-0.015660460274528568,-0.012720382010858731,0.1298522225884554,-0.16833304982281674,0.9771398948074245,-1.94792180699385,-2.129190735383083,4.175075454506164,1.1403882016800304,1.3317467018855884,-1.4741366545306605,1.0,0.4540575217293818,0.45777922320461295,0.26547661617719714,-0.6317605651728502,0.04486957422674422,-0.5046841435705229,0.5866508542818968
0.2,-0.10113988916250649,0.17300506043152453,0.22661694985051667,-0.0023203411346795796,-0.018136974202995267,-0.04502226090497128,0.1298576117244794,-0.16813089956826244,0.9771739751109407,-1.9451084262712477,-2.1307357718897286,4.174708317193418,1.1384642328954464,1.3323725681142249,-1.4740522543536585,1.0,0.4541575648007934,0.4579432699628711,0.2654280920588474,-0.6318209397783523,0.044828970361947,-0.5046487165154387,0.586619413583635
0.30000000000000004,0.22857805098949122,-0.030426605886894803,-0.276059859424992,-0.002478250982217694,-0.01952119027004398,-0.10859087449905508,0.13019347514900706,-0.16845561788609126,0.9770730237225751,-1.9404696940671233,-2.132143247968228,4.1738057136535645,1.1354794481646062,1.3330750389740758,-1.4739054765712551,1.0,0.4545629772607577,0.45847218657131694,0.26532904835950355,-0.6319855236292687,0.04473124189747872,-0.5045449058066009,0.586538875050884
0.4,0.3632802397614028,0.050789443560162836,-0.21821781172346827,-0.0023562719548855787,-0.03624820135081101,-0.16571147576708287,0.130888564015884,-0.1693540333231422,0.9768251344540595,-1.9358897855472896,-2.133498529445531,4.172959137129036,1.1325889079174978,1.3337865065822203,-1.47369950179189,1.0,0.4554143997555631,0.45928377192516484,0.2656205836900282,-0.6319651924270164,0.044758704961694956,-0.5045731208785538,0.5865344146575822
0.5,0.20553517587362213,0.21206969157721312,-0.06784326740290665,0.0008326510079351194,-0.0388441380533527,-0.22382272267628223,0.1303705200964261,-0.1689668513319651,0.9769613451678536,-1.9314868136697507,-2.135086272762029,4.172105943814045,1.129871770891185,1.334469163760418,-1.4735159998757097,1.0,0.45680866524427777,0.460549717548471,0.2662768070439619,-0.6318110948163932,0.04486314388525831,-0.5046786518032951,0.5866016512094472
0.6000000000000001,0.044522265285439365,0.46296678562949056,-0.1326521778137325,0.0014371418129124755,-0.035987805174552925,-0.260985309447914,0.12978719239962272,-0.16830896571085652,0.9771523641861225,-1.927205776705409,-2.1368263089982684,4.171374711158925,1.127122517470267,1.3354139345597549,-1.4733657402074969,1.0,0.45756095666467494,0.46125838594258367,0.26653257808436676,-0.6317574066349108,0.04489770063119644,-0.5047131186760441,0.5866271758760119
0.7000000000000001,-0.0007394940962647395,0.39768866563905225,-0.3312383065291388,0.00822782505058084,-0.02469127259201758,-0.2848283484095469,0.12916610208096482,-0.1673807578290427,0.9773943538770934,-1.9229829324064096,-2.138328962647539,4.1707388879723375,1.1244626565230338,1.3360993692271255,-1.4732142605463603,1.0,0.4583451962703027,0.46206797726802773,0.2667284514363578,-0.6317562856968422,0.04486502201887418,-0.5046864220784268,0.5866538507940195
0.8,0.07381147956141054,0.49183634339423254,-0.2301333136993723,0.017429586293908148,-0.029585514404501606,-0.28473634858304225,0.12947852782330774,-0.16760074815225617,0.9773153484168272,-1.9190225995831884,-2.1397820789962143,4.170139792276897,1.121710972345471,1.3366641916344826,-1.4730461252003395,1.0,0.45964768758880564,0.46347113045799754,0.2671091749123825,-0.6317506367373609,0.04481788324868372,-0.504645676601443,0.5866985865080283
0.9,0.051190793006542994,0.5216921712207128,-0.10591764021352376,0.019149785256445784,-0.03465761054482713,-0.2693366028544617,0.12856837255070266,-0.1663993058085495,0.9776406752683088,-1.9151871386853314,-2.141236366053135,4.169442290858861,1.1194853208100872,1.3372420124248308,-1.4728896932786733,1.0,0.46035844321450886,0.4642232868922278,0.26731361055534203,-0.6317826594805969,0.044827600053099985,-0.5046389056107905,0.5866691848026853
1.0,0.0969341163071553,0.3323424012215335,-0.20085463036800874,0.007917045757961792,-0.03247271232299576,-0.2614439765721239,0.12892178942064927,-0.1670005295106981,0.9774914809640146,-1.9112483949356036,-2.142698877624767,4.1687387930684245,1.117076029915996,1.3378643989562988,-1.4727943579303187,1.0,0.46112340181288175,0.4649651393071179,0.26751390741252373,-0.6318080391134969,0.044845086409914726,-0.504647641449825,0.5866330010454355
1.1,0.18430450451882455,0.32207295570963607,-0.21797157710363005,0.009178186993178487,-0.03349176883818414,-0.263489537924503,0.129138737753396,-0.167340427256199,0.9774049104317993,-1.9076549326011578,-2.143989364332826,4.168125629425049,1.1146101495169667,1.3385762316669505,-1.4726709913456624,1.0,0.4624130715844433,0.46622103912142077,0.26789216556488044,-0.6317601887448971,0.044871184725572756,-0.5046747667373863,0.5866592030445786
1.2000000000000002,0.07929640046172726,0.23133291654069732,-0.22818863149191412,0.009578063233728187,-0.03375028221056327,-0.26129645197916745,0.12875436861003897,-0.16675115990160952,0.9775560549499056,-1.904174601471739,-2.145429390430462,4.167477780164027,1.1124622469515517,1.3392314910888672,-1.4725306669818323,1.0,0.46303092307642385,0.4668667140642897,0.2681013577227273,-0.6317561560699413,0.04484721036995679,-0.5046617098529452,0.5866766107474086
1.3,0.1121403960512587,0.4166041337233585,-0.27442356314640015,0.010439591156172616,-0.031878887300182776,-0.25712413126217953,0.1285608178340539,-0.16650468107812252,0.9776234157839573,-1.9007260915645272,-2.1467105617707567,4.1668606548978575,1.1103160635639788,1.33971658951688,-1.4724352189655925,1.0,0.4637211200696851,0.46752171689241584,0.26824916982635216,-0.6317867789078766,0.04483995759696167,-0.5046516303243784,0.5866528583505405
1.4000000000000001,0.12854812406552563,0.25599965616016646,-0.40053372124797476,0.005609308255124477,-0.030811815862596244,-0.25500734103713746,0.1292425706830005,-0.167576365503948,0.9773506454165646,-1.8973537900964965,-2.1478607603392748,4.166268274874405,1.1080778835392573,1.3402413045964383,-1.4723151365863245,1.0,0.46478398190396836,0.46850003446679467,0.26854142532170044,-0.631760022810681,0.04487997147582723,-0.5046907335341968,0.5866449737475734
1.5,0.00033497647384451296,0.3223579398547572,-0.18241509786117113,0.010553435898871394,-0.025611929316574036,-0.25363217781764974,0.12946404397408645,-0.16787911213818285,0.9772694707544518,-1.8942126407321254,-2.1490009424172087,4.165848487208454,1.1062032391216885,1.34066407546961,-1.4721983510969021,1.0,0.4654749015159186,0.46918855176980223,0.26878114768410705,-0.6317576705636434,0.044888504535796944,-0.5046991715095382,0.5866395947446138
1.6,-0.06204580479857623,0.47701897382024544,-0.07540390390532847,0.014815767517744272,-0.02264778065471116,-0.2522763163206623,0.1296499266037068,-0.1681289919452815,0.9772018617913854,-1.8909432031191804,-2.1504089921222,4.165358066558838,1.1040909880573335,1.3411413319416372,-1.4721203552808981,1.0,0.4660202367758696,0.4697603220074969,0.26895930349070424,-0.6317535252600053,0.044883256311938534,-0.5047009896235912,0.5866428962302027
1.7000000000000002,-0.27832836847172715,0.4685784889538209,-0.3485048582079316,0.009944509685477181,-0.023781162984397478,-0.24460986749713007,0.12986243661936542,-0.16843513840215024,0.9771209353876661,-1.8879477662285422,-2.151634150224532,4.164924007013549,1.102261163035353,1.3416488501208734,-1.4720122773621056,1.0,0.46692261866526613,0.4707011334775518,0.26911693117291235,-0.6317993044049857,0.04488716512899127,-0.504685240656761,0.586606843825817
1.8,-0.11424212121899784,0.26650158835156584,-0.3604678551690726,0.006026135354414271,-0.027161457346855076,-0.2505109487452779,0.12947976526519783,-0.16779165560680842,0.9772821650545492,-1.8849965781962739,-2.1525911927649903,4.164478707817695,1.1003720113159783,1.3422293663024902,-1.4719436804400843,1.0,0.4675090204902899,0.4713515190191283,0.26922195529815024,-0.6318421462549062,0.04486036805237599,-0.5046501848603546,0.5865929086808064
1.9000000000000001,-0.1444120146482199,0.24400295680037257,-0.3256238141622282,0.007165703550897632,-0.027959831151522917,-0.2490889294619676,0.12917393256367576,-0.16727294279253277,0.977411815295179,-1.8821706771850586,-2.153555026850472,4.164003849029541,1.098595240018422,1.3427047601509432,-1.4718467758296516,1.0,0.46798209776354127,0.47187433490656344,0.2694004648571192,-0.6318273378446986,0.04481161106208442,-0.504636101329908,0.5866247010658964
2.0,0.0955683812976595,0.1713234483968202,-0.38990691034607805,0.009842027214622243,-0.023933228356448594,-0.2470089351219594,0.12921178828968138,-0.1673067277609387,0.9774010292746833,-1.8793433862768265,-2.1545794853769435,4.163510445968047,1.0968047761243778,1.34305804375078,-1.471718070931587,1.0,0.46877161450360105,0.47264952190952586,0.26973822722635704,-0.631771737109718,0.044809131921738375,-0.5046551726825792,0.5866683650671017
2.1,0.1390948716417773,0.12929892198269977,-0.295415973629467,0.010087394065970434,-0.03147194905324728,-0.24911382083369257,0.1294665432936782,-0.1677011289651095,0.9772996984865063,-1.8766127692673242,-2.155876915378165,4.1630875140752925,1.0951287003597743,1.3434516925351216,-1.4715990667717196,1.0,0.46947055345616256,0.4733005678004829,0.26998355559000137,-0.6317345653792323,0.04484615844891965,-0.5046838229468383,0.5866809182453876
2.2,-0.15248122489518948,0.14655416434767293,-0.26753433012642275,0.004403781894373725,-0.030396093757044027,-0.2516285165117677,0.12956008437694133,-0.167851632071957,0.9772614839815446,-1.8740051215559514,-2.1569532779002385,4.162735113393775,1.093499984007866,1.3438482284545898,-1.4715385732292783,1.0,0.4700845288166277,0.4739395293524303,0.270028312084678,-0.6318082067242119,0.04484693527870279,-0.5046605073425674,0.5866216111266155
2.3000000000000003,-0.24716454259706228,0.263792201182085,-0.25104909589387503,0.00260985466299258,-0.02622780429272155,-0.2525177646802264,0.1295272736684998,-0.16782266582542632,0.9772707969267274,-1.871514152431172,-2.157714110276365,4.162281507121067,1.0919255440208355,1.3441997368415837,-1.4714572240907968,1.0,0.4706092588413173,0.4745018476346288,0.27011767272055826,-0.6318412889492508,0.04483883998646011,-0.5046466733562301,0.5865984990418134
2.4000000000000004,-0.06243844475372705,0.42237137381163486,-0.31095500873666515,0.010837181955419004,-0.023941835481214972,-0.2476661214376663,0.12933596116178228,-0.1676225158654429,0.9773304929843298,-1.8691211864708712,-2.1585179032214965,4.161791482861532,1.0903304337748223,1.3445919604506789,-1.4713748872892873,1.0,0.4713420167492458,0.4751695411408297,0.2704007683310675,-0.631802628937679,0.04487959062795269,-0.5046742872206548,0.5866132663269977
2.5,-0.08481372515229002,0.32214780779368096,-0.2987574788026345,0.010852526588354073,-0.024578528606922587,-0.24707151135612895,0.12919006365890948,-0.16758224980769587,0.9773566958515431,-1.8666385335213587,-2.15937071257598,4.161444259071999,1.0890067785354098,1.3449757254893713,-1.471309010182516,1.0,0.47175034269951605,0.47549172947441376,0.2705678100073805,-0.6317842707007552,0.04489968848138234,-0.504706455409869,0.5866038246866413
2.6,-0.07914104465297374,0.4175257947312446,-0.24913428454688213,0.013711195828570904,-0.02932642798810814,-0.24935975197384347,0.12916104160393646,-0.16752451964812065,0.9773704304978109,-1.864426003904773,-2.160397983847987,4.161130407323611,1.0873950599288866,1.3453403328562292,-1.4712519306001772,1.0,0.47220108712184333,0.4759400301606347,0.27076841978369814,-0.6317173448310575,0.04490165233925014,-0.5047297440112499,0.5866557111007635
2.7,-0.19584104164416205,0.5750299801761785,-0.371471075139101,0.015083512547871658,-0.026771496486636192,-0.24436314985062296,0.1290202828575703,-0.16726291690035255,0.9774336784518084,-1.862089538444702,-2.1612972883276553,4.1607938548891505,1.0861323074492797,1.3457211312366968,-1.4711721763202699,1.0,0.4728358692130252,0.47664662444235995,0.2708881836943257,-0.631768428033753,0.044865558652488605,-0.5046908848552236,0.5866368942801092
2.8000000000000003,-0.025603864264582204,0.18902912877444933,-0.26276218864045964,0.013433567496347706,-0.03176119545547586,-0.24337366931677532,0.12854716147213344,-0.16652836506432453,0.9776214556512862,-1.8599429306298596,-2.162213695451726,4.160467624664307,1.0847117519093394,1.3460416948690506,-1.4710767860201333,1.0,0.4732372250228684,0.4770767231717486,0.2709783872664144,-0.6317709450467694,0.044849917683081414,-0.5046791505161241,0.5866454746376689
2.9000000000000004,0.035602849383009415,0.28813726261700684,-0.17555083799212623,0.013761477287059315,-0.034014166001183455,-0.2418769430171099,0.12892066505486727,-0.16699926721260644,0.9774917460830381,-1.8580196093429218,-2.1629991278231304,4.160160179300742,1.0833888632549917,1.346334090287035,-1.471025714047177,1.0,0.47365118126356465,0.4775037116728214,0.27106340129238854,-0.6317903350379601,0.04484287146853552,-0.5046696915494244,0.586633268629122
3.0,0.039896096800686814,0.5598112580527957,-0.2523345852443796,0.018606276710009906,-0.030098319718261525,-0.2533104795463697,0.12928986606870763,-0.16751213594671205,0.9773555018455151,-1.8556980760843198,-2.163690303345988,4.15984912556837,1.0822037400124809,1.3466181755065918,-1.4709400208255612,1.0,0.4742798521406461,0.47813257924558367,0.2712416763412169,-0.6317995859653966,0.044843537921981466,-0.5046753803468603,0.5866183603948525
3.1,-0.23630504699619817,0.641399710127377,-0.2055285135659634,0.01939068996247814,-0.027170455802811053,-0.25140904639291867,0.12905419722430475,-0.1672885595122949,0.9774249429732342,-1.8539101942323095,-2.1643262957138476,4.159563351020538,1.0808280062924602,1.3468888286206362,-1.4708893934832972,1.0,0.4746994778984615,0.47853472723844787,0.27145742779635695,-0.6317051626295774,0.04487704369412494,-0.5047118361456919,0.5866861178780857
3.2,0.0114163095284108,0.2559138451601707,-0.24046902438105472,0.010411914232907016,-0.028125061369584377,-0.2460810412132021,0.12913569336546782,-0.16739639131958886,0.9773956803142341,-1.8520498181437397,-2.1650390607519148,4.1593090075299255,1.0797575522331622,1.347166441078473,-1.4708498692951644,1.0,0.4751974811434435,0.47903330035449615,0.27158133900094616,-0.6317798154513479,0.044864105066295575,-0.5046817015579007,0.5866326422706831
3.3000000000000003,0.2708823303912529,0.16814895932747798,-0.2432479975538453,0.010909848261793326,-0.029452967556713186,-0.24821397326656364,0.1293136350260086,-0.16760499982498156,0.9773364031882912,-1.8500105600108674,-2.165944860525672,4.159084173152838,1.07857737123167,1.3474120368818887,-1.4707673956639085,1.0,0.4754893260131612,0.47936013225880875,0.2716951818203818,-0.6317523643136362,0.04485268530776157,-0.504687677635385,0.5866579368318605
3.4000000000000004,-0.1454530904029888,0.24973429381074438,-0.29843409652412856,0.009862859271737776,-0.025692547818014517,-0.24438075691846423,0.12956210922751876,-0.16790851971504248,0.977251353888161,-1.848364765688156,-2.1666294215341626,4.158798630324151,1.0774985665252304,1.347667790542708,-1.4706981817828577,1.0,0.4758618081707085,0.4797494253416598,0.27178027986363823,-0.6317331023654402,0.0448696927375824,-0.5046937199330498,0.5866721802757582
3.5,0.02089733467736648,0.07824532512628093,-0.34616415561649794,0.003100608912812447,-0.029574099483866516,-0.24744232646758796,0.1300109108894862,-0.1684816081815043,0.9770931061163121,-1.8466317752520105,-2.167352498261833,4.158510364022956,1.0763677024631564,1.3479105230503756,-1.4706770450548232,1.0,0.47637366933471664,0.48028100058066114,0.27184062726148833,-0.6318075639747341,0.04486138517807221,-0.5046591605725187,0.5866223571212213
3.6,-0.13250043911965786,0.21024057870558704,-0.4244003952580002,0.0059518443507284215,-0.027567020672927777,-0.2469494365531429,0.12994610210580584,-0.16843914809954225,0.9771090783768187,-1.8448482186024584,-2.1679533763278442,4.158228748617282,1.0754067767037767,1.3481635421092115,-1.470622650314891,1.0,0.4767200815386246,0.4806286472237519,0.27193152119139175,-0.6318108699296183,0.04485444041551471,-0.5046678190798849,0.5866118786718716
3.7,-0.25884755082434235,0.30675026921616183,-0.4034265852719357,0.009083802162015878,-0.02302873562476632,-0.2442056482110845,0.12971283828576965,-0.16819479910744953,0.9771821916906918,-1.8432324781233163,-2.1685856790749103,4.158069057913281,1.0742929063988906,1.3483977728081498,-1.4705546537982386,1.0,0.47703119559529683,0.4809117826663025,0.27206246844778686,-0.6317580217979403,0.04487704822874873,-0.5046953408846856,0.5866433885466695
3.8000000000000003,-0.07289832947849532,0.3186755213794497,-0.21812799565316926,0.007787412052906921,-0.027584953871528345,-0.24381013610316568,0.1296332236232034,-0.16802843480791232,0.9772213938638598,-1.8416895121910626,-2.169163588009699,4.157787840751145,1.07332572226992,1.3486396354242516,-1.47050069675102,1.0,0.4774493223243943,0.48134039312103827,0.27219333373140203,-0.6317632395926503,0.04487747129663318,-0.5046797588343733,0.5866511422406828
3.9000000000000004,-0.005957448740827875,0.24669777364586537,-0.17787025445533572,0.009520851035713773,-0.032040778609958055,-0.24011086403540466,0.12960616956227322,-0.16788874766317774,0.9772489956482787,-1.8400919762313284,-2.1697882885839177,4.1575188636779785,1.0724217677278522,1.3488745148105505,-1.470445192539659,1.0,0.47778490905456644,0.48174184231845324,0.2722899837278127,-0.6317882140670481,0.0448400127382568,-0.504652777128225,0.5866503220491515
4.0,-0.11928125253547847,0.1660443308818405,-0.3581098369356413,0.00907561486636206,-0.028448696738221868,-0.24296431277559047,0.12951562465719665,-0.16776877148089894,0.9772816057248932,-1.8384995793617713,-2.170422339982326,4.157304587987231,1.0713914269019071,1.3491730690002441,-1.4703757686159282,1.0,0.47815572199388423,0.4821022738108384,0.27243273790763484,-0.6317423674763558,0.04484058105546991,-0.5046756223827985,0.5866799976124222
4.1000000000000005,-0.12134614527481127,0.2609330035455262,-0.4622677133619357,0.00843907787764239,-0.025621058123633307,-0.24593592545246248,0.12966277962431577,-0.16797896981579427,0.9772259347078485,-1.836928117217557,-2.1710112307286216,4.157051813660129,1.070415052810098,1.3494125664522565,-1.4703390077153642,1.0,0.4784878180874186,0.4824107848832908,0.27249150137130146,-0.6317585972378077,0.04485647073312919,-0.5046657969565962,0.5866697582385246
4.2,-0.11479809156872622,0.17106471893388572,-0.1906136688940084,0.0072138356389878765,-0.027976730481665858,-0.24618926343382858,0.1298064299227516,-0.16817343552178177,0.9771734374970196,-1.8352689416815176,-2.1716482898079184,4.156821949412566,1.0694434547162501,1.3496416087674785,-1.4703267256366175,1.0,0.47890165576492094,0.48283847067983127,0.272605259011965,-0.6317727035671684,0.044846429688144035,-0.5046542686733354,0.5866652519805806
4.3,-0.1366265856502356,0.4768730550510055,-0.29106881170558796,0.01429211078252081,-0.030646421965754397,-0.2436847073179918,0.12957822963878698,-0.16786542072269553,0.9772566369621618,-1.8337571010569316,-2.1722355171140917,4.15654883213983,1.068531498548293,1.349844898851321,-1.470270048342654,1.0,0.479181395358522,0.4831169541233689,0.27270326506119,-0.6317500673093567,0.04483871487436933,-0.5046715814093914,0.5866753250485165
4.4,0.03992618354672049,0.5803187188114404,-0.3901519735027965,0.015544688102701024,-0.03460633502612807,-0.24267507724091095,0.12959015477621716,-0.16789563862012558,0.9772497056430579,-1.8322299832104183,-2.1728371315449344,4.156341444849822,1.0675020806688627,1.3500281171875483,-1.4702083374632124,1.0,0.4794727728477722,0.4833837921040422,0.2727669940940744,-0.6317559162422561,0.04484893076249365,-0.5046740386562983,0.5866661319768767
4.5,-0.00817016802816832,0.1940903232308111,-0.21579151092924895,0.009617273851650013,-0.02824250805570637,-0.24106301542314498,0.1302455527638224,-0.16883604446081424,0.977000670884347,-1.8304760116464094,-2.1734605717129303,4.156092166900635,1.0664712625690917,1.3502668823270452,-1.47015887895693,1.0,0.47997775045585406,0.48386188853808326,0.27290753900870846,-0.6317721069577259,0.044864979931907085,-0.5046836565451941,0.5866391951294065
4.6000000000000005,-0.056229842613437865,0.3585036020845775,-0.3084066403842291,0.008331136636492611,-0.029424215348157846,-0.24133108044909543,0.1297664066201245,-0.16819373311242403,0.9771751624576606,-1.8290535722320063,-2.1740791680069,4.15587902517726,1.0656374446643793,1.3504635651216683,-1.470091946983455,1.0,0.4802392343134688,0.4841399219588236,0.2730087677606017,-0.6317469160188529,0.04486438952609107,-0.5046913466105776,0.5866597525904789
4.7,-0.11086931787169949,0.48227962994585044,-0.39358822229698265,0.00979854255928823,-0.02672196454607467,-0.246546416755994,0.12963271057069137,-0.16802229766761173,0.9772225266702808,-1.8275723154772228,-2.1746510700902792,4.155622452043385,1.0645813417903318,1.3507060702074474,-1.4701085795953812,1.0,0.48067857493193783,0.4845807998492267,0.273131445197563,-0.631735885222683,0.044872505068383285,-0.5046967584717509,0.5866663545823199
4.800000000000001,-0.10272763591933527,0.19409210222356985,-0.2825026926716014,0.007198063586115936,-0.025231540236039227,-0.24979539939546228,0.1296691893085534,-0.16808086520823504,0.9772076085444968,-1.8258530700572737,-2.1753152334489623,4.155421733856201,1.0636169153400878,1.3509478569030762,-1.4700064559533983,1.0,0.48089693486957774,0.48479770273688505,0.2731484749786517,-0.631779415786646,0.04485630946057102,-0.5046902573351055,0.5866263081731736
4.9,-0.04247509995459818,0.187548453535058,-0.2730470800479068,0.009132972887557524,-0.028559328656499936,-0.2515455299728551,0.12977391804020597,-0.16822365810560974,0.9771691151481136,-1.8241324636707905,-2.1760016880431117,4.155208359826118,1.062601501209907,1.3511070222785388,-1.4699915091144007,1.0,0.48120288336278016,0.48510545039419206,0.2732464465582897,-0.6317657203476161,0.04486938405775494,-0.5046950248782882,0.5866359559650596
5.0,-0.08247442573509858,0.3157408045808608,-0.35643467556619335,0.010583844348392801,-0.02879281110247595,-0.2503463835530851,0.1298786467718585,-0.16836645100298442,0.9771306217517303,-1.822791361367889,-2.1766562933835947,4.154981828176789,1.0617157096314904,1.3513271917150507,-1.4699396476471343,1.0,0.48152740772677055,0.4854446949123745,0.27335041306490687,-0.6317516685861237,0.04487115061799999,-0.5046957321606708,0.5866503447707758
5.1000000000000005,-0.21361802601412308,0.4476570479962794,-0.3832711741057094,0.008320343808082,-0.023466713525588306,-0.24440547254258727,0.12998814942981046,-0.16853888116149082,0.977086339773303,-1.8212130836652771,-2.1772093402388126,4.154762056284551,1.0607145150581132,1.3515717716878615,-1.469907585774557,1.0,0.48192403859923283,0.48585162249164193,0.273427155981228,-0.6317800836761989,0.04485915820873251,-0.5046845300473852,0.5866302983359694
5.2,-0.06822218571562853,0.1994633576828594,-0.4213502948731978,0.006493090254283096,-0.028096131323074373,-0.2460707980227945,0.12973465798591263,-0.1682054432430457,0.9771772293651427,-1.8194534174929307,-2.177786072177717,4.154566004184845,1.0596783294393364,1.35178804397583,-1.469831314085746,1.0,0.48234741403968406,0.48625137748337854,0.2735148775034296,-0.6318168340655299,0.0448694607315865,-0.5046847468455163,0.5865897424832317
5.300000000000001,-0.08332650540778848,0.23639537376394812,-0.4618087809486905,0.00449838339313691,-0.025901288472945157,-0.24900619650739855,0.12929791240628857,-0.16761105815116326,0.9773373300689311,-1.817921734064074,-2.1784040298968494,4.1543147816268835,1.0587937402363814,1.3519952044876185,-1.4697799252421735,1.0,0.4827575235814471,0.4866927360411676,0.27372174947235434,-0.6317498269049068,0.044875552131843514,-0.504692242904413,0.5866549931421328
5.4,-0.12203816703136226,0.30949856095502715,-0.47545176347627116,0.003877824678337518,-0.027879818046805536,-0.24541508739858386,0.12935920155513708,-0.1676883650824358,0.9773159873047834,-1.8165133279154018,-2.179000516931051,4.154093423152408,1.0577963257491396,1.3522100148973162,-1.4697350495327677,1.0,0.48299805393265116,0.48692316106281314,0.27378502741448096,-0.6317346781811595,0.04487620666714055,-0.5047071207523982,0.5866584566170837
5.5,-0.10823151682047234,0.4311458714687216,-0.4822512859180069,0.005351328063974281,-0.027968265624455143,-0.24503970878081724,0.12968143387000844,-0.1681176021765946,0.9771995780115955,-1.8147767718450072,-2.1796397411933275,4.153890790855392,1.0567571250055607,1.35245943069458,-1.469664206733075,1.0,0.4832512105522507,0.487178783850096,0.2738129931184844,-0.6317770007695671,0.0448690288830781,-0.5046916218437547,0.5866267624191897
5.6000000000000005,-0.020862219048222747,0.49138960259362197,-0.5388486875423489,0.015169717148586628,-0.027037185910195258,-0.242081208170156,0.12959209032406435,-0.16797877150523285,0.9772352454619813,-1.813147103307664,-2.180277744845438,4.153677902492472,1.0557886379493895,1.3527056975006522,-1.4696670423104823,1.0,0.48366343294137265,0.48761573043855105,0.2739285339756776,-0.6317923974886519,0.044855815055773116,-0.5046786327196537,0.5866223657579416
5.7,-0.07319590501712356,0.32931354740383856,-0.580844776026278,0.01002268772962477,-0.025371011734545354,-0.24637862524464763,0.1292662862678276,-0.16751357185428703,0.9773582847624016,-1.811641263725016,-2.1809364638426003,4.1534946293381,1.0549243707306224,1.352892312392695,-1.4695878993167582,1.0,0.48401304198382206,0.48798322371312375,0.2740819563840817,-0.631747932382003,0.0448561187251425,-0.5046882145009026,0.586661985037271
5.800000000000001,0.054443418356733164,0.32832556328497114,-0.5794347009688444,0.003442802932264067,-0.03204338907597425,-0.2392821131839949,0.12924930753813424,-0.1674418119590248,0.9773729070222497,-1.8100533261183516,-2.1817069198259955,4.153258871419039,1.0538734296335819,1.3531142844074706,-1.469583813344137,1.0,0.4842747483702517,0.48827242566654694,0.274126658198443,-0.6317569820360754,0.044848159096035886,-0.5046762779354497,0.5866631169279248
5.9,-0.18960855688076708,0.4583970604546873,-0.5440500664795328,0.010196667977735836,-0.026057469948737505,-0.24252974790468834,0.12942728828436043,-0.16761842809377456,0.9773190862899143,-1.8084139097971186,-2.1822526125947395,4.153050697384155,1.052839915552791,1.3533517983137857,-1.469532655997734,1.0,0.4847133439218089,0.4887556936760939,0.27415932999017445,-0.6318271330690943,0.04482768274603971,-0.5046396942358455,0.586620602927362
6.0,-0.15025273131263847,0.16863455729237267,-0.3950872722584604,0.003975305325498867,-0.02166445533670885,-0.24419280727958187,0.1295277912279926,-0.1677631567807514,0.9772809547306973,-1.8068988040603915,-2.182820399751133,4.1527772807519,1.0519572026955746,1.3535680174331193,-1.4694998900042933,1.0,0.4850428400855176,0.4890700366628819,0.2742655322076016,-0.6318247061710391,0.04484368050057628,-0.5046432930336601,0.5866188982526783
6.1000000000000005,0.02637265538543214,-0.021520540225720433,-0.29334246871933517,0.0009512017150823278,-0.02627739748652489,-0.2447708390905221,0.1295624103657291,-0.16786187391910282,0.977259414983595,-1.8052858764387996,-2.1833700079266753,4.152589565858624,1.0509161671039435,1.3537635247630766,-1.4694237739792444,1.0,0.48544250980595804,0.4894528299055551,0.2744419142137792,-0.6317774481040088,0.044854242282123855,-0.5046599107100296,0.5866546919088164
6.2,0.04997034694774911,0.1587759401910433,-0.3675608706991303,0.0059206316275420365,-0.03095772963917973,-0.24259620597133663,0.1294067464196519,-0.1675989428096322,0.9773251456769516,-1.8037164902598652,-2.1839482817369578,4.1523477117700685,1.0498686215352022,1.3539997171679672,-1.469411649516928,1.0,0.48570084810702774,0.48973954207390336,0.2745653049677262,-0.631752226913391,0.044836509236062846,-0.5046690279146233,0.586675364655109
6.300000000000001,-0.0146246133201125,0.2937015442642734,-0.6491835764130365,0.0037522331436964517,-0.029784668972933928,-0.2440596303580208,0.12943314834199462,-0.16763055758451795,0.9773162033696421,-1.802170537935146,-2.1845708253977034,4.152118524783504,1.0489513117023925,1.3542099547646909,-1.469324310714598,1.0,0.48598841143267413,0.49003987399161514,0.2746559502775304,-0.6317612946967023,0.04483342261415819,-0.5046622538550245,0.5866716630908757
6.4,-0.11094324465662246,0.3311672876543707,-0.6338363890079635,0.0036222705028670136,-0.027798139978957557,-0.2471779026879185,0.1296160533645403,-0.167915362836311,0.9772430724463821,-1.8004947277541055,-2.1852191883815557,4.151890638838127,1.048072500123421,1.3544411666204754,-1.4692769682846318,1.0,0.4864192865502338,0.49044968741019757,0.27475301161944427,-0.6317820555771108,0.04484110978925186,-0.5046606734685709,0.5866500777958501
6.5,0.1509606205882175,0.02799179375930503,-0.3724626698870218,0.0033226262677359024,-0.03251995449179774,-0.24579105798944023,0.1291509648455221,-0.16734027717717634,0.9774029317490941,-1.7987576086610892,-2.1859134022983358,4.151638862012645,1.0469928721001842,1.354642391204834,-1.4692336377852022,1.0,0.48674193845839653,0.4907517208751552,0.2748922550193535,-0.6317206032574012,0.044859080568386,-0.5046941124886564,0.5866861129513395
6.6000000000000005,0.05271558488205483,0.30186697501416604,-0.4710217519980614,0.009634863145195379,-0.027718013324616944,-0.2482341149789629,0.12868514742608148,-0.16672517659779595,0.9775698665177514,-1.7973527908325195,-2.186619255784483,4.151424733245303,1.0460173379023257,1.3548698457700807,-1.4691807259194747,1.0,0.48718469135798076,0.49117698761044865,0.27501710337379004,-0.6317248726457796,0.04486391639131204,-0.5047052170159245,0.5866715931452755
6.7,0.021494641363986294,0.4360312588429038,-0.6036712348950964,0.010989355325409365,-0.031585239315201304,-0.24793730324395524,0.1287605124954765,-0.166793439560913,0.9775482882021924,-1.7958056732132885,-2.187409652078101,4.151198558712501,1.0451499658771972,1.355061896041915,-1.4691618769286323,1.0,0.4874579185022395,0.49147163641599045,0.27499493464333796,-0.631799292131779,0.0448520689662873,-0.5046594611775912,0.5866317197485743
6.800000000000001,-0.025519809587243966,0.16425124150344672,-0.4820025693258025,0.004460532611984892,-0.0276270620127616,-0.24712485795964625,0.12942500856046907,-0.16776929447246278,0.977293148632418,-1.7939596142038279,-2.187926514721355,4.150999708691907,1.0441770554335819,1.3552780151367188,-1.469122462734456,1.0,0.48778227328111146,0.4917683862087119,0.2749763012563685,-0.6318420066525011,0.04486719839394397,-0.5046488557709701,0.5865936800773343
6.9,-0.014902896716290123,0.060099073894672866,-0.5247388262159168,0.004072151652468531,-0.030527656897282665,-0.250837506617687,0.12927135665889203,-0.1675796136053361,0.9773460318322219,-1.7924426698442042,-2.1883973172370346,4.1507972173393695,1.0430843105984342,1.3555032176268342,-1.46907525766706,1.0,0.48826614598378176,0.49227512589539274,0.27523557549824884,-0.6317444940461787,0.04487015049783244,-0.504692468719844,0.586660954772097
7.0,0.03634015127460288,-0.04063191853353371,-0.4365690184552259,0.0031329091787503037,-0.031022511947109598,-0.24812144222702315,0.12882714307638168,-0.1669723260009411,0.9775089782420309,-1.7915539508461489,-2.1886784625275255,4.150671123256047,1.0422557522503149,1.3555813895537003,-1.4690196210242774,1.0,0.4884901172112732,0.49250363436713834,0.27532548955343544,-0.631764874619582,0.044878779711988226,-0.5046834957152276,0.5866460666203469
7.1000000000000005,-0.06053574918375543,0.25946652713138696,-0.38156421166148125,0.000187476517932471,-0.029813218954946555,-0.241444002684594,0.12899057599421343,-0.16716202417624063,0.9774549739621204,-1.791546658357379,-2.188691656878739,4.15065738339578,1.0422408463634703,1.3556371167043302,-1.4690387668785685,1.0,0.48865645749113173,0.4926872251004528,0.27536828671811175,-0.6318199156795975,0.044866407429648154,-0.5046511571423385,0.5866155548823115
7.2,-0.020804572992559917,0.20277044709872374,-0.5623998296432026,0.006037006447247208,-0.027037847067945934,-0.2389236060229709,0.12923890369899543,-0.1674043008350446,0.9773807349942313,-1.7914667129516602,-2.188690324822897,4.150653794747006,1.0422788849833342,1.3556353609815124,-1.4690314854659603,1.0,0.4887530355988836,0.4927951576548067,0.2754184250482236,-0.6318381266247888,0.04484592392200963,-0.5046358388315595,0.5866106843705007
7.300000000000001,0.26764053588610004,0.2637219835493755,-0.6657488356948771,0.006930739954830594,-0.03268969028305256,-0.2437020524001799,0.12919571476019057,-0.16738520584173888,0.9773897167450875,-1.7913256636520407,-2.1887488423612043,4.150651048300194,1.0422164636799316,1.355636526467872,-1.4690330664264124,1.0,0.4887684636132963,0.4927908082569874,0.275457733449464,-0.6318010990416516,0.04485816812693746,-0.5046549999995111,0.586633145140598
7.4,-0.034688318171242766,0.3081299034493786,-0.7110019042578252,0.004462657772252326,-0.0275764743777661,-0.24288284776465963,0.12933555590178483,-0.167594503115642,0.9773351718165144,-1.7913887066744225,-2.1887123080863513,4.150677522246743,1.0422929526419518,1.3556142109228533,-1.4690192869030014,1.0,0.4887860566622763,0.4928143787604155,0.2754728753396418,-0.6317852813506423,0.04485789428366273,-0.504658443447441,0.5866472390170531
7.5,-0.12168389843287133,0.1677553368336244,-0.645097352939241,0.0020062283968079087,-0.02759264684129181,-0.23741140339301375,0.12969502992376516,-0.16807483064893367,0.9772049285770618,-1.7913489256422284,-2.188738008538717,4.15065170859118,1.0422639132428506,1.355647288305911,-1.4690094684777744,1.0,0.48879695095124076,0.49280049682163424,0.2755038780898569,-0.631765804188258,0.04487348667680439,-0.5046754872042599,0.5866523599773321
7.6000000000000005,-0.07520751120786467,0.30369167822515386,-0.5976126509116368,0.006408201876025804,-0.028336261844492092,-0.24233251020108537,0.13005450394574553,-0.16855515818222536,0.9770746853376091,-1.7913705969185203,-2.188726087609762,4.150640679129339,1.0422310893280997,1.3556477066236852,-1.4690123437414153,1.0,0.4887879063395067,0.49280676468194534,0.27550352460778593,-0.6317651904811002,0.044862951221804705,-0.5046683739037857,0.5866599458675852
7.7,-0.12844434689138426,0.4259332420311925,-0.5266691767513075,0.01038988126112271,-0.028089499297270604,-0.24135992823760577,0.12950525024237816,-0.16778946976005601,0.9772794006061956,-1.7913474422698945,-2.1887504063048304,4.150685870818218,1.042251760742176,1.3556380049660872,-1.4690220518068602,1.0,0.4887837268588954,0.49281947629719147,0.2754806936090086,-0.631782719779544,0.04485695455207485,-0.5046552576654286,0.5866528100392217
7.800000000000001,0.010018729294894904,0.25243440908389014,-0.46955066539665713,0.005647321023946945,-0.03242406863121866,-0.23997579133396463,0.12980850986084624,-0.1682218538565201,0.9771647482779304,-1.7913860599676343,-2.188724667810611,4.1506608995094165,1.042272228972446,1.3556260387579175,-1.4690316466272613,1.0,0.48878824558214157,0.49280693321750124,0.2754840722469918,-0.6317818545555938,0.04485772055127969,-0.5046728446643771,0.5866385539832883
7.9,0.02417926415852229,0.24240107116562282,-0.3619844487417094,0.005570729146799799,-0.03131422999008687,-0.24007563920849515,0.1299605102008463,-0.16843374110297152,0.9771081417617673,-1.7913651002376951,-2.188734588269327,4.1506442559688965,1.0422455043473142,1.3556344781132221,-1.4690484076247574,1.5909802959995223,0.4887871656248888,0.4928073069451313,0.2754928643104813,-0.631769777548665,0.044851720574637766,-0.504679721901889,0.5866461025513056
8.0,-0.08302154680982077,0.42899282356755186,-0.5685374292870629,0.009666598105882673,-0.029467210382066903,-0.23967880714525466,0.1298492147800194,-0.1682654786264532,0.9771519358023527,-1.7913578235110235,-2.188720746751938,4.150661601614685,1.0422823628568474,1.3556051628869874,-1.469011389065585,2.0,0.4887842657160693,0.4928174494130083,0.27548406340804565,-0.6317771173616189,0.04485046504006974,-0.5046730661094914,0.5866440199197278
8.1,-0.08780986938018326,0.27942955561104477,-0.5878234253698565,0.006853418770079408,-0.029591464441137534,-0.2388269643294005,0.12947823255131238,-0.16778421098510224,0.9772838952793842,-1.791350882435573,-2.188728613754707,4.150679263486207,1.0422739179711225,1.3556271008498797,-1.4690305402814674,2.0,0.4887882856364924,0.4928091410851624,0.2754967635373173,-0.6317671368427631,0.04485571796367133,-0.5046803200387847,0.5866481261684986
8.200000000000001,0.04737138793551452,0.18138011835200218,-0.6285851201768562,0.010884515515058743,-0.03086381349574642,-0.23611161770253944,0.1293804328436062,-0.16767873428301838,0.9773149623468913,-1.7913459564786054,-2.188726087609762,4.150668508740792,1.0422503810788362,1.3556609153747559,-1.4690621304869729,2.0,0.48878969307248255,0.49281279793054117,0.2754867732085479,-0.63177742577137,0.044858115100403204,-0.5046752905842568,0.586641189202596
8.3,-0.027922491175486133,0.5302534197940777,-0.6447272808391861,0.013058428371325117,-0.02903713132436904,-0.23860937299347662,0.12931000780753524,-0.16761058866029152,0.9773359763505621,-1.7913599014282227,-2.188748013429485,4.150639057159424,1.0422619385877405,1.3556192725433216,-1.469042686513689,2.0,0.4887924732506875,0.492804026866898,0.2754690622722221,-0.6317879761058665,0.04487237623498818,-0.5046703029295183,0.5866330270621551
8.4,0.05468474676565058,0.18943378330071758,-0.6255231252509127,0.01025843920143289,-0.029880987040146915,-0.23975316056592955,0.12913571143938488,-0.16736071882113332,0.9774018353508931,-1.7913484573364258,-2.188733021037242,4.150661515192861,1.042264147395752,1.3556328570531269,-1.4690449873553675,2.0,0.4887901633644403,0.4928081108121018,0.27548532268712683,-0.6317715322331717,0.044865090354849896,-0.5046841456554568,0.5866393848449176
8.5,0.29903182719981414,-0.060357886474829175,-0.5263926552530971,-0.001077048369624645,-0.03804751864517015,-0.2345843682849132,0.12918198025359431,-0.16743541348180044,0.9773829280589802,-1.7913658150891056,-2.1887198528931946,4.150657939030768,1.0422708589494776,1.3556035632747683,-1.4690640546179805,2.0,0.4887948142720284,0.49279904828870286,0.2754777393069999,-0.6317838432677819,0.04487783807590594,-0.5046771259444248,0.5866311904287899
8.6,0.13311053924354627,-0.02874001647315011,-0.5732268113982509,0.00031958141985488284,-0.03459822302681418,-0.23500337837230492,0.1292130077197611,-0.16747938728923437,0.9773712954635507,-1.7913397459649045,-2.1887464600928004,4.150655763560952,1.0422889429279785,1.3556203671153175,-1.4690569082843226,2.0,0.48878672888787755,0.4928050728812464,0.275493414303608,-0.6317707358153435,0.044860672055311905,-0.5046892123505622,0.5866362215266411
8.700000000000001,0.033178097279699045,0.09093484853345155,-0.5834147693774842,0.0013355962791632037,-0.034042406499386516,-0.23656924801326795,0.12918087113121615,-0.16741710111906144,0.9773862127089767,-1.7913668590776255,-2.1887373709289206,4.150651454925537,1.0422832352093678,1.3556179857032298,-1.4690211454974573,2.0,0.48878382468773157,0.4928112524158314,0.27549955171223384,-0.631763348783781,0.0448523955127606,-0.5046828324672433,0.5866502981871823
8.8,-0.14551958506584284,0.16939943342928554,-0.5776170233047133,0.0017342530207902246,-0.031775731241930845,-0.23994053113304176,0.12914873454267123,-0.16735481494888854,0.9774011299544028,-1.7913599014282227,-2.18873651309742,4.150627613067627,1.0422618435719881,1.3556437646692654,-1.4690312769533178,2.0,0.4887886586517971,0.49281332196155964,0.2754863286711144,-0.6317692234949772,0.044863782762992965,-0.5046699649645952,0.5866541704474477
8.9,-0.3402079032991926,0.9431755091684797,-0.6388904908247738,-0.011268392206361874,-0.03116426226990296,-0.24219198912721102,0.1294848682271071,-0.1677831399692938,0.9772831011717173,-1.7913713455200195,-2.1887456020761573,4.150635169903636,1.0422765451618652,1.3556061155215469,-1.469037650587222,2.0,0.48878195969272165,0.4928140760811743,0.2754912218173175,-0.6317653454394943,0.04486065188989,-0.5046692340166987,0.5866592149201523
9.0,-0.375680578030293,1.6211558128200134,-1.191177947598562,-0.07186978578904529,-0.047527472662029904,-0.23784216954320572,0.12972006738425973,-0.16809012557419573,0.9771992701923892,-1.7913631240305217,-2.188747850662387,4.15066110406639,1.0422715276086219,1.3556361198425293,-1.4690401627849412,2.0,0.4887734529250031,0.4928194122425955,0.27548876111410164,-0.6317676082271542,0.04485142315948913,-0.5046692497461268,0.586657470246643
9.1,-0.359798311960931,2.0266536809611195,-1.4951182050096246,-0.13739583796259644,-0.05967668336284105,-0.23520730054383823,0.12970351042897033,-0.1680837585551897,0.9772025631529312,-1.7913641870365473,-2.188747115456407,4.1506545672069475,1.0422616316546314,1.3556097622434986,-1.4690226170945166,2.0,0.48878010532313965,0.49281308300155763,0.27546976110080024,-0.6317834271142753,0.04484898866450183,-0.5046765323041523,0.5866343556091549
9.200000000000001,-0.07078054347222601,2.4979024580419313,-0.6239522237143283,-0.15966224586552155,-0.03484142095415736,-0.24367846876897306,0.12968056762485336,-0.16809108738478004,0.9772043472846265,-1.7913663785034477,-2.1887623272337855,4.150639057159424,1.042234956276041,1.3555905468508973,-1.4690365760603448,2.0,0.48879475238288705,0.4928039782054661,0.27546892316034194,-0.6317902442887192,0.04486101681422922,-0.5046814214707218,0.5866218877729382
9.3,0.5366990688383732,2.268352602226811,-0.08625017192352348,-0.15991713995988868,-0.01364611302957247,-0.2501742600556919,0.12963788860241868,-0.16803683299658884,0.977219333508893,-1.7913599014282227,-2.1887571220299376,4.1506326100633215,1.0422403055378417,1.3556112443005184,-1.4690367611090016,2.0,0.48880323725099256,0.49279779184362377,0.2754533322715748,-0.6318008458335806,0.044871528650495,-0.5046765839057691,0.5866138276393963
9.4,0.3515536774206663,2.9230009157288235,0.050466260547404544,-0.2060788832831621,-0.010196159631326857,-0.24861115089431501,0.1295613380595101,-0.16786752734222735,0.9772585868046758,-1.7913727106369615,-2.1887593832366057,4.150639057159424,1.042269232765219,1.3556219273446861,-1.4690190041251698,2.0,0.4887859374062278,0.4928197022306706,0.27545703757433576,-0.6318108797075005,0.044851134698900966,-0.5046573203363846,0.5866211529005367
9.5,0.39418954670788964,3.5149897554661904,0.14640134093084617,-0.2642730345151615,-0.005639702075717143,-0.24639372102034826,0.1294545014700985,-0.16782075192465873,0.97728077831198,-1.7913765258749306,-2.1887474196990255,4.150639057159424,1.0422403055378417,1.3556314121999735,-1.469002207433876,2.0,0.48880226603903265,0.4928052914353949,0.2754730088897662,-0.6317950363077998,0.04487396618698966,-0.5046718089784616,0.5866240060531805
9.600000000000001,0.7736855160051666,4.2176889023085895,0.2035079467827166,-0.3042128649893963,-0.0002221946557707052,-0.24675612998598512,0.12933216694687688,-0.16771577451615388,0.9773149813837786,-1.7913758470861019,-2.1887820129989284,4.150639057159424,1.0422401263082375,1.3556128916591141,-1.4690290471709817,2.0,0.4888119835263108,0.4927935421137757,0.2754615578564345,-0.6317913442551569,0.04488370230932741,-0.5046822655361094,0.5866182416568798
9.700000000000001,0.5233164298924975,4.399433698253259,0.25535604135013346,-0.3396231012640589,0.009475832081996005,-0.24596896698270024,0.12919020923164273,-0.16745405696471422,0.9773786408166212,-1.7913640789554697,-2.1887623272337855,4.15063070210493,1.0422599698685049,1.355613888665469,-1.4690275809918385,2.0,0.48879856658567306,0.4928067177230097,0.2754542066960708,-0.6317960948151916,0.04487307300845633,-0.5046672688886232,0.5866268401697532
9.8,0.5591308762165667,4.718691403166977,0.417783431363197,-0.3646605881796354,0.006994754186249345,-0.24640993585753573,0.1294453684149869,-0.16782893240359137,0.9772805575380634,-1.7913667046576156,-2.1887504063048304,4.150627613067627,1.042252310354414,1.355624507975498,-1.4690509058760364,2.0,0.48879982194504185,0.49279383294113605,0.27546717916611924,-0.631786633051862,0.0448783828997678,-0.5046798242921025,0.5866258228187591
9.9,0.5632384956701875,5.021748332790681,0.5791289769682159,-0.3768884205532241,-0.00046584440607705217,-0.24499970965944975,0.12906442714287258,-0.16730339653541973,0.9774208102754789,-1.791367428933779,-2.1887632464238505,4.150642820912202,1.042235435277285,1.3556375158697522,-1.4690496702982105,2.0,0.48880266473749756,0.4927928301401977,0.27546562584082324,-0.6317883626490048,0.04487378043044703,-0.5046846906815456,0.5866201255010283
10.0,0.5522174703469473,5.002806137772246,0.8625601800242524,-0.39917324596540416,0.0007633146911334597,-0.24190517302082815,0.1284885295152494,-0.16649929496022417,0.9776339738303544,-1.791374501474903,-2.1887548812099786,4.150645717125511,1.0422403055378417,1.3556122779846191,-1.4690330664264124,2.0,0.48879926446886457,0.4928057066904818,0.2754597730157255,-0.6317942248807071,0.04486451821316427,-0.5046758771783715,0.5866221027263874
10.100000000000001,0.6486992933028713,5.269438815133401,1.01562564734322,-0.4123906889737361,-0.0051628141969838484,-0.2380951582602889,0.12783151625523806,-0.16558207522019944,0.9778759307310633,-1.7913843911612242,-2.1887147896376256,4.150622190041002,1.0422581263305806,1.355611032070982,-1.4690274174403442,2.0,0.4887917260659495,0.49281445878854174,0.2754556275248078,-0.6317964865743076,0.044859433750597436,-0.5046657937478171,0.5866287304392976
10.200000000000001,0.5977121292006962,5.40092355800834,0.8096805220456865,-0.42720313713443814,-0.006795163025227165,-0.24127973363598448,0.12698673526404872,-0.16442357504464475,0.9781804315168958,-1.7913713455200195,-2.1887449116914754,4.150630861610101,1.042224659229254,1.3556008338928223,-1.4690279132942792,2.0,0.4887919759695567,0.4928041612586767,0.2754647993185799,-0.6317916220142883,0.044869737551706645,-0.5046671060362548,0.5866320525590019
10.3,0.5397994061026042,5.03356547463021,0.9799610205315767,-0.45256527115862394,-0.0033752989395316214,-0.2375589819391469,0.12609588656698986,-0.16320587813668913,0.9785002770762192,-1.791377618623518,-2.1887235734180446,4.150682270346656,1.0422594905951392,1.355646096072324,-1.4690211454974573,2.0,0.48879117446164566,0.49280582124402555,0.2754671273491661,-0.6317871239024021,0.04485613684133976,-0.5046679605758769,0.5866372018777763
10.4,0.7822190659931223,5.271339353737321,0.9797974785355347,-0.4396856617089529,-0.013659137447003334,-0.23697659225470147,0.12550893537878283,-0.1623871635000775,0.9787121430889185,-1.7913598752578364,-2.1887623272337855,4.150673445228624,1.042306122150867,1.3556161353905012,-1.4689952977884886,2.0,0.4887901644344975,0.492809710189103,0.27545830411983246,-0.6317938617262661,0.04484223683410047,-0.5046686640408089,0.5866304029079908
10.5,0.8031840748366335,4.969271488841601,0.9105655712951293,-0.43666703655560357,-0.013883891322784586,-0.23709508228358844,0.1250302446822723,-0.16172922989823627,0.9788824616815237,-1.7913698286539834,-2.1887471829645038,4.150651454925537,1.042252703303955,1.3556261926167685,-1.46904340728658,2.0,0.48877990844223995,0.4928194677717941,0.2754531800711563,-0.6317991411182549,0.044832713312994286,-0.5046651567721001,0.586628462179787
10.600000000000001,0.6581550065697283,4.874673309504013,0.894123063649997,-0.43141726228602095,-0.011654365106750752,-0.2356761439438093,0.12462663136603525,-0.16121622226704482,0.9790184452602266,-1.7913662231693084,-2.188738008538717,4.150619203411551,1.042252703303955,1.3556544671988484,-1.4690227259327286,2.0,0.48878456056520597,0.4928191083694602,0.2754462884584182,-0.631810843604284,0.04484773933311681,-0.5046500755278635,0.5866276838425489
10.700000000000001,0.662163323709493,5.016884406865041,0.9629156243564331,-0.42166355679717704,-0.012224561410440439,-0.23938718385446028,0.12452260039926273,-0.1611092427241515,0.9790492457729567,-1.7913387253499526,-2.1887269576708093,4.150639057159424,1.0422429505234252,1.3556131480456663,-1.4690100946295495,2.0,0.4887918361874921,0.49280367308426865,0.27545624599372764,-0.6318027075963943,0.04486171954468188,-0.5046647415161645,0.5866227607788354
10.8,0.64498304948668,4.882245212182233,0.8593241237831679,-0.4240107504366226,-0.010305138252644596,-0.23643799826767503,0.1252188528508229,-0.1620868983309027,0.9787990675706927,-1.7913604763095523,-2.1887504063048304,4.15065083213743,1.0422753474924287,1.3556349221730928,-1.469022942001612,2.0,0.4887952746468016,0.492798748919421,0.27545954484711177,-0.6317961868748307,0.04487032318154385,-0.5046719733256886,0.5866229041620891
10.9,0.7629453325652578,4.819407418679247,0.77025189972782,-0.4205970087062439,-0.01588077607043196,-0.23766229808221342,0.12474336999793836,-0.1614405335607637,0.9789657751576701,-1.7913573754504408,-2.188749118056162,4.150640370667871,1.042252703303955,1.3556248304080196,-1.4690424613775857,2.0,0.48879040875704716,0.4928057763454033,0.2754539884019733,-0.6317944917872759,0.04486712000829976,-0.5046671009075031,0.5866291664680806
11.0,0.7614538432580639,4.497585676778025,0.857156741127599,-0.4249287281318304,-0.014491847593740368,-0.2381857126556266,0.12389512547827851,-0.1602775226331945,0.9792651057364301,-1.7913708239828963,-2.1887036147868004,4.150639882926535,1.04227626266259,1.3556358590739677,-1.4690325231585757,2.0,0.48879499183438335,0.49280812149572795,0.2754674760649293,-0.6317879828393805,0.04486063606755347,-0.5046744492093633,0.5866303507206105
11.100000000000001,0.6821329812276421,4.414623687985603,0.8725353625465004,-0.4235695774651194,-0.013448736362057316,-0.23535573470824547,0.1237312021822552,-0.160049218966428,0.9793236591736812,-1.7913713455200195,-2.188738107818,4.15066385269165,1.0422764458825822,1.3556011164569353,-1.4690331618872614,2.0,0.48879695877291823,0.4928082806177347,0.27547973320036884,-0.6317805474372378,0.044863380471907716,-0.5046756593640975,0.5866371074335054
11.200000000000001,0.552691078096048,4.491673374599749,0.8201740883563536,-0.4202709705734693,-0.013840861615981363,-0.2298088699175578,0.12383815905200846,-0.16019150383208983,0.9792868557373403,-1.7913722589065078,-2.1887269031334124,4.150653868875542,1.0422756970172689,1.355611495081915,-1.4690219610211077,2.0,0.4887931753250233,0.49281016245662107,0.2754833174734096,-0.6317791134851958,0.044854255813480945,-0.5046721326307344,0.5866423834374958
11.3,0.5364432598765164,4.4563795983027426,0.7992743544315583,-0.4187894571078533,-0.011001290703987266,-0.23720234734697399,0.1240674236607612,-0.16050278350233924,0.9792068620392178,-1.7913494514448995,-2.188741156548884,4.150651454925537,1.0422392285869952,1.3556133549354656,-1.4690071120879955,2.0,0.48879084091445224,0.4928106612221317,0.275474461760169,-0.6317834411417684,0.0448604127375945,-0.5046680798512375,0.5866407384825431
11.4,0.595976372509352,4.700775572959907,0.8607050913440072,-0.40892894155153153,-0.014618546622662735,-0.24134224952297834,0.12443264022431685,-0.1609699361210517,0.9790838080626609,-1.7913509526504308,-2.188735409253295,4.15067654444045,1.042223013879195,1.3556220764653104,-1.4690250444255903,2.0,0.48878295650666154,0.4928171409711306,0.27547443920156295,-0.6317862116286899,0.04485137951079948,-0.5046788755234877,0.5866291581162624
11.5,0.5607015639591791,4.484278343810633,0.835563234498064,-0.41550814296772004,-0.015173684154734284,-0.23483507014296684,0.12444811282640264,-0.16095765153659114,0.9790838892878269,-1.791336939489643,-2.188717440955177,4.150649752302865,1.0422576802009968,1.3555949846754483,-1.4690466244925524,2.0,0.4887772318980577,0.4928275141597306,0.27546905309849257,-0.6317874101303088,0.04483100278637343,-0.5046745680754694,0.586633130608768
11.600000000000001,0.574727316045097,4.53265921003067,0.8307284909359195,-0.4178513067579909,-0.014040922507347042,-0.23354105881762155,0.12428979600496058,-0.16073404968907715,0.9791407350313336,-1.7913484573364258,-2.188732506958242,4.150668877434968,1.042262120233074,1.3556267029134104,-1.4690449873553675,2.0,0.48877517739662246,0.4928257513945301,0.275485749058096,-0.6317727811167924,0.044845130853368685,-0.5046662432125539,0.5866549669443062
11.700000000000001,0.565022925722234,4.9039382179715965,0.82003724128341,-0.41897131570771556,-0.013249217438837578,-0.2363802522758774,0.12405779389325763,-0.16049104493783284,0.9792100115830316,-1.7913423410438738,-2.1887214018286847,4.150653930107706,1.0422569122478742,1.35565346797298,-1.469002063605256,2.0,0.4887865825512355,0.49281605553350033,0.27550390040012845,-0.631759233691122,0.0448691536897501,-0.5046721398604651,0.586662646622257
11.8,0.612488509418441,4.673616296509292,0.8424248157103998,-0.42561527227714996,-0.014374334261216724,-0.23465298380385996,0.12384379959596108,-0.1602165643909938,0.9792820050362971,-1.7913399897927456,-2.1887332256127037,4.150666106797843,1.0422427474862166,1.3556338657363372,-1.469030718399129,2.0,0.4887828323902019,0.49282385229635894,0.2754766115968325,-0.6317874424403295,0.044848495687248996,-0.5046554650107056,0.5866481923982437
11.9,0.6803977265155104,4.693798424160421,0.9377191415490447,-0.42253074265467866,-0.01639775015962247,-0.2328283465452099,0.12363715195150254,-0.1599292426554454,0.9793551069046186,-1.7913655464922722,-2.1887171870077586,4.150648238953357,1.0422704296758116,1.3556332203286556,-1.4690421274072678,2.0,0.48879165091634946,0.492812761656773,0.27549298538757927,-0.6317733674692554,0.04485430902085456,-0.5046731539254327,0.5866476888438035
12.0,0.5229785309929452,4.767867410604968,0.7708355271445055,-0.4164924878105222,-0.013827576822520163,-0.23449938850410157,0.12366927253949302,-0.15997858552358657,0.9793429995053015,-1.7913269151154874,-2.188738008538717,4.15066022595641,1.0422369158574902,1.3556246757507324,-1.4689998403314073,2.6023022300583185,0.4887943029886751,0.4927960556627939,0.2754915838322766,-0.631773916647107,0.04486472842425819,-0.5046849381892483,0.5866361628409098
12.100000000000001,0.5029840794751771,4.5934593734346585,1.0121861189282146,-0.41506621631753227,-0.01728074883044132,-0.23583034031587,0.12380279349128988,-0.1601709034975226,0.9792947053375453,-1.791910603062875,-2.1885054647338444,4.150709673455384,1.0426306566977008,1.3556040447689781,-1.4690476956499863,3.0,0.4887912669256754,0.4928021070326574,0.27547207738484925,-0.6317909960890417,0.044869902211396265,-0.5046707972610589,0.5866295385745962
12.200000000000001,0.5534362637650175,4.371648802803072,1.1897542880237715,-0.40187849543422477,-0.022674671410500162,-0.23001554456269688,0.12369926515360419,-0.15999977560144477,0.9793357584831791,-1.7932033758314085,-2.1879013520163735,4.150892166233877,1.0435792862276487,1.355428076768125,-1.4690631797338267,3.0,0.4886930560479767,0.49271688431640925,0.2754785057223546,-0.6317523978243808,0.04486355734625046,-0.5046818506229677,0.5866620822220929
12.3,0.8111769339116128,3.7355220206447695,1.567294621911293,-0.37989147489960906,-0.030169175447551495,-0.1854150609440804,0.12373254976282333,-0.16004193382402018,0.9793246623590453,-1.7950326869069209,-2.187235494653219,4.151087973970715,1.0445134904689484,1.3551900296788495,-1.4691705828475778,3.0,0.48836637989614307,0.4923649759441083,0.2754395155376135,-0.6316984320479377,0.044871891037681966,-0.5047062661695079,0.5866985505624784
12.4,0.579786928893144,3.7695693981954457,2.3955598436640453,-0.35901988395364265,-0.01347785415992048,-0.18695975337756662,0.12379539490439806,-0.16014069217792837,0.9793005328191364,-1.7968334666489836,-2.186522323339863,4.151371479034424,1.0454934885746505,1.3549533632002566,-1.4691785759279385,3.0,0.4880469014884237,0.4920316833636082,0.27530116630860985,-0.6317554875005202,0.044860749174890975,-0.5046797308659489,0.586660793346139
12.5,0.6484224425494428,3.9640217493204934,2.8240802214109206,-0.3564827246635152,-0.01608559043507151,-0.17890532573080564,0.1234283289256605,-0.15962925379334805,0.9794302128608153,-1.7982224556530169,-2.1859209224330405,4.151607570483214,1.0465738511255014,1.3547396320726137,-1.4692175190002335,3.0,0.4877647007939633,0.49174676970968495,0.27519689901114514,-0.6317866874977149,0.04484214022327309,-0.5046705075059217,0.5866365508682323
12.600000000000001,0.3491426968613147,3.8994246214808803,3.2851873091435118,-0.34086149528527576,-0.012499293281629362,-0.14709693847599428,0.12314581707629899,-0.15923294344332597,0.979530478298707,-1.7997815212487969,-2.185396134964481,4.151803205874428,1.047493450413374,1.3544960021972656,-1.4692773759530893,3.0,0.4873419039562451,0.4913219037513662,0.27512212825386234,-0.6317396144801973,0.04485790807624929,-0.5046894517887146,0.5866697408530979
12.700000000000001,0.6031487201400119,3.5369089068820965,3.3844655873148395,-0.32784196643833846,-0.010308484831145758,-0.14193664285283625,0.12332897842580984,-0.15947068894046634,0.9794687458218875,-1.801594999027936,-2.1848110376071928,4.152027173096668,1.0484325128742675,1.354284829545192,-1.469344441090719,3.0,0.4869745498787405,0.4909848030232268,0.27502376642108595,-0.6317214122281739,0.044865623193780776,-0.5046834653560393,0.586693900585386
12.8,0.3872340491314515,3.7001018377425106,3.0622652880561247,-0.3415216592924274,-0.018608139085096287,-0.13986011025907322,0.12407599209856904,-0.16046104791564908,0.9792122573516046,-1.8031085015416977,-2.1842702349938454,4.152256551612419,1.0495130258747558,1.3540477438623695,-1.4693542326373643,3.0,0.4865914044191845,0.4906023457401753,0.2747778266248884,-0.6318307209117323,0.0448503004235961,-0.5046412827928316,0.5866136431803127
12.9,0.4042862496523117,3.7290787369983334,3.1304604027534437,-0.34897985826709976,-0.013790483171246851,-0.11841059780851694,0.12446220022795486,-0.1609910476863953,0.979076627605576,-1.8046961270540642,-2.1836216981640195,4.152481533946112,1.050471468562744,1.3538479804992676,-1.4694461795769311,3.0,0.48632398775332775,0.4903302909406114,0.2746527853529212,-0.6318434566176339,0.04485322310217223,-0.5046357612618998,0.5866044520479281
13.0,0.3462237763507354,3.5999584373314764,3.2673977710363316,-0.3551039683964472,-0.010294670720967613,-0.10258129786576428,0.12447126323717302,-0.16103085091093353,0.9790689288340128,-1.806274319284596,-2.182922470133252,4.152666628615832,1.0514488899591565,1.3536090227291235,-1.4694586747670508,3.0,0.4860785233482834,0.4900743425462038,0.27460890928424875,-0.6318054494465334,0.044863886992952594,-0.5046566349805508,0.5866266158841198
13.100000000000001,0.5783680975265938,3.754098361532804,3.3837823342162343,-0.3528792423027534,-0.010429076862913318,-0.09115869470559439,0.12452002153680969,-0.16113103199101922,0.9790462446826983,-1.8078916150665765,-2.182353075341061,4.152924762225857,1.0523780308198727,1.3533384041284418,-1.4694827966991924,3.0,0.48565636884610824,0.4896365852008363,0.27451293654995473,-0.6317995122204558,0.044876288624150565,-0.504669451435515,0.5866210359892428
13.200000000000001,0.34916392820500297,3.914405868775197,3.7092758400160672,-0.3579489534087498,-0.0051832990406104704,-0.06785459275721041,0.12436397406480217,-0.16096381513387,0.9790935004517373,-1.8094731092402947,-2.181656690326756,4.153115296989536,1.0534703445036888,1.3531291475422162,-1.4695723221993349,3.0,0.48515415516050253,0.4891601001452891,0.2743466084111357,-0.6318285895115628,0.04486761152474136,-0.5046429093406565,0.5866132158109738
13.3,0.39053812695798995,3.9822934837490354,3.635395106917709,-0.3721611169884987,-0.00893315550048409,-0.06223029013077752,0.12408241692651638,-0.16063273069820277,0.9791836170053752,-1.8110538655552588,-2.1809313173277056,4.153343989675954,1.0543281623154481,1.3529359208804237,-1.4695842901812952,3.0,0.48495756076523844,0.48890969558336383,0.2743458986494947,-0.6317727953062191,0.04487986461884762,-0.5046958239181645,0.5866268474782972
13.4,0.4753866727895946,3.980915374289587,3.8977846837533208,-0.3718972763683619,-0.007885375050277397,-0.048374751430979995,0.12393432105752585,-0.16042256262637902,0.9792368829436747,-1.8126317885714962,-2.180338521996969,4.153572776887055,1.055293800534613,1.3527012714082276,-1.469643165165597,3.0,0.4846597290311033,0.4885948294424709,0.2743059491905439,-0.6317611398934225,0.0448871855599008,-0.5047023761018091,0.5866332024785696
13.5,0.5317073282836907,3.954099222695581,3.9385293161541925,-0.3704053387236707,-0.00785129714350626,-0.03251766031554782,0.12388956631978193,-0.16031976341390985,0.9792593844073164,-1.814178673954707,-2.179812484459806,4.153830510832027,1.0563700303613817,1.3524949104609185,-1.4696991720481,3.0,0.4841773132843063,0.4881565500418373,0.2741789133945074,-0.6317737591675772,0.044870039133725406,-0.5046849346684088,0.5866359292901775
13.600000000000001,0.5164479860231677,3.7573560388007636,3.6575827531558276,-0.3840192109680254,-0.008212451048513258,-0.03487795954076818,0.1240153776965882,-0.16049657075991713,0.9792144885606796,-1.815852165222168,-2.1792024907053085,4.15404135675872,1.0573064523884277,1.3522808884165916,-1.4697080626616075,3.0,0.4839065633374522,0.4878671254186673,0.2740728540658388,-0.6317651728926897,0.0448653495200883,-0.5047003406197497,0.5866322808289868
13.700000000000001,0.5294938578027002,3.7142837480762556,3.948207624815629,-0.374286623355745,-0.006908919032124201,-0.02169849327142629,0.124418708773883,-0.1610028525658811,0.9790799546121789,-1.8174606936632522,-2.1786653514683385,4.154300580691423,1.058294676991909,1.352089965373063,-1.46977444608841,3.0,0.48362443626621066,0.4875799616622751,0.2739352121177827,-0.631798649664833,0.04486416529191069,-0.504680771049523,0.5866131538648047
13.8,0.6109540611583231,3.9733532055108878,3.9734063049542256,-0.3806248383960338,-0.011624659774096937,-0.017036850509290644,0.12494738527892031,-0.16164919873339706,0.9789063583049099,-1.8188217739904173,-2.1780582867064417,4.154539432885724,1.0592311027551067,1.351886538829072,-1.4698285686530252,3.0,0.4832656891149728,0.48725484753509535,0.27379448180843474,-0.6318319942108467,0.044849980002534706,-0.5046463890926344,0.5866079034253483
13.9,0.511418914082393,4.261649429582098,4.01146120435041,-0.3800383044049926,-0.011681418623029256,-0.011829153313884505,0.12467088071879516,-0.1612383207017283,0.9790093237612438,-1.8205423096113191,-2.1773443947099205,4.154758043302674,1.0603383295311328,1.3516258191860042,-1.4698909836805891,3.0,0.4828285427650649,0.4868582374181918,0.27372153329051235,-0.6317884823870303,0.04484066647398002,-0.504646133569995,0.5866556980257822
14.0,0.687957433667904,3.9744795253822014,4.148007184605176,-0.37532306375065966,-0.013761933997775746,-0.004076780338512479,0.12465438796413081,-0.16120427182074454,0.9790170642311123,-1.8222385633413432,-2.17678033092445,4.155001313740034,1.06120411931958,1.3514281499807475,-1.4699009821165492,3.0,0.4824621326106671,0.48648785276237066,0.27363997318057565,-0.6317686194479197,0.044849778940022955,-0.5046548720120808,0.5866688750601751
14.100000000000001,0.6452720200216876,3.8919393091402448,4.2452145889308355,-0.3888708840767931,-0.01289425684037472,-0.007704263463182972,0.1248090772068432,-0.16142072689124476,0.9789617019439896,-1.8237360426183253,-2.176141004492828,4.155202418317101,1.0621496074047756,1.351202458391883,-1.4699944501368711,3.0,0.48208770310590704,0.48608062611616154,0.27346576761263586,-0.6318340757259203,0.044849335484407504,-0.5046293734657346,0.5866203485166189
14.200000000000001,0.5720259811931432,4.083648192216951,4.310971304377579,-0.37836375941153905,-0.006225744509875694,-0.01790829054347544,0.1245040390631246,-0.1610122074641982,0.9790676889189063,-1.8252177455482665,-2.1754152192238827,4.155444995404401,1.0632540639645263,1.350984303652083,-1.4700183154678124,3.0,0.48181814653874105,0.4858068512695711,0.2734331915381037,-0.6318056743396108,0.04483861165776219,-0.5046490632857794,0.5866348197146666
14.3,0.6268100056344107,3.946950533518548,4.391181890034668,-0.37116752826938654,-0.005784162738389843,-0.018909707680134315,0.12424513742067253,-0.16066707419386925,0.9791573540414918,-1.826990973114741,-2.1748460268726664,4.155669028897363,1.0641756603664498,1.3507558836293594,-1.4700733330045725,3.0,0.4815313281303691,0.4855210018532315,0.2734274999227132,-0.6317396575655783,0.04484448740464701,-0.5046819696783447,0.5866771569525495
14.4,0.560309302578586,3.511261385648557,4.503254343352143,-0.37624248300209506,-0.004446928781818673,-0.022208107622327573,0.12501127762985428,-0.16173022854106955,0.9788843869471467,-1.828566007079575,-2.1743732825219904,4.15588003503114,1.0651452258463183,1.3505411214329868,-1.470123593007223,3.0,0.48106518785180713,0.48503182998670974,0.27324261860948085,-0.6317723763154597,0.044853026483196765,-0.5046797085600482,0.586643215513279
14.5,0.630787316595958,3.907198791597052,4.480685972562766,-0.38090152400615146,-0.008714392351142982,-0.019904473210473134,0.12485530011534446,-0.16151334914592333,0.9789397971614161,-1.8299345830106892,-2.173751537597035,4.1561029271343095,1.0661303099962849,1.3503200413773038,-1.470162663555403,3.0,0.48075966291429917,0.484726716548796,0.2730865246415297,-0.6318215749517406,0.0448342981026329,-0.5046583556859261,0.5866100298967992
14.600000000000001,0.7766481206140639,3.9483903734310752,4.468974433422197,-0.38118502732947773,-0.008231804341489454,-0.023312700849658176,0.12394338343985198,-0.16024848861169955,0.9792642090036656,-1.8315542878616644,-2.1731147459632822,4.156322956085205,1.0671754436177563,1.3500474738313337,-1.4702171676072857,3.0,0.48051045031195055,0.4844864771807004,0.27303408086830205,-0.6317931448564971,0.04483736334955468,-0.5046628885437964,0.5866365159848379
14.700000000000001,0.5804066588195699,3.7934803072703907,4.583456716350965,-0.37165510050545514,-0.0020711635512134195,-0.03064017530691976,0.1248287176870274,-0.16153036965582895,0.9789411015903953,-1.833315071455395,-2.1725140544762915,4.156563171008161,1.0681082765358925,1.3498206604528062,-1.4702659773106581,3.0,0.4801236782374951,0.4840801819129798,0.27294305334531815,-0.6317638689061189,0.04486371189193045,-0.5046803713407022,0.5866509900131942
14.8,0.4736628881375429,3.854428749553366,4.49759928874593,-0.3792382780636146,-0.0035123619122766347,-0.029752073487503125,0.12381950475078024,-0.1601720676115157,0.9792924027643916,-1.8347770247108977,-2.1718684394844314,4.156837917107544,1.0689995244331567,1.3495903506192783,-1.4703033846872413,3.0,0.47973437252375667,0.4836686084827387,0.2727904343507707,-0.6318130708266642,0.04486207307174987,-0.5046613832221962,0.5866144613087418
14.9,0.6158847883097008,3.8711308545928693,4.6442543228343185,-0.37964056248309336,-0.005097571065478001,-0.02525138285420114,0.12476814206438536,-0.16141534646216335,0.9789671638760676,-1.8362991180447534,-2.1712800493328883,4.1570667484641035,1.0701029251235616,1.3493381268297293,-1.4703390880239333,3.0,0.4793696491483728,0.4833392239122193,0.27270496873517663,-0.6318147758162762,0.044853041137464716,-0.5046470992107212,0.5866256037875894
15.0,0.8494762763525472,3.9583922584358575,4.838357936101614,-0.3718596702233368,-0.00869173332247991,-0.030405919023563627,0.12481550859020431,-0.16148513467014042,0.9789500083072035,-1.8379515945178058,-2.1706563933964897,4.15725712997496,1.0710619460032462,1.3491461526492232,-1.470386380178228,3.0,0.47903117996069416,0.4829940539264707,0.2726462318133313,-0.6317663242488434,0.044854423911203256,-0.5046786789718614,0.5866505119676588
15.100000000000001,0.47583583295475873,4.0208807737811165,5.4163473301451175,-0.37245273160897424,-0.008295557424862054,-0.03241369460351844,0.12442154637001542,-0.16097262669298365,0.9790848187797988,-1.8395346323330322,-2.170058596324734,4.157403584774588,1.0720327936283358,1.3489757856052003,-1.4704462051418605,3.0,0.478602578116992,0.48250662588350707,0.27249225015835493,-0.6317783533018305,0.044861700590104775,-0.5046833481322486,0.5866329842733147
15.200000000000001,0.5327464907075372,3.824399392855726,5.143088326693816,-0.37448290594901945,-0.008732859879640075,-0.03696401142275142,0.1245089077919625,-0.16107887812031293,0.9790562426718676,-1.8397556363480714,-2.169952531854147,4.15753048914054,1.0721935460041192,1.3488849341517497,-1.4704327648565034,3.0,0.478379090350837,0.4822794552573909,0.27239663608533804,-0.631808260062369,0.04485338699628684,-0.5046656617048647,0.5866166261604888
15.3,0.7362784103249191,3.923050413660525,4.71916054359661,-0.37883725911611643,-0.008795152868760184,-0.0339744030630967,0.12375097832776862,-0.16010402477464417,0.9793117677176458,-1.8397632178758196,-2.1699420454626073,4.157505504185667,1.0722329473590975,1.3488974611487434,-1.4704588095294397,3.0,0.4782970054771922,0.4822018817126012,0.2723819087489995,-0.6318061888470343,0.044865148628305374,-0.5046716106532182,0.5866128395916955
15.4,0.48469224135610117,3.8818964073798283,4.643079595459684,-0.381483359380349,-0.005068771309123405,-0.037472940278893536,0.12349483240560587,-0.15975401312556087,0.9794016331264217,-1.8398122787475586,-2.169951442965954,4.157507240816777,1.0722109238023823,1.3489089928729485,-1.4704707304583948,3.0,0.4782569406534738,0.4821875963577801,0.2724212310098141,-0.6317530894518754,0.044851174571742675,-0.5046887582006069,0.5866563418676005
15.5,0.6840953308495871,3.9012330658889223,4.584757810927222,-0.3816143787617651,-0.006424827626743264,-0.03540672452971459,0.12381601583811432,-0.1601235637970276,0.97930078367234,-1.8398449503088294,-2.169937786678328,4.1574856581592465,1.0722338028498912,1.3489305687451465,-1.4704660356389836,3.0,0.47824458849316603,0.4821913843137464,0.2724217320502011,-0.6317520706888924,0.0448575308859678,-0.504672247306541,0.5866711565278085
15.600000000000001,0.5186364111379272,4.062029247092045,4.613391328880984,-0.37168134585890067,-0.001230643599499084,-0.04028056270184722,0.12414686496306304,-0.1605865812688677,0.9791830720930249,-1.839837449211146,-2.1699162922301234,4.157520771026611,1.0722314554401855,1.3489174353920854,-1.4704686927084005,3.0,0.4782435432952759,0.4821757987640993,0.27240803725401297,-0.631763775343847,0.044864602434187294,-0.504665657563632,0.5866636802185544
15.700000000000001,0.7941027780001695,3.944503304931556,4.516274076277084,-0.38022929491793866,-0.009733059201569715,-0.04295523295829183,0.12425344240887443,-0.16070044642941753,0.9791508763726203,-1.8398743825661559,-2.169944454110058,4.157518007587844,1.0722552972980957,1.3488894199876946,-1.4704707304583948,3.0,0.4782343895747691,0.4821751557029222,0.272403360424474,-0.6317653531249107,0.044857981396990446,-0.5046646141057629,0.5866633850560521
15.8,0.6451888014243928,3.916920187650369,4.435112599788424,-0.3822274082182824,-0.0042248583310845415,-0.044558397421686276,0.12412177136768371,-0.16052444442270725,0.9791963369721314,-1.8398541637394246,-2.169922234011227,4.157517741883304,1.072240824062991,1.3489079475402832,-1.4704468886004847,3.0,0.4782347112711123,0.4821816931349141,0.2723837088666991,-0.6317830739962982,0.044846007258868,-0.5046607543777706,0.5866485370608072
15.9,0.4504228154980997,4.113522393457132,4.501743438570915,-0.3738458776604829,-0.002879018311605738,-0.042646215649923706,0.1237011838695534,-0.16000252513196547,0.979335057228344,-1.8398964330309664,-2.1699190955171814,4.157538276899054,1.072247959923319,1.3489167004765041,-1.4704882579614664,3.0,0.4782519485444693,0.48216705873138005,0.27237188116475736,-0.6317891157502549,0.04486127697849927,-0.5046664657117899,0.5866359496598725
16.0,0.6021854322375308,3.85670458728319,4.494105184650527,-0.3795536411485876,-0.005603997546879387,-0.041332342203515324,0.12360771658271714,-0.15989542165267712,0.9793643784202926,-1.8398443939499718,-2.169911736339758,4.157513111386478,1.0722491351669625,1.34891939163208,-1.4704505711197795,3.0,0.47825030681669756,0.4821683179618647,0.27237051924176775,-0.6317961618797416,0.04487000305824758,-0.5046636915655405,0.5866300802678134
16.1,0.5669751335740882,3.8907512224657275,4.440125598843262,-0.3789096571306269,-0.006297391383091169,-0.03911964559275843,0.123829221983274,-0.16019693961601947,0.9792871116141729,-1.8398442778723392,-2.169929100998675,4.157517070478255,1.0722314554401855,1.3489317893981934,-1.4704588095294397,3.5875274344186896,0.47824928989310517,0.4821684222514131,0.27237383411368227,-0.6317993560956816,0.044864387029197005,-0.5046696705979847,0.5866219259387583
16.2,0.5794990516283909,3.900305789300113,4.440770792640459,-0.3769337939952894,-0.0048244733928765075,-0.045753664144376024,0.12397015050544935,-0.16038199668661232,0.9792389858808233,-1.8398438833918567,-2.1699362526948396,4.157499992048282,1.0722234159044244,1.34891939163208,-1.470474270175134,4.0,0.47825140557080337,0.48216768256062403,0.27238196099860673,-0.6317932537077897,0.044862028147928515,-0.5046747290016916,0.5866243268965654
16.3,0.6881653299316276,3.7754085960304806,4.367550190739531,-0.3798917335588496,-0.004901572678359844,-0.040787060697320875,0.12392291788997728,-0.16030851322743792,0.9792569377697181,-1.839859962463379,-2.1699192150034268,4.15753502098078,1.0722586969085575,1.3489079475402832,-1.4704633086072656,4.0,0.47824280749480375,0.48216699272609603,0.2723963761441589,-0.631771845471671,0.04486769123101325,-0.5046721254485999,0.5866491893355948
16.400000000000002,0.5913815024503203,3.725785017818037,4.503695295698371,-0.3824671495920057,-0.003006808863504389,-0.044952769854014515,0.12359890740853026,-0.15985537143586587,0.979372000679237,-1.8398742203352447,-2.1699206762481795,4.157513133623567,1.0722550330538985,1.3488941548969051,-1.4704588095294397,4.0,0.47824393220434136,0.4821686809136852,0.2723981078464546,-0.6317746645625164,0.044862174388932544,-0.504669156507062,0.5866491293750189
16.5,0.8224592917143989,3.8380372347339695,4.420093104672079,-0.37618122029536694,-0.01201273418153747,-0.0431432701362257,0.1234936975487194,-0.15971275158357673,0.979408563688984,-1.8398533802768284,-2.169926623778772,4.157505374993331,1.0722605643621126,1.3489044007575703,-1.4704484779807911,4.0,0.4782320378115344,0.4821842348775601,0.2723970626685149,-0.6317803275081085,0.04484593181843466,-0.5046622079924072,0.5866502501468075
16.6,0.5368630471044822,4.038092013499328,4.332929757305177,-0.37344393866718156,-0.006948156097546172,-0.051488080263124764,0.12356147456136969,-0.1597986042589402,0.97938595678613,-1.839859962463379,-2.169889745083959,4.157501602493954,1.0722498867215868,1.3489317893981934,-1.4704344908343714,4.0,0.4782533485696136,0.4821608733846103,0.2723857710938514,-0.6317787097093198,0.0448733679706807,-0.504674825498114,0.5866390400522649
16.7,0.6436570932292365,3.6940764895427454,4.277590796857374,-0.38346195286700224,-0.005038265207829456,-0.04343775050813227,0.12387606280016662,-0.160205277782681,0.9792798042518617,-1.8398654726130017,-2.1699048127517426,4.157527128690798,1.0722552972980957,1.3488964680619024,-1.4704285568921973,4.0,0.4782477772421897,0.48216622685149463,0.2723996763534756,-0.6317740290291093,0.04486086616256939,-0.5046611159004517,0.5866568307192727
16.8,0.5111138776750375,3.9388049221855423,4.194402724416074,-0.3763552615178798,-0.003123493758329392,-0.042698401581553656,0.12304651612124409,-0.15904501677932217,0.9795725767120472,-1.8398479803449157,-2.16990477096237,4.157531831443654,1.0722250487333038,1.3489079475402832,-1.470428576951096,4.0,0.4782378187077966,0.4821719572530531,0.2724129315438175,-0.6317699642195322,0.044840193000245054,-0.504669852868272,0.5866552727178614
16.900000000000002,0.6053941322257524,4.042671301639654,4.119636217504023,-0.37638013855087044,-0.005416906655512443,-0.04726603125622322,0.12248510840084964,-0.15828143543624335,0.9797674397270307,-1.8398364117908848,-2.1699227124140963,4.1575386294786725,1.0722316068566018,1.3489018243654347,-1.4704467986864678,4.0,0.47823412176206087,0.48216720050777045,0.2724191654608394,-0.6317641295693324,0.04484205024628343,-0.5046737563546112,0.5866580560821955
17.0,0.76412585014684,3.8842007272159202,4.112083285978434,-0.37672888176889674,-0.009039372207406589,-0.045541612361383314,0.1228079779019328,-0.1587850484293175,0.979645561459641,-1.839859962463379,-2.169921533251943,4.157513823923191,1.0722299589994575,1.3488850677305302,-1.4704707304583948,4.0,0.478247570371168,0.4821641023327598,0.272398158914587,-0.6317725764950782,0.04485956880553239,-0.5046743231201672,0.5866471326603016
17.1,0.6338616059468103,3.766531590168344,4.016749321724926,-0.37962013632879893,-0.006615887358634697,-0.05038999474439403,0.12295859506768562,-0.15900396418716656,0.9795911901639719,-1.8398702789230634,-2.1698974102086,4.157520771026611,1.0722438532062988,1.3488940253551467,-1.4704329664153482,4.0,0.47825540126282257,0.48216516516319835,0.272394387557592,-0.6317835201299823,0.044864837767462876,-0.504673636535753,0.586635534731784
17.2,0.5451214313331645,3.8489333181445686,4.142871960389488,-0.37840370955201463,-0.006526630874542665,-0.04521834692850319,0.12300223945226547,-0.1590583395421722,0.9795768835825767,-1.8398552455621102,-2.1699183862814357,4.157515661050237,1.0722698728775737,1.3489219625205504,-1.4704417786241104,4.0,0.4782486527013009,0.48216452524804565,0.2724002978970125,-0.6317812019648066,0.04485649422068192,-0.5046781613903149,0.5866347766590606
17.3,0.5944580418477072,3.7223521523369767,4.10821978788163,-0.37919302443761344,-0.006844939538907624,-0.044679873279033215,0.12289536281928862,-0.15888927975473943,0.9796177258818376,-1.8398919733192733,-2.1699012603058154,4.157536443886537,1.0722360366056585,1.348928201565682,-1.4704380786668827,4.0,0.47823935435219117,0.48217003747593734,0.2723975707545724,-0.6317818926324799,0.04485509359977029,-0.5046695642303942,0.5866415359138679
17.400000000000002,0.48834915314005717,3.7682331014171164,3.92493646688785,-0.3770537308511382,-0.003261743656321012,-0.050133156225680264,0.12266012805223366,-0.15855557018235733,0.9797011454837151,-1.8398481988078608,-2.169901023975311,4.157497563279296,1.0722308213295904,1.3489273311245826,-1.4704259172312737,4.0,0.4782309504636155,0.48217304365590624,0.27239913760197354,-0.631775860423976,0.04484624256815157,-0.5046612520296607,0.5866558594379829
17.5,0.5043134135704506,3.874605566018665,4.100213803811284,-0.37442445681718806,-0.004705316561567991,-0.04792110599796139,0.12214898733448598,-0.15786794571572985,0.9798760850445011,-1.8398767846944146,-2.169920546523318,4.157532215118408,1.0722076135822753,1.348915711646915,-1.4704352353141288,4.0,0.4782363704533918,0.48217273168760844,0.2723926461029889,-0.6317784185747198,0.04485001821110051,-0.5046644344775923,0.5866500782094058
17.6,0.5254735300802131,3.782938905162625,4.13957958117918,-0.3761168556554901,-0.005679830466315752,-0.052775144098171994,0.12240208909045247,-0.15819931489255523,0.979790997022578,-1.8398812705650927,-2.1699125456940287,4.157524367701262,1.0722399568087604,1.34889554977417,-1.4704511665958067,4.0,0.47822755040546927,0.48217188193920957,0.27240390423096505,-0.6317743703571154,0.044846787184570566,-0.504660474766252,0.5866580910954811
17.7,0.7458197094769927,3.8588960108036083,4.10831380212328,-0.3720952878423631,-0.010474380817239995,-0.04743018261842219,0.12265768577083352,-0.15853191197200897,0.9797054042874348,-1.8398714065551758,-2.169882962015542,4.15751070619335,1.0722259441389352,1.3489021713749998,-1.4704296683434044,4.0,0.4782317196869496,0.4821663745305412,0.2723883553059837,-0.6317870089986575,0.044851450263979284,-0.5046633747304446,0.5866416289997044
17.8,0.7437598139898267,3.3714621436825567,4.014804151758555,-0.38855362542341376,-0.010475481975072715,-0.04646901846616314,0.1224878639780285,-0.15829233380808885,0.9797653684169176,-1.8398537492199754,-2.169925226022827,4.157520321805505,1.072252429647294,1.3489343915666854,-1.4704736899785948,4.0,0.4782340795904422,0.48217148773900737,0.2723861076605788,-0.6317860817018595,0.04484753968213462,-0.5046662015490129,0.5866404948231598
