xiamingqian9007/apple-picking-rnn/training_data/grasper_20191127_130151_noimg.csv
,/manipulator_wrench.fx,/manipulator_wrench.fy,/manipulator_wrench.fz,/manipulator_wrench.tx,/manipulator_wrench.ty,/manipulator_wrench.tz,/ground_truth.x,/ground_truth.y,/ground_truth.z,/joint_states.elbow_joint,/joint_states.shoulder_lift_joint,/joint_states.shoulder_pan_joint,/joint_states.wrist_1_joint,/joint_states.wrist_2_joint,/joint_states.wrist_3_joint,/mode./mode,/manipulator_pose.x,/manipulator_pose.y,/manipulator_pose.z,/manipulator_pose.rx,/manipulator_pose.ry,/manipulator_pose.rz,/manipulator_pose.rw
0.2,-0.008401828302954537,0.022159177471694047,0.7366498363546695,-0.03390213198947356,-0.012543986803660527,0.005267636048787711,0.1109595161951211,-0.38973456816309904,0.9142181890445402,-1.9792641146018488,-1.8772477566577512,4.175645351409912,0.5550459057144812,1.3302686970346849,-1.0120119747432648,1.0,0.4551830423569474,0.45993339031572683,0.30032442111265495,-0.7347323951539715,0.19356592137919604,-0.32451014960497454,0.5633770534866402
0.30000000000000004,0.3287839063270983,0.3922109638946659,-0.07933850164303752,-0.009534718563124149,0.0206561566757482,0.028845349174432544,0.11107560074244964,-0.39043620635540843,0.9139042074080252,-1.97698273038349,-1.8791352451871584,4.175026956820723,0.5547223131885011,1.3306821667571311,-1.01207897904853,1.0,0.4552090042355025,0.4599191230549822,0.30030329503055564,-0.7347373618647861,0.1935786453849822,-0.3245362436015051,0.5633511726444833
0.4,0.4910156291406875,0.04504663434348563,0.1958009072100907,-0.013997864061375192,0.005206134202091352,0.08591432766881953,0.11134581573424226,-0.39177467688497203,0.9132982616697929,-1.972756048649544,-1.8825241305317706,4.174283563327948,0.5540773477314014,1.3315209205313712,-1.0122226286089857,1.0,0.4556890570470433,0.46028241149455246,0.3002068409017443,-0.7347219911646554,0.1936513645307558,-0.3245719238144746,0.5633256704480909
0.5,0.24842191881839826,0.008720876850403065,0.5056165930279011,-0.000781740676288948,0.009796669965199248,0.1257786848369988,0.11182148471239524,-0.39344045564565205,0.9125242627623582,-1.9686760701097086,-1.885891713205053,4.173567295074463,0.5534234614019948,1.332479908931689,-1.0123610419867288,1.0,0.4570762649876099,0.46173382138761965,0.2999745440282,-0.7346847000883855,0.19362071561674535,-0.324563144898417,0.5633898959989857
0.6000000000000001,0.3347484934133532,0.07660015599243566,0.38704676662950044,-0.01627277983019606,-0.001823159744309983,0.16589618730181174,0.11184247544869524,-0.3931172724317613,0.9126609547902746,-1.964852382781303,-1.889225626140778,4.1727650112143655,0.5527524080982334,1.3331386932891516,-1.0125148903739618,1.0,0.45770725607637225,0.46243941892180046,0.2998034490540974,-0.7347043229405907,0.1935792617225323,-0.3245062722124849,0.5634113120785951
0.7000000000000001,0.43833900057215736,0.4887521206686515,0.4371061193423371,-0.019282729443132786,-0.003957385437400116,0.17796699269288493,0.11179853570266468,-0.3929662411699302,0.9127314014990594,-1.9610560806156379,-1.8922831485180944,4.171950275373749,0.5521041589924316,1.3337960862465101,-1.0125868926462813,1.0,0.4590625052998929,0.46379865327104,0.29946307487291374,-0.7347233840442826,0.19357566871204057,-0.32453758348496425,0.5633696533599799
0.8,0.3624284730984962,-0.1561032476365295,0.27937151157310386,-0.02070844238475477,-0.0008399077410988138,0.17640622836978748,0.11171906445174107,-0.3929094155524651,0.912765597192968,-1.9575391128720125,-1.895259701065799,4.171314626512774,0.5514936708938992,1.33442106621405,-1.0127665716053063,1.0,0.45959344857117934,0.464297126255943,0.2993351476075029,-0.7347190024853648,0.19360915727056252,-0.324551459635122,0.563355865911242
0.9,0.23794295864904755,-0.07327822117390523,0.29443181325779766,-0.008182852423296699,0.00893696765553448,0.1680981465488421,0.11163014984481853,-0.3923777243166925,0.9130047924467524,-1.9538358596678922,-1.8983373092154263,4.1706797553954695,0.5508710662076064,1.3352621046766044,-1.0128855737253595,1.0,0.46055441199508435,0.465257572076642,0.29915509890137365,-0.7347040091893313,0.19361666864968022,-0.32458562984971134,0.5633531515818381
1.0,0.29920923935740956,0.1303205824922912,0.3152806799558665,-0.01039263862498664,0.008447701752304604,0.16248711238910274,0.11153587194985733,-0.3915763364719041,0.9133604157677974,-1.9505256584473085,-1.9011205861654206,4.170114415008587,0.5503188438119031,1.3359677287280685,-1.0129453508324833,1.0,0.46186067114186374,0.46671666841224024,0.2987898691494821,-0.7347429375924315,0.193537849045131,-0.32448164319870126,0.563389367908287
1.1,0.3567809712745652,0.11737446579160365,0.5106922534830837,-0.016393498115275636,0.004651316919569179,0.15813885577228076,0.11150489911439725,-0.3914750402522552,0.9134078223567837,-1.9471255676147032,-1.9039731082331026,4.169408321380615,0.5497656185759572,1.3364843658508516,-1.0130903919943748,1.0,0.46232236977549995,0.4671947013063589,0.29868479008193327,-0.7347458567049194,0.193522370229822,-0.3244651890064885,0.5634003544537128
1.2000000000000002,0.19823939806972724,-0.05124010698205943,0.13498422947362507,-0.009703169952671427,0.005748036839972392,0.15303323354518797,0.11151131837035919,-0.391787263745838,0.9132731760685789,-1.9437939993505677,-1.9063341762015014,4.1687506634694484,0.5491309156601052,1.3370356559753418,-1.0131729034543122,1.0,0.4636220359372731,0.4684507864287891,0.298359960071261,-0.7347382434649817,0.1935781335133758,-0.32451559695618304,0.563362092394974
1.3,0.32144700354084976,-0.039795153527754444,0.20463197662758192,-0.016977495074186305,0.005432621529640568,0.15515342592527412,0.11158190778263108,-0.39218352190633565,0.9130944213980786,-1.9408582531258773,-1.9091653003763096,4.168234265684065,0.5484593632784377,1.3375762358885008,-1.0132453339733507,1.0,0.46402330755987686,0.46881055189622267,0.29837019240057133,-0.7346879769781097,0.19360138697444887,-0.32454455498627266,0.5634029741438578
1.4000000000000001,0.31845293639958544,-0.26759471431851956,0.17588544085468644,-0.017525606932469562,0.008207056094306265,0.15552654658073034,0.11169675599451928,-0.3926535346592302,0.912878389757089,-1.9376920275745466,-1.9112756537154254,4.1675741480020845,0.5479675469944169,1.3381760809392893,-1.01332933107485,1.0,0.4649286330980825,0.4697588483679569,0.2979698378770038,-0.7348179193002522,0.19358842301483883,-0.32452288907838445,0.5632504260221156
1.5,0.5166179388109204,-0.04477535641593432,0.4706043742550289,-0.015439332624807369,0.0020581164386990944,0.15174671457261693,0.11185049017398294,-0.3933022570246496,0.9125801706237675,-1.9347955984951195,-1.913789114098494,4.166949963496181,0.5474389371422455,1.3388695843644465,-1.0134386670110962,1.0,0.46601598512277675,0.4708053559864523,0.2979976517417482,-0.7346646251219753,0.19359571164789657,-0.3245657296090441,0.5634231768300634
1.6,0.417349557611234,0.0026326723086417675,0.3468596447039606,-0.014005150136436394,0.004861137135398674,0.15074252910065125,0.11172188115797395,-0.3928093036966342,0.9128077545276109,-1.9319411131979802,-1.9160226643699194,4.166388465691555,0.5469361978718261,1.3393987734107249,-1.013532853020731,1.0,0.4665248103524412,0.4712648890127485,0.2978306776208581,-0.7346969137986015,0.1935904182509387,-0.32455768616063696,0.5633875248621418
1.7000000000000002,0.5802661651828419,-0.026923886958696817,0.65986995096817,-0.009151751555233005,0.0009668605091784554,0.14791440694433267,0.11141913928370693,-0.3916192756698233,0.9133564493768069,-1.9291007702280116,-1.9182190115576796,4.165968376858701,0.5463248513723725,1.3398422765066116,-1.0135688769751996,1.0,0.4674943610659458,0.47223821192481946,0.2976083301764964,-0.7346964245643033,0.19358841071437188,-0.32453885569977764,0.5633997001335656
1.8,0.41249232206379627,0.05761846435181497,0.3688961250567007,-0.00967853574591617,0.010038278702148119,0.15209058268911782,0.11122227772647504,-0.39092385573602134,0.9136780165178227,-1.926523308926617,-1.9204871938784096,4.165496847252293,0.5458647658577622,1.3402960405847648,-1.0136645475970667,1.0,0.46784081771348784,0.4726314236812002,0.2975359905547194,-0.7346962350612694,0.19357786515119862,-0.3245360615532159,0.56340518018725
1.9000000000000001,0.2173526314823167,0.2438500243206806,0.6297616879706505,-0.009593404125340117,0.00517773712057872,0.147780247133462,0.11097989720526612,-0.3900540586151645,0.9140788476530223,-1.9237300281838854,-1.9225455296268958,4.165033952487532,0.545365496272705,1.3406692227189856,-1.0137485154093682,1.0,0.46882300204128247,0.47362562582042594,0.2972383681613717,-0.7347357908034993,0.19360031042342202,-0.32453337247508907,0.5633474306910936
2.0,0.6356190167056673,-0.10600549447192509,0.44824781182614626,-0.014948273787954209,0.00010392778196899495,0.15125066371932772,0.11025970231647891,-0.3873538172558416,0.9153117160743036,-1.9213479386999253,-1.924522666103553,4.164628064111793,0.5447809644010759,1.3411026939699657,-1.0138431054917318,1.0,0.46919990013286866,0.47400843387788955,0.2971609337502051,-0.7347327093714202,0.19359564483491346,-0.3245481787145539,0.5633445231594535
2.1,0.20549373586376007,0.07227841918123501,0.48718253332524863,-0.0088895790722681,0.013177248167193581,0.15017365640186625,0.10984064837719958,-0.38576126667197796,0.9160363709967375,-1.9188034989986744,-1.9264915926699255,4.1641716412790055,0.5443695526502397,1.341593489164691,-1.0139398518383709,1.0,0.46983036179509774,0.4747121314590233,0.29707523702296496,-0.7347079941369916,0.19357345749044513,-0.3245479749835345,0.5633844973377242
2.2,0.4412677917361574,-0.06466286803896498,0.4812267892467147,-0.018039726281696485,0.004970891977504928,0.1473238708026381,0.10964154966672975,-0.38497778034312347,0.9163898236080749,-1.9163853661247003,-1.9285417995848597,4.163727723717422,0.5439027711863645,1.3420847099260473,-1.0139642214522377,1.0,0.47041517853432746,0.47529023761149,0.2969502321495109,-0.7347011545322846,0.19356977962645577,-0.3245548008584592,0.5633907482236634
2.3000000000000003,0.38189647845074726,-0.06727842813050185,0.2963165471564708,-0.01729397499309366,-0.00026909753811904687,0.1459520235535191,0.10949502205922636,-0.3843734173317649,0.9166611652749648,-1.9141650055107897,-1.9303023773806698,4.163332367303067,0.5434470998557536,1.3425534400328438,-1.0140705280687412,1.0,0.47107324810350576,0.47595357538261823,0.2967287951239789,-0.7347437241067947,0.19356333929387895,-0.32452148327300656,0.5633566370083597
2.4000000000000004,0.3894232045784955,-0.0957840453271464,0.4116428479493548,-0.01516713571364082,0.0018505966341986948,0.1451691249054859,0.109388452189098,-0.38390520064556166,0.9168700968464086,-1.9116437125305459,-1.9321020899198558,4.162875876425084,0.5429654854451412,1.3429128241573949,-1.0141194502459925,1.0,0.4719547540024636,0.4768435272664945,0.2965691913594404,-0.7347231270773011,0.19355955786248574,-0.3245142209929756,0.5633889814960471
2.5,0.6981138561777012,-0.13040283628909502,0.3777421705308692,-0.028126320465591964,-0.0018989216691989034,0.1495058657882515,0.10933436569495468,-0.38366526051591426,0.9169770774656933,-1.9097207358884685,-1.9341154041529396,4.162577152252197,0.5424517971537102,1.343284391372338,-1.014202954899551,1.0,0.47253246468383986,0.47740760862164466,0.29648655351489595,-0.734690550932945,0.1935724097748645,-0.32452854199470527,0.5634187980309041
2.6,0.488776331690936,-0.054512687352015005,0.5281887635610394,-0.022642298424756447,0.0004734591726750677,0.15037053163695122,0.10932141252026761,-0.3836042298475762,0.9170041550489154,-1.9075255763635426,-1.9354463917548235,4.162109155064096,0.5420679276261909,1.343595487557028,-1.0142388893522654,1.0,0.4728365117063765,0.4777480896886732,0.2961985287077668,-0.7348188845918097,0.19356226684897765,-0.3244904778592105,0.5632768284584725
2.7,0.4551241738146673,0.009998942505486556,0.32109450464021966,-0.01458190688965123,0.002109103151279538,0.14675951201149517,0.10916199014074406,-0.3832363699928289,0.9171768685704849,-1.9054406223921514,-1.937005559887794,4.161690127600704,0.541623285936358,1.3439433039994502,-1.01428729692568,1.0,0.47336488748848843,0.47822458752230973,0.29621159161990646,-0.7347460735100779,0.1935848347203678,-0.32453443263739823,0.5633387269312604
2.8000000000000003,0.3874254430167877,0.22298766638233608,0.4505143690579985,-0.008143159896036898,0.0037704277801549582,0.143802914621792,0.10892100729891716,-0.3825683914664576,0.9174842219299856,-1.903436799900612,-1.9388174851156814,4.161390470945677,0.5411922174641113,1.3442913765548077,-1.0143473784076136,1.0,0.4741540829963433,0.4789138263961547,0.2961246768753025,-0.7347017061374822,0.19364705029167376,-0.32457270064836036,0.5633531617962542
2.9000000000000004,0.47235176587274924,0.02720316006813707,0.42383120622685894,-0.004705874803722164,0.004582665638484554,0.1448368522691852,0.10872353467302837,-0.38189882502556255,0.9177867222301681,-1.9015055379162396,-1.9403135269576273,4.161066813969846,0.5408201491999914,1.344602779841189,-1.0143952002225036,1.0,0.4744871762013475,0.4792951906455106,0.29594888668912905,-0.7347490272669113,0.19361954595632358,-0.3245451238424254,0.5633167856047783
3.0,0.5848252123397181,-0.3683862713987873,0.3403033689086885,-0.013538987002283471,-9.275072663658419e-05,0.14170164416252748,0.10885562426037956,-0.3823283817436317,0.9175921435962896,-1.8996806303393707,-1.9415122502074036,4.160767078399658,0.5404361872980734,1.3449151277941667,-1.0144301206707902,1.0,0.47510751810935525,0.47997335043297107,0.2958599090732257,-0.7347136700632134,0.19358651702621335,-0.3245642475950736,0.5633632332970864
3.1,0.5902831583924834,-0.30499066455509893,0.3064031431916616,-0.011979355677663305,-0.0008288331150002386,0.1438742324781943,0.10900802139233284,-0.38289665447438453,0.9173369544911402,-1.8977632916546483,-1.9429183977724789,4.1604676104378475,0.5400773448296576,1.3452267515468392,-1.014539039039465,1.0,0.475453221354882,0.48027125760791434,0.2958762220038854,-0.7346717023811179,0.19361074073461457,-0.3245755736808965,0.5634031130215208
3.2,0.5164868095437665,-0.18574411595888085,0.39677800401650926,-0.012224023292631472,0.004759151479189461,0.14177697334872819,0.10917702871784733,-0.38358381346359616,0.9170298934792325,-1.8961191177368164,-1.9444685636128451,4.160192012786865,0.5396752100561277,1.3455510139465332,-1.01457422174447,1.0,0.47579729922803016,0.4806499793068943,0.29582588668642623,-0.7346539871560958,0.193612467011837,-0.32457270703785945,0.5634272709226604
3.3000000000000003,0.557522663884245,-0.15768483782414333,0.5572134138431604,-0.016209492050962275,0.0014826824622047085,0.13983125302260058,0.10904675034045709,-0.38295847106555714,0.9173063193237366,-1.8944282414279578,-1.9458295460477337,4.1598684722922075,0.5392851137326947,1.3458619270659014,-1.0146103570368301,1.0,0.4761718129702652,0.4810619893805601,0.29567235619468035,-0.7346952305678887,0.19359937809157057,-0.32455063873158374,0.5633907009192424
3.4000000000000004,0.594477431119133,-0.05674971197291931,0.48926280531218536,-0.009177307876764006,0.0008231572800904367,0.14508459398888246,0.10891647196306685,-0.38233312866751806,0.9175827451682408,-1.8925564599806262,-1.947016097723632,4.159616363279281,0.5389377313801269,1.3461623191833496,-1.014646355305807,1.0,0.47664746867471963,0.481570163329567,0.29549931799060875,-0.7347331652910227,0.19358405331812822,-0.32452981526274727,0.563358490774645
3.5,0.3291298740171731,0.13366639778945433,0.46131662333520795,-0.013297419939599604,0.0073631782434160995,0.1428149798600293,0.10911817912665157,-0.38291978830927487,0.9173132175530643,-1.8910471480675983,-1.9483355739391885,4.159365177154541,0.5385913494232071,1.346402201142552,-1.014672695179317,1.0,0.47723628675006663,0.48217025807334535,0.2954690833552652,-0.73467329664229,0.19357870615009815,-0.3245421626205949,0.5634312880978045
3.6,0.10666504309982217,0.06881505763770407,0.3884631839812519,-0.016305370399073676,0.00797234924418837,0.1369911675872995,0.10965243016023182,-0.3847204883202975,0.9164968183006877,-1.889653205871582,-1.9496189749305237,4.159055754778036,0.5382434564777832,1.346654420262695,-1.0147526745958466,1.0,0.47772706108267265,0.48270629682059996,0.29523955731540547,-0.7347565917909384,0.19354662795643565,-0.3245230889210968,0.5633446710350312
3.7,0.3618131762791875,-0.062054283541776424,0.3615512212322985,-0.01516759420144141,0.00010035280874933807,0.13735472854597894,0.11550413856521828,-0.40637073106510746,0.9063698402517362,-1.887916379579356,-1.9508034684035171,4.158871297433342,0.537907701331058,1.3468833220396803,-1.0147889542415027,1.0,0.4780012973384472,0.48298036887997364,0.2951286026896482,-0.7347830246425823,0.19355206996224203,-0.32449984126792547,0.5633217161866927
3.8000000000000003,0.5735479195813052,-0.2812478678925452,0.3589446173917923,-0.019371556758175475,-0.0015298100620882542,0.14427517742686785,0.12430516115544477,-0.4391068541886121,0.889362204427068,-1.886452743512246,-1.9518476582059339,4.158587959556641,0.5375749920752154,1.3471440962454733,-1.014823234921529,1.0,0.47823291229568693,0.48320575314246794,0.29509881762769025,-0.7347736744300362,0.19356569336297483,-0.3245125175076552,0.563321929005376
3.9000000000000004,0.4799410953956317,-0.08234996263764052,0.31307836343688106,-0.021055921737844947,-0.0005589132153729377,0.14353233489731157,0.12878330874600485,-0.4558149412202901,0.8807055912110174,-1.8852148056030273,-1.9529439493633616,4.158368245484335,0.5372858057825729,1.3473822571695127,-1.0147939862893705,1.0,0.47864579438404903,0.48363889208933386,0.29513240157829534,-0.7346985959079716,0.19355889083191538,-0.32451808552698425,0.5634189747573953
4.0,0.25952713389649046,0.14113216652682414,0.22262838238729737,-0.014787644709749553,0.0050599366998930325,0.14111151773990555,0.12813534099809548,-0.45351232605009123,0.8819875381310791,-1.8838974093575092,-1.9540196072784355,4.1581386413621395,0.5370110880179804,1.347585567479083,-1.014879839581072,1.0,0.4791048431428142,0.4840644282355931,0.294946214351893,-0.7347470196905012,0.19357871472501348,-0.3245252868772466,0.5633448645710536
4.1000000000000005,0.4173403890212156,0.04780510434839261,0.37333695796575717,-0.014066832567329922,-0.0005172554591232111,0.14249062190549863,0.12751851700666667,-0.4512768002556834,0.8832235218750144,-1.8821922125845274,-1.955097919294694,4.157866920538729,0.5366714166883398,1.3478051351854468,-1.0149336983927666,1.0,0.4794189662621634,0.48436220465658825,0.2948059604439842,-0.7347790160370299,0.19359383032500205,-0.32452212946031866,0.5632997549638101
4.2,0.4350118843835067,-0.1433078844528565,0.29520912894526286,-0.017440662969433286,0.00017287294893692092,0.14698324321314626,0.1269392719908556,-0.44912222648190414,0.8844040450942681,-1.8808288385621743,-1.9562223007596595,4.1576313041764905,0.5363618049809594,1.3480132968903857,-1.0149687232600293,1.0,0.4797017852492001,0.4846998216661344,0.29488405737410817,-0.7347029840694248,0.19357222984156983,-0.32453367047370135,0.5633996927249005
4.3,0.3925315964232341,-0.12071848990051476,0.2679762643514337,-0.01227825039715106,0.004659246187930165,0.13970366212021,0.12643401319643888,-0.4472858065063775,0.8854086581389152,-1.8796335391262913,-1.9572809812743404,4.157444067362407,0.5360584064303331,1.34826022049088,-1.0150224887293475,1.0,0.4802005164091095,0.48517435463364716,0.29480242443064286,-0.7346736571489105,0.1935843625075379,-0.3245550680953108,0.5634214407152459
4.4,0.6109582750956218,0.009534344906437814,0.3508061819528058,-0.01792109898103647,0.0008126061760451997,0.1426184677570404,0.12602076106225982,-0.4458450313937387,0.8861945154833474,-1.878163435705922,-1.9584911312578128,4.157171726226807,0.5357600885578613,1.3484786101825135,-1.0150530974017542,1.0,0.4804044041793426,0.48533461926056953,0.29469480886749366,-0.7347170379893614,0.19359359505551363,-0.3245496678899299,0.5633648081963918
4.5,0.43885514191581276,-0.19710215179178037,0.3127099998913974,-0.017015648034746048,0.005622132761919741,0.14856975010892143,0.12631461754579115,-0.44676934978541877,0.885687107149188,-1.87662464977263,-1.9594868897940068,4.156931796676919,0.5354005429095802,1.3487054221354964,-1.015088940647931,1.0,0.48070965612402233,0.4856669794393297,0.29453702439664015,-0.7347746699164828,0.19357945649333358,-0.32452902587803223,0.5633063907284608
4.6000000000000005,0.48450307292176664,0.3399024431576119,0.45956018945069815,-0.00902754744932632,0.004426770419996681,0.140726637719403,0.12634500746530183,-0.4469373497240293,0.8855980711518329,-1.8751861070355658,-1.9605908825004152,4.156691214915204,0.535100053467838,1.3489688902334631,-1.015125576649801,1.0,0.48122629692054325,0.48619013290578367,0.2945027897401943,-0.7347302818112171,0.19358195688685087,-0.32453807360878706,0.5633582144033801
4.7,0.3246209498458946,0.08439359370313021,0.44603796184565636,-0.016534677098139747,0.007943093499374474,0.13924110343350415,0.12627736791649372,-0.446641813033915,0.8857567219065237,-1.8739500045776367,-1.96152662182321,4.156439670576256,0.5347766009411162,1.3492566542867506,-1.0151732603656214,1.0,0.48150159948099264,0.48646912723249836,0.2944770711466337,-0.7347126879940928,0.19358091959344234,-0.3245325381829867,0.5633847045584042
4.800000000000001,0.17039595062291854,-0.00395206959353064,0.34270434172315495,-0.015068938697669754,0.01132172218809885,0.1400768230162556,0.12620305838942422,-0.44631069273591933,0.8859342682981651,-1.872475084873708,-1.9627106269974486,4.156211897820965,0.5344526186500539,1.3494500310137396,-1.015209473197838,1.0,0.48192532627619783,0.4868599381336293,0.2943918215905734,-0.7347191916476237,0.1935711359147723,-0.3245335832908,0.5633789826411354
4.9,0.5341083972660332,-0.11743306351143046,0.5679512157503652,-0.022187357417659093,-0.00417273030320341,0.1395846537718002,0.12636247541504914,-0.4469512646450421,0.8855883265136232,-1.8710359787053479,-1.963994699510828,4.155996665189445,0.5341517796317892,1.3496535293625975,-1.015233341847555,1.0,0.4821505316161782,0.4871138172644826,0.29431790745362063,-0.7347289002682155,0.1935787448022674,-0.3245186706657501,0.5633722970299231
5.0,0.27046257519290456,-0.2611605789846467,0.40536776819919945,-0.022679045743165312,0.003942544270708441,0.14489398507779655,0.12637966174254325,-0.44703909839601497,0.8855414836404555,-1.869655245587078,-1.9650592662375905,4.155781410704815,0.5337818162844642,1.3499042421356602,-1.0152693996996878,1.0,0.48251320436885253,0.48747148076060137,0.2941881973427833,-0.7347332959669266,0.19359373971444846,-0.32452628435443287,0.5633570257874283
5.1000000000000005,0.4110086461801768,0.11318910313392166,0.05750728515105855,-0.007685696940706222,0.0021531385276407416,0.14540260424270943,0.12613969352202553,-0.4461176241450882,0.8860404361205835,-1.8682428256553096,-1.965949108376906,4.155560019570497,0.5335458444740763,1.3501076698303223,-1.015293034454953,1.0,0.4829969214261182,0.4879666651156067,0.29400704177282155,-0.734780345970578,0.1935811031551823,-0.32451740366982834,0.563305116603759
5.2,0.5716457167765365,0.04013139997498674,0.33097393191295943,-0.01683893696201453,0.00046275586043000765,0.14540504120433184,0.12650712108537898,-0.44752412081999327,0.885277300323349,-1.8667293378070684,-1.9669295672955402,4.155301403685136,0.5331813532062988,1.3503367367173464,-1.0153409065732983,1.0,0.48320861525553455,0.4881706239053279,0.2940611903986066,-0.7347241352083189,0.19359828901656126,-0.32452966837206465,0.5633654604060905
5.300000000000001,0.46285423421720584,0.1771377685968149,0.5286462370019267,-0.007625724854733297,0.0033901395695904893,0.1460074799047756,0.12670686091547748,-0.448357669088964,0.8848279661552853,-1.8653733041793334,-1.9680450522558686,4.15508508682251,0.5328342157551269,1.350528401804721,-1.0153881378936402,1.0,0.483536683981387,0.4885268810064749,0.29409479991252746,-0.7346696570783596,0.1935761748540221,-0.3245471792011946,0.5634340138559246
5.4,0.3932525382380315,0.08290559776163389,0.16543276327576356,-0.014566067305352868,0.007785638225672009,0.14621052846671112,0.12649355611571303,-0.4477241207271214,0.8851792976876136,-1.8640527725219727,-1.9693496998238607,4.154858264151963,0.5325215623961035,1.3507440956197656,-1.015400939415221,1.0,0.48406015976929273,0.48899524287869073,0.29392687205899576,-0.7346922833261873,0.19360991506641922,-0.3245570174090416,0.5633872487547746
5.5,0.4910109171338125,0.17863870051709446,0.400752719722173,-0.012599582531392548,0.006251321933231267,0.14128076087964592,0.12644434140510685,-0.4475322744624696,0.8852833796776245,-1.8625157635039946,-1.97048719627302,4.154653960196963,0.5322217694687916,1.3509721755981445,-1.0154603163348597,1.0,0.48427324020041906,0.48921019912364133,0.2937875478626466,-0.734745480245308,0.19360939553815656,-0.32454934469243446,0.5633224689981334
5.6000000000000005,0.49886243480541415,0.09680729279801596,0.3833385279433774,-0.009176225660533352,0.005886182008343479,0.14065697374816083,0.12641990648147253,-0.4474071310921215,0.8853501236966529,-1.861006436350914,-1.9713741616033622,4.154450241029816,0.5318853093615148,1.3511408134200624,-1.015472714100973,1.0,0.48461632808033944,0.48960437386926675,0.2936591361791636,-0.734768500621105,0.19358978160874687,-0.3245343813107494,0.5633078042233574
5.7,0.5139530764094872,-0.041932043815490136,0.31653508925666785,-0.01326983422399482,-0.0007452493342467899,0.14413410823101727,0.12648756919358467,-0.44761081573505973,0.8852372234142059,-1.8597235678258208,-1.9723070567434173,4.154198169708252,0.5315138339383741,1.3513689238394577,-1.0155089833819415,1.0,0.4851036166702035,0.49008028326391045,0.2937199904711533,-0.7346883140444802,0.19360440989382727,-0.3245677678962024,0.5633881235161234
5.800000000000001,0.5781165636736922,-8.163849130563006e-05,0.3374954704583127,-0.016123345517641167,0.0004104251425263723,0.13987675820659545,0.1267187851963653,-0.4483984556902172,0.8848052984747411,-1.8584263781883752,-1.9734126411700488,4.153981739557613,0.5311429894619875,1.351607207585864,-1.015567954586723,1.0,0.48527898565371896,0.4902581284467073,0.2936841238240622,-0.7346978949177158,0.1935951343193683,-0.32456072031232786,0.5633828769155892
5.9,0.3402539647798159,0.38546932845802134,0.5126559856320712,-0.007043622853457979,0.0011807873305892949,0.1381337574653262,0.1268100711842598,-0.44873579878778797,0.8846215629221366,-1.8567685571040626,-1.9746695957579554,4.153779345217552,0.5308666284236835,1.3518124667738467,-1.0156043742703862,1.0,0.48575195235869595,0.4907532192574348,0.2934953288673961,-0.7347548926462383,0.19357908760969927,-0.32454877523810205,0.5633209361137388
6.0,0.1544745399935707,0.42560326671367243,0.5294885346581635,-0.00409256483999724,0.007140757299409126,0.13959860186895534,0.1267071579809339,-0.4484173150514643,0.8847978342589412,-1.8553437695919888,-1.975747566707147,4.153573558862927,0.5305072504230957,1.3520278930664062,-1.0156061613777088,1.0,0.4859649482757123,0.4909577191927564,0.2934594893409614,-0.7347287128462177,0.1936084157900369,-0.32455299120664843,0.5633425740643341
6.1000000000000005,0.31972614244180825,0.26930686642373114,0.5571141424462316,-0.00807847973164827,0.008465669372336816,0.141501105458584,0.1267242312858351,-0.4484263223425092,0.8847908241745629,-1.854108972080233,-1.9767543278136195,4.1533589363098145,0.5302181254497963,1.3522657025037041,-1.01569978386526,1.0,0.4863429730549657,0.4913848608535,0.29340494688841595,-0.7347087184744108,0.19359336678127426,-0.32454603683197114,0.5633778282046968
6.2,0.4420365977802394,0.16162328707331114,0.3743160764349726,-0.017692076803699663,-0.0003263137817737117,0.14395627014839513,0.12667642843428167,-0.44810478807206144,0.884960538090862,-1.8527201319809203,-1.9778038822433737,4.153156056336524,0.529870896997949,1.3525064313144624,-1.0157324484130121,1.0,0.48679670329017344,0.4918564142499784,0.293265426911825,-0.7347360624175366,0.193576294070076,-0.32453234128029973,0.5633559233915946
6.300000000000001,0.4842261560183029,-0.10800868567946631,0.4870170970645285,-0.019653950853832952,9.25232611585355e-05,0.13708064172555354,0.12676990966268425,-0.4483755503948429,0.8848099383991151,-1.8510826555409825,-1.9787918393667026,4.152927717051112,0.5295585301937962,1.3527590428976188,-1.0157717046230852,1.0,0.48695496840596236,0.4920462375879862,0.2931745549229209,-0.7347700546242424,0.19357787805973425,-0.32449130570611223,0.5633346824708394
6.4,0.6179496139703016,-0.03176969356918224,0.4586477013235885,-0.014172220861491159,0.0006842956570632958,0.14098286745992805,0.1268651908833976,-0.4486835544481641,0.8846402010623755,-1.849680777595439,-1.9800247920681933,4.152651478253124,0.529115878430709,1.352975489859912,-1.015759850976982,1.0,0.4873125412476847,0.4923836686237157,0.29325731260163757,-0.7346798179881059,0.1935597107279302,-0.3245412198274312,0.5634298537145562
6.5,0.5576397663136596,0.14623685004562376,0.4982856555828473,-0.010165241075924696,0.0005968234061423769,0.14075828767067863,0.12689841850664801,-0.4487891658750278,0.8845818628778973,-1.848468214380784,-1.981124355794504,4.1524481773376465,0.5288487696432028,1.3532135711282958,-1.015806617567927,1.0,0.4878468456801528,0.4929468341323835,0.29311390094723716,-0.7346951551976236,0.19355830299335444,-0.324524914550812,0.5634197299591671
6.6000000000000005,0.2680678424699232,0.2617122270821566,0.5259948323589679,-0.0011150507022707349,0.008776588486017168,0.13189291814093593,0.12700299487310002,-0.4492304795431076,0.8843426997070442,-1.8470137828709092,-1.9822048590456254,4.152184009552002,0.5285515379650829,1.3534429130829546,-1.0158563059475514,1.0,0.48801996223800403,0.4930901399321356,0.29297329551453205,-0.7347446527348023,0.1935819740310003,-0.3245082534873015,0.5633566437226928
6.7,0.3470999156709213,0.06039406806578873,0.33585180511172863,-0.012479007433889404,0.005837970288262696,0.13644735991811321,0.12688401725381188,-0.4488450619740175,0.8845538559902223,-1.8454461993744462,-1.983212642966165,4.151993274688721,0.5281322141408037,1.353646543331228,-1.015892236102284,1.0,0.4883344349782317,0.49339365000757807,0.2928811884367764,-0.7347608801434821,0.19357893016944452,-0.32450679947658656,0.5633373624203274
6.800000000000001,0.2761835432489551,0.2506072519357906,0.22317375273847867,-0.010764132768540966,0.004860471734722118,0.13836999045042292,0.12621420237534994,-0.4463849780918345,0.8858940171590155,-1.8439856188140646,-1.9842549511173682,4.151728190773932,0.5277482953265035,1.353874683380127,-1.0159038119431452,1.0,0.48886396619350103,0.4939144954649104,0.29285053456599164,-0.7347153112583145,0.19357428122760112,-0.32453096056147285,0.5633844732390694
6.9,0.20694609762858968,0.022637436902746583,0.38925363171025257,-0.019329974278036573,0.008203023885510499,0.13432386079376074,0.12670418512464357,-0.4481905371699421,0.8849068436183246,-1.8426679531723944,-1.9853689556659633,4.151526347795198,0.5274615881780096,1.3540557059957516,-1.0159514586078089,1.0,0.4891503960925572,0.49418195013237415,0.2928385529724189,-0.7346863830031518,0.19357682713920119,-0.32455585062889203,0.5634069847339688
7.0,0.40216674716582534,0.09070117200287012,0.3914075888465562,-0.016101243209916752,0.009950943020427122,0.1368995936696688,0.1274932551724885,-0.45109611542298683,0.8833194996389072,-1.8412319732038942,-1.9864233181709008,4.151333332061768,0.5271732050129394,1.3542469494963345,-1.0159878811282765,1.0,0.48958674850336376,0.494637093650992,0.29261741430358335,-0.7347599846181657,0.19357787409440955,-0.3245130098931937,0.5633353158422274
7.1000000000000005,0.2302933160930911,0.5495903878937203,0.3526921297273209,-0.02951232965989234,0.0035659510376657034,0.1323124835449887,0.12680691239052977,-0.4485622703983487,0.8847029672483314,-1.841082986834613,-1.986526582840011,4.151286452557241,0.527138723274526,1.35430559470812,-1.0160234552701197,1.0,0.48980051254458806,0.4948524454948839,0.29261008152075785,-0.7347193084333533,0.19357411882177245,-0.32453986972829274,0.5633741840857925
7.2,0.6738571483313999,-0.2776145297766449,0.1705221544680537,-0.01709503666703462,0.007634430231116706,0.14103243555988346,0.12618913490128655,-0.4462878356559382,0.8859464061742387,-1.8410940170288086,-1.9865621271213412,4.151286910553542,0.5271140772053222,1.3543408216524184,-1.0159993507920604,1.0,0.4899018068857983,0.4949468482808136,0.2925813954763839,-0.7347301278696539,0.19357517060484644,-0.3245317483405598,0.5633643908208668
7.300000000000001,0.49536712650316217,0.004433549314412116,0.1796842794610481,-0.015144229391432115,0.007531056202112158,0.14088867210750727,0.12680486589178636,-0.44857848404988243,0.8847009232715068,-1.8410463664485497,-1.9865981886237745,4.151262865091631,0.5271264749714355,1.3542933823018874,-1.0160591547731435,1.0,0.48993661481889483,0.49497108484765323,0.2925834714269672,-0.7347273630031355,0.19357229107737825,-0.3245412136845686,0.5633635334325968
7.4,0.44011793433319923,-0.05076728892656984,0.26512342664372895,-0.015690106511146534,0.0060142416554957705,0.13828908577726073,0.1267569257365789,-0.44835567237378365,0.8848215129510866,-1.8410212419901375,-1.9866710808641541,4.151321592179347,0.5271143976451651,1.3543528116564958,-1.0160107551373507,1.0,0.48994534660995803,0.49498242581067853,0.29258365067314873,-0.7347255715825592,0.19357590981745562,-0.3245493798172787,0.5633599219515404
7.5,0.4505247799635912,-0.07314993317341026,0.19440377405082257,-0.02119842841263321,0.008972124049659054,0.1358747640130976,0.126640948639459,-0.44789439796505753,0.885071842423171,-1.841032722531364,-1.9866699552313145,4.151263300456509,0.5271267451185132,1.3543404898266942,-1.015999412470707,1.0,0.48993948992798575,0.4950144436383537,0.29254482594836473,-0.7347483875839583,0.19356343552718464,-0.32452798411693573,0.5633467767678134
7.6000000000000005,0.4183461601743546,-0.13764533865040962,0.1874115759892413,-0.02100562161979555,0.007144942859882069,0.1335797839845787,0.1269183710246979,-0.44897885384753194,0.8844824545918345,-1.8409854591476806,-1.9866815603625148,4.151251435203854,0.527174948150811,1.3543171882629395,-1.0160229036860682,1.0,0.4899400975852934,0.49502070505058887,0.2925526051296392,-0.7347279253454596,0.19357330206790235,-0.3245323739221281,0.5633675449655879
7.7,0.4114591489083594,0.07515251909631909,0.2576217015829535,-0.014215592350239375,0.007258403288711786,0.13475340096458374,0.12706943671819065,-0.4495897902133293,0.8841505642063175,-1.8410323002264655,-1.9866925498784158,4.151298261336443,0.5271257365215014,1.3543302676751459,-1.0160117733005978,1.0,0.489951882712517,0.4949964455630556,0.2925603879237796,-0.7347259767912961,0.193581739485594,-0.32453680908739474,0.5633646321106598
7.800000000000001,0.2499295576402188,0.2627161282160252,0.30246221396915407,-0.011888633139788588,0.007517602382308674,0.13696089402177022,0.1273616822951821,-0.45072667062967076,0.8835279650742941,-1.8409819761460904,-1.9866655684457528,4.151302748439215,0.5271388727375488,1.3542968804134776,-1.0159991423236292,1.0,0.48995737866089834,0.49498892465260796,0.2925589126594718,-0.7347294425688768,0.1935803982791074,-0.32454803212875877,0.5633541075255241
7.9,0.3558696294346899,0.3784151748996757,0.2725538027365323,-0.00967008379922907,0.003522160368626694,0.13491995539838383,0.12800892393991567,-0.453152470570931,0.8821941044322841,-1.8409740418670932,-1.986669741458319,4.151298683488016,0.5271389320434915,1.3542933464050293,-1.0159873449487213,1.0,0.48996487158370416,0.4949852940260091,0.2925393388032739,-0.7347458217191816,0.1935912098717604,-0.3245444143490349,0.5633311140363493
8.0,0.15032012783961177,0.47428196581430815,0.3245174900973296,-0.006218817797318949,0.010852183179577094,0.13581150002289077,0.12791405920784593,-0.4527358485494754,0.8824217620160696,-1.8410098052713912,-1.9866693792463228,4.151298374881634,0.5271140772053222,1.3543066334586613,-1.0159872213946741,1.2815947974652855,0.4899457860263586,0.4950015216709154,0.2925552515703437,-0.7347357836006287,0.1935751323239001,-0.3245292613240902,0.5633584604734319
8.1,0.38172354996352453,0.32086860248368054,0.3037124263007052,-0.010137484458542494,0.005792673687231305,0.13595898484381505,0.127988561839937,-0.45309693126846845,0.8822256027225739,-1.8409978898697357,-1.9867031788599376,4.1512975888640025,0.5271039897696546,1.3543178937241267,-1.0159759787937837,2.0,0.4899631271685952,0.4949864287322205,0.2925631203704884,-0.7347170966366537,0.19359182189997132,-0.32454623556633566,0.5633673183483191
8.200000000000001,0.4414999636048098,0.09486762345874172,0.24573269768750053,-0.015290704955532218,0.004741749946309553,0.13351997571564422,0.12785979021672964,-0.45262358798950963,0.8824871932341013,-1.8409858483938677,-1.9866468203896877,4.151287584586566,0.5271488233285659,1.3543295860290527,-1.016020508114457,2.0,0.48996048821181637,0.4949859215206492,0.29254943026276364,-0.7347286759399512,0.19359634678427162,-0.32453288322413887,0.5633583539538027
8.3,0.3109562735943546,0.05422631053029567,0.383578024695176,-0.021330169719840385,0.008254102276230118,0.13215236586309032,0.1274505737254672,-0.45108311051673095,0.883332981934019,-1.8409645056933235,-1.9866709641549534,4.15132107672345,0.5271363037902326,1.3543291466038538,-1.0160110632525843,2.0,0.48995512031377797,0.4950007521903146,0.2925745097611267,-0.734712032984626,0.19358606748101448,-0.3245361855622651,0.5633816888447202
8.4,0.4311742634328876,0.004199824887431203,0.32894035006668,-0.019252762662068056,0.00831622269088117,0.13297152261747197,0.12703625560209847,-0.4495080607582523,0.8841968988775398,-1.841008082245955,-1.9866929926548587,4.151289464458393,0.5270816536937447,1.3542962862063515,-1.0160343762261477,2.0,0.4899577684022612,0.4950040945109657,0.29260319711670457,-0.7346962218443671,0.1935762855327509,-0.3245597048701573,0.5633921203403117
8.5,0.4887586979229676,0.08280203627173692,0.41705650450996645,-0.021550825697295474,-0.00038308048704051474,0.13193101203580707,0.12723158996061862,-0.45017589883436687,0.8838289055788477,-1.8410153183168916,-1.9866696796812953,4.151286242773951,0.5271257841131415,1.3542937056513422,-1.0160178872899295,2.0,0.48994797784893246,0.49500269023141713,0.29256880980924876,-0.7347266468692426,0.1935692219799039,-0.32454982235928986,0.5633605625963954
8.6,0.29730781321964034,0.12114128850339188,0.31078463528781075,-0.022284589474028275,0.006424770870029024,0.13542955005138504,0.12727477517001812,-0.45032265165976365,0.8837480530538129,-1.840986039558545,-1.9867165163024763,4.151287290464799,0.5271147656498569,1.3543268852081856,-1.0160017901872245,2.0,0.48994498396381836,0.49500093496135866,0.29258714395963253,-0.7347077419260776,0.19357137670201668,-0.3245485323609242,0.5633852200918483
8.700000000000001,0.5716485140126752,0.1881305466823428,0.19339298121736248,-0.024881197914692836,0.012646989976451563,0.13601010358300594,0.12723814286203391,-0.45019604291003545,0.8838178347178314,-1.8409858878632164,-1.9866577587523402,4.151298704933138,0.5271615578635213,1.3543054493179036,-1.016023551206999,2.0,0.48995243560889135,0.49499760361559986,0.29256393612410225,-0.7347246280459206,0.19358994141794808,-0.3245377987726706,0.5633630025945695
8.8,0.34895859868088586,-0.0551072041005168,0.31876484733665944,-0.02049511832009615,0.009152030015172154,0.13797799983230924,0.12724724837094462,-0.45030758739384597,0.8837596801621194,-1.840998649597168,-1.9866696796812953,4.15129189613336,0.527120129690315,1.3543116013537153,-1.0160168829496927,2.0,0.4899427974227495,0.4950113991907713,0.2925409416786809,-0.7347367518619699,0.193577282439861,-0.3245246954696466,0.5633590890514268
8.9,0.5600100441714786,0.011671337340569174,0.259586801949352,-0.022960685454363892,0.00436026147671964,0.13991406076207347,0.12744442844816772,-0.4511331456716631,0.8833082490363763,-1.8409495863598557,-1.9866699334443438,4.15126326768845,0.5271269824975325,1.3543285506758147,-1.0159879826838196,2.0,0.48996440257787904,0.49497482046758573,0.2925780447817519,-0.734711372908761,0.19359733659612122,-0.3245540207995229,0.5633684028806325
9.0,0.38370948040929564,0.11823075716089876,0.25091742025496816,-0.029279527350770083,0.005826054121210069,0.13173716451057102,0.12851966317534763,-0.45508899240319495,0.8811224012970061,-1.840985138870664,-1.9867054148994168,4.151252298334681,0.5271263024115217,1.3542941826569193,-1.0159991423236292,2.0,0.4899597114516144,0.4949870679077308,0.29257112935200624,-0.7347150504705217,0.19359310869236324,-0.32453490524606443,0.5633760716926609
9.1,0.4987132430104981,0.09005667787565379,0.4821327864127993,-0.028152048610390907,0.0009563681008832874,0.1454103899965025,0.12859731558368834,-0.45537216779944784,0.8809647386779439,-1.8409852981567383,-1.9866816006102503,4.15127448893504,0.527102359381901,1.354329027616539,-1.0160342760718903,2.0,0.4899674967501815,0.4949841121902861,0.2925870110325656,-0.7347114638548015,0.19357799101941217,-0.3245718724440569,0.5633646473567382
9.200000000000001,0.32000462243675176,0.20322268996384743,0.4263094162485606,-0.02982772365007154,0.006501998488836065,0.14475349902787774,0.12866854688868629,-0.4556056387142377,0.8808336351773983,-1.8410197898481895,-1.9867040985422226,4.151306802351982,0.5271159707989421,1.3543038505775227,-1.016015701129155,2.0,0.4899677624523773,0.4949832616591602,0.2925774221501217,-0.7347124415483997,0.193586859038495,-0.32455228521102075,0.563371609513564
9.3,-0.06847766295542179,0.2970010971448671,0.3361080833279108,-0.026810406805360776,-0.0027501011269060235,0.13773154650170938,0.12880282976569507,-0.45603711611097747,0.880590633129608,-1.8409916100243628,-1.9866908424425513,4.151283446086452,0.5270941021914014,1.3542994155085146,-1.0160080287008417,2.0,0.48995104829003316,0.4949964767939208,0.29254925316181046,-0.7347364311352655,0.1935764382916213,-0.32453567208962236,0.5633534741547979
9.4,0.36414483859533553,0.06254755391646333,0.3044578886254078,-0.016770368953128452,0.0008606026930777846,0.14085818922625493,0.12877418728871343,-0.45591501680179,0.8806579552873806,-1.8410215377807617,-1.9866581309312568,4.151309312454267,0.5271495724715125,1.3543291989629795,-1.0159868492157575,2.0,0.48994772255302554,0.4950013717017222,0.29256842985486864,-0.7347139296223459,0.19357906607403097,-0.32454278373215045,0.5633778202274056
9.5,0.017831863350904253,-0.4634821189218743,0.3068605431306064,0.004703860557872786,-0.02523421530667339,0.1383508495775843,0.12862324223963587,-0.4553710872620245,0.8809615395060058,-1.8409851704010198,-1.9867174356744985,4.151298595226602,0.5271501890736272,1.354305871926861,-1.015987487552421,2.0,0.4899477194638508,0.4950036531671352,0.29253999384376783,-0.7347402281987963,0.19358239421332638,-0.3245337145656426,0.5633476030189914
9.600000000000001,-0.6337991277770141,0.1991381215420438,0.3037323757563453,-0.030189554924366077,-0.08835492758505718,0.13690169743755415,0.12865900913959796,-0.45540342975354636,0.8809395973881446,-1.8409853788496624,-1.9866815618155753,4.1512865616738015,0.5271140399624342,1.3543770742197108,-1.0159991811183042,2.0,0.4899438847478437,0.4950041682462082,0.29254313315200187,-0.7347426750320664,0.19356990936907112,-0.3245330921341563,0.5633490603377412
9.700000000000001,-1.2767622145111097,0.03158396572157919,0.16243190575947508,-0.043442655738442915,-0.16580117851628226,0.1355322937720819,0.12869555843686015,-0.4555227297570383,0.8808725626714143,-1.8410099984195996,-1.9866939344456054,4.15131038120096,0.5271025378441601,1.3543172835323047,-1.0160110632525843,2.0,0.4899385245816117,0.4950194000408298,0.29254749337453506,-0.7347446386251977,0.19355550484819925,-0.3245229457162931,0.5633572936051391
9.8,-1.807748336033085,-0.002388593675539615,0.3049205310578419,-0.024601043207469975,-0.2018505747672586,0.13174951997945536,0.1287149027636328,-0.45563749692353916,0.8808103537684403,-1.8410103591952065,-1.9867053606359353,4.151274901208034,0.5271268953563181,1.3543293857608962,-1.0160229841815394,2.0,0.4899521640867858,0.4950175346240373,0.29256714844039217,-0.7347292848796946,0.19357200268811162,-0.3245368628246588,0.5633636324643392
9.9,-1.975776749980792,-0.34425564625100213,0.41460789518062086,-0.011925062915521846,-0.23531356639231743,0.1267265544716141,0.12848881900165468,-0.45480777811085626,0.881272092861092,-1.84099905411478,-1.986681179237738,4.151274642481564,0.5271145154327352,1.3543291091918945,-1.0160234055540518,2.0,0.48994480232848964,0.4950106461485035,0.29254740473856794,-0.7347314140670944,0.1935704518599622,-0.3245403887867878,0.5633593572452834
10.0,-2.0298767806489506,-0.14583187957454677,0.48582516397437536,-0.008417691792219828,-0.2642067623251652,0.11930408048349714,0.1285661877805818,-0.4550537481848965,0.8811338040456306,-1.840998375278365,-1.9867058290688704,4.151298999786377,0.5271025464865349,1.354340849647953,-1.0159990520871809,2.0,0.4899350081844358,0.495016169233268,0.2925479093307046,-0.7347342264450328,0.19356558152126557,-0.3245306884348247,0.5633629508625607
10.100000000000001,-2.084729160427999,0.10892013024946887,0.7022484570377303,-0.02989560065013995,-0.2848488377699035,0.1286418743552118,0.12853501035977283,-0.4549320264169771,0.8812011510191075,-1.8409999936732622,-1.98667393592226,4.151300343862471,0.5271388727375488,1.3543094675717786,-1.016000542402894,2.0,0.4899490473913124,0.4950026231245382,0.2925355908935113,-0.7347419275800043,0.19356241851093414,-0.32454244532567755,0.5633472207957073
10.200000000000001,-2.2206875265133155,0.44343422006766803,0.8257891417621521,-0.04699083449772255,-0.3070365861564544,0.13145731158759685,0.12840291954394287,-0.4544631936494546,0.8814622612589067,-1.8409936015398891,-1.9866862880920093,4.151321887969971,0.5270955159279674,1.3542991577026717,-1.0159901279356314,2.0,0.4899386782108183,0.4950042197811923,0.2925186126009215,-0.7347562340882177,0.1935798677169851,-0.32451027772731694,0.5633410964349348
10.3,-2.4289619853026174,0.3826907430363066,0.9692412490361079,-0.06706233588704319,-0.32476148589137227,0.13655318201425995,0.1279951875006084,-0.4529226602797044,0.8823132501570307,-1.8409740310691025,-1.9866818593086397,4.151310614074482,0.5271500581309564,1.3543058258653708,-1.016035293445572,2.0,0.4899305414404766,0.49502250745151216,0.2925508226238927,-0.7347326981883594,0.19356660278789614,-0.3245236381092145,0.5633686544407362
10.4,-2.376244874122191,0.7935869228928942,1.2699452183924014,-0.08211951470464848,-0.3255954227275027,0.13870675783645922,0.12776022490715339,-0.45202671981103604,0.8828075136110357,-1.8409625989228724,-1.9867061161279518,4.151310443878174,0.5271260813261693,1.3543402428303173,-1.0160233778268055,2.0,0.4899392666714044,0.4950153684661193,0.29253250959504584,-0.7347468172170648,0.1935729338039719,-0.3245238653907835,0.5633479339446812
10.5,-2.5058381121462205,0.9499063666470959,1.079537530041426,-0.09863134981927249,-0.3234358415795589,0.137480727765169,0.1276827964178744,-0.451719441041807,0.8829760089711232,-1.8409853336187314,-1.9867177769092859,4.151299030182371,0.5271264116464477,1.3543057745671367,-1.0160229208565514,2.0,0.48993298116719497,0.49502730638711057,0.2925562840394464,-0.7347265642291878,0.19356204399468419,-0.3245301527471946,0.5633744677374506
10.600000000000001,-2.366565004471876,0.8272789788966165,1.1517274750595563,-0.09693127514932581,-0.32627150108083636,0.13749542073207838,0.12743634064350692,-0.4508596318696431,0.8834506544066411,-1.8410452859598614,-1.9866696796812953,4.151334285736084,0.5271140772053222,1.3543291769067376,-1.0159995514459443,2.0,0.4899462797450175,0.4950205792555005,0.2925737929866837,-0.7347156109051847,0.1935787942788271,-0.3245354741354872,0.5633799317737826
10.700000000000001,-2.521996457813096,0.7487491368948014,1.0843981637559856,-0.09841005530425855,-0.3246937060377442,0.1376878804716346,0.12715447662835616,-0.44978660180647123,0.8840376816321266,-1.8410321081435024,-1.9866946051326526,4.151310735121193,0.5271503168293457,1.3542812641521862,-1.016022680803395,2.0,0.4899294202393467,0.49502317467925794,0.2925700461245707,-0.7347286240180957,0.19355854460944946,-0.3245353817389536,0.563369971561051
10.8,-2.399692205667749,0.7621915887519134,0.9849359861309053,-0.09753481654364445,-0.33018610046169156,0.1389064841709119,0.1268380008795472,-0.448505147248699,0.8847345626231863,-1.8409955946950813,-1.9867021811498098,4.151331449041289,0.5271251256781592,1.3543083626586454,-1.0160120738169445,2.0,0.4899227600865996,0.4950288212359677,0.2925599361527912,-0.7347338732701454,0.1935520722664608,-0.32452822851757035,0.5633694699627027
10.9,-2.184650629402571,0.5841101348239901,1.1148271841566695,-0.0975552071631984,-0.3349193662095207,0.1356751882362146,0.12732482147067042,-0.45041756261641686,0.8836896171290879,-1.8409988893545988,-1.986670688660483,4.15128686175748,0.5271493178400509,1.3542933464050293,-1.0159996418182766,2.0,0.48993709812684366,0.49501891068503,0.2925379807166862,-0.7347454576640577,0.1935614921681329,-0.3245223811282072,0.5633544934928265
11.0,-2.3178736788977337,0.6259791760517591,1.1794445984149955,-0.09095891448411123,-0.3412257977586897,0.13351672964370676,0.12781359225287708,-0.45233773185570203,0.8826404429409057,-1.8410095996961746,-1.986682322599713,4.151310443878174,0.5271267219678306,1.354305972167815,-1.0160108257560505,2.0,0.48994487579490553,0.49501013151818263,0.2925638697174844,-0.7347253385572845,0.19357473974849407,-0.324542191204275,0.5633647691695983
11.100000000000001,-2.3171104117525996,0.7485114372434879,1.0940000237310255,-0.08711507178183961,-0.33835423628479844,0.1324217881142779,0.1275502436215659,-0.45128797782376623,0.883215305265266,-1.8409852981567383,-1.9866697080281046,4.151334267086868,0.5271264749714355,1.3543410025200089,-1.016022974856931,2.0,0.48994206724753564,0.49501139606181854,0.29254440640424645,-0.7347430254461932,0.1935599100585934,-0.32452659211181234,0.5633557834872891
11.200000000000001,-2.5496995232659456,0.5375825856676295,0.9415204794020144,-0.08876030233375456,-0.33103958943626466,0.13366525103110638,0.1275842041505558,-0.45142844629486917,0.8831382599342881,-1.841021400373531,-1.986657897533643,4.151298964060497,0.5271264749714355,1.3543171882629395,-1.0159991766754368,2.0,0.48993946331599475,0.49500892505390376,0.29254503417971117,-0.7347388619161515,0.1935778384853739,-0.3245218961254324,0.5633577585980717
11.3,-2.219858274016688,0.5033083213907356,1.1136642956198666,-0.0889067167234215,-0.3355320066652096,0.13438705550560776,0.12794867676161414,-0.45289156537579595,0.8823368053770005,-1.841031963413883,-1.9866816006102503,4.151309920885881,0.5271262960530195,1.3543171882629395,-1.016035030992298,2.0,0.48995995651436747,0.49500132709771927,0.292573393288552,-0.7347121209105612,0.19358192062772014,-0.3245428233195561,0.5633791753561356
11.4,-2.401850430754745,0.44523372724364196,1.155727503489469,-0.08486726275471924,-0.3320481413258704,0.13560594414586283,0.12781665652553068,-0.45236742711353767,0.8826245761752166,-1.8409944970245191,-1.9866846870724664,4.151286602020264,0.5271186766392126,1.3543295860290527,-1.0159902473380231,2.0,0.4899499482133856,0.49499833700044776,0.29256105379234826,-0.7347307965155407,0.19357165759585454,-0.3245399296269365,0.5633600128736295
11.5,-2.3454243896021065,0.2541968058054762,1.1241664869472308,-0.08569044311492233,-0.32965784653761226,0.129444936942095,0.12766946459573672,-0.45178256278058504,0.8829456312263088,-1.8410213882833977,-1.9867059193053187,4.15128706297047,0.5271619297342975,1.3543171882629395,-1.015987377121095,2.0,0.48994788354654456,0.4949958874319547,0.29252205845089035,-0.7347465906360928,0.1935759983594525,-0.32453176880730705,0.5633426234917607
11.600000000000001,-2.343784295615708,0.28749759520676305,1.1120780205256309,-0.07543052920698577,-0.34190434863882396,0.13103089590650885,0.12763515313154092,-0.4516605592272203,0.8830130231705788,-1.840998862331068,-1.9866816006102503,4.151298538862927,0.5271264749714355,1.3543295860290527,-1.0160225409859143,2.0,0.4899530874358505,0.49500072212674406,0.29253950983328386,-0.73474271485659,0.19357885598583982,-0.32453601477175986,0.5633442505222231
11.700000000000001,-2.5183872486664356,0.48236231153025666,1.1436261976747033,-0.06643873529002998,-0.33993634195425065,0.128771196642576,0.1276470729139628,-0.4517013431821815,0.8829904329440769,-1.8410455883442718,-1.9866818554679693,4.151299725150654,0.5271262201137167,1.3543171882629395,-1.0159757905767168,2.0,0.4899393058224233,0.495009090057614,0.29256470456819034,-0.7347239847758187,0.19357126646765552,-0.3245388228559312,0.5633696685592304
11.8,-2.4649196708928787,0.36140527982622145,1.1107160314320528,-0.0672743783917598,-0.3384708988973358,0.1265192972458988,0.12769019560181918,-0.45186099635776633,0.8829025129471348,-1.841032562154478,-1.986670122717047,4.151298556750626,0.5271264749714355,1.3543057441711426,-1.0159873671301187,2.0,0.48994291835193354,0.4950060807261357,0.29257976551559167,-0.7347177556319919,0.1935731250087068,-0.32454860304254035,0.5633715196001553
11.9,-2.3860707784924657,0.29927292988464804,1.0875586507877848,-0.06793706304572132,-0.33854821259919216,0.1316563397188806,0.12770745890717886,-0.4519453834640017,0.8828568216089094,-1.8409986447352988,-1.9866816006102503,4.151274206685085,0.5271627099205848,1.3543171882629395,-1.0160229795066653,2.0,0.48994626778268385,0.49501009101890037,0.2925267495012701,-0.7347449184049084,0.1935870999782844,-0.3245159560971878,0.563350098818213
12.0,-2.3917546638573364,0.42455696006315946,1.1692372180595232,-0.07162896541381025,-0.33475693845189497,0.13258058608480638,0.12769225299948997,-0.4519092252313804,0.8828775199484711,-1.841011196634044,-1.986681237799369,4.1512631084608,0.5271488655858206,1.3543171882629395,-1.0159875842055555,2.2790392589137083,0.4899462399242883,0.49500664953901197,0.29254070776306124,-0.7347345692776952,0.1935843939365976,-0.32452534720953075,0.5633591165065616
12.100000000000001,-2.057811446062413,0.46176721196529147,1.27864027961632,-0.08949761399048889,-0.3309131494984483,0.13697015843253432,0.12763332250496243,-0.4517107349111611,0.8829876217862712,-1.8410733408591187,-1.9866431362779369,4.151299152119012,0.5271029504731826,1.3543173405955748,-1.016011221932413,3.0,0.48994282359461383,0.49499999260545824,0.2925556092290705,-0.7347215215180414,0.19358249435160527,-0.3245330258997841,0.5633723624736621
12.200000000000001,-2.2631743181912807,1.1109052937116508,1.760147750644196,-0.09271083919491536,-0.31085023171750553,0.1374866454176734,0.12752917572944483,-0.4514791727262286,0.8831210233275066,-1.841988355362133,-1.985933632697399,4.1513352394104,0.5273563104816894,1.354183867164431,-1.0159991423236292,3.0,0.4899627815510145,0.49497259234840263,0.2925598989200771,-0.7347213419719361,0.1935964045911563,-0.32455568905043797,0.5633547607727571
12.3,-1.963977349767405,0.9375832591352732,2.564835767114997,-0.11049731315101698,-0.29685336108786864,0.13019569078474108,0.12742078845439447,-0.4512445089764661,0.8832566099750659,-1.8434116364439967,-1.984878873582498,4.151515212295668,0.5276932290759144,1.3539682315368213,-1.0159511689272347,3.0,0.4897082727718723,0.4946662817853624,0.29263281617609854,-0.7347216671192953,0.1936020716944869,-0.32456615312383896,0.5633463605522261
12.4,-1.9535252247745065,0.8955665363868399,3.0846163753109037,-0.11862929410048918,-0.29350845161575756,0.10370514360760391,0.1272868094169982,-0.45086387693416957,0.8834702108063966,-1.8448148039266847,-1.9837534516900628,4.151828397100321,0.528016478251013,1.353716598585974,-1.0158677604103357,3.0,0.48956332095961325,0.4944308816835671,0.29263873487550573,-0.7347304621250624,0.19363607896500956,-0.32458547713439967,0.5633120671368429
12.5,-2.292601226651219,0.5927130987845415,3.3482936893208772,-0.08089883592383365,-0.3055901764634063,0.0928586112843345,0.12711553369803227,-0.450270514996514,0.8837975072140892,-1.8463259755515418,-1.9827216684713544,4.1520545910449895,0.5283756179945202,1.3534876820247892,-1.0159032727490982,3.0,0.4892142568852736,0.4941486856184076,0.29276232545007363,-0.7346996960220935,0.19363430785762448,-0.32457099104248877,0.5633611481627381
12.600000000000001,-2.2452365047620573,0.2659293449563762,3.648240841679595,-0.053739713745141776,-0.3210363336508002,0.08772123593935983,0.12719536679906873,-0.45052969826232786,0.8836538642041416,-1.8478237173814314,-1.9816315214236406,4.152284296250254,0.5287463295519496,1.3532485961914062,-1.0158794561969202,3.0,0.4886344370525917,0.49364475014697384,0.2927844772587071,-0.7347688741326863,0.19359350172997036,-0.32454999041828136,0.5632970454504501
12.700000000000001,-2.013163693628186,0.12180429906075237,4.139253102402078,-0.08897597650096234,-0.3204594554306143,0.06802723479615226,0.12730397203225086,-0.45088656644121716,0.8834562607990282,-1.8491422501279517,-1.9805180035033167,4.152569976637992,0.5290121601071244,1.3529973907805286,-1.0158069656567004,3.0,0.4884472213787128,0.49339914124566775,0.292850497266104,-0.7347522705811654,0.19362216532033516,-0.324559248178578,0.563303517115101
12.8,-2.0227603120909987,0.4541607879770066,4.406266554558406,-0.10197375951920272,-0.3364712651734493,0.04892167214546202,0.1271181539552372,-0.4500409234065211,0.8839136832106864,-1.850426069393115,-1.979402879229263,4.152798175811768,0.5293466520298772,1.3527933327392854,-1.01576006069331,3.0,0.487928022558461,0.4929525941108432,0.29300479075280345,-0.7347404079753651,0.19359102477950804,-0.3245500409091603,0.5633349971010824
12.9,-2.6422176984200503,0.5611169760107974,4.5971038834098925,-0.06243528828271023,-0.3537736874540194,0.03595024054175951,0.12703178798435225,-0.44960110901000566,0.8841502631543298,-1.852046012878418,-1.9783016643919886,4.152989250896794,0.5297183680415629,1.352577152366205,-1.0157243456923686,3.0,0.48773006013894127,0.492757308235143,0.29313754067178077,-0.7346878717255843,0.19358885074152077,-0.32456960955458347,0.5633929859001567
13.0,-2.855200831877102,0.22801979415691886,4.345364731337706,-0.04748992224757605,-0.3703673977966298,0.025965457425421997,0.12709215848079722,-0.4497812655271226,0.8840499550841999,-1.8535917956842853,-1.977307633555299,4.1532063338660095,0.5300552087971191,1.3523860666793206,-1.0156762105598756,3.0,0.48738020069762616,0.492375061328009,0.29318349876045763,-0.7347155540423814,0.1935799138136649,-0.3245643616168953,0.5633629796004596
13.100000000000001,-2.6626767942138088,0.35184458004357555,4.089037809803956,-0.07603341784697944,-0.37924698564090387,0.004590219205694669,0.1270108903788831,-0.449419866226955,0.8842454313971357,-1.854828535423119,-1.9762638721519759,4.153469562530518,0.5303919704085377,1.3522153852660002,-1.0156274191143781,3.0,0.48687396572576597,0.4918642423348557,0.2931565428214018,-0.7347888583001434,0.19358706702901918,-0.3245328303717993,0.563283075556103
13.200000000000001,-1.7111285932428528,0.9504031350626735,4.657688940553393,-0.15901521801789403,-0.27893551201755074,0.005147155784561096,0.12693671663179631,-0.4491739533849609,0.8843810203557646,-1.856125831604004,-1.9750946075290212,4.153627233777727,0.5307225780946917,1.3519667489188059,-1.0156520048724573,3.0,0.48667564212282993,0.491701221603235,0.2932404604239404,-0.7347572130699638,0.19357980254789547,-0.32452859830381303,0.5633292880457577
13.3,-1.756399491043028,1.4522833076928854,5.557450536214709,-0.19693964539203968,-0.28973070739917867,-0.014110729954901171,0.12669298704273627,-0.44824874748466914,0.8848837242439798,-1.8577089381903615,-1.9739996166837894,4.15390061610041,0.5310146280263144,1.3517494201660156,-1.0156276636113786,3.0,0.48636112808004106,0.4913559812602375,0.2934015669563788,-0.7347008106589504,0.19359842121949492,-0.32454983360979883,0.5633842166960767
13.4,-2.3012163515684767,1.7434229144874716,5.9843706387978495,-0.1896236993940391,-0.33004852075697144,-0.03551850777144961,0.12612783559421353,-0.4460081357483674,0.8860965184646235,-1.8592416809861603,-1.9728602961146173,4.154151906398057,0.5313759558496055,1.3515453338623047,-1.015552292005854,3.0,0.48578929310244173,0.4908042509968681,0.2934667807750342,-0.7347540716742331,0.19356794188659143,-0.3245277046315192,0.5633379757823208
13.5,-2.5918806645031314,1.177231143718981,6.453178096470936,-0.19159939900776607,-0.3682507878069957,-0.053715244124322645,0.12619772184023983,-0.44622302741326214,0.8859789973648255,-1.8604597587525047,-1.9719042306532197,4.154378198626677,0.5316904660617523,1.3513174057006836,-1.0155248720003718,3.0,0.4855891450046113,0.4906124967980071,0.29351106629739376,-0.7347544724794253,0.19357191448791047,-0.3245198345538867,0.5633406217148598
13.600000000000001,-2.7211242845449877,1.5204027261498512,6.511766800414914,-0.185235171002671,-0.37766140586000674,-0.05647935099026874,0.1263027450274434,-0.4465883121161138,0.8857801491002856,-1.861801677759612,-1.9709562141359143,4.15463159017999,0.5320214245395909,1.3510658863522658,-1.0154488967481312,3.0,0.4851540131647159,0.49019843489886067,0.29361747690180234,-0.7347476603498019,0.1935618139545607,-0.32452533967602887,0.5633498058021061
13.700000000000001,-2.396854748906375,1.0862094068112356,6.376113267849483,-0.1646604715599738,-0.3673818045414018,-0.06368912508977098,0.1259315726349559,-0.4451955714429249,0.8865297239402095,-1.8634279962215783,-1.969673994175878,4.154813463966802,0.5323223609715829,1.35084727845102,-1.0154722372638147,3.0,0.4850143559139665,0.4900770631651843,0.2935984592042894,-0.7347725964544738,0.19356131489251194,-0.32452299174704785,0.5633188055658878
13.8,-2.207410450655945,0.3710638099680741,6.3250115294853915,-0.15024642944654712,-0.35339157463783744,-0.077314303322206,0.12493223010003261,-0.4414860632044737,0.8885254534012442,-1.864829197412548,-1.9684554732777417,4.155062879087467,0.5326682764240722,1.350640430061102,-1.0154308344352811,3.0,0.4846645765621622,0.48971344259577587,0.2936946701013405,-0.7347671923957843,0.19355993535705512,-0.32452620732224824,0.5633244759145715
13.9,-2.262624922111586,0.9663816495480188,6.677339230173155,-0.15500419591292827,-0.3574911637162732,-0.08918113124906059,0.12376808829941435,-0.4372288062927827,0.8907908958375492,-1.8661916277200357,-1.967351575891012,4.155267238616943,0.5329572253943297,1.3504410287785658,-1.015365010101571,3.0,0.4841152549405624,0.4891377283141685,0.2939514957861621,-0.7346991969780237,0.19356095107410773,-0.32454210946565787,0.5634036451450373
14.0,-2.2632920764071747,1.0332228731472397,6.692254957105793,-0.15241354516373126,-0.35023641461472116,-0.09362777385245989,0.12368102251068512,-0.4369319906055706,0.8909506821120377,-1.8675695313948397,-1.9664633570935555,4.155507564544678,0.533304693857618,1.3501417897691084,-1.0153282324420374,3.0,0.4836825674888817,0.4887156580983924,0.2940246742321402,-0.7347045797166963,0.19356283673109245,-0.3245445583002573,0.5633945672950846
14.100000000000001,-2.152499583039262,1.1946340014811287,6.878137287059678,-0.15506684915943858,-0.35435738749984114,-0.10136495747962862,0.1238006353650344,-0.437350092312546,0.8907290810942571,-1.869057931072489,-1.9654929437864324,4.155711227439489,0.5336646009520087,1.3499140739440918,-1.0153399620737265,3.0,0.4834907553942504,0.4885209111182463,0.29403344463208325,-0.7347258276656269,0.19356587478734338,-0.3245471995298089,0.5633642920493173
14.200000000000001,-2.209562755086952,1.3195481944821061,7.076893534716187,-0.17582547814124336,-0.3663988304509989,-0.11341308398108312,0.12373770431558621,-0.43705555332827306,0.8908821220402814,-1.8704373822810294,-1.9643774839586823,4.155951208711915,0.5339768960574399,1.3496981866060673,-1.0152565248276235,3.0,0.4829995263384546,0.48803980110435546,0.2939795496505225,-0.7348125664033249,0.19355819147965767,-0.3245132122068068,0.5632733740113259
14.3,-2.510265197624488,1.7376668846769896,7.323410447719776,-0.18898276669170155,-0.36673098972890994,-0.11746642034530495,0.12352233179061818,-0.43633217759557463,0.8912661415168714,-1.8718528406591612,-1.963047413806666,4.156202094242348,0.5342635344652391,1.349457987726445,-1.0152433973771484,3.0,0.4828323923460269,0.487849214005294,0.294041187290765,-0.7347984585414276,0.19357940024844406,-0.324517004421799,0.5632823048576057
14.4,-2.3731806653007146,1.4713084410420318,7.786432952704984,-0.19631893962650698,-0.36440894462102746,-0.12742161500632418,0.12330695926565015,-0.43560880186287615,0.8916501609934615,-1.8732319173282415,-1.961877228258096,4.156382876032929,0.534573974764996,1.3492443375172305,-1.015165846481012,3.0,0.48246355889592635,0.48746188785369665,0.2942797440073895,-0.7347199324899156,0.19357038194957885,-0.32455308520092513,0.5633670410313948
14.5,-2.20430551458144,1.0196091352493202,7.469541025538338,-0.19190686657022196,-0.3766585903591489,-0.12912528823012176,0.12325821096355657,-0.4354124423229811,0.8917530020460711,-1.8746709460392594,-1.9610361538794727,4.156682415632531,0.534899949994422,1.349014320061542,-1.0151727835284632,3.0,0.48197131543147803,0.4869633528376454,0.29446534657119067,-0.7346896059813238,0.1935639527278613,-0.32454985640080636,0.5634106582037557
14.600000000000001,-2.547028052801463,1.1115722443019327,7.897918821199196,-0.19404350806857854,-0.37181531294766207,-0.12518246174171907,0.12319976780443241,-0.4351615524844674,0.8918833796875525,-1.8760374727550884,-1.960028041171459,4.156874719127827,0.5352117258259277,1.3488239131632154,-1.0151010619966052,3.0,0.4818045134231106,0.48677741477782965,0.29440544414252057,-0.7347381222677504,0.19357151109122867,-0.32453512518439087,0.5633532766407506
14.700000000000001,-2.4717002586133434,1.4599232446534238,7.831481040591225,-0.20058532885537184,-0.3804891402237352,-0.11937228997245061,0.12299359018794961,-0.43438006953456687,0.8922927132887558,-1.877539451676641,-1.9588529072203578,4.157102069624881,0.5354988201719939,1.3486187302660626,-1.0150655689694599,3.0,0.4813420598594994,0.4863359053038684,0.29444007959462326,-0.7347638288138454,0.1935735285408762,-0.32452186275098555,0.5633266951882211
14.8,-2.45933559828971,1.67418602400968,7.954978367780503,-0.20384383998448305,-0.3801651757179414,-0.12013909462870137,0.12273579201007923,-0.4334336087860691,0.8927880314174825,-1.878968402317592,-1.957760398359361,4.157305417742048,0.5357991755809152,1.3484386920928955,-1.0150643303228095,3.0,0.48111397201808215,0.48607699607105925,0.2944855176022635,-0.7347777535152146,0.19357100023316245,-0.3245272881165026,0.5633062755514237
14.9,-2.6251501108651416,1.8149268729042707,7.962408217920779,-0.20958639053678152,-0.3865727261688167,-0.11922599873606854,0.1225028108859594,-0.4325906621476445,0.8932291334554752,-1.8802453826905976,-1.9565865002074183,4.157544677316022,0.5360748010822753,1.3481988906860352,-1.0150168577777308,3.0,0.4807848003657916,0.4857366212817312,0.2945644964888494,-0.7347707817632693,0.19357606758297574,-0.32452691657537025,0.5633138421379227
15.0,-2.5970753803473556,1.6537183899455943,7.9706570066286035,-0.22166428542484207,-0.3818555133541564,-0.10750970241918581,0.12238787154521528,-0.43219518968279014,0.8934362460841606,-1.8814632594907141,-1.9555434356534722,4.1577608796122325,0.5363380151936035,1.3479471163196617,-1.0149816804990806,3.0,0.4802735845512972,0.48521414616680997,0.29481654010804903,-0.7347079026390281,0.19356031192779397,-0.3245364923215379,0.5633957477633359
15.100000000000001,-2.465002697919827,1.6254166297903572,7.950416262312007,-0.21586840209353972,-0.38122395869236003,-0.10765564349845352,0.12228554188754863,-0.43185266642068154,0.8936159725701958,-1.8830575942993164,-1.9544646534402461,4.15800125942147,0.5366872171670716,1.3477060821411162,-1.0149090925799769,3.0,0.4801016674110142,0.4850398995555134,0.29488237457428246,-0.7346915405263517,0.1935760853230027,-0.3245589446195186,0.5633987317499946
15.200000000000001,-2.404674154212637,1.581810237962387,7.278312706340256,-0.18982731281330728,-0.3842908206873892,-0.10644624265243854,0.12222170564433503,-0.43167178049661936,0.8937120977370837,-1.8835445495954828,-1.9541217289366664,4.158094285666664,0.5368638461178361,1.3475911981031012,-1.014910191602993,3.0,0.47963356119275946,0.48455279130582657,0.29489680345225094,-0.7347393709991249,0.193583808886493,-0.32454857551752014,0.5633396735277542
15.3,-2.616952468713652,1.491274454983339,7.31426710732853,-0.206399969600231,-0.3867088283650459,-0.10976730713743162,0.12217230827699738,-0.431527191325692,0.8937886655002396,-1.8835669739496812,-1.9541105476900442,4.158107280731201,0.5368765962544482,1.3475761413574219,-1.0148858500231874,3.0,0.47951769644500136,0.48444062107234476,0.29486715412589765,-0.7347506158671304,0.19359883533480582,-0.3245271175626199,0.5633322051919067
15.4,-2.811150038046346,1.9384552152387273,7.266166764840576,-0.19795321818955228,-0.39294784412425116,-0.11274263741075068,0.12212799700566776,-0.43139538769103575,0.8938583441652479,-1.8835668882038998,-1.9541098245804314,4.158107263495572,0.5368768080369329,1.3475528253919211,-1.0148614758179455,3.0,0.4794925025941458,0.4844617441450653,0.2949063368304036,-0.7347294317411297,0.19357187148716204,-0.3245408002114895,0.5633612177816293
15.5,-2.5892275664043227,1.759820686924959,7.302877683044735,-0.20854731290198517,-0.39867167711171275,-0.11034535648640441,0.12210863966111721,-0.4313139836464291,0.8939002871846933,-1.8835896388744726,-1.9541334274690954,4.158107170633911,0.5368767839317822,1.34757661819458,-1.01489764848818,3.0,0.4795098932504309,0.4844478758420501,0.29492106713447946,-0.7347264271080604,0.19359091935848508,-0.32454732903577427,0.5633548299843585
15.600000000000001,-2.875256497120154,1.6419547022959708,7.066920970861748,-0.21435778639837288,-0.39912322478668594,-0.11088095169130384,0.12217272034399797,-0.43140109986776387,0.8938494909901546,-1.8836030960083008,-1.9540740416008489,4.1581072844959985,0.5368892351836893,1.347588062286377,-1.014909562177141,3.0,0.4794967290598255,0.4844560380049711,0.2949314515890163,-0.7347223233367217,0.19357221981030492,-0.32453182508330614,0.5633755388872501
15.700000000000001,-2.604892589382715,1.5201363461701316,7.087466953593894,-0.2156904875993477,-0.4027961940796969,-0.10465672706128029,0.12208864389081145,-0.43114206374356806,0.8939858835670332,-1.8836028965401141,-1.9540859661498011,4.158094819975134,0.5368644434162597,1.3475530387948103,-1.01488579317376,3.0,0.4794889939191011,0.4844487805451682,0.2949459793104515,-0.7347159461057098,0.19357419851760993,-0.3245371318305611,0.5633801188091836
15.8,-2.738330973928328,1.5887910755368464,6.9747747682658705,-0.21335554102144594,-0.40083387430443207,-0.11171057826077008,0.12201883646885554,-0.4309698665951068,0.89407841885718,-1.8836140587687047,-1.9540619596258881,4.158107116065199,0.5368771578477631,1.3475877456209868,-1.01487412329566,3.0,0.47950339421424026,0.4844353053420667,0.2949110731019348,-0.7347344071105695,0.19359536318573978,-0.3245450209234566,0.563344224923496
15.9,-2.6630330265708753,1.6810305710420879,7.081539641841592,-0.2126022034749625,-0.4040230013313088,-0.10264638767726679,0.12221581990995588,-0.4316206470007909,0.8937374907658633,-1.8836028658846957,-1.9540737088863462,4.1581432990825276,0.5368889026139865,1.3476115766606953,-1.0148617451986564,3.0,0.479487480277142,0.4844439665036244,0.2949156721717832,-0.7347294967104402,0.19359318007092913,-0.3245213428059484,0.5633650196427469
16.0,-2.7227644540542277,1.710622720013405,6.881655673515918,-0.21179756141694664,-0.40406439419473034,-0.10670193447636114,0.12239684297349185,-0.4323023338676468,0.8933830866456104,-1.8835670677915617,-1.9540975567548742,4.15813090237319,0.536853105028105,1.3475763979786588,-1.0148858376671857,3.0,0.4794788236395822,0.4844614114376859,0.29494780297609496,-0.7347196091301387,0.19357926379968482,-0.3245171589054011,0.5633851064435365
16.1,-2.826402843466949,1.880197908508518,6.770854958374406,-0.20562629938740337,-0.39883091287082345,-0.10174690987836464,0.1225375036036212,-0.4328810842935912,0.8930837169973844,-1.8836030960083008,-1.9540859661498011,4.158119168120199,0.5368537452602479,1.347576127447353,-1.014886218306452,3.269426613482479,0.4794960272508805,0.4844465525998436,0.2949267072553068,-0.7347201043432164,0.19359541043446832,-0.3245411196905427,0.5633651098200985
16.2,-2.834626971970698,1.5158239840719203,6.901566224108818,-0.21491392716428148,-0.400409067037545,-0.10305356652400145,0.12251634256416116,-0.43286944743587874,0.8930922379612263,-1.8836027337368069,-1.954026588310577,4.1581076290691765,0.5368298541425027,1.3475645687664417,-1.0149093952481476,4.0,0.479501437175777,0.48442874162511057,0.2949248497169298,-0.7347223929929177,0.19359826939143934,-0.32455343951356325,0.5633540451823489
16.3,-2.73676958068155,1.3822097095722983,6.908999203236217,-0.2153949977328461,-0.4009445686306151,-0.11111598147329221,0.12247924312278582,-0.4326809972141364,0.8931884594290103,-1.8835671419337938,-1.9540375081494095,4.1581075900765105,0.5368418407821826,1.3475539661263223,-1.0148508571145989,4.0,0.4795001246757904,0.4844396899485027,0.2949354456905297,-0.734725882408848,0.1935867578449845,-0.3245524025577853,0.5633540475576403
16.400000000000002,-2.4364657121725615,1.6291420876736076,6.871884519701123,-0.21098055969294227,-0.4075892258327841,-0.10227779947172076,0.12278027548431361,-0.43375875965635463,0.8926240672176053,-1.8835786281482385,-1.9540618029211145,4.15809504680117,0.5368766773462909,1.347588062286377,-1.0148978060228744,4.0,0.47948698411619295,0.4844450711849508,0.2949317406661361,-0.7347215546276001,0.19359007525911223,-0.32453906878961336,0.5633662332408148
16.5,-2.4652616035746604,1.6100059005353828,6.8708391591630855,-0.213157080809791,-0.40726336887172926,-0.0993167077056719,0.12283071927388337,-0.43389278932018943,0.8925522818488303,-1.8835559512552382,-1.9540497265257777,4.158119538366997,0.5368647236768938,1.3475646300401627,-1.0148740761116488,4.0,0.47948308171681586,0.4844378587314659,0.29494244877760994,-0.7347216715186577,0.19357815321810218,-0.32454203257155967,0.5633684700902416
16.6,-2.7841270856418077,1.6087913922882469,6.873399056248778,-0.2126159592803377,-0.40180173504685557,-0.10451948682583753,0.12278185695705067,-0.43365767798011906,0.89267328126174,-1.8835926358098631,-1.9540518652511154,4.158121064705998,0.5368512108004546,1.3475917883780608,-1.014885727559225,4.0,0.47947747365425236,0.48444508596232827,0.29495148730896437,-0.7347139700347969,0.19357689204658343,-0.3245360674494389,0.5633823834889998
16.7,-2.6921914839640637,1.5932587059132082,6.79431558855302,-0.21101835318722062,-0.4036464531734186,-0.10627016655629708,0.12288100523395007,-0.43400695208208084,0.8924898098643251,-1.8835783004760742,-1.9540743566865761,4.158142897423764,0.5368527003173619,1.34757661819458,-1.014874118096,4.0,0.4794719129810969,0.4844513976779772,0.2949607298810527,-0.7347066886134004,0.19357581763627213,-0.32452901832160425,0.563396308827451
16.8,-2.684979236905825,1.4065272312744475,6.693933294617595,-0.21709908975218334,-0.40552884563785546,-0.09929678063992603,0.12296663258312007,-0.4343094214937489,0.8923309551621014,-1.8836025260089881,-1.9540851330738827,4.158107280731201,0.536841555232666,1.347588610362639,-1.0149098434552661,4.0,0.47947421142867874,0.48445196553956843,0.29494123594486366,-0.7347175229351548,0.19357445787413474,-0.3245316895144766,0.5633811083552985
16.900000000000002,-2.7625248866837198,1.5020175380424028,6.744319593203623,-0.21287163100178821,-0.4009526815501077,-0.10238257694429845,0.12297143914359732,-0.4343321177966652,0.8923192457416352,-1.8836254811574458,-1.9540497265257777,4.1580950137540444,0.5368642019597243,1.3475643512174236,-1.014873675841313,4.0,0.47947776169171674,0.4844494257852255,0.29492500478309014,-0.734727051483983,0.19358189691927513,-0.3245353301641639,0.5633640283848664
17.0,-2.7577105757192943,1.9289254813329695,6.717602982548328,-0.20468191213863254,-0.40182385590741126,-0.09985859148589803,0.12301288518051748,-0.43446375870316584,0.8922494288027886,-1.8836030960083008,-1.9540501673039503,4.1581302583181845,0.536841555232666,1.3476110398733605,-1.0148974324204483,4.0,0.4794725124236238,0.4844533098818155,0.2949308292643781,-0.7347316407463625,0.19356660072346407,-0.3245229104129995,0.5633704534208356
17.1,-2.980090936776292,1.6755889057245918,6.790696307991105,-0.20951854629512814,-0.39848133804941616,-0.10016152901809716,0.12305064769217346,-0.4345919596902178,0.8921817780900181,-1.8836143102354677,-1.9540494870834546,4.158107529751217,0.5368770902023889,1.3475646993131127,-1.014921250903767,4.0,0.47948573020471946,0.4844463543040001,0.294939316488237,-0.7347291126844828,0.1935620481293431,-0.3245440693349201,0.563363125841031
17.2,-2.843990454622471,1.5116862025956563,6.7863066077307765,-0.2126811934640521,-0.40287832952870434,-0.09791456455726796,0.12290914888541359,-0.43424093300858185,0.8923721053239148,-1.8835560302790801,-1.9540738907241961,4.158083438873291,0.5368647647692916,1.3475876049762932,-1.0149089452506692,4.0,0.4794758282669156,0.4844396576054819,0.2949231284460481,-0.7347333629173284,0.19358191419503465,-0.3245380356230315,0.5633542325630684
17.3,-2.74487844392477,1.9751906424023506,6.5733181517513675,-0.20290476258646825,-0.4044668247819776,-0.10357349901339734,0.1227792065299485,-0.4339092190363129,0.8925514268111248,-1.883625410365293,-1.9540734713942445,4.15813036755411,0.5368774150089745,1.3476004600524902,-1.014885727559225,4.0,0.47950007448964893,0.4844302234196201,0.29494431210670274,-0.7347091178571108,0.19360704098084458,-0.3245535150368105,0.5633683002242126
17.400000000000002,-2.7094124166067193,1.8042577348791566,6.695023851090244,-0.20576216804600694,-0.40444821401078845,-0.09812216727410254,0.12274072586064642,-0.43373035241467306,0.8926436450757463,-1.883589744567871,-1.9540630549786875,4.158142378105683,0.5368466327385364,1.3475695094970819,-1.014916201277475,4.0,0.4795019882617135,0.4844239184751772,0.29493175406994965,-0.7347189416303901,0.19360925171944154,-0.3245368658971586,0.5633643200734383
17.5,-2.688996461583211,1.6101449362187663,6.636493967506889,-0.20958100816077996,-0.40133499261492,-0.0935423127687207,0.12266897565961306,-0.4333759086701964,0.8928255151279736,-1.8835783004760742,-1.954074045220846,4.1581196784973145,0.5368771481381344,1.3476116208005073,-1.014862306119459,4.0,0.4794923611131623,0.48442994795516797,0.29494798411956735,-0.734714436839681,0.19359553341810104,-0.3245375730100507,0.5633745019475564
17.6,-2.779076614914475,1.6620626450084035,6.711991623076323,-0.20969495373263256,-0.4026479416770323,-0.0972770801183334,0.12257535988923363,-0.43290607124401786,0.8930663065799586,-1.8836252781083214,-1.9540376290759294,4.158095066546817,0.5368533523662494,1.34757661819458,-1.014873983151163,4.0,0.4794670213647215,0.4844570734118359,0.29493154110591274,-0.734735422540847,0.19357623413294156,-0.3245299718604013,0.5633581434637464
17.7,-2.8976737916539017,1.6701866403749217,6.701994150145779,-0.2092182660923268,-0.40168913572952747,-0.09505418690357924,0.12253550801499694,-0.4326885233520096,0.8931773006457979,-1.8836033061089368,-1.9540379465854072,4.158107280731201,0.5368642388445879,1.3476004600524902,-1.01493381623567,4.0,0.4794714735823936,0.48445031692964113,0.2949368101011148,-0.7347283150004756,0.19357123108799829,-0.32453179837318236,0.5633680799231591
17.8,-2.7037575938110106,1.4924750047058237,6.803887846757831,-0.21478831919865518,-0.4027155516792311,-0.09341792675619433,0.12248751884109695,-0.43249253028037665,0.893278785573062,-1.883578480405081,-1.9540377190924925,4.158107280731201,0.5368530823686198,1.3475765282300767,-1.0148975619838498,4.0,0.4794733531175349,0.4844435203231562,0.2949629949265589,-0.7347171158359079,0.19356711027837892,-0.32453138928597924,0.5633843367403419
