xiamingqian9007/apple-picking-rnn/training_data/grasper_20191127_113332.csv
,/manipulator_wrench.fx,/manipulator_wrench.fy,/manipulator_wrench.fz,/manipulator_wrench.tx,/manipulator_wrench.ty,/manipulator_wrench.tz,/ground_truth.x,/ground_truth.y,/ground_truth.z,/joint_states.elbow_joint,/joint_states.shoulder_lift_joint,/joint_states.shoulder_pan_joint,/joint_states.wrist_1_joint,/joint_states.wrist_2_joint,/joint_states.wrist_3_joint,/mode./mode,/manipulator_pose.x,/manipulator_pose.y,/manipulator_pose.z,/manipulator_pose.rx,/manipulator_pose.ry,/manipulator_pose.rz,/manipulator_pose.rw
0.2,-11.037854439089301,-4.276534880539372,-11.318223988589844,-0.15821646508710482,0.19862048141862806,0.3059298353947238,0.03328909859221976,0.1578774790683581,0.9868974265700664,-1.7918517244521097,-1.7588462197489425,4.160204137110431,0.15449676295609502,1.346603122448402,-0.5297151583570159,1.0,0.47008465452373066,0.47174956581884464,0.39400005908540947,-0.6960964618692805,0.37193469632192644,-0.1773210478548432,0.5879383840443195
0.30000000000000004,-11.03946071910225,-4.384607284892277,-11.103479666815897,-0.1482049546696775,0.20920375493187374,0.37485444203869717,0.03329687998897902,0.1580899298937598,0.9868631322319085,-1.78863935745601,-1.762314031471509,4.1594478077078625,0.154767813715675,1.3472231365964424,-0.5298932234393519,1.0,0.4704721987638103,0.4720729782085767,0.39396921681325386,-0.6960432872457565,0.37193686047520175,-0.17733758435469005,0.5879949789540849
0.4,-11.120180271456485,-4.595799507612296,-11.14912670710308,-0.15155969597561542,0.21339596706233252,0.4416742182161849,0.03330587123412349,0.1583099434136226,0.986827583289211,-1.785350202135108,-1.7661999590556918,4.158891517823318,0.15503232061352534,1.3478111090210663,-0.5301113006933732,1.0,0.4713930104109185,0.4729322997366825,0.3936638114300904,-0.6960310415498022,0.37195984228616474,-0.17734805235731071,0.5879917799175576
0.5,-10.816764266759623,-4.354156649004731,-11.052278573006546,-0.1624094747016327,0.19544469350490545,0.49680586157952794,0.03340852512443035,0.1588412906475005,0.9867386462877906,-1.7818767333328311,-1.7696263191957067,4.158312255387676,0.15528036242071244,1.3484330437270629,-0.5302761611711461,1.0,0.4720757683429037,0.47368667668890047,0.39339482797303155,-0.6960390513247464,0.37194524262188167,-0.17735375315931032,0.587989814335421
0.6000000000000001,-10.964457815254852,-4.315780550988006,-11.061090369656016,-0.15136457935301212,0.19948766493001968,0.4940170886503239,0.03347232959171374,0.15881697405112433,0.9867403695953443,-1.7787130812684933,-1.773290027263045,4.157609567512972,0.1555006572965468,1.3492629054514647,-0.5304614524726504,1.0,0.4731847656799383,0.4748968117914277,0.39283554846911845,-0.6961121444541771,0.3719375300520517,-0.17733540754481117,0.58791369206126
0.7000000000000001,-10.885789938919764,-4.386793264992852,-11.091974711173387,-0.1427049282909631,0.2127503111234825,0.4850610563234753,0.03349128103691949,0.15817007527887997,0.9868437191581205,-1.775465887331834,-1.7765485638657201,4.156862172485097,0.1556664081231086,1.3498940942399027,-0.5306154894838822,1.0,0.4743044999440084,0.47609572293238167,0.39240380044658946,-0.6961425073562892,0.37188859578069355,-0.1772661626116391,0.5879295785831045
0.8,-11.116278950929848,-4.4029642451825355,-11.031639291601984,-0.14306537761506108,0.20545288695250857,0.48578086018514244,0.03377047252311436,0.15980104713729898,0.986570539190514,-1.7723665149935026,-1.7799706542533729,4.156251020960656,0.1558762804423763,1.35041404818976,-0.5307663122760218,1.0,0.47521354858723086,0.47699682346808686,0.39201521407284323,-0.6961784498172269,0.3718983103992866,-0.17725964872813454,0.5878828366817808
0.9,-10.732529202296655,-4.564878752802186,-10.960976393616386,-0.15465906226451798,0.19148731010686101,0.4826774981776438,0.0338227061206823,0.16040943509433958,0.9864706919385051,-1.7693944441321285,-1.7829111895015346,4.155611515045166,0.15597836553540034,1.350959437394885,-0.530938819717135,1.0,0.476253053144758,0.4779718117241105,0.3915954862297079,-0.6961828753945752,0.37193406479489177,-0.17730135496547,0.5878423980795354
1.0,-10.756733191869634,-4.287955985074011,-10.684611774685642,-0.15191642448999718,0.19391301527042087,0.4799821441996277,0.03356189550290967,0.159522954012668,0.9866235002946836,-1.766455852713536,-1.7858996470619097,4.154996639412518,0.1561223703571777,1.351468521676881,-0.5310931598790477,1.0,0.4768743127733573,0.4785203454125107,0.39144305966357357,-0.696136456178404,0.3719596813810899,-0.1773327991070621,0.5878716766158287
1.1,-10.903914529435657,-4.241285590051667,-11.028462576299056,-0.14407107340426367,0.19654499569678105,0.4826988462853959,0.03346357859125274,0.15927763700804462,0.9866665081863034,-1.7636660822096362,-1.7886622469633717,4.154484272003174,0.15625397741284175,1.3520054817199707,-0.5312216917621058,1.0,0.47784259641682586,0.4794599015751903,0.39112609696069256,-0.6961210836804114,0.37197875666271085,-0.17735207417073448,0.5878719956203148
1.2000000000000002,-10.81795875370248,-4.415269050029088,-10.868843302873666,-0.15294873048018814,0.1926717369577988,0.4799050210118599,0.03344571312253086,0.15915441746153988,0.9866870077568319,-1.7608737082960872,-1.7915538965739484,4.15391743075432,0.1563161553012696,1.352642470866276,-0.5313334885108102,1.0,0.4788381941435496,0.4804464072796462,0.3908454827078706,-0.6960877331852924,0.37195840596666346,-0.1773599984713873,0.5879219700622943
1.3,-10.621087100588243,-4.879589908788117,-10.999103969267388,-0.1575579573661572,0.18825805175898286,0.48226233953040093,0.03352427282603342,0.15913138485603012,0.9866880559873802,-1.758305549621582,-1.7943177809762036,4.153484313626319,0.1564500440979911,1.3531609447674247,-0.5314849058734339,1.0,0.479513476761161,0.48117589990888154,0.3905687576718171,-0.6961128785303065,0.3719300135024117,-0.1773315339235339,0.5879187464919563
1.4000000000000001,-10.784369765134606,-4.421209142534308,-10.975424535621617,-0.14297512567527848,0.1962572897243259,0.47941685080717117,0.03363550497365003,0.15938096103945346,0.986643884279466,-1.7556368036453391,-1.7969260430093417,4.153046131134033,0.1565524244081302,1.3536189808207222,-0.5316076941750345,1.0,0.4803311370156724,0.4820333167263038,0.3902225286778514,-0.6961456101242982,0.37191839932271,-0.17729700431078255,0.5878977513244323
1.5,-10.817141187192737,-4.463434688129894,-10.93261539426267,-0.1503044968208268,0.19696622485745563,0.4766183552872938,0.033795387847942636,0.16003646386961198,0.9865323780660965,-1.7532351389532936,-1.7995231496823205,4.152603626251221,0.15657107229002543,1.3540129643229843,-0.5317655594582973,1.0,0.4809130529688083,0.4826580408348879,0.38998160589382014,-0.6961627491076614,0.3719154162407263,-0.17728483886880414,0.5878830120224708
1.6,-10.886033426832853,-4.5782759924925,-10.983904921517086,-0.1515114497783905,0.19591241835109868,0.4742683546556122,0.03381582748232026,0.16018905607686287,0.986506944314104,-1.750632043410345,-1.8019758600451459,4.152078273033597,0.15666666941823862,1.3544420526208558,-0.5318750193342021,1.0,0.4817547890692376,0.48351942773737644,0.38966949072254914,-0.6961662965550175,0.3719097506706721,-0.17729659355234825,0.5878788504544824
1.7000000000000002,-10.733711325793509,-4.34318551178272,-11.04846868365496,-0.15101493386014878,0.19161758273889884,0.47573684123515136,0.03364382817651142,0.15947722241288376,0.9866272012079851,-1.748352112418467,-1.8045581412347134,4.151679605999709,0.15674472114122284,1.354834141428998,-0.5319870770875882,1.0,0.48251736961444386,0.48426325549064314,0.38944771650797,-0.6961327024286326,0.3719063020583565,-0.17731420561246147,0.5879155003796968
1.8,-10.833294390003703,-4.542324456857463,-11.245933726974187,-0.14443453059485012,0.18903457226689846,0.46975128625113105,0.033189840117976196,0.15747543754038654,0.9869646196833765,-1.7460063051558778,-1.806672552539514,4.151212641983451,0.15678053900237782,1.3552420258403062,-0.5320948472822156,1.0,0.48314773398865485,0.48486151905578356,0.38920668555018106,-0.6961326207454455,0.3719284328741978,-0.17733006001765253,0.5878968148986324
1.9000000000000001,-10.905195537437212,-4.383165715110134,-11.029199322615154,-0.15051059399352953,0.19831389008560515,0.47361847593024387,0.03329526362420975,0.15807082407340492,0.9868659893119517,-1.7438305289552607,-1.8091460664635601,4.150808390585069,0.15679280340161128,1.3556697652210847,-0.532225432771819,1.0,0.4838448319470385,0.4855361486966869,0.38898591495471824,-0.6961225599781451,0.3719317504303544,-0.17734723719511178,0.5879014474982582
2.0,-10.847899753559025,-4.559347966046813,-11.05763607761748,-0.14275185240978955,0.19668391435308438,0.4727436354141001,0.03342854332604259,0.15864194892682645,0.9867701116857192,-1.7415567599536357,-1.8111857236892197,4.1503864703304325,0.15679948240658267,1.3561414303653687,-0.5323107878314417,1.0,0.4843527645837497,0.4860752486241072,0.388766928277791,-0.6961468728373609,0.3719231578991559,-0.1773359859056313,0.5878814881929526
2.1,-10.78727889433289,-4.471349426692992,-11.215468319272807,-0.14586677472820586,0.19375132187432634,0.4744592196936822,0.033468616655731594,0.15851278496974275,0.986789507546342,-1.7395350205105797,-1.8132062688183308,4.150002857057707,0.15685291302108167,1.3565497398376465,-0.5324300252585292,1.0,0.4850463670581883,0.48678931007671455,0.38847691742146634,-0.6961690965978031,0.37191921272962725,-0.17730297793425143,0.5878676229904308
2.2,-10.881494864913853,-4.4177831385266,-11.142011969151133,-0.15029112149356474,0.1972775836062416,0.46993517687668196,0.03346237773706494,0.15834437077914118,0.9868167517975651,-1.737333021109343,-1.8155240278034706,4.149606227874756,0.15688550212738064,1.3568413837168565,-0.5325121092707424,1.0,0.4856946728314757,0.4874103539719875,0.38834220668091757,-0.6961247802587697,0.371891098316396,-0.17729994074530486,0.5879387998035308
2.3000000000000003,-10.915066640094334,-4.344283450051912,-10.972158523435429,-0.1447539287807916,0.1930483798015902,0.47028971070814457,0.03337102042878349,0.158103817645006,0.9868584207937033,-1.735523795622549,-1.8171702838378188,4.149236773985586,0.1568840363320734,1.357207680207529,-0.5326014985959892,1.0,0.48617524706561055,0.48788433476390247,0.3881341443343468,-0.6961385004852378,0.3719041274971825,-0.17731478674956466,0.5879098353426999
2.4000000000000004,-10.935448637362942,-4.245655800405283,-11.228081507151543,-0.1403128523484356,0.197092227659632,0.47551143560299813,0.03336791356206564,0.15825797253283808,0.9868338083537527,-1.7336823826493726,-1.8190489697358918,4.1488701838157676,0.1569015222736816,1.3575374231325632,-0.5326849801021729,1.0,0.4868452598663445,0.4885175303699911,0.3879439696866353,-0.6960990632449043,0.37193289084544734,-0.17733166133489583,0.587933245143631
2.5,-10.81258360883097,-4.542120800180256,-11.046042992492813,-0.14937169616892956,0.19218837161755456,0.47167134777450415,0.03335245902212105,0.15829109187008317,0.9868290051352091,-1.7315637221720388,-1.8211818587790014,4.148553148069469,0.15688744051890982,1.357807447552597,-0.5327895323382776,1.0,0.4874099060274852,0.4890730127099377,0.38773246952442747,-0.6961042962877695,0.3719328082744566,-0.1773306315475343,0.5879274121298803
2.6,-10.751663430559443,-4.52164561319473,-10.955264138798237,-0.1476249725298134,0.19175015851847232,0.47130689250837116,0.033275862115036345,0.1579155854584796,0.986891761330601,-1.729874610900879,-1.8227586499865873,4.148252010345459,0.15687737761883594,1.3580912029716494,-0.5328774193905121,1.0,0.48781418558557765,0.48950034020823546,0.38756375679100813,-0.6961144400367956,0.3719295192407346,-0.17733272743634054,0.5879168503024924
2.7,-10.740513383925432,-4.28453513435179,-11.173973446143588,-0.14746882091997243,0.194001271535312,0.4757132927164354,0.03325059175635657,0.15792577049309137,0.9868909988796181,-1.7282614931406957,-1.8245849456230372,4.147928714752197,0.15689361813302846,1.358392423490556,-0.532955132205235,1.0,0.4884406096110972,0.4901309834014103,0.38734722525625864,-0.6961069166929075,0.3719425428948385,-0.1773389107065359,0.5879156538710584
2.8000000000000003,-10.931752139933584,-4.297442006028122,-11.155086940872886,-0.14172429556947416,0.19690166338305387,0.4718467722220809,0.03326606477470492,0.158062353850232,0.9868686023823776,-1.7263068036955842,-1.8263441524901332,4.1476433717165175,0.1568485283547852,1.3586956249639612,-0.5330151942285084,1.0,0.48896299872444327,0.4906488621128678,0.3871256403670451,-0.696117849772453,0.37195221413924295,-0.17734522130570973,0.5878946862365062
2.9000000000000004,-10.88132793858395,-4.380853761668227,-11.070671593807305,-0.14169256934336366,0.19526331380465775,0.46743953818182343,0.03335095742629372,0.15829583508044281,0.9868283157033426,-1.7247105669324845,-1.827878404620995,4.147374737363656,0.1568877476907389,1.359013084791117,-0.533069115802727,1.0,0.4894187634767045,0.49112750137651473,0.3869939591976758,-0.6961052153891235,0.3719350536582868,-0.17733835158548678,0.5879225748559174
3.0,-10.65068240652813,-4.4945605452732655,-11.070731333237623,-0.1461024010698781,0.18905119363282916,0.4740191546767711,0.03325720356123503,0.15774622069806407,0.9869193126944901,-1.7233152389526367,-1.829457702400103,4.147055807988763,0.15687800987096828,1.3592720031738281,-0.5331818859485136,1.0,0.489868448792277,0.4915958289444577,0.38683933836302,-0.6961079176858469,0.37192198371769614,-0.17732719120798385,0.5879310097459182
3.1,-10.68207932736838,-4.596680570472177,-11.087490768878144,-0.15079570118151056,0.19080489719614582,0.4716827600034701,0.03317433681710652,0.1572770985754671,0.9869971195351863,-1.7215791318877545,-1.8309447051435215,4.146801471710205,0.15690349319363392,1.3595691282254778,-0.5331919470795262,1.0,0.49017668931303543,0.4919053083264463,0.3866817485014854,-0.6961336052799285,0.37192497830893256,-0.177321920641628,0.5879002896493868
3.2,-10.79824692126144,-4.339342976375662,-11.103374853777929,-0.13827490060229822,0.1904896753090661,0.4655768360026317,0.03325908229882605,0.15763511108383174,0.9869371173690512,-1.719999288630435,-1.832467719999835,4.146550935039031,0.15687444979064313,1.3598130161852706,-0.5333152514862108,1.0,0.4905706670317729,0.492300357878088,0.38654260936609114,-0.6961402572547956,0.37190949786952077,-0.17732564019242186,0.5879010843279812
3.3000000000000003,-10.713439722736123,-4.66612307326588,-11.122762549660111,-0.15027934912330457,0.19138083998448555,0.4666021630803914,0.03332438194283724,0.15792459401877748,0.9868886998557123,-1.718631992495157,-1.8339984687797712,4.1463214229180565,0.15685037664255824,1.3600869939385392,-0.5333333748090204,1.0,0.4910532310274303,0.49277319592037055,0.38648025046043777,-0.6960809043499439,0.3718985566950819,-0.17732771640386444,0.5879776518903331
3.4000000000000004,-10.696372744316417,-4.512333163231699,-10.96731043697103,-0.1510901647107256,0.1917227181151963,0.46836664605295264,0.03333123829777914,0.15800811546575916,0.986875099315665,-1.7171672195312113,-1.8354512145019743,4.146056867712667,0.15679534703562517,1.3602949783263967,-0.5334386671588149,1.0,0.49164340669296813,0.49338193125849794,0.38611180029171743,-0.6961581015085375,0.37192361420399667,-0.17731016268182537,0.587875691886652
3.5,-10.602917533263113,-4.447238687067456,-11.010295357397382,-0.14814645656623826,0.18763125065162795,0.4709016821206626,0.033376560629479454,0.15821506988979803,0.9868403659107898,-1.7157921598188628,-1.8366648159422816,4.145781517925962,0.15674033292255937,1.36054613134935,-0.5334718863116663,1.0,0.4919204046998778,0.4936502348570111,0.38596323570886465,-0.6961920351840187,0.3719378732386042,-0.17731527935348773,0.5878249401861687
3.6,-10.864121167024317,-4.521125861677907,-11.1122169242221,-0.1459077138092737,0.19552587879651828,0.46587979086035436,0.033435470568007435,0.15846562541026438,0.9867981675958143,-1.7144199491647574,-1.8379420765392172,4.145549506407518,0.15675904963973292,1.3607341777728155,-0.5335700102288792,1.0,0.492318738336017,0.4940527821164757,0.385927554019324,-0.6961426647348722,0.37191537924294515,-0.1773284805799061,0.5878936561944087
3.7,-10.670897820761805,-4.262229516295358,-10.880762461891022,-0.14055911745119878,0.1926133777651861,0.47009784066442,0.03348611804181495,0.15869378402163828,0.9867598225220064,-1.7131662368774414,-1.8393977117064966,4.145379750297066,0.156722811835667,1.3609493488830842,-0.5336099489834305,1.0,0.4928122413715634,0.4945495701221422,0.3857934682037256,-0.696122395715173,0.3719052359870878,-0.17731784432354136,0.5879272809741092
3.8000000000000003,-10.596764130856208,-4.580147526410668,-10.90984736599707,-0.1495751404212209,0.18938556348067487,0.4756791208767185,0.03350882569547925,0.15884620668339203,0.986734507321104,-1.7118320335897768,-1.840631014757621,4.145165535176798,0.15671043678033006,1.361156529956344,-0.5336829261728592,1.0,0.4931310918679032,0.4948893855577551,0.38556259017269073,-0.6961725209452926,0.371926614576377,-0.1773069645370009,0.5878576824173567
3.9000000000000004,-10.960409519959455,-4.351413825360543,-11.071359546114726,-0.14585393740336816,0.19565912486602346,0.47049385947287015,0.03353153334914355,0.15899862934514578,0.9867091921202017,-1.710639374830125,-1.8416593475110152,4.144968509674072,0.15668503820385737,1.3613455805292736,-0.5337215615369847,1.0,0.49339514649461497,0.49515336595292603,0.3854738335761539,-0.6961613205070458,0.37192539543537456,-0.17731538188739837,0.5878691788197886
4.0,-11.123035789666567,-4.15449335535259,-11.211463118381479,-0.13962435174946666,0.19910062439401635,0.46377510508043207,0.033549137065316544,0.15912215153077397,0.9866887027062109,-1.7093968603897354,-1.8427495639642786,4.144724063165747,0.1565749100682021,1.3615355556352569,-0.5338071028338831,1.0,0.4936823317697374,0.4954288558729665,0.38546371484325637,-0.696116285107788,0.3719123418785295,-0.17732705111762723,0.5879272442301742
4.1000000000000005,-10.982935229617926,-3.8750903053691155,-10.935228762965608,-0.14746432726598369,0.20598004553298302,0.4655990583177827,0.03354877185416276,0.15914392667187152,0.9866852029623435,-1.7082719701643068,-1.8439723194776299,4.1445423449929,0.1565832808925381,1.3617007416099556,-0.5338412871283368,1.0,0.49402383289110263,0.49575626661889793,0.3853937066702258,-0.6960980649938938,0.37192173174288706,-0.1773251551019078,0.5879434485877135
4.2,-10.905179775008335,-4.530158339074545,-11.102521538163572,-0.15359142054876604,0.19912390638347813,0.4674447500141173,0.03354840664300897,0.1591657018129691,0.9866817032184763,-1.706860924259309,-1.8453705826816653,4.144344806671143,0.15658615755908986,1.3619294623098066,-0.5338720085542554,1.0,0.4943935350617954,0.4961564748076881,0.3852191780938618,-0.6961248801879415,0.3719080162959225,-0.17733013154147698,0.5879188745444719
4.3,-10.628517393842191,-4.603350205594295,-10.885138600910963,-0.1472595847823171,0.18993243669378662,0.46217839248429426,0.03351116006469528,0.15897311376353468,0.986713963164304,-1.7056673833807754,-1.8465029407586984,4.144098805651344,0.15652725099368903,1.3621466492108392,-0.5339167294910729,1.0,0.4949398884246166,0.49667769502644304,0.3849756023088295,-0.6961319949756631,0.37194637411442816,-0.17734264451963436,0.5878824089808403
4.4,-10.742778883018575,-4.4413020400985666,-11.025519975659478,-0.1402827165041647,0.19282609747332494,0.47103401996926236,0.033458944960932456,0.15869352511949308,0.9867607363960124,-1.7045507431030273,-1.8475185902230362,4.143905001570315,0.1564970031225609,1.3623565821297619,-0.5340088125031592,1.0,0.4952077038403646,0.4969630697823749,0.3848846344700248,-0.6961369996953778,0.3719262909474673,-0.1773355660914922,0.5878913239334181
4.5,-10.607195109266161,-4.205710322044338,-10.749592398996585,-0.13935301786092905,0.19148249598746248,0.47135122130095647,0.03342369519113677,0.15851020166694937,0.9867914481729334,-1.7033907986365224,-1.848596360173859,4.143686717833388,0.15645796563725095,1.3625675675428308,-0.5339785144927984,1.0,0.4953868328083469,0.49713921869472855,0.38485616474708106,-0.696121996659862,0.37192217403359673,-0.17732246501628915,0.5879156449942091
4.6000000000000005,-10.899195866362609,-4.106778432476785,-10.907094090770833,-0.13739672239412323,0.19546831488556118,0.47185558152755047,0.03345469289492332,0.15870278155606685,0.986759442009626,-1.7019533505913158,-1.8500075157838853,4.1434515260813045,0.15639903999048027,1.3627444115164002,-0.5340981043007774,1.0,0.4957106372914709,0.4974311804322159,0.38475753733212675,-0.6961225919243716,0.37192180707778183,-0.17733031947096162,0.5879128032530153
4.7,-10.765385701900621,-4.622817164891044,-10.97420637724036,-0.14695903971133875,0.196763246668289,0.4646130665663074,0.03351630732320736,0.15895511003611887,0.986716703096172,-1.7005800050421747,-1.8512168534511975,4.143246249117884,0.15638963650653384,1.3629846970728516,-0.5341443453751139,1.0,0.49628767717573063,0.49801121358513895,0.3845744916026924,-0.6961124837984257,0.37191063693776316,-0.17733018306710058,0.5879318788821737
4.800000000000001,-11.1891927687666,-4.277932497992329,-10.90337487524764,-0.1414628456265887,0.2009036648965118,0.4631643853315483,0.03359123404387396,0.15923341747783387,0.9866692975336767,-1.6995115280151367,-1.8524975442781368,4.143064414697073,0.1563175282617985,1.3632041750454924,-0.5341904799090784,1.0,0.496539260089975,0.49827471941804863,0.38452253537588077,-0.6960845833166442,0.3719126429953505,-0.17732064804074946,0.5879665182878321
4.9,-10.799173043611273,-4.437231229159426,-11.05732790888499,-0.15178143637841365,0.19700424838198313,0.46913447972786065,0.03348563504496422,0.1587117962462967,0.9867568563080225,-1.6984456256475435,-1.8534923201390432,4.142854187541488,0.1563347342115873,1.3633646173864589,-0.5342523896234181,1.0,0.49680251104495093,0.4985443367897813,0.38437611133357025,-0.6961156725858282,0.3719077375017904,-0.17731786109229436,0.5879336538286724
5.0,-10.64890756423851,-4.436654039226834,-11.060042993446721,-0.14976211135806253,0.19378766195128272,0.4714643101914623,0.033485811408683605,0.1586986378020928,0.986758982581038,-1.6970444126400777,-1.8546763119394898,4.142666339874268,0.15629654814465194,1.3635874038025835,-0.5342693799789774,1.0,0.4972021328088511,0.4989276706382987,0.3841719320023515,-0.696144537286527,0.37192069752601387,-0.17732130885685415,0.5878902375300874
5.1000000000000005,-11.022264691850244,-4.444384812122344,-11.074179727504927,-0.14546786023610478,0.19671545688521946,0.46815129500403924,0.03357418272295025,0.1590949984843185,0.9866921819887009,-1.6956403008211673,-1.8560216279183863,4.142505887238037,0.15622195658917248,1.363748191253418,-0.5343454519854944,1.0,0.4975483922348038,0.4992987455284509,0.3840968817833693,-0.696121133231915,0.37190395556462497,-0.17732209274744581,0.5879283044104662
5.2,-10.978249318593129,-4.637036701377458,-11.106948458542822,-0.14930847591597632,0.1989453364107411,0.4679078590513902,0.033589244849666515,0.15919248430879945,0.986675991860979,-1.6944234228120993,-1.8572564254196204,4.142255835516032,0.15617870394906108,1.3639378547668457,-0.5343697706805628,1.0,0.4977896475346185,0.49955843011335177,0.38403428633935704,-0.6961085545528478,0.37189784692287586,-0.17732022728968586,0.5879476241353546
5.300000000000001,-10.803338955645044,-4.50771030574391,-10.977124025741814,-0.14978239894662487,0.19352075125683374,0.4642109718865501,0.03356830388245414,0.15914318880974038,0.9866846571896084,-1.693339632454323,-1.8583487743722635,4.142044515544299,0.15611815209841615,1.3641580160057305,-0.5344298521624964,1.0,0.4982174903716546,0.4999776406880604,0.38384277049414345,-0.6961137879957386,0.371924450922252,-0.17731763401680384,0.5879253810094339
5.4,-10.875187285055697,-4.302032438262681,-10.92572594770892,-0.14452482280008475,0.19856308704831493,0.4655404812114954,0.033528372882000786,0.1590820337980293,0.9866958731067001,-1.6920999533341732,-1.8595384086372002,4.141842980555069,0.15607068089101883,1.3643157745147492,-0.5345103639766992,1.0,0.49857655851195265,0.5003168755993936,0.3836597327631385,-0.6961440810549824,0.37193142158961223,-0.17731792996418283,0.5878850123618237
5.5,-10.701540886760952,-4.381934857852537,-10.823374317583827,-0.15039976640702257,0.19605766425944077,0.46816138650704137,0.033478440308932156,0.15901463267945443,0.9867084323545481,-1.690695450794266,-1.8607278832061491,4.1416205231540175,0.15603208313713052,1.364535591688501,-0.5345747927915593,1.0,0.4989210216590584,0.500625856325695,0.3835528512949102,-0.6961375474971199,0.3719470991918833,-0.17733540396768335,0.5878775594178237
5.6000000000000005,-10.804737000622424,-4.40679152857327,-10.885043057174059,-0.14491262820217946,0.1943188801343766,0.4678478257600168,0.033448645013445376,0.1590154476862426,0.9867092995827461,-1.6893837804091567,-1.86195231891257,4.14140626246804,0.15596038254051584,1.364723330769946,-0.5346222439673308,1.0,0.4992930494152301,0.5009666729417548,0.3835148438806904,-0.6960827500937038,0.37194628383359496,-0.17735226984861097,0.5879378703093642
5.7,-10.920115992244916,-4.429265356694346,-11.037775661456923,-0.14578420421315905,0.1957525650204808,0.46860695373012673,0.033535145021797795,0.15941021937330133,0.9866426439309439,-1.6882108513253633,-1.8631154966855994,4.141214754083433,0.1559116550738842,1.3649041918709692,-0.534668217535548,1.0,0.4995711914158256,0.501254391653902,0.3834404600692001,-0.696075868561061,0.3719364017646976,-0.1773558707982557,0.5879511827887471
5.800000000000001,-10.738350521663431,-4.315806067695792,-10.972779147925158,-0.1443818827702751,0.1952396709825657,0.4675585545866419,0.03354457450915031,0.1594244328263399,0.9866400364760483,-1.6870394789741834,-1.8643354665117267,4.141035556793213,0.15584580480541987,1.3650564110709826,-0.534690308919883,1.0,0.4998840534008055,0.5016000794638039,0.3833033153499532,-0.6960934318856237,0.3719283363659912,-0.17734926959804434,0.5879374824475478
5.9,-10.607683822530754,-4.424120995579246,-10.753631422224155,-0.1495548276851511,0.19123211619556643,0.46720926272093244,0.0335107758505602,0.15922519466822457,0.9866733530653568,-1.6856966025971565,-1.865646768230188,4.140835972941086,0.1558041097849767,1.3652694511267678,-0.5347769896136683,1.0,0.5001557850414651,0.5018995049706327,0.38316134612221214,-0.6961083944142413,0.371922555326264,-0.17734192972594803,0.5879256381777258
6.0,-10.716367676536242,-4.3155059754561735,-10.878134527941597,-0.13814996045029496,0.19374382650450664,0.4681872133766928,0.033491907275823025,0.15909821036434638,0.9866944874391849,-1.6844305162569124,-1.8667729501654973,4.140656973238666,0.15576212445260076,1.3654801053535868,-0.5347721960930196,1.0,0.5007026351755489,0.5024572386181215,0.38290987155584716,-0.6961346179717114,0.3719418346048231,-0.17733533310325747,0.5878843806101114
6.1000000000000005,-10.53186522242733,-4.533526155872899,-10.75555496696247,-0.14088100117654187,0.1892341083133583,0.4698832305831791,0.0335699523579451,0.1594402378426702,0.9866365450266743,-1.683147056080011,-1.8678575109826883,4.1404655008839715,0.15568720520169366,1.3656547582035798,-0.5348783327651335,1.0,0.5009161447516836,0.5026755247372913,0.3828299602771141,-0.6961355454026643,0.37193248147404123,-0.17733822113585762,0.5878883286610365
6.2,-10.836731428056538,-4.298482022165181,-10.873128355396046,-0.14428413003355564,0.19826622497976257,0.4691640480983093,0.03364799744006716,0.159782265320994,0.9865786026141639,-1.6818904659813478,-1.8690607070628877,4.140263364202067,0.15560874805421623,1.365863753054802,-0.5348907604624633,1.0,0.5013390651852472,0.503082624033039,0.3827341843767287,-0.6961107992742552,0.3719320459453367,-0.1773378579238049,0.5879180151004646
6.300000000000001,-10.889676843684835,-4.394729800063823,-10.896633568969406,-0.1450305738918662,0.19621338981242184,0.46907501316729744,0.03367317215613721,0.15982120505643532,0.9865714750821679,-1.6805620193481445,-1.870470837390363,4.1401051860310245,0.15553932678962853,1.3660368919372559,-0.5349416727133608,1.0,0.5015794804957645,0.5033524152814607,0.38268303207958704,-0.6960986500828912,0.37192306397981545,-0.17732921194297085,0.5879406895464266
6.4,-10.535771679165675,-4.439093578689034,-10.77337092545834,-0.15013087942386405,0.19099993245954533,0.46272092821905736,0.03366679057899378,0.15967924334560343,0.9865946770029234,-1.6793718840200689,-1.8717298995317782,4.139888453029299,0.1554914064681135,1.3662381753279795,-0.5350075945440402,1.0,0.5019223345334795,0.5037292140173714,0.3824851164493786,-0.6961417866899995,0.37192054610192204,-0.17732571370178402,0.58789226178906
6.5,-10.681451836789986,-4.452889961947285,-10.847890216447999,-0.14142650751621536,0.19484195851467678,0.47028908142016707,0.03365981225662197,0.15954143235415147,0.9866172238902364,-1.6781024932861328,-1.8727150987949552,4.139667244930915,0.1554245125270237,1.366480827331543,-0.5350781399159075,1.0,0.5024209701414132,0.5042567112060504,0.3822456308973464,-0.696168295954504,0.3719205384244504,-0.17729888425942458,0.5878689670719422
6.6000000000000005,-10.804440950081496,-4.4514786205650525,-10.99461466167968,-0.14870062252358676,0.19528256513334993,0.46842842741884083,0.03364833596587653,0.15943490741847466,0.986634833461644,-1.676777688190809,-1.8738027744183143,4.1394507462713825,0.155314340809688,1.3666667314650542,-0.5351063014077816,1.0,0.5026355094812663,0.504460180618455,0.38223913553445515,-0.6961362928331032,0.3719104123179289,-0.17730156957594034,0.587912459840749
6.7,-11.123385392472699,-4.163274442680859,-10.917817751067602,-0.13266939252968832,0.20368626238259713,0.4688315914167342,0.0336539439921708,0.15936521442454368,0.9866459032638992,-1.6752784805107015,-1.8749277706160283,4.139270458506764,0.1552372077183333,1.3668928910728402,-0.5351514899074101,1.0,0.5028899905149643,0.5047040130922248,0.3822202810229719,-0.696106937923245,0.37190723763315314,-0.17730239411774534,0.5879489761971841
6.800000000000001,-10.576543372298666,-4.4075198557832485,-10.982260765777273,-0.142457885904824,0.19201146637397157,0.46982299291472,0.03367063925251653,0.1593194243093615,0.9866527289426658,-1.6741966268631792,-1.876484312708638,4.139064637853553,0.15514034200756718,1.3670713435219217,-0.5352341779199736,1.0,0.503250414114668,0.5050738872670962,0.38213964273145906,-0.6960924563063147,0.371898869304666,-0.17729037641929196,0.5879750383413044
6.9,-10.71885455186169,-4.140819044631525,-10.44993578397266,-0.13832239977134753,0.19425443842840945,0.4685583084731659,0.03364797010866511,0.1592624594683271,0.9866626968969329,-1.673085170956073,-1.877615244344243,4.138860919166536,0.15512578069653316,1.3672966957092285,-0.5352731604434701,1.0,0.5035896210585933,0.5054311807786239,0.38192501157162817,-0.696141178731184,0.37189928252656,-0.17728214878562082,0.5879195715852132
7.0,-10.531208342739246,-4.076819412193231,-10.772437396502182,-0.1588124319382604,0.2031102514271626,0.4620083572706429,0.033598953938290696,0.1591980152609865,0.9866747680105807,-1.6730566024780273,-1.8776223894716102,4.138830009783129,0.15513817846264644,1.367312483826214,-0.5352819756351677,1.0,0.5040457866536656,0.5058394940889169,0.381609593048038,-0.6962025534077447,0.3719343051544847,-0.17730227710988056,0.5878186623521221
7.1000000000000005,-10.671085887472087,-4.31091653560926,-10.776023591964156,-0.14190283613840488,0.1968565007083375,0.46096970862246045,0.03356125840807143,0.15905788120083206,0.9866986425221171,-1.67300878265388,-1.8776136837401332,4.138834984062063,0.15514154707671185,1.3672833442687988,-0.5352860540823863,1.0,0.5040786070202553,0.5058711155439037,0.38164684144234257,-0.6961715923726266,0.3719222974707354,-0.17729635086455656,0.5878647145284056
7.2,-10.76151794615252,-4.38127090852522,-10.775430427807557,-0.14552969672170665,0.19973581671224744,0.4633802746226514,0.033535403555551006,0.1588896238173895,0.9867266399627652,-1.6728934250619096,-1.877601762811178,4.138831615447998,0.15515664694771605,1.3672866325749002,-0.5352826113378926,1.0,0.5040945587924618,0.5058650948157148,0.38162125968981536,-0.6961838515215865,0.37191566569652074,-0.17730231118951176,0.5878525945651183
7.300000000000001,-10.664502342718961,-4.442271128759247,-10.742004510566941,-0.14715416240502607,0.19364580819134566,0.4714927360614569,0.03355479124796458,0.15900404764407758,0.9867075427683865,-1.6728861255528196,-1.8776171155716928,4.138819217681885,0.15515885247603994,1.3672891423588358,-0.5352999860047648,1.0,0.5041166883768836,0.5058644210834843,0.3817044387670303,-0.6961313730983629,0.3719246887839812,-0.1773179073730944,0.5879043263881916
7.4,-10.72007630315746,-4.394340217823749,-10.893729322444523,-0.1495423863179563,0.1939131484543799,0.4601180325099175,0.03356885098194648,0.15910091447745095,0.9866914559253205,-1.6729034925203496,-1.8776087596503803,4.138797651024731,0.1551878332822393,1.3672853153725715,-0.5352671782123011,1.0,0.504107649209636,0.5058770258717755,0.3817020659594782,-0.6961376665430583,0.37191469304588587,-0.1773112542385758,0.5879052044648981
7.5,-10.710114956290377,-4.534415185614983,-10.960596680338911,-0.1497401999450979,0.19072865793110572,0.4677764665080308,0.03351466708045659,0.1589729009805597,0.9867139274381926,-1.6728852702482857,-1.877620520780624,4.138784939927811,0.15517915919759329,1.367307186126709,-0.535296714855451,1.0,0.5041161168519059,0.50586817807033,0.3817136968333501,-0.6961319391063341,0.37191188516148266,-0.1773277389934433,0.5879087905578217
7.6000000000000005,-10.790376910179896,-4.31742898739308,-10.986557987973988,-0.1440496684219065,0.19442379764221351,0.4634737324684851,0.0335706334728126,0.15930446561185133,0.9866584170491368,-1.6728887557983398,-1.8776103341319452,4.138809302841649,0.1551791629620911,1.3672890428185365,-0.5352878044463509,1.0,0.5041202598340625,0.5058612860269043,0.38173191619851504,-0.6961164062694077,0.37192043572087646,-0.1773390352750235,0.5879183659178224
7.7,-10.58665898835843,-4.7001724985427265,-10.87019274618039,-0.15042203725914488,0.1930185599167337,0.46985979984384896,0.03370209548575645,0.15994023793362183,0.9865512080679487,-1.6729052224539984,-1.8776171620677646,4.138816006917917,0.1551721877397871,1.367289052943313,-0.5352843309786122,1.0,0.504121644584728,0.505868020993071,0.38169001465796226,-0.6961463907931531,0.3719216890549576,-0.1773242115558276,0.5878865398971795
7.800000000000001,-10.67639261089225,-4.266171690388648,-10.939049750971844,-0.14122887362822967,0.19440451799031053,0.4664567296606317,0.033680206764349865,0.15975668642993557,0.986581688278016,-1.6728864600214588,-1.877618384221523,4.13882257606071,0.1551576814146583,1.3672938078335226,-0.5352976547529905,1.0,0.504113787358842,0.5058721372116974,0.38169799345996974,-0.6961411747095227,0.37192061132012066,-0.1773153376034795,0.5878960748294529
7.9,-10.838766544903859,-4.60735934809849,-10.944053928110574,-0.14893871903453382,0.19642841479471856,0.4628916065181673,0.03366979574515501,0.15970756336569442,0.9865900024708261,-1.6729061637359486,-1.8776010231960316,4.138780106545875,0.15514906553135488,1.3672827872457105,-0.53528693210592,1.1123112400505875,0.504112470466116,0.5058771212259756,0.3817203046608207,-0.6961257870819197,0.37191598486071165,-0.17731733777444453,0.587916618653741
8.0,-10.777497835250813,-4.513396368251127,-10.968823899178993,-0.14540192181525965,0.19322514057649315,0.46417689750405844,0.03366927645635462,0.1597742936191128,0.9865792135136693,-1.6728914737701417,-1.8776136837401332,4.13880036391464,0.15518586217846675,1.367291889003679,-0.5353022827768931,2.0,0.5041121241715081,0.5058765851860875,0.38171593318467567,-0.6961267772316778,0.3719200870652586,-0.17731423908284133,0.5879137857516878
8.1,-10.769920212630465,-4.240344151811446,-10.877975650460614,-0.14083859823301093,0.1964406404274085,0.4636802394459216,0.03366875716755423,0.15984102387253118,0.9865684245565124,-1.6728571648047637,-1.8776177256051738,4.138772320343173,0.15517346441235347,1.3672636865186722,-0.5352987692058772,2.0,0.5041177615180181,0.5058690734593791,0.3817105625477408,-0.6961283717628578,0.3719155958876469,-0.17732420764967588,0.5879117322725782
8.200000000000001,-10.837424688079679,-4.2184488460336835,-10.776378168765442,-0.13575905461273907,0.19627409706085971,0.46061453878482606,0.033672158765687944,0.15983667895023745,0.9865690139044515,-1.6728763580322266,-1.8776065207493036,4.138787656487409,0.15516545855615474,1.3672595024108887,-0.5352925300902637,2.0,0.5041273277375818,0.505863517423975,0.381710925344385,-0.696122955929665,0.3719279521604951,-0.17732752309754435,0.5879093281974151
8.3,-10.814025726122262,-4.640450928666687,-10.791910806756727,-0.1531562582719303,0.19444489258266642,0.4646309081431494,0.03367888818271274,0.15976711152565848,0.9865800537661885,-1.6729078356625768,-1.8776136837401332,4.1387825936740255,0.15518328898971212,1.3672821091381966,-0.5352884468814566,2.0,0.5041068944980543,0.5058763209251581,0.38170700596540624,-0.6961256755668253,0.3719210608602962,-0.1773205484389262,0.5879125712267954
8.4,-10.634731433831318,-4.227736344854515,-11.052441351009337,-0.14446390771508127,0.19512263206858563,0.4685035127227448,0.033652358631011826,0.15969303611854405,0.9865929503987889,-1.6728763580322266,-1.8776183358476621,4.13881557266608,0.15515786626036843,1.3672993870507164,-0.5352842815033517,2.0,0.5041198208120744,0.5058616583651397,0.3817023502607337,-0.6961303683667368,0.37192663064022746,-0.1773217871679858,0.5879031174043481
8.5,-10.723379246979507,-4.212324306547644,-10.769472464916642,-0.1444058212118912,0.20104712938807817,0.46732173913877606,0.03360587555200008,0.1595661522477761,0.9866150562305314,-1.6728804896564995,-1.8776136837401332,4.138823670016704,0.15515057622875972,1.3672795304617775,-0.5352713070545603,2.0,0.5041287382186499,0.5058543521721068,0.3817134047867963,-0.696123648665098,0.3719270441870924,-0.1773335094736058,0.5879072766935433
8.6,-10.940489218535093,-4.324973261919969,-10.914824879148725,-0.14007489034459294,0.18715790207332167,0.4647609034807801,0.03353952416620106,0.15938668545567858,0.9866463319293839,-1.6729001998901367,-1.8775858009575839,4.138803991188016,0.155174199772079,1.3673034037246372,-0.5352872376681396,2.0,0.5041358205168999,0.5058577503908931,0.3817006168974263,-0.6961352971213748,0.37192683575128255,-0.17735067723037853,0.5878884368957261
8.700000000000001,-10.947679133014539,-4.219390548502957,-10.938853725625469,-0.1599236757774765,0.19803913132272086,0.463975016043254,0.03351405739126317,0.15887260781485338,0.9867301037502045,-1.6729119239960002,-1.877601762811178,4.138807773590088,0.15516933659350196,1.367295742034912,-0.5353055886452642,2.0,0.5041062129367309,0.505869214321086,0.38171808791452333,-0.6961236226411651,0.37191056699794434,-0.17731901694683722,0.5879221023105148
8.8,-10.828844012547092,-4.432589822339042,-10.806644019208601,-0.1495410225548418,0.1930747233925741,0.4732786474282044,0.03344472265867624,0.15868216463669088,0.9867631023236528,-1.6728887557983398,-1.877642038237316,4.138783802804492,0.1551742891589849,1.367271900177002,-0.5352876475826435,2.0,0.5041201809718631,0.5058604943246604,0.38171356186663213,-0.6961169996729907,0.3719260564351252,-0.17732806936373272,0.5879174152265103
8.9,-10.686314585279021,-4.277294365050075,-10.864350562993778,-0.14922576577418845,0.19384456911870396,0.46954693731415337,0.03344352094310765,0.15875044570608124,0.986752159295151,-1.6729001998901367,-1.8776071112486752,4.138788632348691,0.15515636602972743,1.3672877898482816,-0.5352725266497983,2.0,0.5041130683199411,0.5058625628849387,0.38172982641061587,-0.6961138449692523,0.3719182709055341,-0.1773318632750821,0.5879249313272482
9.0,-10.85120858629482,-4.462498895969538,-10.877264923739375,-0.15276551108265227,0.20155488491359,0.46246048718159055,0.03345118857065147,0.15878237434677986,0.9867467635125597,-1.6728683078478852,-1.877644955610075,4.138798483061127,0.15515055234922778,1.3672876918505708,-0.5353108487757167,2.0,0.5041254692095741,0.5058520808644842,0.38170807044172556,-0.6961202811690401,0.3719436025846924,-0.177321511648376,0.5879044073216256
9.1,-10.889833690505775,-4.80020193572764,-10.930877235151536,-0.13459125008797884,0.17519327126964093,0.4682123036312231,0.03346689951607651,0.1587645071963694,0.9867491058289797,-1.672874078682668,-1.8776187429484106,4.138807773590088,0.15517346441235347,1.3673004120733219,-0.5352939752635114,2.0,0.5041260289973992,0.5058568817237931,0.38174380081232323,-0.6961055894049254,0.37193462640873187,-0.17731714836831258,0.5879287975358483
9.200000000000001,-11.515670039323219,-5.214641201613432,-10.640014618977641,-0.09790431633353397,0.15612688335577926,0.4678021106053584,0.03311836035455084,0.15710577679497442,0.9870254476207276,-1.6728680302426524,-1.8776217510556679,4.138800326837287,0.15519019262904532,1.367307186126709,-0.535263014317514,2.0,0.504132189866798,0.5058471299390486,0.381707412075432,-0.6961212093228766,0.371942829473067,-0.177331218262689,0.5879008696743824
9.3,-11.858604938935182,-5.806964583584955,-10.551857564374979,-0.04604366729654251,0.10178344420402052,0.47273599060393895,0.03292218282261322,0.15613388078219706,0.9871870850584245,-1.6728763580322266,-1.8776008475217758,4.138816331068993,0.15521765191345968,1.3673030785368347,-0.535298967947294,2.0,0.5041274362894773,0.5058667132093908,0.3817148537927847,-0.696118017060164,0.3719296026590031,-0.17732627615493995,0.5879145080495664
9.4,-11.97963954229689,-5.539762049335208,-10.477138322838178,-0.06619420921346374,0.08674269694299579,0.47240669364433946,0.032938042387251926,0.15611776470449426,0.9871891049125718,-1.6728538056714422,-1.8776007780756847,4.1388004593109144,0.15515883585400675,1.367304345811211,-0.5353120216126235,2.0,0.5041276592137874,0.5058616202083859,0.38173143447387925,-0.6961041213458286,0.3719266757817903,-0.1773242926955097,0.5879334106064191
9.5,-11.96288510486396,-5.160571456390363,-10.44798372486789,-0.08324268800370614,0.09477052634446416,0.4738897646842934,0.033053140294944446,0.15662616225067502,0.987104559976471,-1.672845175168363,-1.8776094096923794,4.138823662691549,0.15517346441235347,1.3672877892784627,-0.5353022107467702,2.0,0.5041239676161482,0.5058581626599861,0.38173010277691766,-0.696112441872156,0.3719212465409056,-0.17732626537949991,0.5879263986663655
9.600000000000001,-11.738673346516718,-5.124850105078207,-10.670723818882394,-0.062332529348075226,0.10687656988063124,0.4729055244294662,0.03317527707558004,0.15717176300523084,0.987013875089408,-1.6728700282750095,-1.8775910550287878,4.138788484878358,0.15517077637090315,1.3673041963691075,-0.5352868171660449,2.0,0.5041178743515689,0.5058687811308109,0.38172561548286565,-0.6961231096685134,0.3719145861125213,-0.17731814988819683,0.5879204287507094
9.700000000000001,-11.547313032966581,-5.6146842875121905,-10.8583415759378,-0.06757211474009324,0.09604561906163776,0.47416277887061753,0.03303582215440722,0.15649396056837994,0.98712609149398,-1.6728763580322266,-1.877597403625447,4.138815032863583,0.15518586217846675,1.3672833442687988,-0.5353140077696126,2.0,0.5041193882178077,0.5058710699763811,0.3817309690994539,-0.6961150485271537,0.37191750972738313,-0.17731497383408007,0.5879290818002114
9.8,-11.956379825656633,-5.481744434602152,-11.024908336895566,-0.05640561563801532,0.10315334267731804,0.47394087124030143,0.03295619020642019,0.15613482636319614,0.9871857799981606,-1.672864864324915,-1.8776043511333267,4.138803293938821,0.15518100922292732,1.3672595024108887,-0.5353103822768542,2.0,0.5041216394608983,0.5058699530050565,0.38172724555590587,-0.6961139402141876,0.371920591651996,-0.17731895756662047,0.5879272429750088
9.9,-11.823223992670727,-4.792372000042508,-10.608512619670273,-0.10730003771025685,0.11954130108260057,0.47350669402921436,0.03299364001596602,0.1563788515364158,0.9871458966017427,-1.6728619436520529,-1.877601762811178,4.138805679366512,0.1551573453864462,1.3672789813030153,-0.5352936783902612,2.0,0.5041196296632598,0.5058756347400146,0.38170787642355347,-0.6961251490704214,0.37192582982901157,-0.1773189556945136,0.587910658084281
10.0,-11.644139213466849,-4.762191967583563,-10.564164331357334,-0.11247551054152392,0.1070208045903444,0.47112051990158155,0.03301944704483412,0.15654815646860978,0.9871182236752822,-1.6728568754403266,-1.877619657190742,4.138800688764301,0.15516002334215534,1.367282570193526,-0.5353105026621112,2.0,0.5041255804374054,0.5058739916154587,0.38170691924024963,-0.696126997937883,0.3719329559551017,-0.17732794122987264,0.5879012504457409
10.100000000000001,-11.74903858185304,-4.709482744506342,-10.305031263981306,-0.10140576351343075,0.0974770999197013,0.4756614372743193,0.03302748767054895,0.15660344139454252,0.9871091834224038,-1.6728932240670698,-1.8775924539179907,4.1388025495185525,0.15514439848290787,1.367295742034912,-0.5353078861050544,2.0,0.5041280736282836,0.5058662140240137,0.38172292773408484,-0.6961182297788224,0.3719268870623782,-0.17733583528009464,0.5879130908350302
10.200000000000001,-11.547093918208896,-4.07160598880889,-9.435778399210937,-0.1328085453045188,0.09981099506037412,0.4769104265511155,0.03303552829626378,0.15665872632047523,0.9871001431695254,-1.6728692700841405,-1.8776136837401332,4.1387768437840915,0.15511923797522298,1.3673006434053987,-0.5352501516890891,2.0,0.5041206056974141,0.5058697854756163,0.3817533758222247,-0.6961068249219777,0.3719090871942557,-0.17732903943285305,0.5879399041851133
10.3,-11.65030025174143,-4.050208208658525,-8.916773941255986,-0.1446494333750737,0.10688772945369067,0.4775325320864743,0.03303591849605064,0.1566436195380055,0.9871025230535203,-1.6728681730489368,-1.8776274958482853,4.13878928803139,0.15515821956074946,1.3672800851602918,-0.5352980615371123,2.0,0.5041223093955224,0.5058676652728408,0.38170139270370274,-0.6961391464176517,0.3719191378147212,-0.17732485310927118,0.5878965387054368
10.4,-11.832016744090984,-3.7720417365214036,-8.678267390199293,-0.15012216356375724,0.11791563005719602,0.4726706201163402,0.0330242658772062,0.1565177065618127,0.98712287979768,-1.6728740810500469,-1.8776280762817283,4.138812444721134,0.1551620203205566,1.367295742034912,-0.5352819701272808,2.0,0.504106768530205,0.5058817449831307,0.3817171745584742,-0.6961268343969003,0.3719198450177794,-0.17731143941188166,0.587914715556762
10.5,-11.532755508668918,-4.098579593237497,-8.781266987515286,-0.16593956197116905,0.11376814838236891,0.47756163458722173,0.03301261325836176,0.15639179358561986,0.9871432365418398,-1.6728739971095257,-1.8776428278406883,4.138807773590088,0.15516665270982388,1.3672668817552958,-0.5353150535957559,2.0,0.5041087972480833,0.5058829944253944,0.3817193453870365,-0.6961286730331349,0.37191508396353645,-0.17731861586283015,0.5879133859421917
10.600000000000001,-11.330595950429815,-4.186398970764149,-8.664950707307126,-0.16970708002197266,0.10921482731504023,0.4812238303913668,0.033033369011212475,0.15652245314734314,0.9871218273660693,-1.6728639602661133,-1.8776240115650795,4.138806049804123,0.15516860425943757,1.3672934695873735,-0.5352861599172953,2.0,0.5041125468454609,0.5058887987361727,0.38170662004488276,-0.6961446904097363,0.3719016758813851,-0.1773309575183708,0.5878991792786988
10.700000000000001,-11.370611874740959,-4.061499360175998,-8.692191143668456,-0.1663276329724145,0.10974663115454525,0.48125812780987565,0.03300744418230977,0.15642719154278542,0.9871377061121486,-1.6728639602661133,-1.8776450879514335,4.138781591624529,0.1551666623167708,1.367288373098031,-0.5352938888000748,2.0,0.5041206454521171,0.505871569945405,0.381719575207517,-0.6961226375556365,0.3719176253084735,-0.17732552098161614,0.5879168419734957
10.8,-11.533958633188485,-3.860370184874524,-8.651405436727062,-0.1641474306879167,0.11431140065942015,0.4812641714971004,0.032893899765763,0.15588397601637802,0.9872273796978319,-1.6728952458207829,-1.8776463628263806,4.138801283567645,0.15515057622875972,1.367295742034912,-0.5352707387500769,2.0,0.504126717570877,0.5058653632238745,0.3817071532439557,-0.6961223395683604,0.3719307315435827,-0.17732629586311036,0.5879086698482991
10.9,-11.566081236610012,-3.975055947775288,-8.67995207543483,-0.1653814897600979,0.11565273245838552,0.4770856696912098,0.03287213517637301,0.15577861481225583,0.987244817360599,-1.6728843868043166,-1.8776395200182223,4.13880132310434,0.15516347720025653,1.367305765227181,-0.5352845695844628,2.0,0.504122296378747,0.5058743462181414,0.3817148188398129,-0.696121387343403,0.37191193022456076,-0.1773323057007516,0.5879198785502937
11.0,-11.440816952441129,-3.95399673098501,-8.808223982751414,-0.16498425361426752,0.11220893832278903,0.4790926582340422,0.03298252706003081,0.1562975266056531,0.9871591606545342,-1.6728936723068772,-1.8776550447272164,4.138802857081551,0.1551620203205566,1.3673006585434495,-0.5352671782123011,2.0,0.5041265050315957,0.5058824668366493,0.38169489484301994,-0.6961341408450932,0.3719173799735843,-0.1773254411675366,0.5879034005159237
11.100000000000001,-11.566229938140888,-3.9303349616490655,-8.686974859682952,-0.16553638700951553,0.11481141186226364,0.4782759571644696,0.03303069874310168,0.15650795067947929,0.9871242027451707,-1.6729038277197033,-1.8776462798058615,4.138796329498291,0.15517346441235347,1.3672783636328787,-0.5352930415114912,2.0,0.5041262534268802,0.5058703276068327,0.3816839868108331,-0.6961329707035099,0.37192886034587624,-0.1773258988926697,0.5878973851984973
11.200000000000001,-11.786112802841703,-3.809596039815716,-8.762666570286767,-0.1613263960883027,0.11893366880143325,0.47406893959507057,0.033076537131937346,0.1567364204889128,0.987086423894149,-1.6728835755351081,-1.8776479644798778,4.138789111995409,0.15516013979164905,1.3672905617716804,-0.5353009821148876,2.0,0.504122778028557,0.505875520209584,0.3816766148862171,-0.6961431352151879,0.37192248600809114,-0.1773171639433265,0.5878920165008412
11.3,-11.545388708989618,-3.9195385485470577,-8.852127734338481,-0.1639595545760872,0.11236277012831525,0.48256573152421306,0.03311780208570227,0.15700026131965109,0.9870431157818293,-1.6728659596101447,-1.8776514458710298,4.138807773590088,0.15519126935794933,1.3672853436128303,-0.5352604564943869,2.0,0.504121237678976,0.5058628493013299,0.38170359231390727,-0.6961312216556976,0.37191575944902727,-0.1773288259789423,0.5879068613194861
11.4,-11.510926817083945,-3.9993011205422917,-8.92542590388815,-0.16483831561778653,0.11348849499567996,0.48102060441959066,0.03300842551333841,0.15652826364603678,0.9871215403579571,-1.6728950960325597,-1.8776446068458472,4.13879714055347,0.15518720158649654,1.3672833442687988,-0.5352795759784144,2.0,0.5041312168691995,0.5058587344820389,0.3817251197271906,-0.6961138339361694,0.37192006184417015,-0.17733914095893324,0.5879216162758972
11.5,-11.38601127383394,-4.005602052231461,-8.971179711382941,-0.16508587348648623,0.10945825068091221,0.4851806672126304,0.0328680325601466,0.15590476028959133,0.9872250291213717,-1.6729001998901367,-1.8776552224676548,4.138796329498291,0.15517346441235347,1.3673028968926713,-0.5352499581798477,2.0,0.5041427250315412,0.5058602274441759,0.38172198691838394,-0.6961110747341932,0.37193199683858935,-0.17734017257177442,0.5879170218255969
11.600000000000001,-11.544001049395247,-4.114460177603986,-8.771150956693326,-0.16737840064318263,0.11142369112505697,0.4788768595829887,0.03292216315671755,0.15614944272844447,0.9871845646335707,-1.6728639602661133,-1.8776462006469852,4.138829650236978,0.1551629636218462,1.3672704407343337,-0.5352671782123011,2.0,0.5041343554762268,0.5058660192004376,0.3817006044972573,-0.696126500554013,0.37193796985492317,-0.17732096308488002,0.5879007721182827
11.700000000000001,-11.638678232076966,-4.232399382644825,-8.697954969616227,-0.1743580770835498,0.11791720239106178,0.47706176448824555,0.033018040123358815,0.1565602711045292,0.9871163265847245,-1.6728901928268733,-1.877610391943007,4.138807773590088,0.1551588601953155,1.3672629258798998,-0.5352861595726667,2.0,0.5041253978102087,0.5058870789330171,0.381683938182448,-0.6961377567890028,0.371924236064864,-0.17732878479463998,0.5878937729586854
11.8,-11.618759675703302,-3.7876816804464593,-8.833581194405394,-0.16114030250368208,0.11665140587077726,0.47947201923230504,0.033109972237200434,0.15690708180056015,0.9870581855788946,-1.67285855022748,-1.8776440185854537,4.138813807643252,0.15517405262106104,1.367271900177002,-0.5352789877697067,2.0,0.5041227004140818,0.505877711792443,0.3816928097891342,-0.6961355792773786,0.3719173835038974,-0.17732127266618916,0.5879029523414614
11.9,-11.605930909978222,-4.063596271938612,-8.842338482717677,-0.16563724126870527,0.11481039695988733,0.4760351042973851,0.033000620850453154,0.15628897551889856,0.98715969112596,-1.6728891389195484,-1.877613045001178,4.138813908416003,0.15517346441235347,1.3672983563083472,-0.5352795759784144,2.0808167209306787,0.5041108992552236,0.505876603928865,0.3817058252409564,-0.6961292153464411,0.37191799021501926,-0.17731288391887334,0.5879126340638897
12.0,-11.68859700133127,-4.547688842310293,-8.635003237989128,-0.17263941792031037,0.11692875407958211,0.47651543253030987,0.03285356076676253,0.15556269262240915,0.9872795164820602,-1.672894376028475,-1.8776078293337424,4.138795640544959,0.15517346441235347,1.3672779446394843,-0.5352795759784144,3.0,0.5041120502736329,0.5058794526482855,0.38169857685179853,-0.6961328570099518,0.37191930523114,-0.17731044646853134,0.5879082252874834
12.100000000000001,-11.657043489023614,-3.7078232673304554,-7.592061347419409,-0.1735896818719352,0.11227758710575747,0.4748962485451646,0.032745014459045305,0.15520790767086648,0.9873389631037568,-1.6736914659482698,-1.876756330529684,4.138855457305908,0.1551690937124392,1.3671621135834315,-0.5352433363543909,3.0,0.5040934643404092,0.5058436441295451,0.3817129580050629,-0.6961282424191937,0.3719184572985704,-0.17732810001976057,0.5879089012512035
12.200000000000001,-11.481318918704577,-3.617488017986504,-6.998045385922529,-0.17726813671296818,0.11445245888247366,0.4639102595355513,0.03270036919535173,0.15514615854977953,0.9873501674125911,-1.6748816232671868,-1.8754852345693533,4.138999158320808,0.15529362737622066,1.3669579391242177,-0.5352321960694717,3.0,0.5039444562835393,0.5055959897943014,0.38184895232649696,-0.6960756615825034,0.37194744744140784,-0.17736016714757824,0.5879431441931136
12.3,-11.620126615915595,-4.13576225669102,-6.566914188953615,-0.14171701536530776,0.12404179024226307,0.4505533312692965,0.032674693890975236,0.1551714013999057,0.9873470502854247,-1.6762983159428149,-1.8742392118225166,4.139246184661325,0.155305420394663,1.3667423841425803,-0.5351605759908374,3.0,0.5036240637475696,0.5052192922524158,0.3820657743697184,-0.696023408866043,0.3719621869606833,-0.1773742606876038,0.587991426321375
12.4,-11.377236519996945,-4.211210602044912,-6.491216634320072,-0.16349345972794674,0.1286246507984157,0.42879632293136477,0.032649018586598744,0.15519664425003185,0.9873439331582583,-1.677748674827226,-1.8732611529352032,4.139514900623742,0.15542047134782289,1.3665683324579068,-0.5351114686285002,3.0,0.5032839256565359,0.5049095158060557,0.3821515340078124,-0.6960566460412192,0.3719451702217782,-0.1773771008706574,0.5879619885139361
12.5,-11.381773356492937,-3.989345182343907,-6.3120219443326135,-0.18136488237093343,0.13083808380183412,0.40674684534353434,0.03269252006750739,0.15535433302963625,0.9873176645014334,-1.678881284267325,-1.8721994352661786,4.1396591672971965,0.15547482549633784,1.366364776847881,-0.5350694698458655,3.0,0.5030273320716598,0.5046942270409459,0.3821052003465984,-0.6961293380401963,0.3719425046920195,-0.177368977791175,0.587880058889957
12.600000000000001,-11.471488875036775,-3.6780626387080084,-6.157134806962205,-0.1801229686187628,0.13786549094854772,0.3949931618060178,0.03275739872197445,0.15555295056315563,0.9872842415042383,-1.6801389100764492,-1.870890061187167,4.13993104087242,0.15556210223483036,1.3661869345796953,-0.5350314440552129,3.0,0.5026038133301813,0.5043139861140474,0.38212387241876505,-0.6961866423093268,0.3719583746878452,-0.1773422808664273,0.5878102091549071
12.700000000000001,-11.45984541452211,-3.6985680408179356,-6.246237049241362,-0.19198282583556386,0.13749467556727482,0.3679031328219593,0.03279181284624801,0.15559552420566863,0.9872763793493807,-1.681331573821325,-1.8695140198410816,4.1401476765918614,0.15558331909600465,1.365999191451678,-0.5349310080157679,3.0,0.5021894388690294,0.5039351256791166,0.38235714806299687,-0.6961491718267333,0.3719270004027637,-0.1773369085037313,0.587876056510805
12.8,-11.232676489982614,-4.049674327989823,-6.339851528809008,-0.1774327961780819,0.12773104893899193,0.35739328256594644,0.032737002353084896,0.15518107598078582,0.9873433798746448,-1.6827292471549027,-1.8682387997717427,4.1403069496154785,0.15565754163306034,1.3658073199166356,-0.5348756506657302,3.0,0.5019311721209939,0.5036789493620459,0.3825287245493158,-0.6961146492673085,0.371914416518558,-0.1773254051352424,0.5879283651557689
12.9,-11.223365376400363,-4.363318132964621,-6.27795330485944,-0.13932006033495442,0.12715197639010092,0.3491285915214276,0.03269765713913931,0.1548865237446748,0.987391017966871,-1.6839566159499675,-1.8672549505987546,4.140551075127175,0.15573853954400665,1.3656280076378091,-0.5348177476411033,3.0,0.5015940981545043,0.5033074339450007,0.38269558165611883,-0.6960875419386062,0.37192578325749304,-0.17732328066521424,0.5879539096224254
13.0,-11.412636593719881,-4.298414696612818,-6.327656890601566,-0.1297900863570321,0.13660558165228145,0.32566278545078664,0.032709301259542106,0.15498727097729756,0.9873748177307958,-1.6851938142688996,-1.8661017673258198,4.140751659323316,0.15579129663118857,1.3654110672277049,-0.534782121081435,3.0,0.5011527764249596,0.5029106853944437,0.38275103358861023,-0.6961447032689703,0.37192039901887286,-0.1773209269592943,0.5878903450189468
13.100000000000001,-11.291528430484826,-4.071349790147374,-6.027435251349309,-0.13871355632332558,0.14061182113372048,0.3108651224594373,0.03272094537994491,0.15508801820992033,0.9873586174947206,-1.6864477386929781,-1.864848572258958,4.140941323791966,0.15582727061119486,1.36521825291466,-0.5347338810398703,3.0,0.5008782428307618,0.5026319854123006,0.3828306968302747,-0.6961541839610675,0.3719304452707722,-0.17732227803020473,0.5878723549788374
13.200000000000001,-11.551044124538434,-3.812090609047328,-6.190852181096903,-0.13264769822592504,0.14443802825311225,0.29986065211428975,0.03273379071340594,0.1550691801049473,0.9873611534335132,-1.6877412074185547,-1.8635709267921874,4.141210308115965,0.15588723644614697,1.3650161341347158,-0.5347097023823251,3.0,0.5004747041648128,0.5022235265075936,0.38301875018248027,-0.6961257955994709,0.37192805359576153,-0.17732121121456546,0.5879078054447581
13.3,-11.499513415027213,-4.189414850678963,-6.165514151105888,-0.13679962037614185,0.14521816183679578,0.2904381619251628,0.032749321840522864,0.15509528532829148,0.9873565372907034,-1.6889179671340318,-1.862460686817872,4.141389169166315,0.15593334204424428,1.364830291175361,-0.5345808724988882,3.0,0.5001411778947925,0.5019053055185841,0.38317758163402177,-0.6961183569723685,0.37191261156532773,-0.17732131748303775,0.5879263498184342
13.4,-11.484948953320446,-4.16009156138152,-6.084258573980445,-0.14758353033000043,0.13918587039851704,0.29265116378987416,0.03246162444190245,0.1536350032082407,0.9875859310461134,-1.6902033119338804,-1.8612688503133623,4.141610187555837,0.15599422324564788,1.364621019402964,-0.5345882574400778,3.0,0.49981541149946584,0.5015876268750901,0.3832982888874427,-0.6961142747211557,0.3719213775298711,-0.17731841292059666,0.5879265140347415
13.5,-11.617854204190392,-3.4906598201846872,-6.044230400519502,-0.15767472757287126,0.13662972995817876,0.2988713901431677,0.03090694951672064,0.14581878199475398,0.9888160437682875,-1.6915288985962886,-1.8601014572554468,4.141806125640869,0.15602118817185648,1.3643962852508424,-0.5345317053393884,3.0,0.4995610559153435,0.501348123003854,0.3833509453653926,-0.6961313885217585,0.37192197014108497,-0.1773145983634216,0.5879070260239804
13.600000000000001,-11.646213755230086,-3.423791519974385,-5.948533248628555,-0.164334111479823,0.13392615587601595,0.3072170433047079,0.030354202906887406,0.1430509068254497,0.9892496867030075,-1.6927882186946193,-1.858871530324019,4.141977700586354,0.15608613073315425,1.364247991345811,-0.5344631186348964,3.0,0.4991451229812944,0.5009347768639467,0.38343694823136504,-0.6961691945177451,0.37191398971956774,-0.17731175612269756,0.5878681637885084
13.700000000000001,-11.637005677737976,-3.6721675446338744,-5.8512673176858385,-0.17603037549074624,0.13134482290810248,0.3080760479144832,0.0302530743871936,0.14257590910579718,0.9893213645968664,-1.6939170774028487,-1.857705894397349,4.142200946807861,0.1561264105427115,1.3640079498291016,-0.5344180840463069,3.0,0.49876917814748506,0.5005338616952588,0.38358080546662304,-0.6961577227713212,0.3719284495176347,-0.17730829599722503,0.5878736442772518
13.8,-11.49194602440885,-3.730707899285925,-5.926042430782012,-0.1850357121206865,0.12465930024065533,0.3071258560034814,0.030105591653898384,0.14194876175485854,0.9894160079798912,-1.695082664489746,-1.8565141654784127,4.142387466401958,0.1561275393006781,1.3638064479971408,-0.5343486644287524,3.0,0.4984653677482434,0.5002238539036822,0.3837499794803616,-0.6961330254703887,0.3719204307672206,-0.17732415780984306,0.5879031783247974
13.9,-11.739142668012652,-3.7865700624243717,-5.891827711697484,-0.16380942719769076,0.12663269015549267,0.3118850433922489,0.030026489158763593,0.1415983789172403,0.9894686703261868,-1.6964570269950936,-1.8552193374663786,4.142568850553733,0.15617534744223513,1.3635878562927246,-0.5342922016544033,3.0,0.49810665752997624,0.49984796840275775,0.3839593396634834,-0.6960836919285756,0.3719243260534696,-0.1773451785401084,0.587952784812976
14.0,-11.59179400546386,-3.8536892397551137,-5.889856998740863,-0.1465645641003177,0.12030744402683259,0.3089322337247357,0.029981385903003036,0.14138560576323558,0.9895004593418927,-1.6978673934936523,-1.8539726551278413,4.1427986156409045,0.15624157964672847,1.3633941795522333,-0.534273245465523,3.0,0.49782477702816424,0.49955891968918814,0.38404312008288133,-0.6960902465181928,0.3719345506017917,-0.17733775035841132,0.5879407972480755
14.100000000000001,-11.668608277232574,-4.240936089869436,-5.719132269387577,-0.14602634422389577,0.12342085897903111,0.3073742516511991,0.02992638144421318,0.1411317980150307,0.9895383459614057,-1.6990127217915085,-1.8528920612730921,4.142980098724365,0.15629165502922487,1.3632042025023599,-0.5342069270505939,3.0,0.4974838108152721,0.49921418353899855,0.3841109238728884,-0.696122992826358,0.37193581104123535,-0.1773298158020567,0.5879036211414093
14.200000000000001,-11.995657924796554,-3.937210371633142,-5.762183383922998,-0.14100051342649103,0.13531838866886858,0.29917431613991335,0.02981817278629943,0.14065749052408433,0.9896089981071049,-1.7001252486223162,-1.851820853653676,4.14318323135376,0.15634071647808845,1.3629975771884153,-0.5341776053058069,3.0,0.49716681188540873,0.4988790641224852,0.3841726743072635,-0.6961513778578305,0.37193724483975205,-0.17734288690050434,0.587865159261419
14.3,-11.67145106230949,-3.93918578967314,-5.5212464263002285,-0.14499998614180176,0.12825710498551354,0.31074350553205354,0.02970996412838568,0.14018318303313793,0.9896796502528042,-1.7014074830890897,-1.8504129065368145,4.143407183013808,0.15637318670239253,1.362810616827601,-0.534110820285816,3.0,0.49673814319193604,0.4984506105987786,0.3843740660421658,-0.6961175553717079,0.3719499786071886,-0.17734454779386258,0.5878966523847703
14.4,-11.666033345880136,-4.136667816981787,-5.9185150396532356,-0.1285540110417749,0.12646237100099553,0.3180013367671656,0.029675158140024,0.1399390251631574,0.9897153382774764,-1.7028163647082357,-1.8491206095551889,4.143632564566895,0.15638066348681592,1.36262845993042,-0.5340574483183729,3.0,0.4964698213921179,0.49819530221620545,0.38448806554218895,-0.6961156650632155,0.37193885486465833,-0.17733230020687288,0.5879096226452695
14.5,-11.72611741671353,-4.255734204883529,-5.900212484956496,-0.1201146184222922,0.12935223245988506,0.31121870461976475,0.02975682443026785,0.14022524305553005,0.9896722499347977,-1.7040155884624624,-1.8480182593188874,4.143877219557981,0.1564121886289441,1.3624386714396488,-0.5339930199653717,3.0,0.4961351719720207,0.49786110883332096,0.3846160917468546,-0.6961194018628143,0.37192790859185415,-0.17732810834027848,0.587913387458651
14.600000000000001,-11.56894274872908,-4.637693030315335,-5.883841393593372,-0.12010786273962427,0.11976708799976755,0.31044395410849757,0.029881563440682695,0.14073924384924677,0.9895955662902075,-1.7050905227661133,-1.84703902812848,4.144071102142334,0.1564869926106317,1.3622426635062117,-0.5339620749102991,3.0,0.49559656130802376,0.49736846711667565,0.38479239025297207,-0.6961294946891425,0.37191621352390913,-0.1773088018405467,0.5879146583746204
14.700000000000001,-11.908355440491146,-4.547156110947992,-5.814705866624457,-0.11797680969683105,0.12642157280748767,0.30910452212709344,0.02988163311796558,0.14066912179493046,0.9896055150982883,-1.7063349619053534,-1.8458313258339625,4.1442389488220215,0.1564900733680787,1.3620602776754578,-0.5338859886026025,3.0,0.49536729427638226,0.49713804463584566,0.38485053269868075,-0.6961393604573507,0.37191431283335197,-0.1773189198791513,0.5879011272183594
14.8,-11.797747872645525,-4.149069504044386,-5.669367916368025,-0.12501904079852463,0.11656165403993517,0.3138793907647346,0.029809010599104357,0.14025840938391015,0.9896659775578324,-1.7077061597038719,-1.844416179808751,4.144449811823228,0.15653731966209497,1.3618446406196145,-0.533834955733771,3.0,0.4950138115464058,0.49678579226889646,0.38498022695207573,-0.696147063958173,0.37189690239668305,-0.17732186703299668,0.5879021302921936
14.9,-11.86072093248642,-4.49883172425889,-5.7094321941637665,-0.11493248145679857,0.11337547513155066,0.3138080767494971,0.029739814282079887,0.1398799671791271,0.9897217450492879,-1.709022866366101,-1.8430539691607453,4.144613109276097,0.15651306005076823,1.361633775945454,-0.5338230089838719,3.0,0.4946634592435675,0.4964132016330405,0.38515907865888954,-0.6961230226244102,0.37190438446247764,-0.1773133043745082,0.5879284465661054
15.0,-11.812835725607636,-4.63609590415509,-5.854255683110147,-0.10598310013960724,0.1058249331922861,0.31476172296361826,0.029695192706425223,0.1397329859360786,0.9897438374591183,-1.7099256942001977,-1.8422711748721137,4.144817856742281,0.1565366063219722,1.3614889885434491,-0.5337635538018503,3.0,0.494381542759878,0.4961116933357621,0.385266191692484,-0.6961176574772674,0.3719160796796461,-0.17731263244818485,0.587927603534976
15.100000000000001,-12.169564774131613,-4.671788077123445,-6.104060733193244,-0.10336810456507346,0.10624109936095258,0.31144030701540926,0.029644901331107493,0.1395494844160892,0.9897712198337233,-1.7098703666087927,-1.8423049829742864,4.144811776498923,0.156578557267679,1.3614379719651373,-0.5337172548605391,3.0,0.4941133129664372,0.4958317972849666,0.3853535660879716,-0.6961197465523914,0.37192001499609634,-0.17731978841018015,0.5879204823301418
15.200000000000001,-12.003188769565469,-4.449921234444029,-6.2630053424183005,-0.10003363254961664,0.10334107263773992,0.32010108914965113,0.029542365791812155,0.13902946812478625,0.98984734639746,-1.7098970413208008,-1.8422957859435023,4.144822070287217,0.15660206853833003,1.3614387008414166,-0.5337231794940394,3.0,0.4940204331864016,0.49575333190722115,0.38537837311852335,-0.6961118830439793,0.3719325961698452,-0.17730526071542424,0.5879262153654655
15.3,-12.31516875898708,-4.435523879144693,-6.278925049232306,-0.09600954120582826,0.10505068860006812,0.31603445961117993,0.029453438482984595,0.1385833934603984,0.9899126858028782,-1.7099324150334982,-1.8422838650145472,4.144837840689012,0.15657727300610347,1.3614553527582498,-0.5337364636474039,3.0,0.4940219406740817,0.4957537500447388,0.38538532557135685,-0.6961091182889814,0.37192430721918224,-0.17731875811137923,0.5879306618609941
15.4,-12.146133345891544,-4.56479074651011,-6.283383581758811,-0.09428077398989695,0.10698034285622142,0.3148039572802125,0.029502007577355233,0.1388844187052543,0.9898690326781473,-1.709974152304594,-1.8422562711483006,4.144821706518275,0.15658176880014746,1.3614223971866333,-0.5337242272017496,3.0,0.4940248343039851,0.49573630493697846,0.3853910656784762,-0.6961053710319961,0.37192168488299315,-0.17733221061792562,0.5879327000699677
15.5,-11.88087691127131,-4.545220836830364,-6.318574374364095,-0.09647366940304328,0.0974778598562815,0.3243903703820344,0.029542993577923383,0.13916055966318966,0.9898290240306926,-1.7099695205688477,-1.8422294157220607,4.144839741500469,0.15657098426659538,1.3614479465578355,-0.5337170704674341,3.0,0.4940153645411318,0.49572928427838264,0.3853774591940844,-0.6961183099437591,0.3719265296488703,-0.17732513906026834,0.5879164482829586
15.600000000000001,-12.094744669763356,-4.578574639881232,-6.097908188420611,-0.09602382090245375,0.10064146796355251,0.31347398023807893,0.02957742908507585,0.13941520486202288,0.9897921635869953,-1.709984579806369,-1.8422482489890897,4.1448493003845215,0.15657365786037894,1.361469847346589,-0.5337231794940394,3.0,0.4940136784424893,0.49572945782254535,0.38538140239199226,-0.6961216223370759,0.37192182055120826,-0.17733541164948297,0.5879124068156586
15.700000000000001,-12.052910866860804,-4.576345929133226,-6.26941029291526,-0.09671192551034892,0.09878809192775558,0.317743493345231,0.02967458179907093,0.13986051004167505,0.9897264018625663,-1.7099736717636307,-1.8422203650491737,4.144825458526611,0.15657399126200108,1.3614613238138038,-0.5337504398353895,3.0,0.49401763441734203,0.4957323119610401,0.38537924583946503,-0.6961237606014635,0.3719194740398274,-0.17734796362286748,0.5879075731395509
15.8,-12.142235875265985,-4.676600863479656,-6.321550041377016,-0.09845444577969474,0.10287540851105684,0.317448477894935,0.02976434974186135,0.14019987152320762,0.9896757422687427,-1.7099329345178285,-1.8422210091164133,4.144809097219634,0.1565534311481933,1.3614381255399461,-0.5337637290859231,3.0,0.4940037233591298,0.495733043861562,0.38539483032177296,-0.6961173906619074,0.3719240943010469,-0.1773270471213987,0.5879185018823688
15.9,-12.102649685218134,-4.560969524747624,-6.334737471320575,-0.09403200435261835,0.10048513817232128,0.3176535515049922,0.02979248544943838,0.14027179280904006,0.9896647044905731,-1.7099368814532612,-1.8422432055208122,4.144816961311305,0.15657367249766652,1.3614659309387207,-0.5337156784347957,3.089745534209643,0.49399527470428206,0.4957348584980059,0.3853807257952977,-0.6961300273979921,0.3719161538041403,-0.17732724723276588,0.587908502135541
16.0,-12.16004341964217,-4.297683405808964,-6.2285829173753875,-0.08860059539753519,0.10540558433060042,0.3176236856270068,0.02973868275949576,0.1399511127066019,0.9897115846945851,-1.7099505059496676,-1.8422539877492419,4.144864366264349,0.1565468142951266,1.3614449795373338,-0.5337346235858362,4.0,0.49398958377777913,0.4957506320806375,0.3853657826937225,-0.6961420096464443,0.37190605164250223,-0.17731593296075704,0.5879041172464695
16.1,-12.04627215659633,-4.666124891784683,-6.313027662435531,-0.09678321209123428,0.09760949204873207,0.32323456601380285,0.029601426517127046,0.1392305714703072,0.9898174538648047,-1.7099897813649958,-1.8422329675996463,4.1448493003845215,0.15654387971847938,1.3614516405105246,-0.5337265224745458,4.0,0.4939896297073991,0.4957515007709366,0.3853836672527651,-0.6961304214371,0.3719078101495007,-0.17731641387480956,0.5879165812172555
16.2,-12.064909390886802,-4.633488232321947,-6.145200565540691,-0.09708022062054561,0.10387383713094551,0.318880411958907,0.029583959400211367,0.1392653365520469,0.9898130899354082,-1.7099654798524333,-1.842244017608011,4.144843353127874,0.1565534311481933,1.3614458411746237,-0.5337455912446749,4.0,0.4940046987850086,0.4957345227756233,0.3853877795811212,-0.6961158869130206,0.37191903803607046,-0.17733798819733762,0.5879201808713013
16.3,-12.171687768943563,-4.713874878757431,-6.268353294218686,-0.10038595369678854,0.10315640130467105,0.3198350689207747,0.02956819948127606,0.1393108660284329,0.9898071549975889,-1.7099631854234056,-1.8422237835326136,4.144820657903725,0.15655659694721744,1.361446705064355,-0.5337277919301903,4.0,0.49400577104080523,0.4957287568351873,0.3853721958897059,-0.6961243656730896,0.37193015200335755,-0.1773299361397388,0.5879055394327171
16.400000000000002,-12.001675704773263,-4.552227896231223,-6.432999145212121,-0.09525904203661557,0.09828583210207463,0.3206818873038776,0.02965522644377676,0.13966429486699708,0.989754671820296,-1.7099413242035544,-1.8422476253905238,4.144833316329243,0.1565736867169385,1.3614463147321867,-0.5337269512393027,4.0,0.49398865797988495,0.4957450552572376,0.3853756308988318,-0.6961290780829088,0.3719195991727899,-0.17731581274190095,0.5879108954172135
16.5,-12.121517639003606,-4.570682115180826,-6.481901489571714,-0.09496619456680211,0.10301944616901915,0.3217081163642227,0.02974453032500029,0.14002454424348104,0.9897011575137725,-1.7099809646606445,-1.8422166048047852,4.144852461851939,0.1565741115386857,1.361486611329213,-0.5337056605709648,4.0,0.49399591236396667,0.49574356607512265,0.3853687226152337,-0.6961362447052144,0.37190887720751725,-0.17732342919993468,0.5879068951107322
16.6,-12.023695690969193,-4.5735295465658075,-6.57898931615757,-0.09618563558458737,0.09942926124297012,0.3224005362582703,0.02965574856945829,0.13948788468252507,0.9897795165778449,-1.7099882803926674,-1.8422476253905238,4.144817361135263,0.15658537039745213,1.3614296913146973,-0.533726022836307,4.0,0.49399813106864515,0.4957431278399321,0.3853594956940963,-0.6961311787815969,0.3719240845773604,-0.1773107268979938,0.5879071043679789
16.7,-12.00863661431455,-4.702928217601458,-6.374119219802889,-0.09935239780122879,0.09947662291670259,0.32212105063570445,0.02983000511184142,0.14044922048497296,0.989637397571059,-1.7100040978174023,-1.8422222992688022,4.144833934090785,0.15658515861022984,1.3614574553745469,-0.5337246043872984,4.0,0.493996511018555,0.4957426408317207,0.385364733980571,-0.6961353067726952,0.37191994389236394,-0.17731450416704628,0.5879036967153557
16.8,-12.054257360379104,-4.444527594212033,-6.485171572173464,-0.09328924691982053,0.09903564831196682,0.32285504619648747,0.030053861162277172,0.14172111239235619,0.98945013137008,-1.7099640594368741,-1.8422394807116182,4.1448580372422335,0.15656190161425518,1.3614785950964845,-0.5337307319941382,4.0,0.4940012238760226,0.495742250294956,0.38536388422875006,-0.6961396547123102,0.3719267423697825,-0.17731938457069463,0.5878927753448729
16.900000000000002,-12.051956188073307,-4.6630721685560585,-6.493705000213141,-0.09698688374838094,0.09899647607101222,0.323358145475098,0.029956180419377577,0.1412014718491313,0.989527223662765,-1.710000279953402,-1.84223294617766,4.144835244668521,0.1565807038500085,1.3614642729888329,-0.5337305497345826,4.0,0.4939882000510883,0.4957508189881748,0.38537442764269464,-0.6961328453660183,0.37191481781139646,-0.17731449753794037,0.5879098560645118
17.0,-12.010785355273667,-4.712351807267887,-6.701233336800828,-0.08372784418226906,0.09157667400325477,0.32616757414367475,0.029858499676477985,0.14068183130590642,0.9896043159554501,-1.7099600116752292,-1.8422187242943928,4.1448493003845215,0.15657072260884392,1.3614456571599924,-0.5337313299742837,4.0,0.4939943547451521,0.4957373528762782,0.38537619827081937,-0.6961194759610612,0.37192155021519047,-0.1773163259179628,0.5879208758295471
17.1,-11.999243680318902,-5.632108956676553,-7.548555766359207,-0.04479408632135163,0.08476681103097225,0.3226123930843405,0.029750058814330196,0.1401091353914876,0.9896888724617732,-1.7099722400625819,-1.8422173802697828,4.14485516933363,0.1565929351807188,1.3614453534893125,-0.5337283458771784,4.0,0.4939982739238195,0.4957328820461249,0.3853847925896282,-0.6961191974101226,0.37191814347257346,-0.1773208319534349,0.5879220017216082
17.2,-11.66270348910683,-5.332761606581128,-8.550271430635338,-0.04861284928504175,0.12677201234151492,0.3142301994898993,0.02962805649678258,0.13946957144024016,0.989782836447513,-1.7099695205688477,-1.8422086838837948,4.144819418200226,0.15658967077221675,1.361434267971014,-0.5337654268694267,4.0,0.49398751402501107,0.49573499215073985,0.38538739867273425,-0.6961226806887824,0.37191423697532155,-0.1773193212185028,0.5879208042656233
17.3,-11.091810173651213,-4.468879593684523,-9.60525564958315,-0.1080018042012087,0.18225692364820778,0.30657361878299927,0.029623449460288023,0.13950807881808053,0.9897775148695634,-1.7100022169806883,-1.842170029215292,4.144831785691223,0.15656253878870838,1.3614387989552124,-0.5337470213519495,4.0,0.4939892318281369,0.4957213024707663,0.38541500051179556,-0.6961014407764543,0.3719223936943907,-0.17732686403056175,0.5879385176280475
17.400000000000002,-11.061946164062986,-4.421617557421898,-9.410760103937303,-0.09647384020540559,0.18536094723229768,0.3186931655551246,0.02977222371790859,0.14043251156723838,0.9896424730157305,-1.7099695205688477,-1.8422075443736052,4.144861698150635,0.15655792210744873,1.3614428187340593,-0.5337404524142525,4.0,0.49400416233209776,0.4957065186548806,0.38541066780486294,-0.6960938965439473,0.37194524000414547,-0.17733420922927298,0.5879307815292132
17.5,-10.96112121406585,-4.564919956918281,-10.34055782762325,-0.12010031953291588,0.18491814372932427,0.31830881770646463,0.02994030901072992,0.1411921060857425,0.9895292027680866,-1.709963056145822,-1.842208754707973,4.144810110997269,0.15661575735069483,1.361448022423898,-0.5337316400059782,4.0,0.49399576349631674,0.4957106619223044,0.3854136860562998,-0.6960912019101848,0.37193945252701366,-0.1773285030190017,0.5879393542655393
17.6,-11.088563853024983,-4.199853030738741,-10.778046808758285,-0.1362449114668387,0.19645086127747843,0.3092162437967422,0.030122507415602445,0.14205062234559288,0.9894005908360921,-1.709986560538071,-1.8421971585807022,4.144831550416581,0.15658967077221675,1.361478328704834,-0.5337285316958671,4.0,0.4939941424550443,0.4957221460369359,0.3854066321582176,-0.6961044678992703,0.371922753299313,-0.17733050724111352,0.5879336072640701
17.7,-10.947867348340521,-4.192048746661621,-10.730707047154796,-0.14835052673378593,0.20090398014624178,0.31163188963095806,0.030322537312341146,0.14307037657060154,0.9892474307209946,-1.7099605289533304,-1.8422331671081598,4.144819234165463,0.15659268496278383,1.361435915675846,-0.5337526454078407,4.0,0.4940010006359615,0.49572483127349987,0.38539271506076733,-0.6961176346146704,0.3719219367459965,-0.1773317824567316,0.5879181496401537
