xiamingqian9007/apple-picking-rnn/training_data/grasper_20191127_123339_noimg.csv
,/manipulator_wrench.fx,/manipulator_wrench.fy,/manipulator_wrench.fz,/manipulator_wrench.tx,/manipulator_wrench.ty,/manipulator_wrench.tz,/ground_truth.x,/ground_truth.y,/ground_truth.z,/joint_states.elbow_joint,/joint_states.shoulder_lift_joint,/joint_states.shoulder_pan_joint,/joint_states.wrist_1_joint,/joint_states.wrist_2_joint,/joint_states.wrist_3_joint,/mode./mode,/manipulator_pose.x,/manipulator_pose.y,/manipulator_pose.z,/manipulator_pose.rx,/manipulator_pose.ry,/manipulator_pose.rz,/manipulator_pose.rw
0.30000000000000004,0.0922281651123733,0.03073486383475002,0.008962475803819621,0.01710425549224381,-0.010792334829258449,-0.026849525145341547,-0.0301982097281862,0.0546161798734401,0.9980504415996932,-1.9429338676108474,-1.9231678197819595,4.173314963895756,0.7500656968870038,1.3265129482463174,-1.3269663071175763,1.0,0.4566310276358263,0.45841853400858323,0.3276546994710488,-0.6929173916730005,0.08640462696778271,-0.43854910912041095,0.5657511888147807
0.4,0.34744037693611074,0.4365352343286841,-0.021292143745607547,0.008464002025351268,-0.011304780619552807,-0.0353439223166307,-0.029979408275129207,0.05419208104580249,0.9980801521338516,-1.9387092922657823,-1.9256503118872463,4.1723958254716464,0.7483794098311333,1.3271787729837323,-1.326930348073141,1.0,0.4570786078813538,0.45890352458011086,0.32762806080336204,-0.6929248367618834,0.08638227019780112,-0.4385456157606684,0.5657481921235696
0.5,0.36675155119424363,0.40856275632493794,0.11282305360516909,0.019121756195745257,-0.01210763883503459,-0.04435186663324019,-0.029760606822072218,0.05376798221816489,0.9981098626680099,-1.934304610621154,-1.9286543074678004,4.171529293060303,0.7469213715774441,1.3281205620731906,-1.3269335218480203,1.0,0.4580420617590158,0.45978464245867223,0.3277608082800623,-0.6928786152867811,0.08642980914197784,-0.4386023239467991,0.5657535806324351
0.6000000000000001,0.39283074139993274,0.033275548109248446,-0.060243131423620394,0.018705263501462746,-0.01731949615080944,-0.051838194684177635,-0.029947465006031803,0.05424977892051761,0.9980780636831069,-1.9300077217835727,-1.9312310599299969,4.170805145839934,0.7452832895466308,1.3290870303826816,-1.3268648529595262,1.0,0.4594018586119142,0.4611016436851714,0.32781767688316416,-0.6928720408908676,0.0864274740574777,-0.43858995004589796,0.5657715814695047
0.7000000000000001,0.4164405343375594,0.13166627463239824,-0.12038687264603093,0.022425274080606374,-0.0189355974232162,-0.06301340514618471,-0.030141825365232272,0.05474832904469436,0.9980451271554246,-1.9259086553911844,-1.9342179731430227,4.170150868043588,0.7439003749461747,1.329726417226563,-1.326876663523581,1.0,0.46008713742950574,0.4618423553663716,0.3278673072915684,-0.6928682226849536,0.08638092488670605,-0.4385553921807891,0.5658101534952029
0.8,0.49636764119662263,0.2811965318592968,-0.0545271790420391,0.02095213757359852,-0.021639614050926452,-0.07372235442925454,-0.03013551360358177,0.05461990384883202,0.9980523406370635,-1.9217840504168968,-1.936444283430621,4.169372684907864,0.7424190550514181,1.330355167388916,-1.326822582875387,1.0,0.4608769648429392,0.46268742813145275,0.3278957289897674,-0.6928708816024278,0.08636546433438419,-0.4385423981522518,0.5658193289563832
0.9,0.46496268378740835,0.19997602767214298,-0.2814391796492208,0.013025399029363727,-0.02366978978679733,-0.0720158120928334,-0.030123777484901786,0.0544745309176782,0.9980606394113896,-1.917842104501711,-1.939126057392598,4.168611946670546,0.7410131238174145,1.3310382894662172,-1.3268408682892892,1.0,0.462535058107107,0.4642719456847098,0.327937196437501,-0.6928873665285944,0.08644359609566171,-0.4385863409522166,0.5657531471669119
1.0,0.33915538591247507,-0.03456118592658823,0.06093585082497223,0.014060614164876183,-0.028315967586587495,-0.08557173564099489,-0.030112041366221802,0.05432915798652437,0.9980689381857157,-1.9143119164285307,-1.9413849316039027,4.167976945303534,0.7396824493582207,1.3318733123106086,-1.3268086038948,1.0,0.4631538171260976,0.46487836372522545,0.3279517728554238,-0.6928833190904273,0.08644791028443054,-0.4385975173049186,0.5657487805975809
1.1,0.3027208799408951,0.0418326662543492,-0.0027005869396273356,0.013695471334729745,-0.02445130331148589,-0.0900617280356473,-0.02999012919528882,0.05420135909638323,0.9980795343411933,-1.9105253588255637,-1.9436280209172367,4.167239095745409,0.7382914791374554,1.3325437037009715,-1.3267754675513306,1.0,0.46403387257427775,0.4657684921694321,0.3280377125844422,-0.6928494644356469,0.0864180755181093,-0.4385838993368547,0.5658053544262935
1.2000000000000002,0.33927561296874087,0.23847067483971054,-6.747842910147239e-05,0.013315905354752544,-0.03160433452201631,-0.0994921908729166,-0.029864286143137582,0.05407418721607166,0.9980902124630533,-1.9070148027582783,-1.9460202996093618,4.166543794923628,0.7371242505367991,1.3331202572610918,-1.3267748991595667,1.0,0.4648827361436509,0.46660194197363364,0.3280745418726281,-0.6928640892939486,0.0863992220710269,-0.4385683800414041,0.5658023543784946
1.3,0.5209191412827808,0.14580795195140253,0.15329151016063233,0.016847795513368777,-0.03233921347762807,-0.10060180947601918,-0.03003683380897147,0.05435379662310977,0.9980695534425845,-1.9036209162650453,-1.9480288762653295,4.16600478692653,0.7358630238303392,1.3336655434773448,-1.3267565086336837,1.0,0.4659171534163463,0.46754891195282355,0.3281179580086996,-0.6928272216747963,0.08644816437725902,-0.4386201149571595,0.5657999209412753
1.4000000000000001,0.45431312069583507,0.5026254154948882,0.06380132371884335,0.020997757302834204,-0.03400779718197069,-0.10878987047599191,-0.030568267343741663,0.055122657360629254,0.9980112040488007,-1.9002808024233722,-1.9503126458856,4.165435806734513,0.7345528544695701,1.3341867960977711,-1.3267152338401154,1.0,0.46654295282081415,0.46817583307069616,0.3281781196904744,-0.6928077871527143,0.0864605188306983,-0.4386341449015069,0.5658109540037287
1.5,0.19283405211788132,0.20617600973797362,0.0020786665441068775,0.016216252560464245,-0.03137882382995457,-0.11584606029271635,-0.030709779017581956,0.05537643936679218,0.9979930694557667,-1.8970123083961545,-1.9523096890379208,4.1649320498889955,0.7335108915767918,1.3347580143435405,-1.3267215017832157,1.0,0.4672457499711246,0.4689160975696522,0.32812743054767457,-0.6928592109890073,0.0864649782584011,-0.4386143088241075,0.5657626793782133
1.6,0.40126911810487575,-0.07910746862515465,-0.1321233054836883,0.01501676813237687,-0.0307524876391045,-0.11603266825116826,-0.03036096775513708,0.054982514893060684,0.998025504582365,-1.8939360820985385,-1.954332346452043,4.164470195770264,0.7323047357746582,1.33549415934871,-1.3266973999534277,1.0,0.468246295279324,0.47000215629813935,0.3281467065894129,-0.6928626983923121,0.08643603697565684,-0.43857865543013913,0.5657904697761869
1.7000000000000002,0.3284413585022121,-0.11937096016365831,-0.08268752181932577,0.015364218074960863,-0.03275166317488711,-0.1258918344940723,-0.030160904917980156,0.05472798939934004,0.9980456707950475,-1.8908486296178801,-1.9561926686047733,4.163931819308491,0.7311660486408691,1.3359546731470124,-1.3266895624679875,1.0,0.46879806805738017,0.47063122396500134,0.32817329123675637,-0.6928706300656949,0.0863774707924179,-0.43852352593295213,0.5658324307913104
1.8,0.4404113635773381,-0.05731006835163445,-0.004228571359102012,0.018156484948714302,-0.03321589713291963,-0.12788974246149132,-0.03015469643985451,0.05465513372744981,0.9980498477127943,-1.8879608961029268,-1.9581877736913866,4.163424722953807,0.730147907388853,1.3363975935509438,-1.3266833645274325,1.0,0.46943483874635994,0.47124379659845883,0.32823030394229435,-0.6928587691132728,0.08638259018230651,-0.43854384372205907,0.5658304262848706
1.9000000000000001,0.40278831600853315,0.3594975909416125,0.02790291006019763,0.017937596793697864,-0.036822822651356064,-0.1293438959058578,-0.03014848796172886,0.054582278055559576,0.9980540246305409,-1.8850483699909693,-1.960035903173964,4.162893451764746,0.7290622356916977,1.3368373796777817,-1.3266608471185037,1.0,0.47048058665479664,0.4722666236155894,0.3282494624027542,-0.6928332656599225,0.08641423393928171,-0.4385908363043687,0.5658203994886795
2.0,0.3645982426115615,0.672704905490113,0.09825146944929589,0.024900626349677966,-0.035369226919287,-0.13563431665812106,-0.030013515076521672,0.05429098037651585,0.998073834801538,-1.8822759761849202,-1.9616333153534957,4.1624321937561035,0.7279788690754394,1.3372856363157768,-1.32665872739727,1.0,0.47092126511149945,0.4726850716274271,0.3282027919620169,-0.6928766991246498,0.08642852604501326,-0.4385782425550164,0.5657747916381302
2.1,0.3249446486516354,0.5396685993318658,0.10251992865483332,0.024230931765368093,-0.03763168076357184,-0.13765347675200662,-0.02970394705197754,0.053703491276718314,0.9981148425230958,-1.8796164071322758,-1.9633950313817017,4.161880970001221,0.7270779613320422,1.337725045265294,-1.3266428152667444,1.0,0.47143748672024915,0.4731730988829141,0.3282531469875076,-0.6928685694398042,0.08644146238972034,-0.4385901409379159,0.56577354775071
2.2,0.5121830715476728,0.35545908625801803,0.13107937055110727,0.02081242070917298,-0.04682086538934951,-0.1407901856539914,-0.028941742477784197,0.05240313898553863,0.9982033337754949,-1.8770042505611633,-1.9653442366605753,4.161366276281558,0.7260781182948282,1.3381932713898606,-1.3266364711780894,1.0,0.4723595893041868,0.4740407567404071,0.3281836652338835,-0.692919119822248,0.0864457416900482,-0.43858701407839157,0.565713406426098
2.3000000000000003,0.41166659389634436,0.38845613293539816,0.040693428612924534,0.02209629424402187,-0.03976446297532681,-0.14343844226763955,-0.027529608379987965,0.050079204231281066,0.9983600054446158,-1.8744152406030214,-1.9665944370042963,4.161049769914456,0.7251617151447753,1.3386665175769072,-1.3266372755492888,1.0,0.4729322943344909,0.4745859006305447,0.3281110307603138,-0.6929666050142878,0.08644365455757233,-0.43857626162391133,0.5656638946067689
2.4000000000000004,0.3593745446288049,0.3912053802680796,-0.10899845850412704,0.024949520589302828,-0.03938269490298467,-0.1529581917039589,-0.026117474282191733,0.04775526947702349,0.9985166771137367,-1.8720032972366858,-1.9680448706989842,4.160641161796197,0.7241378799229208,1.3391104087001808,-1.3266076874234773,1.0,0.47365795327927046,0.47537035848499926,0.32838303988598144,-0.6928437201508789,0.08642544517654788,-0.43859140209924885,0.5658054470205649
2.5,0.3675033907547806,0.3441519359345451,0.123220104287493,0.014737719161862835,-0.04152143915930297,-0.15072838270926353,-0.028062719882712445,0.05106142800291342,0.9982907753950402,-1.86959891030752,-1.9698137116799799,4.160276438718695,0.7233578468864619,1.3394828492032338,-1.3266087925081715,1.0,0.4739636628113761,0.47567834918121527,0.32841792284963106,-0.6928429417529501,0.08642205567081022,-0.43858665333750263,0.5658105989383355
2.6,0.4485491901388444,0.1977019540052934,0.1686242205362446,0.017099332405379513,-0.038706771269001815,-0.15192597879190944,-0.030373801258047985,0.05498106779172247,0.9980231866929424,-1.8672390978489763,-1.9712884553172745,4.159919126363052,0.7224734428161469,1.3398228629464612,-1.3265814908361808,1.0,0.4744189670764115,0.47616970355031735,0.3283430128703292,-0.6928881810631478,0.08641036018216866,-0.43856550028513863,0.5657733823323932
2.7,0.4572913073645244,0.09537637050665229,0.09480075840670953,0.0215655314018838,-0.036818502871071856,-0.1569929015344892,-0.030990581416419315,0.055926128706636914,0.9979536898423769,-1.8650464332389052,-1.9724080420175514,4.159544467926025,0.72157130294921,1.3401811911610226,-1.3265934686502299,1.0,0.47499665963637855,0.4767544299864554,0.3283118675287513,-0.6929059782973923,0.08641635533964329,-0.4385651226851821,0.5657509628216972
2.8000000000000003,0.49608450344935046,0.28858371856115184,0.1675402771342232,0.018227605354780102,-0.048087511366036104,-0.16029983668216624,-0.031449795735320814,0.0566557525746421,0.9978980492963961,-1.862901074257685,-1.9737637644893482,4.159221172332764,0.7207639007058152,1.3405251502990723,-1.3265627811799445,1.0,0.47568300686002235,0.4773895493703652,0.32845359153844134,-0.6928464513056338,0.08644299887302395,-0.43860577102422504,0.5657882823842091
2.9000000000000004,0.7638999570243861,0.1130394337532406,0.11673601536060338,0.014831405200925907,-0.05000733965590495,-0.1611948072741487,-0.031982058913463424,0.05761134213657059,0.9978265769553322,-1.8606786283830512,-1.9752585340558124,4.1589281170764565,0.7200596130273965,1.3407990211861631,-1.326549321946031,1.0,0.4763227431571949,0.4781071269261444,0.3285004901078176,-0.6928368617148833,0.0864289008791461,-0.438594835582904,0.5658106559105259
3.0,0.6960245636718048,0.12771529298824935,0.20881625070296425,0.015294381424955513,-0.054530765878954716,-0.16039062828687886,-0.03180065225473001,0.05727990342159585,0.9978514629890719,-1.8588831290922665,-1.976470031492056,4.158580004610276,0.7192962537814848,1.341138297148992,-1.3265522490744506,1.0,0.47661007218548757,0.478377319382236,0.32850914933042075,-0.6928076894662774,0.08643387498232719,-0.43862197745090825,0.5658245766746021
3.1,0.5604952648925502,0.070520204455516,0.062222744730512314,0.016185210002635435,-0.0487355756873801,-0.1598131867444146,-0.03169135119648245,0.05708699524784872,0.9978660417801831,-1.8567788535671856,-1.9776366692459475,4.158264777429157,0.7185611278233156,1.3414740562438965,-1.326543298374433,1.0,0.47703028601954683,0.4788024913364171,0.3284425271693297,-0.692862735794799,0.08643759339028988,-0.4385896454137873,0.5657816670162175
3.2,0.7267798784417593,0.15110439789010097,0.149055844712666,0.020188481339211382,-0.04744442218776821,-0.17026286228128715,-0.03187550686328567,0.057437840698601327,0.9978400204992101,-1.8548138332916084,-1.9787523345848756,4.157962322235107,0.7178094451904966,1.3418185985477322,-1.3265306214324433,1.0,0.47762202357333255,0.4793989150905672,0.32852410605393056,-0.6928306120514912,0.08642856285567066,-0.43859541422250503,0.5658179116553743
3.3000000000000003,0.3989386673632588,0.45715023396520804,0.10940339525931249,0.020198210414798873,-0.046732178544268616,-0.17099434410860015,-0.03210034271588221,0.0578784919762866,0.9978072861595554,-1.8531680392269259,-1.980075605106801,4.157684764023513,0.7170721052550831,1.342164956107428,-1.3265194819322559,1.0,0.4779846545966534,0.47974680802542496,0.328613437249038,-0.6927909878330928,0.08643949397547741,-0.43860618248756006,0.5658564108872504
3.4000000000000004,0.6337649782097832,0.12041773853296125,0.02194871749003851,0.01304416921756991,-0.04860344020660462,-0.17032250827682574,-0.032400277494203614,0.05848493210166148,0.9977621589685532,-1.8511735751050333,-1.9812379401306415,4.157356390591936,0.7164696286464028,1.342452816100909,-1.3265258159368576,1.0,0.47835605999147846,0.4801597450598441,0.32850062364369864,-0.6928840977444632,0.0864059874852699,-0.4385455419519133,0.5657945210530402
3.5,0.5858387302012449,0.20751027281194406,0.008433132043021953,0.021613618277159876,-0.04642910886347668,-0.17228647345653716,-0.032711111778211455,0.059053996005950904,0.9977185996269038,-1.8494017833609102,-1.9823065834124374,4.157079492908703,0.715822619383497,1.3427343187173777,-1.3264896230614924,1.0,0.4789755230083895,0.48078476775289913,0.3285332373793874,-0.6928466302258052,0.0863930964022973,-0.4385641099933145,0.5658279785451952
3.6,0.5471078957412074,0.2185843349359759,-0.03863237247597618,0.01974216207685371,-0.049639525409349766,-0.17799397790408264,-0.03304292294431294,0.059551126686351985,0.9976780577240222,-1.8479420123802166,-1.9832786404219582,4.156775946652097,0.7151394337153594,1.3429961204528809,-1.3265169278902784,1.0,0.47925430535233277,0.48106023836754847,0.3285596397327101,-0.6928304355563907,0.08640859685166127,-0.4385705070423972,0.5658404830952304
3.7,0.6489028234963102,0.0429615800139762,-0.037553019513837174,0.01945171412682804,-0.05107361592359069,-0.1763996095497646,-0.033405950299978476,0.06011121892553972,0.9976324109459218,-1.8461355054548,-1.98429034997391,4.156511717554517,0.7144794921773111,1.3432278048370687,-1.3264904980829018,1.0,0.47978560790160507,0.4815516913213815,0.32846768871263865,-0.6929364110529816,0.08641202758650718,-0.4385449208528401,0.5657300099160181
3.8000000000000003,0.3922198926742957,0.08369396106789925,0.005375082082547911,0.018665870584294895,-0.04579840597892166,-0.1780992221908997,-0.0338317774190794,0.06079797527884727,0.9975764943379486,-1.8445162314982702,-1.9853118621118602,4.15624137111619,0.7138991591523481,1.3434334276498563,-1.326479391211496,1.0,0.480009318449648,0.48175630845780854,0.3285699093236858,-0.6928736320279718,0.08641368118712033,-0.4385749376157009,0.5657833771324863
3.9000000000000004,0.4357373011920014,0.3074869482548117,0.07264587556827316,0.0253104422317808,-0.04723997958006364,-0.18222834987283956,-0.03467088423982426,0.062190945782734555,0.9974602860911582,-1.8431013686686373,-1.9862229704939258,4.156008285224318,0.7133441081764634,1.3437111263800217,-1.326474968587057,1.0,0.4803809579697673,0.4820921237358214,0.3286252038912499,-0.6928310630770096,0.08644617669933584,-0.43860902065940044,0.5658041211990679
4.0,0.7908616540602227,0.17775301175361718,0.2418582482972488,0.0207196287382534,-0.05400315691785574,-0.18454488939075792,-0.03559908137454731,0.06373615420239831,0.9973310808328739,-1.841585837881236,-1.9871477198757472,4.15580415725708,0.7128185436351541,1.3439109254437398,-1.3264813949453393,1.0,0.480837480274496,0.48258901935955134,0.32864293625002977,-0.6928226885291644,0.08644434593410892,-0.4385935557033824,0.5658266432492451
4.1000000000000005,0.4575172249666956,0.3576658689522671,0.08990960725389731,0.020262527033399286,-0.049483657016303556,-0.18604941165063055,-0.03475470555614087,0.062267391408423856,0.9974524109389475,-1.8399708251278586,-1.9881480729288898,4.15554569651771,0.7121822076984863,1.3441472053527832,-1.326464867671646,1.0,0.4810806464099249,0.4828404645879367,0.32861190918488564,-0.6928456811014743,0.0864352276178891,-0.4385929732647321,0.5658003335174697
4.2,0.7816567779992523,0.34220609118743606,0.01821878556048552,0.02088952900549034,-0.05514574119093652,-0.18491929387290246,-0.03375875301267034,0.060530583259649426,0.9975952297639598,-1.8384851295744993,-1.9891222494555647,4.155284469974531,0.7115880033794729,1.3443802285954016,-1.3264777450071323,1.0,0.48138467773826477,0.4831230368416366,0.3286177757127973,-0.6928494047924199,0.08644750938540784,-0.43859843053788183,0.5657896668635405
4.3,0.7581906318757325,0.38858793854110596,0.00422905402639269,0.019330035450758672,-0.05193882043542672,-0.18342219139445107,-0.03366349869724105,0.060318030764397026,0.9976111311416443,-1.8369035720825195,-1.990145483823029,4.155068451674652,0.7110172637407906,1.3445937171811322,-1.32644419720025,1.0,0.48189712147789066,0.4836208511444941,0.32857484828086814,-0.6928909001818567,0.08645379958405412,-0.4385935899680732,0.5657416405229283
4.4,0.6465048892453213,0.2315274371687526,0.007327128349235698,0.022807932741402193,-0.05312619113138085,-0.19140095455668693,-0.034285523921328755,0.061364004878982074,0.9975262171104757,-1.8353705576315693,-1.9910121473949254,4.154864893814613,0.7103789153253552,1.3448477676545065,-1.3264316649219834,1.0,0.4822216185831143,0.48394389922497133,0.3285715798382172,-0.6929035764044893,0.08644463606803217,-0.4385904694100864,0.5657299345479021
4.5,0.756065370466629,0.3399645408956516,0.041616307123762505,0.01959778906603117,-0.054230684837411905,-0.19357054132765986,-0.03402483436998274,0.06095686163569666,0.9975598802823632,-1.833889945512892,-1.99192896702739,4.154622195241139,0.7098323541828613,1.3450865824193352,-1.3264703760519858,1.0,0.48262078645319645,0.48436926873154085,0.32862803140490626,-0.6928856315557341,0.08643776997212906,-0.4385898371132401,0.5657534518558753
4.6000000000000005,0.6276639029662483,0.31355095285203594,-0.09958684440944074,0.025079241928628367,-0.05328806462303872,-0.1985462598137574,-0.03352754655866819,0.06016023240217924,0.9976253262686952,-1.8323975384607136,-1.9928258918842676,4.154385140779856,0.7092707152040498,1.3453177775266016,-1.326446590704153,1.0,0.48287459319833004,0.48462906679142287,0.3286846002423116,-0.6928446002041,0.08644629515682925,-0.4385955362783256,0.5657979794753667
4.7,0.7794057011488308,0.2646900599443865,-0.12491706329954397,0.02250293288039138,-0.05971766611518936,-0.19967803317018856,-0.03378820381120264,0.06060293898439383,0.9975896641897574,-1.8306983121314244,-1.993801779563734,4.154150485992432,0.7086844523852659,1.3455770852324338,-1.3264242860622057,1.0,0.48317996411966796,0.48491686583661814,0.32871892071996456,-0.6928257003109246,0.08644512360706452,-0.43860823484232536,0.5658114579272284
4.800000000000001,0.6222652805546081,0.3391502282162017,-0.05278373124799827,0.02011591842224345,-0.0524683645221569,-0.19501568801322847,-0.03392856266346183,0.06084275706942586,0.997569992932824,-1.829256445701056,-1.9949626277297294,4.153917769806958,0.7080598026336472,1.3458145207402559,-1.3264438096692812,1.0,0.4837121426968809,0.48545454963936563,0.32877342555245054,-0.6927969497935126,0.08644690854373323,-0.43861816852052393,0.565838687793383
4.9,0.8757021060682302,-0.007613023652417783,-0.09695195665968356,0.01392656133078804,-0.059107584131459306,-0.1926367501594269,-0.03312192328363258,0.05951697538560729,0.9976764918886522,-1.8278783448807785,-1.9959888984690353,4.153704946822306,0.7074252735996468,1.3460623937121343,-1.326416044502842,1.0,0.48396628731065156,0.48574527317435073,0.3286507727706873,-0.6928838010569378,0.08642769165714026,-0.4385796771357836,0.5657651095208857
5.0,0.8930471390290192,0.42895082945766555,-0.05738732651535535,0.03500322535687911,-0.05421621295772484,-0.1971416259884208,-0.03262731023059187,0.05871645994892873,0.9977412023356863,-1.8262221629717197,-1.996671755958554,4.1534860232838415,0.7068808436028988,1.3462845094022695,-1.3264292006969745,1.0,0.48440397539089836,0.486207452008854,0.32852882755741625,-0.6929748450941599,0.08641271905920343,-0.43853683477020616,0.5656890935852036
5.1000000000000005,0.7743300093724313,0.1327478535954915,-0.08869873171728787,0.0205783287217986,-0.055671064724874986,-0.19902784574502258,-0.033051585685467094,0.05946280475016908,0.9976828495114606,-1.824529265840647,-1.9975413736369942,4.153277748169474,0.7063564674626158,1.3465076751093348,-1.3264293499822493,1.0,0.48459592675080115,0.4864138942445552,0.3286819142361535,-0.6928951571761159,0.08640932945659278,-0.4385684054869653,0.5657627441369472
5.2,0.7544087647809,0.2827618301160116,-0.032113806410821955,0.023825574076093935,-0.05817431982522433,-0.2034876006432631,-0.033401456962238396,0.060068465269917756,0.9976352550459602,-1.8231626907022822,-1.998437793459026,4.153083324432373,0.705738576719756,1.346741887700091,-1.3264029661761683,1.0,0.4848956367213241,0.4867124962822445,0.3288628744888734,-0.6927857501324051,0.08642426721218952,-0.43860803204151155,0.5658637156409569
5.300000000000001,0.7483326014269711,0.49623494166654547,0.06114519982113293,0.019770006326991076,-0.0643985720316837,-0.1992704143549764,-0.03352392846031748,0.06024415565503242,0.9976205411048543,-1.821716827185619,-1.999546139556621,4.1528224437620445,0.7051416563128257,1.3469824482622916,-1.326405776454326,1.0,0.48538069637339076,0.48719212534981365,0.3288418113518405,-0.6928165784295434,0.08642981121631053,-0.4385989308854182,0.5658321784879871
5.4,0.8068209215471039,0.2760714564711592,-0.01658620239533382,0.025254891978451346,-0.05908133238306556,-0.20914831035382037,-0.033584848313044036,0.06032960716946114,0.9976133408338914,-1.8199663162231445,-2.0006212757707207,4.1525712573007505,0.7045337676690521,1.3471564267796003,-1.3263910452472132,1.0,0.48567418798211975,0.4874804433412592,0.32873531656239835,-0.6928972327998733,0.08642784080476992,-0.4385676499611816,0.5657579601911318
5.5,0.6147833269293944,0.3699901766506698,-0.039018145363451426,0.028087466641579975,-0.05502567140476599,-0.2099812230881754,-0.03344634172087003,0.06012268604186434,0.9976304847460317,-1.8184094020483825,-2.0015467157465636,4.152383716130192,0.7039209157415199,1.3473976217716905,-1.3264148871051233,1.0,0.48610484508055973,0.4879289496930439,0.32872203148741763,-0.6928890119472126,0.08641679022454572,-0.4385705931026793,0.5657674348667183
5.6000000000000005,0.5659620590842517,0.32492725756553104,0.015774330242847787,0.025014768485901468,-0.054386624954614195,-0.21068154849231388,-0.03303552369044167,0.05944010500344043,0.9976847985783057,-1.8170809312498466,-2.0024149281887675,4.152100699940888,0.7033216287581285,1.3476299817417048,-1.3263867959273834,1.0,0.48634352750470855,0.48819118543001055,0.3287432678253704,-0.6928801315237318,0.08641457254663813,-0.4385708168052199,0.565778475764181
5.7,0.6294861857417169,0.20446654309179738,0.0973177947673472,0.019259157151809883,-0.056701717356581825,-0.21224468659722617,-0.03282326521786453,0.05906165500777408,0.9977142153221251,-1.8154644678397212,-2.0031853639858404,4.151867500387182,0.702764729178088,1.347853183746338,-1.3263947664504623,1.0,0.48665141827637826,0.48849742183143763,0.3287429919535237,-0.692896432392601,0.08642326228369365,-0.4385623116286948,0.5657637780317375
5.800000000000001,0.7076497366267238,0.16765019904299372,-0.03306750371648752,0.02185901810526524,-0.05632233210240416,-0.2074765407570287,-0.033668291137703484,0.060379047934969815,0.9976071134721605,-1.8137970493982147,-2.0040865813939206,4.1516641581777245,0.702160044307373,1.3480549134912128,-1.3263863568304881,1.0,0.48714499197781963,0.4889246856842294,0.3289063388609724,-0.6928121239571656,0.08645309987799658,-0.4386125889860427,0.5658234876729731
5.9,0.531687001940322,0.12840223127717404,-0.03314531054991689,0.02391393383690418,-0.056204291621917,-0.21236375729211643,-0.033488423795316406,0.06007665289137416,0.9976314945408832,-1.8123299280027418,-2.0052224598326625,4.15140708283682,0.7015394141323116,1.3482883770437153,-1.326400264181281,1.0,0.48742233537773105,0.4892083902675631,0.3290174057591381,-0.6927530349639938,0.08645686163721053,-0.4386358909143562,0.5658771941205871
6.0,0.2881474105244242,0.11587516199737748,0.14457745670734892,0.020832619995917092,-0.07422795684603929,-0.22315256965567662,-0.033188630357163136,0.05961298523567404,0.9976690103712772,-1.8112422030518116,-2.006092157297632,4.15122433963303,0.7010370549404519,1.3485022753583862,-1.3263425738343861,1.0,0.4878755787590245,0.4896776320372414,0.32889416993833115,-0.6928391398349392,0.08643940208248346,-0.4386005127958145,0.5658018613045145
6.1000000000000005,0.5458373002087069,0.21141283467829725,0.11243831388906322,0.01891415723425791,-0.06983356016006773,-0.2258602042430439,-0.03403915867433141,0.061077983749670405,0.9975501421738835,-1.8094855446039244,-2.007024382828091,4.150990376396599,0.7004424768635253,1.3487423759283022,-1.3263536584708833,1.0,0.48810973497501603,0.4899177850622058,0.32875235563621114,-0.6929340413344908,0.08643051353667809,-0.43855560517442976,0.5657218060670158
6.2,0.5645527316984714,0.4488770391616185,0.05170418212140249,0.025361551764502176,-0.055425512987430293,-0.22432533133860733,-0.03488968699149967,0.06254298226366675,0.9974312739764897,-1.8079242438281216,-2.0079052745793664,4.150764015296634,0.6998252185932649,1.3490015231170638,-1.3263135666400387,1.0,0.4883966318403881,0.49022908527343334,0.3288045014510282,-0.692903994806543,0.08642333287394303,-0.43856334503926825,0.565753704277808
6.300000000000001,0.5649129964213181,0.30159152660998373,0.08235705146905214,0.0301508915777009,-0.062203417443868377,-0.2262520658515548,-0.03423204889291357,0.061450052003764265,0.9975210426571395,-1.806452642236765,-2.008781043917751,4.150563893329156,0.6992793828143036,1.3492326736450195,-1.3263229148299118,1.0,0.4888525058591985,0.49068284749537316,0.3289143913958177,-0.6928471224835184,0.0864163468354425,-0.438594223848229,0.5658004830970849
6.4,0.6852263372911516,0.14911092909139037,-0.042964334251912345,0.024848135762854728,-0.06302927812454033,-0.22628505248377564,-0.03316823577384807,0.05966269308792736,0.99766738739012,-1.8047685623168945,-2.0097395382323207,4.150351047515869,0.6986287864410465,1.3494610786437988,-1.3263299044510402,1.0,0.4891387943347907,0.49095733596335045,0.3289460441453773,-0.6928364259470665,0.08642221074384428,-0.43858752123895384,0.5658178811106204
6.5,0.8487313109029402,0.22144622619227092,-0.09636962895333395,0.021195030929322865,-0.06380892139052019,-0.22778796416598432,-0.033301569918833325,0.0598798816253342,0.9976499284084042,-1.8033312249817102,-2.0107602457045446,4.150088692600947,0.698062200247686,1.3496616575393117,-1.3263336239047399,1.0,0.48966233711924523,0.4914857930669017,0.3289851510396677,-0.6928230044957083,0.08642834773997593,-0.43858993212067493,0.5658315090120548
6.6000000000000005,0.7359161407217989,0.24638465332614745,-0.04673406195232699,0.02150477927302929,-0.059766952753107117,-0.22810282181052266,-0.033718889931668355,0.06054714896361404,0.9975953351920946,-1.8018131056869207,-2.011756715326075,4.14986642504858,0.6974158454675703,1.3498972291631108,-1.3263195300693096,1.0,0.48985994355598145,0.491673358758121,0.3289306821446934,-0.6928557421734449,0.08643732252097913,-0.43858209716009877,0.5657961239380654
6.7,0.7091156253086145,0.1720711528483064,-0.12148605244666183,0.023145108996449316,-0.0594768198781724,-0.2299112464192048,-0.03417641433985253,0.06127542155110456,0.9975356077355209,-1.800211193528685,-2.012706786915917,4.149604285551058,0.6968447344503965,1.3500838969086524,-1.3263379263255382,1.0,0.49027750757678956,0.49207447652825886,0.3288617112902993,-0.6929095936231572,0.08643039779587125,-0.43857161303366754,0.5657393584000368
6.800000000000001,0.6981752995406277,0.18730136624186722,-0.045077033182170156,0.021380554492035634,-0.057213707848832875,-0.23203934830726328,-0.03408687204909329,0.06112206241702451,0.9975480768911874,-1.7985639572143555,-2.013576963049454,4.149407548968516,0.6962634857380678,1.350308256085195,-1.3263071219073694,1.0,0.49054540142464154,0.4923514338175939,0.32889341443666553,-0.6928862947198147,0.08643278468057253,-0.4385816178432276,0.5657597730590476
6.9,1.1124008611831298,-0.002651661460519001,-0.12591299253083224,0.02652445181026955,-0.0689294164277793,-0.2262077397368308,-0.034629743614952635,0.06201296229905813,0.9974740507153269,-1.7971624547960303,-2.0144881651560183,4.1491875648498535,0.6956594114970536,1.3505036594706725,-1.3262867917802195,1.0,0.491080079613188,0.4928750387369622,0.32899148592677385,-0.6928414461742912,0.08644680390263529,-0.4386043363707706,0.5657949422493028
7.0,1.1984018285427651,-0.37400710218896294,0.7755228750641373,0.04107704555491537,-0.06769244247484835,-0.23892185053363932,-0.034808997859308854,0.06230015666648338,0.9974501740031494,-1.7956310289116197,-2.015482053073722,4.149040032278076,0.6950278711519136,1.3507012700897523,-1.326303819102101,1.0,0.4912360279120979,0.49303658472590334,0.32900680135277177,-0.6928389915289179,0.08643974224500711,-0.43860673859383886,0.565797164748892
7.1000000000000005,0.928303382610191,0.014048870604653874,0.2978470913031045,0.028171342804314072,-0.059899536559198614,-0.23517860751530376,-0.03458264691149894,0.06191572019339995,0.9974820110447428,-1.7952126877752483,-2.0157091856347837,4.148933372305594,0.6949058822806919,1.3507632825839146,-1.3262952009784144,1.0,0.4915516923500631,0.4933726533039728,0.3289953266247047,-0.6928503786933513,0.08644183159976787,-0.4386028110973909,0.5657859459120769
7.2,0.8927716289880379,0.16832063999195196,-0.11874129292038849,0.025529505143632513,-0.06620605034551391,-0.23355486039734677,-0.0344178483847721,0.06164855469649647,0.9975043040439298,-1.7951799666037909,-2.015672489620891,4.148983545749684,0.6948660146730761,1.3507300650229803,-1.3262952009784144,1.0,0.4917553903726778,0.49360133120357447,0.32900445836126463,-0.6928593009886024,0.08644259656713728,-0.4385866552100492,0.5657874268698256
7.300000000000001,0.6304292408069342,0.7234617012053285,-0.0976975402173853,0.03415730893111175,-0.0634443777604884,-0.23673575893257778,-0.03426676544030698,0.06140750081563327,0.9975243547401471,-1.7951706598510362,-2.0156871779520054,4.1489394853820425,0.6948712356526259,1.350777124745728,-1.3263033326008096,1.0,0.49175806737174915,0.49360208512911263,0.3290135631148165,-0.6928442063989105,0.08644745703917409,-0.4385954388054441,0.5657983597448687
7.4,0.5845379357904151,0.6616468084093067,-0.09224347429327664,0.03308465207385914,-0.06082859423743305,-0.23349303081794048,-0.03394921568748926,0.060849147493516435,0.9975693714285118,-1.7951610897313246,-2.0157371960081996,4.148952740232271,0.694861574763916,1.3507588086526812,-1.3263183530371163,1.0,0.4917685759843529,0.49359112336836874,0.32902052391377185,-0.6928476088406056,0.08644755279882683,-0.43859961997968755,0.5657909374429948
7.5,0.7165007765506846,0.13400375187953031,-0.0980547046261031,0.021822447739699883,-0.062043086732323394,-0.2300050266950339,-0.033865011534757884,0.06070165581103207,0.9975812997480035,-1.7951688766479492,-2.01573341768379,4.148969420003509,0.694861574763916,1.3507708099146882,-1.3262830163607082,1.0,0.49179228751362697,0.49359930440277283,0.32902000224723027,-0.692841567776042,0.08644818464658084,-0.43861738649717635,0.5657844656716315
7.6000000000000005,0.8418041029177796,0.27686116483636947,-0.09424847141414731,0.026837679687638095,-0.06672111161299249,-0.23205703653094448,-0.03393004571191588,0.06081693447815646,0.997572066096121,-1.7951490099091116,-2.0157293244287833,4.148968776805142,0.6948378206495212,1.350766658782959,-1.3263030725578306,1.0,0.4917688109926492,0.493609800205527,0.32902147240615565,-0.692848802186982,0.08644757766522179,-0.43859711259350037,0.565791416025839
7.7,0.7915585259640712,0.2674116527504517,-0.040945843470296436,0.025698209746619884,-0.06450657592874778,-0.228254893943383,-0.03400442845402094,0.06094968196405529,0.9975614338440567,-1.7951469500278314,-2.015733747808094,4.148947908851268,0.6948534409442204,1.350765697219483,-1.3263085603080036,1.0,0.491764371918936,0.4936084269525462,0.3290054806651769,-0.6928584901877994,0.08644963967706418,-0.43859208944172084,0.5657831311143292
7.800000000000001,0.5448249052305438,0.3200227131028012,-0.12092285982696405,0.02532158612353442,-0.05854671848171411,-0.23678999533906941,-0.03416027696515406,0.06123465717298191,0.9975386138348329,-1.795140750145833,-2.0157406657685013,4.148952477240641,0.694861574763916,1.3507295231384557,-1.326281430354663,1.0,0.49176186203430405,0.4936168616140136,0.3289934425197042,-0.6928686564605133,0.08643456172695668,-0.4385963259860835,0.5657697007309438
7.9,0.8312471634569504,-0.009613896189032717,-0.18561194376443738,0.021172997985143896,-0.06387881610487779,-0.2258922268600603,-0.03432751254161254,0.06153352590361567,0.9975145109133042,-1.7951293590205302,-2.01574061059507,4.14897452187698,0.6948566866789102,1.3507914543151855,-1.3262897689695166,1.0,0.49176003080666214,0.4936218556901606,0.32899575616418275,-0.6928614777165025,0.08643422805162788,-0.4385886367697367,0.5657845036885399
8.0,0.7400578909436224,0.20311306994959594,-0.23313577720269124,0.02503101946292373,-0.06485684751047377,-0.2240190108086954,-0.034606797610750126,0.061969107827186266,0.997477784047958,-1.7951727899932677,-2.0157528850633626,4.148948524214483,0.694869727566663,1.3507591280364806,-1.3263030455059959,1.0,0.491761218307094,0.49361943733319036,0.3290122879800198,-0.6928446322698609,0.0864469753065261,-0.4385926478386952,0.565800075342021
8.1,0.702857417696992,0.20812338490338167,0.03756119844867388,0.025768549765107035,-0.06276466504896838,-0.23128395842500366,-0.03481097225090648,0.06228293504235839,0.9974511503848484,-1.7951562623440476,-2.0157649448290615,4.148956960196656,0.6948737559922408,1.3507393867992552,-1.3263031149243678,1.9850073130903065,0.4917708502717792,0.4936056956899644,0.32901130757638086,-0.6928532482223174,0.0864402617460141,-0.43861032607560124,0.5657768459710231
8.200000000000001,0.7553112806025255,-0.06785080533345772,-0.1010119393956328,0.019854613462184784,-0.0626758744593818,-0.23012342354136406,-0.03418324570379656,0.06124824264652877,0.9975363060835895,-1.795132777110904,-2.0157252750792445,4.14894898151092,0.6948215122183424,1.3507504380952957,-1.3263360894477525,2.0,0.49176913068549183,0.493610986706809,0.32899302843961686,-0.6928647095233313,0.08644105612224771,-0.43860031973405883,0.5657704460669553
8.3,0.7709862587254368,0.1817262668052167,-0.19162508272141743,0.024243999565558297,-0.0659124063332406,-0.22658755275005657,-0.03363877592983338,0.06035373273292233,0.9976100013693648,-1.7951405033341779,-2.0157409228639755,4.148972988128662,0.6948768947857198,1.3507630810014142,-1.326282211924905,2.0,0.4917595133397458,0.49361926709057746,0.32898748570061914,-0.6928714397775846,0.08643193904363994,-0.43859162912634353,0.5657703338935275
8.4,0.5541288306401075,0.5158641723616806,-0.19850726489385803,0.032769452052567385,-0.06039027333460844,-0.22298692172989487,-0.03414287433649291,0.061224735519175864,0.9975393597571526,-1.7951176874642834,-2.015772958795065,4.148960590362549,0.6948571416078102,1.350745978949275,-1.3262914033882482,2.0,0.4917606663526149,0.4936186988258133,0.3290099954079038,-0.6928562274229046,0.08643440504099623,-0.4385929422218914,0.5657875685976621
8.5,0.47953729510727366,0.5547888675480466,-0.168129482867107,0.028397565696189446,-0.058583182095767544,-0.22999458309542456,-0.03463673798544251,0.062076563972510684,0.9974701695686896,-1.7951133558720391,-2.0157528742618496,4.148989315337182,0.6948579677322089,1.3507428169250488,-1.3263234491158897,2.0,0.49175653003450903,0.49361670678708347,0.3289902957264803,-0.6928693978793452,0.08642855624340372,-0.43858427977876313,0.5657790484623288
8.6,0.6839035888818003,0.3912212598583793,-0.2555542619702492,0.028605029277105187,-0.06608574025243032,-0.22354815623051558,-0.03498330938317852,0.06265244738238065,0.9974218673658095,-1.7951043086759346,-2.0157415099409697,4.14897215299675,0.6948730188557128,1.3507674939148713,-1.326303318409277,2.0,0.4917546977672266,0.49362370680107676,0.3290041583418925,-0.6928569734759785,0.08642591626620114,-0.43858198573925844,0.5657964449236703
8.700000000000001,0.8087007719281073,0.2641935145005884,-0.27236719062985787,0.02010362620650383,-0.0699027517855565,-0.2233422960828058,-0.03529108234225475,0.06316506867530916,0.9973788957207071,-1.7951403588077877,-2.015745404541067,4.148945582370508,0.694857258472607,1.350751353799231,-1.326270882283346,2.0,0.49176703702433877,0.49362336984704686,0.32900814596282796,-0.692856773855597,0.08642972253032094,-0.43859606813682606,0.565785191570673
8.8,0.6182700003814527,0.3566123533177699,-0.19341491521931045,0.01930346514832058,-0.06701068813216518,-0.22348787416132168,-0.034921174721708144,0.0625727097278473,0.9974290313141789,-1.7951280700354806,-2.0157863887431597,4.148954935732364,0.6948535692237949,1.3507594951336344,-1.3262936919592745,2.0,0.49176055483031833,0.4936165989237995,0.32899511732822023,-0.6928623977319154,0.08642993016485284,-0.43859618369745607,0.5657781832369531
8.9,0.630039611108424,0.5434926242418647,-0.08720753027336944,0.019922875721033177,-0.06675907972593974,-0.22300412467188682,-0.03456684807134876,0.06200350895015901,0.9974771665477913,-1.7951155135594177,-2.0157610378661097,4.148949146270752,0.6948537149520282,1.3507591915331483,-1.32632277646123,2.0,0.49174417725796116,0.4936380023867849,0.3290034037354351,-0.6928621384835306,0.08642276447413502,-0.43857902775765717,0.5657928943065873
9.0,0.6423721281180761,0.32493813349115175,-0.12783715993233408,0.01847105307802201,-0.06882161675613369,-0.22051465738889675,-0.03456737921814817,0.06196173727433867,0.9974797434313984,-1.7951370263505708,-2.01578487972402,4.148964411693672,0.6948648280995188,1.3507428169250488,-1.3262857266850197,2.0,0.4917555061876083,0.49362407283470355,0.32898639191367574,-0.6928639010621483,0.08643093556538052,-0.4385880688069549,0.5657824792996161
9.1,0.8358148557377147,0.29915532006123813,-0.16919377261861127,0.007965510580776283,-0.05688588860302791,-0.22287831482524026,-0.03489168152850535,0.062497519752636,0.9974344475223178,-1.795143423621361,-2.015745568714314,4.148987938415642,0.6948464405203649,1.350766658782959,-1.3263047080160486,2.0,0.4917522491026068,0.49362775008153065,0.3289907086925649,-0.6928647902290167,0.0864257093242422,-0.43858493610618354,0.5657846171905323
9.200000000000001,0.45683071348964366,0.9767768704454243,-0.7462751085455488,-0.0154231592633048,-0.08810588793430692,-0.21470871373859388,-0.035499331952979794,0.06353874835705389,0.9973472557711971,-1.7951360045942608,-2.01575262482292,4.148967886764941,0.6948837828448771,1.350775408347876,-1.3262999658204075,2.0,0.49174585352350375,0.493639198093172,0.3290138916323364,-0.6928434274847717,0.08643120596194842,-0.43858505074252063,0.5658098487056388
9.3,0.4491328705736535,1.3687832605039603,-0.5822381477607401,-0.04263533209263553,-0.08851295064391616,-0.2113298379988716,-0.03603932461737704,0.06443927923316324,0.997270327237209,-1.7951369830963857,-2.0157602075923684,4.148960590362549,0.6948651237735844,1.3507802157845687,-1.326322739721396,2.0,0.49175711719149456,0.4936255137328656,0.3289931079940527,-0.6928636214538333,0.08643523368987649,-0.43859227023139447,0.5657789081753819
9.4,0.6762368858894517,1.3908839252236995,-0.7038270263623667,-0.05807547056199802,-0.09188036913890255,-0.2160534160199479,-0.03651674896181392,0.06520969612866698,0.9972028898872718,-1.7951312751888646,-2.01578487972402,4.148959228527488,0.6948812176303876,1.350755214691162,-1.326314730358631,2.0,0.49176343976290227,0.4936333236504863,0.32897703707433085,-0.6928808301472599,0.08643292259428116,-0.43858605839084,0.5657630020524863
9.5,0.7298139963989541,2.031397969019305,-0.8867338044807427,-0.11365211453786735,-0.08181616434921517,-0.21697097990784794,-0.0368907862834984,0.065806137391307,0.9971502174381524,-1.7951736696090432,-2.015759509328878,4.148956074531901,0.6948751627953259,1.3507516119953646,-1.3263021292395631,2.0,0.4917645922646514,0.4936198391016656,0.3289803862443171,-0.6928732777172402,0.08644849048278927,-0.4385894757993956,0.5657672235439475
9.600000000000001,0.7969467730879095,2.7034066147257687,-0.5541133006210591,-0.20099837589101743,-0.09056356463586754,-0.2194446671720071,-0.03741870845666302,0.06667066662940821,0.9970725426791871,-1.7951426017421124,-2.0157796456454267,4.148949146270752,0.6948532774252306,1.350731372833252,-1.3263157649685,2.0,0.49176286348217935,0.4936304599908329,0.32894562250595577,-0.692901522553095,0.08643475502701119,-0.4385790893856685,0.5657427821198084
9.700000000000001,0.7762737253949674,3.378113798638606,-0.5402751351806808,-0.2704833336469752,-0.09714389825834069,-0.21555850836253984,-0.038204732542610864,0.06797878653003567,0.9969549390200233,-1.795172177870235,-2.015772958795065,4.1489547584940984,0.6948377329060058,1.3507258526135673,-1.3263190428363245,2.0,0.4917785901459644,0.4936230333615077,0.32897674057568155,-0.6928704691951533,0.08646851050389685,-0.43858398363136497,0.5657718611866165
9.8,0.5576605272300172,2.967127410976654,-0.8519501097311206,-0.22663127755596943,-0.10705671283369392,-0.22146781003442167,-0.03793252704182346,0.06760820927259271,0.9969905219592256,-1.7951688766479492,-2.01578487972402,4.148955951817738,0.694852297674295,1.3507811098837663,-1.3263105246808626,2.0,0.491763053209614,0.4936374081598452,0.3289656799477027,-0.6928776720487853,0.08644501251196443,-0.4385767444926153,0.5657722426721923
9.9,0.38043608762698505,2.263394531089482,-1.1390070872262386,-0.15553824734109073,-0.10550113885989576,-0.2250377651559837,-0.03764021165524139,0.06717981544932042,0.9970305752892828,-1.7951545273611225,-2.015752553202089,4.148988684709113,0.6948854166218261,1.3507754828335408,-1.3262986372433485,2.0,0.491742264161579,0.49362386467198666,0.32902334299828584,-0.692831098806249,0.08641312886050133,-0.43859359513392615,0.5658210830244499
10.0,0.9253378824123597,1.4064119999178786,-1.1728349232713744,-0.10142767538467107,-0.07566546654075201,-0.22459066013277273,-0.03737364643549076,0.06676119166241677,0.9970687710451398,-1.795165631978556,-2.015755876665057,4.148970865148961,0.6948636501279241,1.350766658782959,-1.3262968471209577,2.0,0.4917500081108481,0.49363283334975644,0.3290068039545114,-0.6928380628134703,0.08642492270526904,-0.43858411946666315,0.5658180993958377
10.100000000000001,0.8089962160744759,1.3855820655182338,-1.125399880171151,-0.11231141211374217,-0.09372569030997048,-0.22360247157003224,-0.03715304567483708,0.06634483344317568,0.9971047041963562,-1.7951586348836293,-2.015755854939997,4.14897837837182,0.694861574763916,1.3507926566426625,-1.3263123048334824,2.0,0.4917426950330831,0.49364349268195157,0.3289839367120214,-0.6928620309802047,0.08641705550435083,-0.4385801662987827,0.5657930153981012
10.200000000000001,0.7994945903180142,1.110017772549429,-1.0611812753368466,-0.10503965319855073,-0.09220330504192667,-0.22430432146391477,-0.036935094868335794,0.06592860583899138,0.9971405069033409,-1.7951331907586205,-2.015762191480057,4.149007474259485,0.6948978143879394,1.3507319265679467,-1.3262822264053273,2.0,0.4917570424765296,0.49362607323500646,0.3289851484761622,-0.6928720652558851,0.086441386488421,-0.4385811330178809,0.5657762611233839
10.3,0.8008735667010325,1.0311180117804224,-1.0667039313183149,-0.09412860730386918,-0.09167346315315042,-0.2236558554544751,-0.03677737841376,0.06566122187433784,0.9971639466812412,-1.7951333784058447,-2.015770502046332,4.148963145381231,0.6948548476296865,1.3507502854411972,-1.3262853582309835,2.0,0.49175310091900465,0.4936327001144033,0.3289876309291615,-0.6928655992520294,0.08643509140324913,-0.43858419179090197,0.5657827702028043
10.4,0.628178443586562,1.001007296395651,-0.9946828151431389,-0.09023456841372243,-0.0940610846571694,-0.22646536085191316,-0.0366237084466557,0.06540383708628902,0.9971865559291191,-1.7951478199657396,-2.015755793455042,4.148960590362549,0.694875535375353,1.3507599822650718,-1.3263190428363245,2.0,0.4917609770289903,0.4936248072174336,0.3290013899393905,-0.6928544972303714,0.08643222672377629,-0.43859540137424335,0.5657881138240581
10.5,0.5154344240473683,1.1195418306033227,-0.885560687348824,-0.08217379409931021,-0.09601599292904843,-0.22658278861042355,-0.037249597321428435,0.06648058352091013,0.9970916445154389,-1.7951348766772113,-2.0157537191564106,4.148975381282675,0.694861574763916,1.3507620565637033,-1.3262952009784144,2.0,0.4917626327486379,0.49361967454615896,0.32899266120511284,-0.6928636728081893,0.08643570925554289,-0.43857967950538607,0.565788532751584
10.600000000000001,0.723514470372324,1.0833988278937094,-0.6881384909770252,-0.08581838959842007,-0.10342084511866628,-0.22735763519608335,-0.037637601671842,0.06715045083009075,0.9970327097530566,-1.7951440811157227,-2.0157610378661097,4.148966655131551,0.694841266778962,1.350760827274303,-1.3263129534160254,2.0,0.49175856188783096,0.4936362340014031,0.3289993535300911,-0.6928560630617768,0.08643558439771129,-0.43858548467090847,0.5657933706436877
10.700000000000001,0.5943957286080968,1.3272041740707254,0.08672075190231876,-0.10806594230361902,-0.1151285537926098,-0.21887904859102028,-0.03744202081056314,0.0668118824324822,0.9970627413635589,-1.7951510788667255,-2.0157579832077315,4.148991495211532,0.6948290421536522,1.3507398844530056,-1.3262739369417242,2.0,0.49175051677561926,0.49363845345490354,0.3290039806108598,-0.6928576720415864,0.08643059948560745,-0.43857837585282966,0.5657976723175577
10.8,0.30013155788822365,2.0584072493975967,-0.03319674362032357,-0.1291942873204633,-0.11762187123985492,-0.2215621831468445,-0.03723911278223955,0.06644113913269847,0.9970951859300956,-1.7951326370239258,-2.0157606905657075,4.148966969841815,0.6948409226456387,1.350739872550003,-1.3262889441814423,2.0,0.49176871350350737,0.4936324306214135,0.3289649895807533,-0.6928899496861113,0.08643490178200675,-0.4385822921597436,0.5657544506071681
10.9,0.7436573877129424,2.2199157258513766,0.6418084162951688,-0.18112580856602187,-0.11560682667115021,-0.21852154988627912,-0.03734118217480248,0.06658540675051727,0.9970817490603292,-1.795139044124764,-2.015778719050137,4.148993702854501,0.6948140610567037,1.350739859801585,-1.3262802465076482,2.0,0.49176888683292724,0.49362873546569097,0.3289757967398173,-0.6928775698185905,0.08643995126288276,-0.4385867833239072,0.565765359103527
11.0,0.8602757597103118,3.0603595338845184,1.6374643982373132,-0.2196986386535184,-0.10600443205425444,-0.21385445841556722,-0.03725574536309161,0.06645530730748005,0.9970936158244285,-1.7951688766479492,-2.01577014969661,4.1489815277879645,0.6948224307073981,1.3507401201905322,-1.326298010076869,2.0,0.4917662442283365,0.4936413878355024,0.32895834762138326,-0.6928882820431764,0.08643474702497503,-0.4385813564801637,0.5657572419881195
11.100000000000001,0.8591405961821124,3.194676052670366,2.341320007573974,-0.2579804228003037,-0.09758333100239334,-0.21712845394631977,-0.03744561068510543,0.06678349851113517,0.9970640107938498,-1.7951542877967384,-2.0157915495354866,4.148939455830204,0.6948656495626528,1.3507428169250488,-1.3262941468087586,2.0,0.4917585473893785,0.4936508500054742,0.32897117696860306,-0.6928822743457523,0.08643535338223729,-0.43857601605484786,0.5657686468200612
11.200000000000001,0.8959578269195583,3.555016972077485,2.496318998686933,-0.26984868922691657,-0.0953776208767359,-0.21315766698091226,-0.03815184697185659,0.06796212697177981,0.9969573324289089,-1.7951354106536173,-2.0157913835270387,4.148967209733471,0.6948500179735351,1.3507247534623292,-1.3263012279442752,2.0,0.4917636009700361,0.4936377769784161,0.32898229961794334,-0.6928678862875174,0.08643789169375288,-0.43859392653043694,0.5657719952786819
11.3,1.0175306884996762,3.649474416877409,2.434519562757819,-0.29054464131995034,-0.09367177031857787,-0.2114523843026722,-0.03855687047280699,0.06863324579314709,0.9968965925819137,-1.7951412493304946,-2.0157579662659924,4.148976055895992,0.6948256901532125,1.3507458846923792,-1.3263011043637598,2.0,0.49175289349623724,0.4936337978892098,0.3289759375744241,-0.6928694524436548,0.08642965094417544,-0.43858688197847717,0.5657767972129071
11.4,0.7385864313218918,3.597738598831472,2.466269494418258,-0.2985890359296063,-0.08759958396727527,-0.2156660095047988,-0.038427147863239454,0.06840337760982114,0.9969174078512758,-1.7951628829574053,-2.01578487972402,4.148960590362549,0.6948588495632895,1.3507484944263541,-1.3262980397290671,2.0,0.49176326515763097,0.4936222532283987,0.32899416122397884,-0.6928524573131682,0.08645455786154141,-0.4385892591473269,0.5657919613962967
11.5,0.7417270917679291,3.5147719943367814,2.570157219168499,-0.3047840962637692,-0.08744872765433144,-0.21703580012914755,-0.03781901949704449,0.06742115328632839,0.9970067192338024,-1.7951601198606226,-2.0157666364170894,4.148966412855568,0.6948759301022223,1.3507484154760285,-1.3262980002539042,2.0,0.4917644990363184,0.49361938184315685,0.3289945762427583,-0.6928533595569767,0.08644298063358694,-0.4385890879848345,0.5657927581282952
11.600000000000001,0.771334452599537,3.5368502059747806,2.531606186839134,-0.305386570257732,-0.08930157615976181,-0.21570151116548733,-0.037127451795861736,0.0663077096053345,0.9971079771074665,-1.7951291582435571,-2.015775578963298,4.148975713103624,0.6948705034942092,1.350760455027628,-1.3263216630045576,2.0,0.49175514142840554,0.49363040800515906,0.32897862493875446,-0.6928676521774761,0.08642644228789101,-0.43857849500851825,0.565785993424716
11.700000000000001,0.8453880778819911,3.53258993065533,2.5370519323285667,-0.3034181779689946,-0.09203621506536225,-0.21279870461411837,-0.037364116116027135,0.06668272701921268,0.9970740832771321,-1.795149953928654,-2.0157519404049102,4.1489604401417735,0.6948703083266676,1.3507340833622972,-1.326270882283346,2.0,0.4917577994775532,0.4936336244274637,0.32898896302575176,-0.6928606330336088,0.08642583496384346,-0.4385901862335766,0.5657856191020288
11.8,1.0585818300973713,3.3010091713840755,2.6265415904500973,-0.305687223330538,-0.09977164954676014,-0.21072238425387246,-0.037781703462329286,0.06734786250635014,0.997013846835562,-1.7951518133108537,-2.015797277490133,4.148959952511711,0.6948978143879394,1.350766658782959,-1.326297902538654,2.0,0.49175744526671705,0.49361073895637697,0.3289908653057044,-0.6928596377933597,0.08643859394422694,-0.4385968887398388,0.565779692973805
11.9,0.8638682615146713,3.44439779277557,2.5763162280577467,-0.3091530855877754,-0.09166120189216649,-0.20980536735279123,-0.0373195708181367,0.06661679010883223,0.9970800464148151,-1.7951317882816422,-2.0157491169371546,4.148958047478666,0.6948641176477992,1.3507641158990757,-1.3263283149279013,2.0,0.4917469507237637,0.4936382377806069,0.32899037218854793,-0.6928562001901848,0.08643882183502356,-0.4385710051599009,0.565803931915311
12.0,0.7634286634587919,3.6285139466425793,2.5605363868639155,-0.31044523938384744,-0.08699519171635457,-0.21248914248843656,-0.03388873565292345,0.0608591076383511,0.997505387481242,-1.7951368998661423,-2.0157491169371546,4.148962721783657,0.694843900364264,1.350766658782959,-1.3263071219073694,2.0,0.4917456603077115,0.49364396804036387,0.32899553705040446,-0.6928501537018699,0.08643663962195182,-0.43857370446713156,0.5658095771513039
12.100000000000001,0.9569021552908483,3.5445707867420513,2.686405795136711,-0.3076612378763642,-0.09417399302123165,-0.2117562918660579,-0.02443066810697178,0.0448537492514912,0.9986507964316618,-1.7952119968975002,-2.015755231080617,4.148960590362549,0.6948724195344528,1.3507509701518254,-1.3263125073132735,2.9741712212003626,0.4917639012951161,0.49362911056275927,0.3289939749101227,-0.6928550655267895,0.08643849315675105,-0.4385906381505532,0.5657901529731221
12.200000000000001,0.8424303065246533,3.411948944680816,3.2330128783980374,-0.3033342099456638,-0.0968792059917901,-0.20912928539271933,-0.022952709375194877,0.04234999816099916,0.9988389548592881,-1.7959164269904848,-2.015247957406954,4.1490439753813995,0.69508730319125,1.3507352852716628,-1.3262781000014825,3.0,0.4917661522677727,0.4936205948217044,0.3289828544879458,-0.6928691758495508,0.08643416497525938,-0.4385890609581321,0.5657747572050721
12.3,0.8597736613133392,3.4225868651691953,3.2997538344380133,-0.30230657997764493,-0.09815207723791368,-0.21148169375216475,-0.023221599526447523,0.04280099824946317,0.9988136989209045,-1.7974234371249278,-2.014305213295607,4.149229607972792,0.6956776826797312,1.3504795656172237,-1.3262952009784144,3.0,0.4916518916064962,0.49347719532936607,0.32899161255871945,-0.692872467479293,0.08643580873895164,-0.43858597294570806,0.5657728688370145
12.4,0.89818546965769,3.4677625794388294,3.0533936214309483,-0.30267974902673656,-0.0937092652189406,-0.21584744360428154,-0.023121480441251577,0.04262586982397115,0.9988234920244442,-1.79877996122675,-2.01342644958009,4.149489879608154,0.6963055256021229,1.3502140045166016,-1.3262952009784144,3.0,0.4912552682676341,0.49308948607420694,0.3290119342067897,-0.6928530950537539,0.08643222403819956,-0.43858868582120397,0.565795037086641
12.5,1.1644827690534012,3.0721845149642713,2.7843339265117595,-0.2951643404402954,-0.09197821750304215,-0.21253024214058605,-0.02302136135605563,0.04245074139847913,0.9988332851279839,-1.8004868390348674,-2.01248743924266,4.14973633245883,0.6969870404165487,1.3499693374008048,-1.3263139398675872,3.0,0.4909744533176108,0.4928191157864173,0.3290193274939622,-0.692827266385523,0.08644274169332394,-0.4386040305362277,0.5658131632956949
12.600000000000001,0.9709081980652459,3.373886861471092,2.7838572730157907,-0.2883770012636449,-0.09206686318524009,-0.20773837673361992,-0.02314779093001928,0.04268006113068572,0.998820587149057,-1.802234215177697,-2.011472367193727,4.149952846911687,0.6976003548557448,1.3497320531174661,-1.3263309637652796,3.0,0.49051134134937074,0.49236051299468403,0.3288994082591906,-0.6928813197231869,0.08644759018370443,-0.43857241850516376,0.5657707350655538
12.700000000000001,1.0237791775804557,3.359354716982875,2.7074970824221327,-0.2940624115032924,-0.08907848793797885,-0.20757776966215338,-0.02343332011367211,0.04318234337411903,0.9987922386401359,-1.8036654955083757,-2.0105061532716433,4.15020098627263,0.6981401679526525,1.3495037696078147,-1.326303727893835,3.0,0.49026069090905683,0.4921209637259764,0.3289069155239978,-0.6928759826172753,0.08643697713289611,-0.4385731232519476,0.5657783464019319
12.8,0.8834335022165125,3.319907505025499,2.8079273242653864,-0.2930869314507927,-0.08258970294881296,-0.20787102666866464,-0.02356036161010301,0.04340492348197857,0.9987796545816525,-1.8051279450150224,-2.009571880282776,4.150411879313243,0.6987605959469643,1.349278450012207,-1.3263331592209282,3.0,0.4899382129200356,0.4918144086780227,0.3289157548104329,-0.6928729341783377,0.08642793376854421,-0.4385835109589263,0.5657754088527909
12.9,0.8828607084438639,3.2484559813846836,2.821193151384431,-0.2716258307096982,-0.07446120989388283,-0.21120945152733978,-0.023259539813772847,0.042865727687417504,0.9988100514566504,-1.8068228859957736,-2.0086931706486992,4.150598880905331,0.6993045626267584,1.3490603422066527,-1.3263190428363245,3.0,0.48944226631193355,0.4913106826085075,0.3289328241567958,-0.692849434075573,0.08644234667451192,-0.4385911925969464,0.5657960305436492
13.0,1.00901488147982,3.197520432907313,2.7019227104273424,-0.2763540658337891,-0.07204305572271746,-0.2070533697897028,-0.02322483877900905,0.042755466539566585,0.9988155849245381,-1.8083524703979492,-2.00782036184563,4.150851264383601,0.6999685007282714,1.3488370906347515,-1.3263288645856062,3.0,0.4891949598483906,0.49103237582596004,0.3288679406436921,-0.6928884188564268,0.08645166441237649,-0.4385794787191908,0.5657559452461586
13.100000000000001,0.9402560911881735,3.218966974104594,2.7368527697746465,-0.28829923179429107,-0.07081211413718094,-0.20229069800949342,-0.02323777293956586,0.04279936047386225,0.9988134034299183,-1.809847522917248,-2.0068050823607386,4.151115276699975,0.700608534268543,1.3486446577405173,-1.3263840274152594,3.0,0.48890149866751004,0.4907435223405388,0.32880771800774794,-0.6929147090401491,0.08643764011036525,-0.43857247512170205,0.565731318236476
13.200000000000001,0.8457899595493666,3.3124284395865593,2.929517145720111,-0.29708829105134227,-0.07334036062886037,-0.20576190012898002,-0.023287703615026627,0.04292883254340817,0.9988066764588059,-1.8114217747231356,-2.0057392616920846,4.151318838584086,0.7011701303669433,1.3484387397766113,-1.3263476507851177,3.0,0.48842486910572647,0.49026671778310715,0.3288442556487871,-0.6928735788417886,0.08644640050670033,-0.43857253164196275,0.5657803090171716
13.3,0.8475008330652708,3.4260738867752485,2.9948621728695946,-0.29949240996892973,-0.0786058065723986,-0.20454388487016265,-0.02340600933209463,0.0431676983350073,0.998793614448939,-1.8129474992403625,-2.0047228695411627,4.151541368113041,0.7017575937458496,1.3482346534729004,-1.32634092084911,3.0,0.4881185599078288,0.4899489024951156,0.32887556223260805,-0.6928544197762488,0.08643348716163582,-0.43858187281468863,0.5657985031192264
13.4,1.0039898732571835,3.308887605201054,3.0438905162095686,-0.29408644336683926,-0.07674091828984685,-0.2017142604984159,-0.02330391598291957,0.043012443510821306,0.9988026753221001,-1.814494407526901,-2.003889890512055,4.1517777340519455,0.7023221689411621,1.3480015231321936,-1.326360410885976,3.0,0.48768003683094363,0.4895141027628576,0.328925001323427,-0.6928314080502063,0.08642096306640097,-0.4385947353824595,0.5658186239923837
13.5,1.0892295402906782,3.141477024550637,3.0647488161742142,-0.28280833372450487,-0.06781160173353713,-0.17514839262958987,-0.023184643968114718,0.04281247238951608,0.9988140747442181,-1.816068412110574,-2.003056665460104,4.152002473510222,0.7029468256184082,1.3477651037226084,-1.326444638262071,3.0,0.4874256562102617,0.48927033262945563,0.32887443972469743,-0.6928584588488048,0.08642507004544785,-0.43858173137837414,0.5657949524080663
13.600000000000001,1.137083200723039,2.928586317037821,3.138576025629987,-0.2922605341513651,-0.07274002904547859,-0.1818384872138079,-0.02319478015550482,0.042809095177491284,0.9988139290078671,-1.8176369406896564,-2.002204302787319,4.152211473201424,0.7035607404517618,1.3475602822005566,-1.3264139041704777,3.0,0.48712255569604673,0.4889620044408607,0.32875017693360103,-0.6929206131199248,0.0864070603955795,-0.4385723734941656,0.5657288370191113
13.700000000000001,1.1124338131255733,3.1678949087048087,3.0833669703160274,-0.3096888655462222,-0.07290764067935392,-0.18632083684909814,-0.022928706201041673,0.04234738799229001,0.998839745619827,-1.8189597117003575,-2.0010941770190467,4.1524317827276,0.7041330800787328,1.3472747802734375,-1.326356355023499,3.0,0.48664269349879763,0.48849806840724386,0.3286939617498314,-0.6929269329954072,0.08641426015913393,-0.438560143940017,0.565729477151438
13.8,1.0617297443027012,3.095718917002229,3.148934118873302,-0.3137412002477017,-0.0669526159791021,-0.18886186661703697,-0.023318871141158735,0.04295258916327484,0.9988048427281867,-1.8206202676421015,-2.000020549317185,4.1526730333490915,0.7047219058972863,1.347035475310544,-1.3263620115127923,3.0,0.4863862403620384,0.48820868128774125,0.32881253822718465,-0.6928470452787957,0.08644979608789702,-0.43858967125680903,0.56579899688109
13.9,1.2331995304704604,3.2269690469158028,3.2631467457799044,-0.3060780306320562,-0.06739308750195767,-0.1833303285062194,-0.023382502797279887,0.04304836851189624,0.9987993207769282,-1.822329647625234,-1.9989786723331588,4.152938284186288,0.7053045461364467,1.3467950820922852,-1.3264049923287422,3.0,0.4858897672109971,0.4876793497927271,0.3288570183550057,-0.692820715141866,0.08647435075236476,-0.4385980177824717,0.5658210159843453
14.0,1.1499636987969184,2.7903613483413428,3.3755753258139753,-0.28840946386505284,-0.06064904057028928,-0.17624598294689253,-0.023329910062503536,0.04296621513174555,0.9988040918596212,-1.8236062986094077,-1.9982813153212127,4.153102288078008,0.7058699015580131,1.3465499372341125,-1.3264413262879755,3.0,0.4856767029342748,0.48746241702952786,0.3288475148525433,-0.6928406579055099,0.08645037790704083,-0.4385932482685063,0.5658039567607055
14.100000000000001,1.2272233566164863,2.4992279907704837,3.4593685458221572,-0.2839716822332252,-0.06012272629037139,-0.1790488456492469,-0.023406118924521446,0.043100327916069735,0.9987965288634267,-1.8250088923313115,-1.997425218621725,4.15334939956665,0.7064165441953095,1.3463759422302246,-1.3264612537287164,3.0,0.48538395317552296,0.4871887488861519,0.32879809450027436,-0.6928557281083642,0.08642724219770105,-0.4386040723410566,0.5657806461512891
14.200000000000001,1.104126474284266,2.7107848612253314,3.2314071491072065,-0.2791521242382085,-0.06163020305469161,-0.18234322860423152,-0.023444675180244914,0.043120113400204274,0.9987947747456956,-1.8267237702110595,-1.9965705319979903,4.153573972640793,0.7070896933204226,1.346098087367454,-1.326457678567662,3.0,0.48490063643431236,0.48671079126572714,0.328717086997472,-0.6928774428583653,0.08645391588965538,-0.43859718793004776,0.5657553149067641
14.3,1.4000676848476294,3.4915462793913306,3.4540997937230253,-0.29090434248551894,-0.07182408179758022,-0.17849007460753574,-0.02342766904904584,0.04303688104854832,0.9987987475681391,-1.828354835510254,-1.9954701862730921,4.153825682775415,0.7076805967631618,1.3458702178678104,-1.3264217853493454,3.0,0.4846973906947739,0.48649865366003975,0.3286369843894693,-0.6929121603670394,0.08645825679080368,-0.438581319480473,0.5657244329626797
14.4,1.0471886352964697,3.268481772002364,3.425010661435851,-0.3179727246794626,-0.06851381535669783,-0.18139680550217455,-0.023217357767415264,0.0427087729335642,0.9988177279122,-1.8296499252319336,-1.9944338414673328,4.154071521222919,0.7082538861388868,1.3456228667693346,-1.3264370663018623,3.0,0.4843367475184243,0.48613492853900564,0.3286397864921771,-0.6929023497360284,0.08645062913739743,-0.43858432627509053,0.565735283677679
14.5,1.2889735846796333,3.3989770456182566,3.592844041688954,-0.32451411922113044,-0.06474379857892716,-0.18381818197885835,-0.023268851833657744,0.042829959121988385,0.9988112972445434,-1.8311588697018224,-1.993331768425106,4.154286510029251,0.7087486287689969,1.3453911480518037,-1.3264298601059439,3.0,0.4837842618998796,0.48558813337333284,0.3288882270529751,-0.6927507682060822,0.08646875652551801,-0.43863405648817,0.5658795735698069
14.600000000000001,1.0831217824334767,3.357191189164328,3.5686952900674673,-0.28715171595763506,-0.04526771097045082,-0.18667061039093305,-0.023459748906480775,0.04319038021238641,0.9987913360227465,-1.832899717099068,-1.9925951425054416,4.154572010040283,0.7093628162160114,1.3451669215282145,-1.326428431086397,3.0,0.4835826323395894,0.48539322749869906,0.3288905644384247,-0.692759478833603,0.08645585400094799,-0.43863023538246976,0.5658738431872254
14.700000000000001,1.354357197286101,3.1020659696076214,3.5217539200142074,-0.2906485219382827,-0.049467837265730466,-0.17525193810487127,-0.0234527091756098,0.04325259149642981,0.9987888477534662,-1.8343606060472886,-1.991769929925436,4.1548014342096655,0.7100442460681295,1.344958994752664,-1.3264494093399062,3.0,0.48326444216808545,0.4850867191788717,0.32873091883257366,-0.6928498164124699,0.08644551438186268,-0.4385830549752267,0.5658013863795839
14.8,1.359736552684846,2.9866641570117256,3.5358674205195415,-0.2998564269154227,-0.05080704856580347,-0.17609910658554964,-0.023335855181588566,0.04314935760030532,0.9987960533832987,-1.8358936781104154,-1.9908678163769389,4.155039920229112,0.7107610139994545,1.3447446588591736,-1.3264392058001917,3.0,0.482691760625553,0.4845748465600978,0.32857276074839187,-0.6928979071099446,0.08640203801244656,-0.4385506294761663,0.5657742690649807
14.9,1.4087869483938054,2.9070206037426924,3.5720760698293494,-0.29964830583721763,-0.051997264727447805,-0.17793009852900696,-0.02322797627238343,0.043008797885602607,0.9988046275429687,-1.8374332168136818,-1.989841915757595,4.155276144760243,0.7112515132704432,1.3445472096705782,-1.3264732227756497,3.0,0.4825203889712444,0.48442103040079637,0.3285746949171513,-0.6928847551338926,0.08640448911411794,-0.4385498251184569,0.5657906249245788
15.0,1.324592768995994,3.122433535240484,3.685162812811662,-0.30193949489174576,-0.05427318350077836,-0.17621501866745157,-0.023134305113635997,0.04285704863679772,0.9988133333208973,-1.8390266731556137,-1.9887764345050407,4.155468315449477,0.7117574802040646,1.3443700963157477,-1.3264571456715002,3.0,0.48221811374259005,0.48408968552747905,0.3285846543880676,-0.6928728834376314,0.08641274470573315,-0.4385479350471979,0.5658053672554572
15.100000000000001,1.2891053543841084,2.970742511558285,3.7151843774227817,-0.3070858048180553,-0.06205321675877938,-0.17300368494634163,-0.02310174536278916,0.04277334506503576,0.9988176699077725,-1.8404647812230628,-1.987778118290328,4.155663013458252,0.7122920187673993,1.344116618513395,-1.326461886199996,3.0,0.48170722092852175,0.4835143658724081,0.32864567979526843,-0.6928563088578579,0.08642366262681284,-0.4385575280875291,0.5658165607083159
15.200000000000001,1.2435132075782078,3.106669890912556,3.4856332647557084,-0.3048294275827545,-0.06425018849819718,-0.1695960560129659,-0.02306918561194232,0.0426896414932738,0.9988220064946478,-1.8407972860804545,-1.987544675866598,4.155747344517278,0.7124358850666503,1.344026742183479,-1.326474968587057,3.0,0.48146354165005056,0.48325266743968415,0.32864939561291723,-0.6928616551173553,0.08641664364102516,-0.43856884611833746,0.5658023133429988
15.3,1.3882852901751863,3.070659708243053,3.426280874363971,-0.30366102429377295,-0.060979459876920744,-0.16598049353098904,-0.023082193552188927,0.04271247186315834,0.9988207320616249,-1.840812501603096,-1.9875858653645762,4.155755003896615,0.7124392620599282,1.3440434363546676,-1.3264581120525418,3.0,0.48129791699280977,0.48311466130515385,0.3286592203541626,-0.6928431303312751,0.08641217048748334,-0.4385711769002788,0.5658238739543484
15.4,1.079353927297075,3.0390835184132183,3.324909211918779,-0.30353596404104644,-0.05350555630701912,-0.17519958188542736,-0.02318928140093731,0.042860161843278795,0.9988119104077438,-1.8408308029174805,-1.9875685177245082,4.155722787134103,0.7124496283915839,1.3440022468566895,-1.326440551359012,3.0,0.4813032653971979,0.483111920442858,0.32867093034038314,-0.6928318592818387,0.08641727553901901,-0.4385900380916935,0.5658222757538011
15.5,1.1786808801063802,2.9187350751228784,3.355337163821702,-0.29672079067515955,-0.05917136355470906,-0.17126568008935505,-0.023303030983436702,0.04299110163903595,0.998803638319349,-1.8408471869506384,-1.9875549718148422,4.155699989387898,0.7125000401858653,1.3440153809284257,-1.3264679226002345,3.0,0.48131940693310754,0.48310226614702767,0.32866205626746775,-0.6928395768797997,0.08643949925462588,-0.4385872487705275,0.565811593106335
15.600000000000001,1.1487125715073692,2.7924545583305815,3.397541088065813,-0.290410639922191,-0.06274331381858192,-0.16800851335531147,-0.023087289850169654,0.04261685992852583,0.9988246575379695,-1.8409264753068157,-1.9875478403933315,4.155722141265869,0.7124780668222506,1.3440153365023877,-1.3264821427259117,3.0,0.4813273073642765,0.4830843537461294,0.3286267982654354,-0.6928675964767388,0.08643220498100822,-0.4385822431816909,0.5657822758450325
15.700000000000001,1.0910233035930637,2.879966161650605,3.4010080870541994,-0.2895430971771244,-0.06074611647788801,-0.16758302854318938,-0.02303357656363723,0.042523210301057504,0.9988299292850678,-1.8409147262573242,-1.9875593756012833,4.155712031000823,0.7124401088513603,1.3440572620318259,-1.3265161265495953,3.0,0.4813192826923762,0.48308529392983823,0.32864897218316974,-0.6928543832696983,0.08643786311353946,-0.43858314680505983,0.5657968917755754
15.8,1.0595097623991736,2.870984681059757,3.386967711786324,-0.2928326475668723,-0.05849206497844336,-0.16980111450261764,-0.023209260370231657,0.04282227461085779,0.9988130539425372,-1.8408899307250977,-1.98753236492385,4.155733505213021,0.712461014534898,1.343990102881952,-1.3264270618254543,3.0,0.4813239388421489,0.48308441891660836,0.32864538799096227,-0.6928518800961624,0.08643749116059507,-0.4385847279245601,0.5657987882634734
15.9,1.283160825652015,2.6920226931913294,3.3489554238258448,-0.2968350631117532,-0.06416365007304232,-0.17168052167140596,-0.023221358883054277,0.04287619220921485,0.9988104816972848,-1.8408913996521856,-1.9875758482563135,4.1557321164305785,0.7124829311191084,1.344024497376921,-1.3264795589842067,3.0,0.48130398444297523,0.4831000451642714,0.32864580839778984,-0.6928523237400739,0.08642147971784679,-0.43858392477555413,0.5658013134129583
16.0,1.2515036484829423,2.796322576653917,3.3267843653180647,-0.2922471083405378,-0.06466199942063842,-0.16780648914150098,-0.023068716217299463,0.04262151248209773,0.998824918877627,-1.840882219434452,-1.987533248628784,4.155723037138145,0.7124615764711533,1.3440031427289658,-1.3265069985727709,3.0,0.4813113813891558,0.48309983808599205,0.32863739555944416,-0.6928626157523521,0.08641992484154445,-0.4385832419367157,0.5657894769041492
16.1,0.9802029811565154,2.8943109868769223,3.2983427045615774,-0.2894352269392563,-0.05983770640188799,-0.17560141189216183,-0.023000391148492012,0.04247380316921047,0.998832797488924,-1.840874769121085,-1.9875648002122923,4.155720967314643,0.7124655720623189,1.3440046925884104,-1.3265169658960987,3.0,0.48132252216010485,0.4830925105980625,0.32863963404424595,-0.6928507256663373,0.08642373553479892,-0.4385903854014699,0.5657979177349726
16.2,1.1217890530713788,2.732219031637295,3.318194053926383,-0.2937457151827534,-0.06046847724856715,-0.1724399946297678,-0.023000544771252303,0.04248413536619603,0.9988323538299475,-1.8408909012009338,-1.9875682751055492,4.155722626503787,0.7124609135130775,1.3439905866522115,-1.3264630476581019,3.927635613867235,0.4813377345188915,0.48308036289271883,0.3286282603427461,-0.6928626200758722,0.08644052839041999,-0.4385933829315136,0.5657784630063902
16.3,1.1494432007375446,2.9304442592225435,3.314173395814824,-0.28983280018697627,-0.0675759692261373,-0.1731419236146638,-0.023012637743111707,0.04254495635507306,0.9988294875420374,-1.8409025859345518,-1.9875334027097378,4.155731509155968,0.712482359746685,1.3440249641053466,-1.3265053245986669,4.0,0.4813101606065515,0.4830949145509112,0.3286279299943609,-0.692866090510964,0.08641300303466304,-0.43858009268594433,0.5657887201298492
16.400000000000002,1.4059668130691898,2.765891994400304,3.5263719181305966,-0.2920090253579163,-0.07284998963977392,-0.16994170436373685,-0.023015551084649314,0.04255834431272238,0.9988288500264879,-1.8408784866333008,-1.9875657071605175,4.155722141265869,0.712445472268773,1.344023278150609,-1.326498810444967,4.0,0.48130985463765086,0.4830910880678526,0.32863686330716796,-0.6928564965072335,0.08641391316775922,-0.438581598611387,0.5657991624403814
16.5,1.0445820807002508,3.0882367068319168,3.2941807026381933,-0.28409114125774454,-0.06601669316751359,-0.166261734039651,-0.023107282000427595,0.04271188764589697,0.9988201643397311,-1.840900825339385,-1.9875469653562214,4.155697704140657,0.7124727199579759,1.3440272334594112,-1.3264738238422453,4.0,0.48131449507219354,0.48308802566676506,0.3286231880600291,-0.6928582403931882,0.08642440148977681,-0.43857253569360516,0.5658024500491936
16.6,1.0736429959186462,3.1037296085572135,3.3138972062733414,-0.28157937555811774,-0.06755881862720753,-0.16824042301715272,-0.022988055190891483,0.042480488250624275,0.9988327139377039,-1.8409147262573242,-1.9875463955976345,4.155685901641846,0.7124588920785989,1.3440154106795228,-1.3264511267291468,4.0,0.48132171009223745,0.4830838993500448,0.32864062942804434,-0.692857378770076,0.08641553177212755,-0.4385901264685572,0.5657912243192667
16.7,1.069355133486583,2.9365872027858546,3.1335741334126728,-0.28174594398863706,-0.06900841330223809,-0.1661678109840835,-0.022696096359024642,0.04194374286189413,0.9988621349886891,-1.8409013748168945,-1.9875811186293761,4.155722141265869,0.7124721246906738,1.3440478634457342,-1.326474968587057,4.0,0.48132701075016965,0.4830786662874857,0.32862192093274156,-0.6928691016950235,0.08643145684549478,-0.43858640470267407,0.5657773208550154
16.8,0.7424149422216538,2.1377902259635246,2.578946092561753,-0.23091206773328848,-0.09844884863160662,-0.1679791282920455,-0.022712927164378734,0.04198264342880423,0.9988600757578874,-1.8409359879294553,-1.9875559278271289,4.155699270068025,0.7124845224567871,1.344027059374666,-1.3264743127356606,4.0,0.4813242560230702,0.4830790043775135,0.32864152167772104,-0.6928538745954744,0.08645597836853769,-0.4385792674684064,0.5657977539803898
16.900000000000002,0.6979503073188548,1.0098670060231487,1.338641991786645,-0.12097777800702031,-0.1026981626536553,-0.16743150207171076,-0.02294415043946279,0.0424334248459641,0.998835805431067,-1.8409444259604848,-1.987544675866598,4.155719824979754,0.7125175847718237,1.3440613746643066,-1.3264630476581019,4.0,0.4813114780921713,0.48308618793780905,0.32863929850506646,-0.6928520111908352,0.0864253731368621,-0.438577445493836,0.5658061238366636
17.0,1.054715895138232,-0.3573675002724098,0.6493971748605354,0.0032783179994124983,-0.03729224207591483,-0.16339665738340312,-0.02312066617689939,0.04274080337994579,0.9988185987608578,-1.8408151148987164,-1.987533462077235,4.155741429367048,0.7125017042820654,1.3440182447052176,-1.326474968587057,4.0,0.481302746312254,0.4830822378050584,0.3286461423836846,-0.6928452413639731,0.08641129379466661,-0.43858297699301996,0.5658122763920647
17.1,0.9867819727033244,-0.4023577591477775,0.11151264888441803,-0.0007513346609965481,-0.059383678290735535,-0.1663893531999396,-0.023123818252942005,0.042737016361555365,0.9988187001820243,-1.8408899307250977,-1.9875439581735146,4.155734317123163,0.7124362228045719,1.3440599674229667,-1.326474616776722,4.0,0.48131221458641243,0.4830740657654105,0.328656362769829,-0.6928295057538119,0.08642286021621653,-0.43859202713562373,0.5658227628171579
17.2,1.026846228681035,-0.6099984000566046,-0.24687413695285504,-0.01645740936123081,-0.05994355815387887,-0.16287676260333211,-0.022999244317994487,0.04250389507557898,0.9988315401156438,-1.8408832021034114,-1.9875310992329571,4.155668001276275,0.7124594545766482,1.3440351750713413,-1.326441563535247,4.0,0.4813067938195947,0.48309691926152204,0.32863628433331354,-0.6928676360279777,0.08642231026607278,-0.43857668279132833,0.5657880491359208
17.3,1.1025734412945856,-0.2970815641123147,-0.48956166768949744,-0.016654874255633872,-0.07595478053658185,-0.1655652192853176,-0.02295184729847784,0.04240854960551784,0.9988366826093016,-1.8408993221794887,-1.9875217345992624,4.15573293715638,0.7124475806147038,1.344071719793014,-1.326474968587057,4.0,0.4813145316544403,0.48308702242636664,0.32865703566580756,-0.6928487188236367,0.08643140379387847,-0.43858993284400605,0.5657995546751118
17.400000000000002,0.991993125398517,-0.19439620910274838,-0.45599758671182306,-0.01491002555757943,-0.0780769527191617,-0.16746569468958272,-0.02286348716583419,0.04226469349385518,0.9988448032633269,-1.8408889515799765,-1.9875327676730452,4.155710207601512,0.7124358850666503,1.3440489890868164,-1.3264635184009486,4.0,0.48130756757283677,0.48308535225546695,0.32865340770855267,-0.6928517991333464,0.08642916767172884,-0.4385825321132485,0.5658018610241474
17.5,0.7365749664456623,-0.18680239256020376,-0.36021239740178357,-0.017982131215180833,-0.07279885509511577,-0.16743400512538723,-0.022912112881807795,0.042368365793869885,0.9988392601429239,-1.8408797467118285,-1.9875562817759211,4.155721838847023,0.7124721246906738,1.3440143209877502,-1.32648657449638,4.0,0.4813082197191596,0.48309186130816484,0.3286590836405622,-0.6928388763544127,0.08641708316876189,-0.4385956848393041,0.565809335720877
17.6,0.8608944259222912,-0.20979349001180406,-0.4746073253320404,-0.014835229068084974,-0.07687514244624584,-0.1709859243900126,-0.02311579809787463,0.042724022707329536,0.9988194593947382,-1.840899542280086,-1.9875232586881433,4.155734577981771,0.7124358850666503,1.3440366165379922,-1.3264659109968653,4.0,0.48131200751441167,0.4830857652791324,0.3286662047723592,-0.6928409228966785,0.08642582023127154,-0.4385816267803883,0.5658163923108794
17.7,0.8257868961472719,0.1422349751252317,-0.3389471575273291,-0.0039024920005185783,-0.07911503097930173,-0.16935856317287057,-0.023039960314353323,0.042577216582458395,0.9988273953494367,-1.8408559637540498,-1.9875322781004847,4.155709560847584,0.7124494191592514,1.3439964048203135,-1.326486889516012,4.0,0.48130957214049647,0.48309633017212755,0.3286517659876988,-0.6928553144360761,0.08641786706987677,-0.4385797517902161,0.5658014376337444
17.8,0.7349353312679379,0.053009935571804556,-0.4150959462609787,-0.006719840971683117,-0.07710769284335375,-0.1737910599442426,-0.022750886254177535,0.042021005766430634,0.99885763481183,-1.8408980685545167,-1.987544675866598,4.155694855384649,0.7124464919406422,1.3440597215331176,-1.3264766905987122,4.0,0.4813149028475214,0.48308605683071826,0.32866103355710874,-0.6928453282346225,0.08644293484560527,-0.43858809907377344,0.5658033664707116
