xiamingqian9007/apple-picking-rnn/training_data/grasper_20191127_115908_noimg.csv
,/manipulator_wrench.fx,/manipulator_wrench.fy,/manipulator_wrench.fz,/manipulator_wrench.tx,/manipulator_wrench.ty,/manipulator_wrench.tz,/ground_truth.x,/ground_truth.y,/ground_truth.z,/joint_states.elbow_joint,/joint_states.shoulder_lift_joint,/joint_states.shoulder_pan_joint,/joint_states.wrist_1_joint,/joint_states.wrist_2_joint,/joint_states.wrist_3_joint,/mode./mode,/manipulator_pose.x,/manipulator_pose.y,/manipulator_pose.z,/manipulator_pose.rx,/manipulator_pose.ry,/manipulator_pose.rz,/manipulator_pose.rw
0.2,0.19512205744199923,0.4595643360879637,0.21284521530677183,0.012036802733815088,-0.009865739745450904,-0.002228970428055371,-0.17957902869736403,0.27840402646324064,0.9435256177168976,-1.5465116500854492,-1.7647055284786457,4.149181754032203,-0.28178982502830763,1.3804293285588634,-1.2908034050242745,1.0,0.48876105301576345,0.4998465686258915,0.44098044484693844,0.8417880247913856,-0.07480608011879618,0.33846174302304105,-0.41381230069305913
0.30000000000000004,0.5195626258776235,0.4920340807700718,0.11076498874042434,0.021917311565362214,-0.0008249340765277158,0.005533185816691639,-0.17848328086363546,0.27686339822796857,0.9441875893339089,-1.5447597674116147,-1.766346718046669,4.148968951034877,-0.28127677108450494,1.380752516433729,-1.2909472153979833,1.0,0.48882692992182053,0.4999243783112062,0.4410004870665352,0.8417563010406998,-0.07480561510326207,0.3384818349772817,-0.4138604801110071
0.4,0.11778754169099906,0.3798408309394135,0.028618247690997106,-0.001902824077518732,-0.005608648809985132,-0.004344374767975976,-0.17783786402934168,0.2761382446459737,0.9445214892532906,-1.5426978508838514,-1.7699065837823564,4.1484154996898965,-0.28026844164944037,1.3812270815581844,-1.2911532564389687,1.0,0.48921471362254676,0.5003690694546755,0.4409633699827648,0.8416468106848607,-0.07481088768039786,0.3385384881814745,-0.41403583077829736
0.5,-0.19391660760904872,0.5753451054280325,0.4332335234590086,-0.007117442171003488,-0.024016755766200167,-0.005927523517591743,-0.17735002751025555,0.2754626252886085,0.9448106490818137,-1.5400713425079213,-1.7735899324291722,4.1477837562561035,-0.27937867996935595,1.3817058705960759,-1.2914351523407843,1.0,0.4897867420247814,0.5009637570074448,0.4405252164025147,0.8416611586155406,-0.07478905800611076,0.33851361247516915,-0.41403094697077325
0.6000000000000001,0.13294228007488368,0.4568614325767524,0.3447869482635286,0.004332245126936694,-0.007911862381456313,-0.0037781106054906393,-0.17672558219522508,0.27441562590263685,0.9452318215193765,-1.5376046329243687,-1.7768814165855984,4.1472606472335265,-0.2784182210160374,1.3821614600560765,-1.2916465834390656,1.0,0.4908758499410607,0.5020560796498956,0.43946674315488793,0.8418164619152188,-0.07478499265830033,0.33841902023516424,-0.4137932044689865
0.7000000000000001,0.171238805962987,0.1885564588863866,0.12700932865423006,0.003941373135466391,-0.016257239464579718,-0.003996498993566278,-0.17711961494585055,0.2748793966900142,0.9450218318496577,-1.5353473793313075,-1.7802833075582898,4.146750848264909,-0.2774886890108473,1.3825453494690108,-1.2919028441058558,1.0,0.49202168206316393,0.5032191490840345,0.4386911045986154,0.8418094675202015,-0.07479773558038352,0.33842972586273945,-0.4137963748003035
0.8,0.2746939306653561,0.10495761813778064,-0.005555216548678278,0.004819029897226403,-0.012338961371522466,-0.0056834349284021445,-0.17783666595268977,0.27581382035432406,0.9446162015693294,-1.532796674037475,-1.7832681335648515,4.146272518757559,-0.27667746774252167,1.3829662078333633,-1.29210404741851,1.0,0.4928467306230914,0.5040523815719677,0.43803889646962935,0.8418398625984468,-0.07480781764496656,0.3384261482340595,-0.41373563824123694
0.9,0.07565003142703439,0.640921377433643,0.22330761217467215,0.0009795679995872573,-0.01849654147031167,-0.004225551128084096,-0.17667058716744544,0.2741030911938155,0.9453319352603292,-1.530562400817871,-1.7863203177014173,4.145776802409779,-0.27591140374530676,1.3834776997066045,-1.2923284362749172,1.0,0.4937853164978616,0.5049368532491771,0.4375622793591904,0.8417714135562249,-0.07485111002493128,0.3384919459314094,-0.41381324433512123
1.0,0.1259405054291829,0.5254684603951792,0.14578145089835318,0.010852266278124894,-0.013887003428165704,-0.008771425722838615,-0.1753881733813408,0.2722999104477776,0.9460925436135832,-1.5283114079749678,-1.789195080298697,4.145307953408023,-0.2751716922690059,1.383961488252789,-1.2925434596253098,1.0,0.4943844915761753,0.5055662875282839,0.4371088709268455,0.8417974605789408,-0.07483898886287843,0.33845455723491163,-0.4137930325606617
1.1,-0.05777751121683366,0.2800708369740814,0.2110018822153322,0.009778130762978478,-0.012715809721002395,-0.012013901156799968,-0.17555714359568675,0.27266595461756016,0.945955982328865,-1.5261229890666597,-1.7921099798304467,4.144879604736464,-0.2743822930147209,1.3843838213770887,-1.2927516142474573,1.0,0.49529486295366637,0.5065143468093056,0.436559496914908,0.8417715762420355,-0.07480203363860816,0.3384437162394963,-0.41386123294230737
1.2000000000000002,0.35861261564453056,-0.0937345370454131,-0.009757272820351617,0.021530608094316565,-0.0005189215310714406,-0.0076912195176166084,-0.17586364827903064,0.273173452467502,0.9457526629081975,-1.523966563087986,-1.7949536167554787,4.144498277827399,-0.2736975559589305,1.3847137628285655,-1.2929439492404278,1.0,0.4961466165862428,0.5073969405548754,0.43595095034572423,0.8417777668365272,-0.07478322320334863,0.3384412399392157,-0.4138540659404394
1.3,-0.41638994849129163,-0.3066737737674338,0.38195954581189745,0.0037982338753022103,-0.03162390625982935,0.004522944965291002,-0.17617979016687724,0.27360217041989326,0.9455699273417767,-1.522153185056854,-1.7973742281000284,4.144049390737478,-0.2731063007444204,1.3850818795880993,-1.293090216758203,1.0,0.4966802000387303,0.507940116032356,0.4356808454736358,0.841723350009887,-0.074788392505127,0.33849908590515343,-0.4139164979026665
1.4000000000000001,0.307963507203035,-0.19238962083264646,0.1676195796794822,0.008887669776583758,-0.008976307169456039,-0.005429466182353571,-0.1764425868481181,0.2738653058118631,0.9454447584891401,-1.519987687751056,-1.799994357743857,4.143647925325658,-0.2725505754238508,1.3853591879358387,-1.293277815854085,1.0,0.4976560338836598,0.5089233213681077,0.43489451257742534,0.841793607495401,-0.07480093154743028,0.3384573073080976,-0.41380550280206224
1.5,-0.033280651196960595,0.21553063747556583,0.002530243687235305,0.012426504021897159,-0.018541986993358607,-0.013185608462073244,-0.1751035930947389,0.27190093186166764,0.9462597676351344,-1.5181223735220335,-1.8024950265070525,4.143257318437805,-0.2719031144428224,1.3857201032344053,-1.2934757525662441,1.0,0.49812532166903106,0.5093672928312539,0.43460821638538816,0.8417870216658325,-0.07483233563017228,0.3384630936343278,-0.4138084894568753
1.6,0.07800449734662672,0.25710017925354667,0.2026433104115285,0.0003402768545218522,-0.02108171598155156,-0.011443053984292998,-0.17543958244228075,0.27236301607078,0.9460650929855058,-1.5163931950036582,-1.8051231172821123,4.142855417697461,-0.2712950367096134,1.3860123172982948,-1.293635670338766,1.0,0.49892337981754303,0.51020573006147,0.4340473608965903,0.8417961083865111,-0.07482055481744027,0.33845324501674046,-0.41380019021234604
1.7000000000000002,0.18663178742741293,0.2856077957067151,-0.03771786619922515,0.008129499002899755,-0.015575946243249416,-0.014343808578907716,-0.1744070779036601,0.2707994005822879,0.946704279555542,-1.514307419678442,-1.8073639693074015,4.142545088700074,-0.2707210964410454,1.386318257614633,-1.293755356465475,1.0,0.4997243605857242,0.5110173258109417,0.43337530765179333,0.8418452788199737,-0.0748174411225699,0.33843119213220507,-0.4137187513569648
1.8,0.12917096783640247,0.3125839794093418,0.08128479611829828,0.005557967648473,-0.022527890524433176,-0.009555962202961236,-0.17572595701053947,0.27272714712744184,0.9459036519037055,-1.5125340584584914,-1.8100035240630648,4.142182018125397,-0.27019399419717216,1.386701879694633,-1.2938904515251624,1.0,0.5002112589231094,0.5115116932443964,0.43309627572967224,0.8418165918819095,-0.0748196424281461,0.3384534847039812,-0.4137584868386185
1.9000000000000001,0.06882656620112473,0.37437282617069867,0.1835046389533721,0.006013879280398477,-0.021087455368222555,-0.0147021555146006,-0.17701525594337314,0.2746274293730226,0.9451165570735078,-1.5109796038272065,-1.8118634864418894,4.141825150549619,-0.26967400990324836,1.3869872093200684,-1.2940677333816766,1.0,0.5009227307466555,0.512242794688212,0.4326734136383446,0.8417952388609994,-0.07482555061086263,0.33846210468544785,-0.4137938091593826
2.0,0.20448576456829023,0.35632020992629804,0.14763460541377577,0.002780837333068641,-0.021076485066607198,-0.013820622894280687,-0.1772259521687257,0.27496130120483064,0.9449800008460897,-1.5090552431682167,-1.8141389708782512,4.141480208679123,-0.26923926294360356,1.3873404401203575,-1.29419360828754,1.0,0.5016057796806885,0.5129036534249173,0.4322009097191757,0.8418039616129572,-0.07484424079461019,0.33844280069961363,-0.41378847312027783
2.1,0.15463317289910464,0.045280708555623994,0.22707433764116772,0.00015894136106817688,-0.01864564850649285,-0.010159063314775342,-0.17739041569685207,0.2752057130403025,0.9448779684002865,-1.5073969011592978,-1.8162950293076907,4.141178811101924,-0.2687878534846295,1.387576156959668,-1.294360152159546,1.0,0.5021228736584287,0.5134398747257755,0.4319231787144883,0.8417774602636754,-0.07482955533603829,0.33846685272950916,-0.41382536732736364
2.2,0.1324208348564574,0.2045314715894858,0.08816517100373712,0.008179670700463902,-0.01377850394262674,-0.017060592001447737,-0.17754442906348225,0.27542990387494054,0.9447837395029455,-1.5060008401992444,-1.818033989933711,4.140920711641026,-0.2683361359977,1.387838205578986,-1.2944623479026152,1.0,0.5028186251522896,0.5141345877101864,0.43139579447437454,0.8418130086856521,-0.07483818740075995,0.33843339059014726,-0.4137788591117673
2.3000000000000003,0.02863611780232363,0.524114821120857,0.04035740446516598,0.013385556880303257,-0.015173732085698175,-0.017238046333430762,-0.17711820551945512,0.2748407450753964,0.9450349785614769,-1.5043223306892284,-1.8201859473424398,4.140628337860107,-0.2679318488310606,1.3881001472473145,-1.2945837693597737,1.0,0.5031444576324031,0.514466353081493,0.4311723190867276,0.841809247997382,-0.07483454374499453,0.33843263454157696,-0.4137877873086736
2.4000000000000004,0.2597593386513651,0.16507036078478443,0.2164755043579819,0.002113001886446025,-0.024282963117309108,-0.014739291104204653,-0.176834003050959,0.27444894167044503,0.9452022719026665,-1.5027065249855764,-1.8221627537161573,4.140335332379815,-0.26745804733036666,1.3883328205114789,-1.2947362132242832,1.0,0.5037124649649138,0.5150684032665125,0.4307848015081463,0.8417991302072003,-0.07482239189428976,0.3384419424084108,-0.4138029551277278
2.5,0.19522541977900904,0.11002971713965713,0.07253194946216293,0.002979755365958519,-0.020108890061109184,-0.013908974459572714,-0.17722011209726937,0.2749926619951065,0.94497192050819,-1.5013047958757406,-1.8238215145123418,4.140100955963135,-0.2670753759196778,1.3885708467836133,-1.2948388530112172,1.0,0.5043705056759296,0.5157526513685853,0.4303698799116311,0.841788859786448,-0.07483230013600464,0.33845484174004004,-0.41381150600063227
2.6,0.12325236684402996,0.16758181320538754,0.1794942983982207,0.0022642551155385602,-0.01960851349667865,-0.013812238536066916,-0.17646713632284,0.2739039896008429,0.9454278149156241,-1.4999847412109375,-1.8257891971532814,4.1398443760143735,-0.2666810315898438,1.3887875930586113,-1.294943381452926,1.0,0.5047885568004576,0.5162007989289877,0.43010054118209373,0.8417787207078113,-0.07482943492090574,0.338459905910857,-0.41382850690080797
2.7,0.18734870779445534,0.27201772877357644,0.15548685201891485,0.006767333061031255,-0.021089216912688325,-0.008916281041710052,-0.1760478935986076,0.2733005350382427,0.945680383106553,-1.4984643058717644,-1.8274400614651978,4.139605493623248,-0.26632629327665513,1.3890298109069368,-1.2950307270647945,1.0,0.5053042763308412,0.5167598666723957,0.42970509837690907,0.841792773685488,-0.07480124780051713,0.3384513317890536,-0.4138120291975502
2.8000000000000003,0.2303674056138947,0.24065000181175344,0.13218729167455648,0.0024834463806171687,-0.023448698807366244,-0.011581513037528643,-0.17728956618968233,0.2750953077787936,0.9449264530064418,-1.4971289488709723,-1.8290577502652627,4.139380306742117,-0.26598818719897466,1.3892056868988651,-1.29517605135641,1.0,0.5056688210788594,0.5171457393713724,0.4294807891431092,0.8417824968284568,-0.07479687184053604,0.3384583453838201,-0.41382798894729933
2.9000000000000004,0.0996910568704113,0.5753947054045659,0.3701970279919075,0.012336099872816494,-0.017227288322075526,-0.016759174419183648,-0.17810743073897634,0.27626779903163606,0.9444329778778473,-1.4958409673666238,-1.8307410475192818,4.139138301086893,-0.2656772893718262,1.3894371422136729,-1.2952697348546849,1.0,0.5062380645575782,0.5176984450236315,0.42911469409163105,0.841783240452397,-0.07481695988923605,0.33846621541812794,-0.41381640811708265
3.0,-0.07335741132337374,0.5964519077223323,0.18128310010917142,0.00952147480566296,-0.013557917917289088,-0.018734176971682795,-0.17777611576572028,0.2757529387657773,0.9446457411645401,-1.494532431607906,-1.8323306035681122,4.138920464240407,-0.26535589758235145,1.3896423886082343,-1.295397413873442,1.0,0.5066818564875352,0.518146159885496,0.42880688969738157,0.8417891628710991,-0.07482329631632675,0.33846874189437126,-0.41380114833283743
3.1,0.19041156031419945,0.21771328026644798,0.17064448390375533,0.008301067783958565,-0.020483403408007528,-0.017060101915851347,-0.17756014010025167,0.275418216231473,0.9447842017694793,-1.4933351169466582,-1.8338577441295156,4.13865597057094,-0.26503596623990167,1.389833057881644,-1.2954691320579155,1.0,0.50700846745677,0.5184663660666498,0.4286112185908475,0.8417770507838294,-0.07482950759761173,0.3384770301509986,-0.4138178846141588
3.2,0.21202527704810104,0.5372831266620793,0.16242608317447593,0.01354461566933575,-0.02110957529442385,-0.015868550152081225,-0.17766761150069266,0.2755886555699821,0.9447142946907259,-1.4921583440982522,-1.8354738841767178,4.138443947788714,-0.26470835626635747,1.3900373326200635,-1.295582392454679,1.0,0.5074797600887602,0.5189488415795545,0.42828157005957385,0.8417803001769816,-0.0748227098717803,0.3384703147532599,-0.41381799665097135
3.3000000000000003,0.0700271592193456,0.5903497122326997,0.140243911660908,0.010114388643606262,-0.018773125797189604,-0.021627715081162374,-0.17685469307298568,0.2744338028688292,0.9452024583370288,-1.4910472924481393,-1.8367226930516183,4.138253933623955,-0.264432706694584,1.3902593558062553,-1.2956626151916903,1.0,0.5079311096313128,0.51944741001612,0.4278543053187733,0.8418250258916709,-0.07480749045429896,0.33843064108306853,-0.413762209886936
3.4000000000000004,0.09294647349734458,0.21328630488687217,0.04592465196792553,0.00606772474699881,-0.016345539048461033,-0.018093315383450336,-0.17654194196900813,0.27402587976932596,0.9453796902725782,-1.4898288714679784,-1.8380760740297877,4.1380801981104085,-0.2641556750349045,1.3904185025454026,-1.2957444241531153,1.0,0.5082878570526143,0.5198223397318311,0.4276653442981846,0.8418000618334391,-0.0748111312162213,0.33843961223814456,-0.4138050016752597
3.5,0.015660498313526925,0.21193160755678084,0.08779731691089016,0.0040212530102741945,-0.016483293467356688,-0.019659772451777073,-0.17650731236282025,0.27402771009752,0.9453856261912031,-1.4885738428641908,-1.8396617219298883,4.13787519741989,-0.2639072698405762,1.3906450610804937,-1.2957985019288276,1.0,0.508672030466889,0.5202044259751225,0.4274809183330326,0.8417672572119783,-0.0748136483978997,0.33846078821476433,-0.41385395677733783
3.6,0.10019189852529209,0.3437973935225782,0.07641386371864126,0.0076535984964392,-0.02198777503814182,-0.020593982683176415,-0.17800907419634707,0.27618539745377635,0.9444713775282246,-1.4877262984470667,-1.8409833432576717,4.137646011446249,-0.2636564534953614,1.3908034522351995,-1.2959249058006599,1.0,0.5089615418665715,0.5204948055477429,0.42728668629157934,0.8417690216263722,-0.07480378988812722,0.33846401705233603,-0.41384950937430026
3.7,0.0872965259932057,0.3831948990514613,0.05717149561928866,0.011785451090493618,-0.01901049487999695,-0.02158032926827752,-0.17955876589219272,0.27840212245475243,0.9435310564377153,-1.4867176278593577,-1.8420467975547437,4.137448482707067,-0.2634314463849206,1.3909539251763203,-1.2959628075258136,1.0,0.5094104311078612,0.5209469878285244,0.426923671153833,0.8418014062226713,-0.07479966546886313,0.3384382820714096,-0.41380542741224724
3.8000000000000003,-0.046148005867619565,0.33039316767479926,0.19785266235905577,0.0021477793284318952,-0.01748134671402291,-0.02545319219891487,-0.1793521301356891,0.2781259099460602,0.943651770325973,-1.4858030004293377,-1.843164663335651,4.137338750356111,-0.26317818582568364,1.391142290569226,-1.2960859638484112,1.0,0.509759696040105,0.5212866556561454,0.42671297680148507,0.8417891067214102,-0.07480612285614997,0.3384418061685145,-0.41382639793250797
3.9000000000000004,0.1605928662964617,0.41399287221772285,0.13014204207897484,0.006419393691726392,-0.021207600049420395,-0.021223182601504974,-0.17938362087529566,0.278184650306126,0.9436279830373832,-1.4846629208445064,-1.8445460978542794,4.137166530209993,-0.26298518569409995,1.3912573304713016,-1.2961733088956746,1.0,0.50996768759774,0.5215110296379809,0.42655061683236656,0.841794626830549,-0.07480488656641654,0.3384348380306199,-0.41382109128485783
4.0,0.10606047030639723,0.36239560980323443,-0.008839195270759444,0.006250578086894974,-0.02008930746301445,-0.018888424013147474,-0.1802739420687851,0.2794514365115887,0.9430830357211367,-1.483574710665223,-1.8458710581337576,4.136953987302306,-0.26273986683339134,1.3914051320017962,-1.2962133991940603,1.0,0.5102819539418492,0.5218443388221587,0.4263426441722343,0.8417946329241366,-0.07480100349941882,0.3384294686979672,-0.41382617192779114
4.1000000000000005,-0.09160072320227869,0.32073683468035596,0.23625996484980094,0.006385577152782651,-0.019035500321200563,-0.023919244133007257,-0.18106946560543405,0.28057814370755196,0.9425972525748282,-1.4826892481960632,-1.8468071734618947,4.136778385809408,-0.2625245361011885,1.3915566927974283,-1.296307247907076,1.0,0.5107504182410113,0.5223365437374681,0.4259975360104835,0.8418135163425331,-0.07479565970373225,0.33842986034790556,-0.41378840319346827
4.2,0.29365737163165395,0.3382601859300895,-0.046927546728427735,0.012452963746570102,-0.020018111882368416,-0.02485791896774201,-0.1815099730196831,0.2811802566420157,0.9423330385568762,-1.4817753551484563,-1.8478430153289251,4.1366108020782,-0.2622747851821617,1.3917107351620015,-1.296377914741138,1.0,0.5110610994392689,0.5226230997764679,0.4258355181565616,0.8417945129418443,-0.07480134551470852,0.33845337393034447,-0.4138068031888299
4.3,0.26154352438823164,0.21148650415778864,0.2487243035554506,0.0025687031290623115,-0.023000511388817525,-0.018385448122593663,-0.18076529790544973,0.2801137050402336,0.9427921558711742,-1.4809404053961575,-1.8490033191769824,4.136455098506898,-0.2621044836163734,1.391833782196045,-1.2963896750693154,1.0,0.511346336912992,0.5228709118383932,0.4257045855723721,0.8417695100913003,-0.07481999422784541,0.33847245124199077,-0.4138386884942439
4.4,0.0960979059380415,0.30165216174534115,0.14338197721776832,0.004923041299240472,-0.021089451238149447,-0.022489505774812436,-0.1797536413245971,0.2786678427948551,0.9434155150815458,-1.479984399231537,-1.8503363373791233,4.136286588885253,-0.2618873876384278,1.3919607120095985,-1.296523420823644,1.0,0.5115965801256521,0.5231237207952955,0.42551197124894075,0.8417788802604966,-0.07482685801710422,0.3384600389778105,-0.41382853947234216
4.5,0.1419646470738963,0.45382282310602146,0.11769743408563324,0.011632544145220724,-0.017410437781707838,-0.027634761181459293,-0.1800110200729006,0.27899899970314074,0.9432685488945391,-1.4788224993045123,-1.8515223002138408,4.136150070405485,-0.2616714680893428,1.3921451568603516,-1.2965683115063409,1.0,0.5119921818997009,0.5235416981356973,0.42519786608471744,0.8417985453922887,-0.0748229965048666,0.33845027767365765,-0.4137972181057813
4.6000000000000005,-0.02616019173567073,0.3144163687785045,0.2525313788166331,0.01085400051935817,-0.01563128401402145,-0.026912745486424503,-0.18022960468292576,0.27930411387529186,0.9431365214472194,-1.4777948823086051,-1.8527265588579451,4.135981996669326,-0.26145946288342004,1.3922483754712482,-1.296647850667135,1.0,0.5123394238001512,0.5239030490132413,0.4250152060380265,0.8417749720258166,-0.07483459415659907,0.33847350000308896,-0.4138240807203124
4.7,0.04444010442305817,0.3779952595191883,0.0836014927932154,0.010945444581044312,-0.018437816721211267,-0.021514315351276497,-0.1802467440222885,0.2793215103778986,0.9431280094708883,-1.4768733283138031,-1.8536897594598836,4.1358022342252605,-0.2612557994440514,1.3923990552687584,-1.2967159688674128,1.0,0.5125768376642804,0.5241473642916451,0.4248689755169917,0.8417678100370918,-0.07483829945571861,0.33848087916797837,-0.41383194337509466
4.800000000000001,0.2138863157329309,0.2946530839761002,0.028764453448706543,0.007286825352938708,-0.023421584986088612,-0.02157129090069975,-0.1807357967348039,0.28002691186392303,0.9428252388816476,-1.4760370254516602,-1.8548956750714878,4.135624329559354,-0.26105764267702203,1.3925399780273438,-1.2967740465546782,1.0,0.5129053125978625,0.5244645025665854,0.4246879007904499,0.8417498867278975,-0.07484541394201831,0.33849894831863037,-0.41385233380108016
4.9,0.12467550180612348,0.4344484584783417,0.20350478599377841,0.004493853766464009,-0.024308634451735315,-0.02595777284732681,-0.18043001054755547,0.2795304394927929,0.943031061256151,-1.4751708342496193,-1.8561889133849085,4.135488288217422,-0.26080340345759445,1.3926702933216637,-1.2969022715129326,1.0,0.5132716958953218,0.5248256465821207,0.42436486749643065,0.8417847733101229,-0.07485186931311832,0.33847630464587714,-0.4137987243537952
5.0,0.09246949420150084,0.2666529383941134,0.07468701299426164,0.0020652590752585093,-0.022130747299243324,-0.022559592574297845,-0.18014761433990367,0.2790925558093881,0.9432147791247647,-1.4740449274645018,-1.8574070302885854,4.135311050723643,-0.26061736986022455,1.392833984518423,-1.2969087072347203,1.0,0.5134993810425763,0.5250751807316288,0.42410667320248513,0.8418294486935785,-0.0748353840482328,0.33844010329709334,-0.4137404271845714
5.1000000000000005,-0.017426400425739924,0.3734674112161032,0.12136452569916212,0.008301895592294481,-0.018907566235253685,-0.027239950801356917,-0.18003629287948594,0.27897629242780253,0.9432704592320783,-1.4729743598729779,-1.858484958894604,4.135143071354946,-0.2604385406132016,1.3929907978161966,-1.297026191207941,1.0,0.5138956212744519,0.5254716189614431,0.4238835607598772,0.8418059078639395,-0.07484297314949295,0.3384561352495489,-0.4137738360112343
5.2,0.06200107938005024,0.2685758010576056,-0.002856983194865218,0.003498097373105498,-0.022031928673162518,-0.020718630758972064,-0.18005920295185307,0.27907828704767945,0.9432358882663481,-1.4720162488477078,-1.8596545658507289,4.135049749454322,-0.26019325570729923,1.3931343417205562,-1.297077016564477,1.0,0.5142138003770341,0.5258285909012689,0.4237633759307635,0.8417622268401259,-0.07482726608297628,0.3384841541231066,-0.41384261636915204
5.300000000000001,0.13869890739767787,0.23572752014262843,0.18563093516103124,0.006397111362746935,-0.024940773413421703,-0.02112214100574358,-0.18038931811645953,0.27952223253789665,0.9430412841323524,-1.4711052145325096,-1.8607797150056626,4.134876914596287,-0.26000837545138783,1.393273212116098,-1.2971477790623704,1.0,0.5144973282659197,0.5261072782029369,0.4235560827254839,0.8417706554520903,-0.07482514338941322,0.3384868667703561,-0.4138236370248798
5.4,-0.14557828300763176,0.40067658113868404,0.21128432150540766,0.006182531913955628,-0.017986257763846297,-0.02685154576807537,-0.18015373549870195,0.27919030371545206,0.9431845567506459,-1.4701789706686268,-1.8619791468587554,4.134701545825903,-0.2597872136605897,1.3934071426806243,-1.2972430350071282,1.0,0.5148305853237529,0.5264697709882716,0.4233049347437849,0.8417840209071284,-0.07482077746490651,0.33846912563434295,-0.4138117499507447
5.5,-0.062463400607154856,0.376639627335328,0.05997890115576933,0.004757702894581201,-0.020554347024467755,-0.019029106535487474,-0.17970660014462778,0.27854572314283094,0.9434605004831617,-1.4691422129695342,-1.8631352530939447,4.134582310702916,-0.2596079280206483,1.3935218757433392,-1.2972885109794257,1.0,0.5150607608498188,0.5267167031173529,0.4231329154985179,0.841788489786395,-0.0748212611682392,0.3384622868581233,-0.41380816535576515
5.6000000000000005,0.13992653944703604,0.3027848223923668,0.11812228024095071,0.00555535014400576,-0.02118671535990785,-0.018276827569776954,-0.18023472115234493,0.27928745501757757,0.9431398813904883,-1.4681049240207775,-1.8643352940057427,4.13438024596608,-0.2594094974420178,1.393675470162838,-1.2973605311051155,1.0,0.5154113979826699,0.5270620188373167,0.4228592807600328,0.8418059932787326,-0.07482878569103896,0.33845114508292873,-0.41378030995211124
5.7,0.05634363004044603,0.06053011167456221,0.1907332567257389,0.0037539063452327794,-0.018575952059061502,-0.0283152839234827,-0.18119543646589167,0.28069070283700454,0.9425389209313675,-1.4671278000342627,-1.8656198779771498,4.134258747007891,-0.2592467429775645,1.3938649494474589,-1.2974305787171077,1.0,0.5158057017785933,0.5274566211841689,0.4226573119559927,0.841781460649039,-0.07483224046587778,0.33847079793459023,-0.41381351746885864
5.800000000000001,0.16501718489766878,0.4335979390502351,0.13441487816155218,0.009827178155385594,-0.026863093294867527,-0.024334492711395136,-0.18197748796371785,0.2818618119604804,0.9420393371372944,-1.4661455647889958,-1.8667035443859707,4.13412353569685,-0.2590475805466705,1.393994573174521,-1.297506529214584,1.0,0.5159709243261232,0.527679964821353,0.42248463654518426,0.8418021585663807,-0.0748194450527881,0.3384426541296549,-0.413796745203064
5.9,-0.01412058336382127,0.34471884108544326,0.17682182831189927,0.007524667446437948,-0.014736547108467637,-0.025856096914811957,-0.1819920817293819,0.2818894747183631,0.9420282400870672,-1.4651794297845102,-1.8678431139868754,4.133932490332792,-0.25886686783334734,1.394132137298584,-1.297577733201545,1.0,0.5163160908173376,0.5280467778683113,0.4222274340015961,0.8418111061055001,-0.07479847599503929,0.3384302778974614,-0.4137924559830698
6.0,-0.002178067141232469,0.5468599157600276,0.12012688684391959,0.0146086229481298,-0.02012184720315134,-0.02777250050405576,-0.1820087428817285,0.2819219399154148,0.9420153054540167,-1.4641346182224957,-1.8689427239886927,4.133770037103948,-0.25864464591541947,1.3942999839782715,-1.2976401487933558,1.0,0.5166414811881056,0.5283652565456194,0.4220061055842186,0.8418158956850957,-0.0748086765038818,0.3384298959959717,-0.41378118032094374
6.1000000000000005,0.17679736559504916,0.5175212414078931,0.20773852514146127,0.009892308709483735,-0.02520666327522896,-0.026921734113587455,-0.1820688335162328,0.28205528969683674,0.9419637688162636,-1.4630483411272166,-1.8702773855960722,4.133590103219904,-0.258486746146046,1.3944430351257324,-1.2977036486953581,1.0,0.5169160567023143,0.5286570303851134,0.4218899192038954,0.8417827070577906,-0.07480533251336348,0.33845436020892244,-0.41382929135283764
6.2,0.33285885970365026,0.3842087624646768,0.2856697041615021,0.0023514645477258856,-0.02569906394448886,-0.025550328232491516,-0.18184638743609818,0.28174172227925637,0.942100354402495,-1.4621398790013929,-1.8715750179686488,4.133452687991872,-0.2583235067180176,1.3946162199555483,-1.2977756675310794,1.0,0.517268026411789,0.5290379291481392,0.4216381286880997,0.8417891522429388,-0.07479582136770736,0.3384445945355655,-0.4138258869400281
6.300000000000001,-0.02344207129614229,0.22793927884998005,0.21842292016779546,0.0036551708569986492,-0.02261908106812155,-0.025317917580360054,-0.18139422695074126,0.2810627572040905,0.9423905033089713,-1.4611919084301146,-1.8725105724730433,4.133280277252197,-0.2581311746960928,1.394732580498752,-1.2978655261220169,1.0,0.5177115617006124,0.529481127767094,0.42125102815933535,0.8418310698559834,-0.07480193390316417,0.33840927035970525,-0.41376839686482714
6.4,0.2106001545741416,0.36647983401134715,0.11196799939690684,0.01001114669170929,-0.023872614648007766,-0.02041411339607538,-0.18144509344334117,0.28110834354389336,0.9423671124740675,-1.4601434684384034,-1.8736307954687992,4.133131653978949,-0.25793878375925505,1.3948717866910123,-1.2979432673058622,1.0,0.5179941887617192,0.5297200844300498,0.4211144406697247,0.8418096482140109,-0.07482428253277665,0.338431464058965,-0.41378978606553807
6.5,0.4161333710083348,0.15869163822607354,0.11082008258774428,0.0069348797321012,-0.02603904378430848,-0.019767712498860113,-0.18158164375434963,0.281343006782173,0.9422707454124594,-1.4590906386825402,-1.8747495539068255,4.132956027984619,-0.2577711662368587,1.3950329567738489,-1.2979930941792863,1.0,0.5183325118944883,0.5300592978338677,0.4209758130657427,0.8417745105732869,-0.07482539095881408,0.33845211141615894,-0.4138441765869222
6.6000000000000005,0.13097733464559255,0.3861736660417388,0.2112150151577663,0.006056048314965601,-0.02330497759274286,-0.02376192831749717,-0.18115546978379152,0.2807617186529718,0.9425245841742883,-1.4579883701001588,-1.8761753963818342,4.132795564956426,-0.257617787723877,1.3951420171133777,-1.2980741085749188,1.0,0.518564288946191,0.5302888335545455,0.42088270896384633,0.8417505203544582,-0.07481215312851572,0.3384798770365576,-0.41387265682645835
6.7,-0.07584152360904528,0.22006282794764337,0.13582003542729892,0.00294402322053142,-0.018647285313432262,-0.027452502521809762,-0.1801118736355151,0.2792271782002739,0.9431802460740724,-1.457031285535108,-1.8773856582178152,4.132674176247629,-0.2573892675968469,1.39528823170934,-1.2981336574845421,1.0,0.5188190339211489,0.5305722100966374,0.42067465307976265,0.8417647132393518,-0.07480150041459879,0.33847516844429104,-0.41384956618003765
6.800000000000001,0.07759928921234735,0.30109419559734507,0.11226200183068737,0.003370231621560123,-0.022038923019751272,-0.02753024134788798,-0.17931737613575224,0.2780663157562322,0.9436755917528885,-1.456188277945989,-1.8783261541491456,4.132505602093469,-0.25718108511546317,1.395436957707431,-1.2982089352945918,1.0,0.5191891145626067,0.5310054453336033,0.42030729728889504,0.8418062266742777,-0.07479605499191108,0.33843409417626796,-0.4137996988751326
6.9,0.053085778632950005,0.7342048154477763,0.011235690821079742,0.0150486686328061,-0.020562526327826087,-0.030239652618710606,-0.17877108329424074,0.27727779022765753,0.944011196569701,-1.4552412547161717,-1.8793850903375728,4.1323357448431315,-0.2569896726291394,1.3956022391093408,-1.2982614033504118,1.0,0.519456024608327,0.531251803363299,0.4201112184065981,0.841806227242338,-0.07479886759643024,0.3384339140568931,-0.4137993366336448
7.0,0.09510360512213947,0.40798819633102745,0.07881275154690656,0.003724802910839429,-0.03194770000930141,-0.025859435104614394,-0.17831626874513196,0.2766031300077982,0.9442953181392683,-1.454234813968755,-1.880641066598834,4.132160738813776,-0.2568749130359166,1.3957457918464633,-1.2983473545577018,1.0,0.5197007936522746,0.5314621835382997,0.4200461762103897,0.8417689979873479,-0.07482396141908362,0.3384626193533746,-0.4138470540252573
7.1000000000000005,-0.044568128631501364,0.4756115675015826,0.1697682774400936,-0.00936393339487969,-0.03827059567548822,-0.029581257378406174,-0.1779559269973298,0.27604606243646157,0.9445262711760629,-1.4533697836687378,-1.8815329745499842,4.132012570705157,-0.2568065798345105,1.3958576447675415,-1.2984242166629998,1.0,0.520095024815487,0.5318465232362631,0.4197596665421495,0.8417857973965102,-0.07482603702128351,0.3384561091875704,-0.4138178314655162
7.2,0.10640810299369946,0.33547616852102885,0.10955802822422102,0.00819517282686975,-0.03353137025361705,-0.02420682965441357,-0.17795436366622666,0.2760278888782687,0.944532008591751,-1.4533506289883682,-1.8815256458294032,4.132018396106516,-0.25676332540626223,1.3958577060483262,-1.2984283606158655,1.0,0.5204578988886907,0.532181433805201,0.4195557409902362,0.8417821837945046,-0.07483434809392804,0.33846104132088617,-0.41381964537645277
7.300000000000001,-0.14884003713726143,0.6530820956498491,0.19620808285095048,0.01340059129165645,-0.02298222272290842,-0.03301201302759743,-0.17826629719646694,0.2764755716407818,0.9443422802632042,-1.4533720016479492,-1.881528137075064,4.1319819476245385,-0.256801440807259,1.3958693513182723,-1.298433226090689,1.0,0.5204784578762479,0.5322028015003357,0.41952110307642376,0.8417877915033405,-0.07481921347776622,0.3384634309381177,-0.4138090203077929
7.4,0.01549023876645169,0.20049411175181192,0.06719773639603974,0.00256706116529076,-0.024162767842924527,-0.02802571181630983,-0.1784324233251066,0.2767164092285618,0.9442403730579293,-1.4533605575561523,-1.8815430084600957,4.132000921525258,-0.25678007810509856,1.3958885134571348,-1.298437990627214,1.0,0.5204738760126738,0.5322024131701449,0.41955508241406314,0.841775827279764,-0.07481432369116073,0.3384682056790412,-0.41383033639707223
7.5,0.029131620570292394,0.2648451803494708,0.08692152831177308,0.005023382904985345,-0.020259071345805842,-0.03193041778547421,-0.17852524644765566,0.27686837489859506,0.9441782865312257,-1.4533212530721789,-1.8815551129208608,4.132000826088717,-0.2567801698710035,1.3958769815284706,-1.2984415955863575,1.0,0.5204835065767718,0.532210224774364,0.4195267371231448,0.8417838373429306,-0.07482088239914399,0.3384613833355254,-0.413818436921105
7.6000000000000005,0.11670507745983105,0.16853242528284396,0.08136737227272413,0.0019161208371356363,-0.024020989442226526,-0.03209180083677633,-0.1791521910689216,0.2777637855618963,0.9437964236002907,-1.453327867603601,-1.881564576684828,4.13200907512892,-0.25679101449892383,1.395866870880127,-1.2984232951553016,1.0,0.5204937557751239,0.5322090898697525,0.41950782882231363,0.8417922482321258,-0.07482853822610529,0.3384539059173455,-0.413806058743151
7.7,0.1823950366813158,0.14599780762782041,-0.05694306629192746,0.0013658586583196936,-0.026063149657850896,-0.027577751598187438,-0.1786021083693853,0.276968582029136,0.9441343162686363,-1.4533507717175782,-1.881590251073554,4.131998538970947,-0.2567848804914927,1.395888301728001,-1.2984475559146071,1.0,0.5204943178960736,0.5322046485877425,0.4195098572660445,0.8417950882570013,-0.07482933368373015,0.3384509694039473,-0.4138025392821617
7.800000000000001,0.11554677656336881,0.10433548827716213,-0.06553673955769622,0.0036775209948207667,-0.02088716686158861,-0.028497655280903342,-0.17876314870993593,0.277215008816161,0.9440315478890142,-1.4533597071867974,-1.881592795289123,4.131996159397821,-0.2567679693717437,1.395866870880127,-1.2983905917880707,1.0,0.5204840110304348,0.5322106434856191,0.41952581984170284,0.8417911421709147,-0.07482064096438595,0.33845413771878485,-0.4138095471461467
7.9,0.11359773980055807,0.4152511079933319,-0.03837285232965988,0.008183906756672141,-0.026324879548127046,-0.03050424526659807,-0.17881367131611206,0.27727948728162183,0.9440030481525733,-1.453324317932129,-1.8815482767129488,4.131993346834538,-0.25676112323299993,1.39585542678833,-1.2984247051355908,1.0,0.5204931228836083,0.5322171044483088,0.4194986090577738,0.8417954622289628,-0.07482222726346952,0.33846238531541617,-0.41379372615429905
8.0,0.24356261653234298,0.316773096686132,0.06142326859134409,0.0047746209118820606,-0.02782094926367085,-0.029561899612207062,-0.1790067327552091,0.2775577570336116,0.943884528827263,-1.4533605575561523,-1.8815833530821742,4.131996034142402,-0.25679168075525827,1.3959003969398924,-1.2984243716439723,1.0,0.5204934377498458,0.5322192774855354,0.4195018301500929,0.8417924429206979,-0.07481323322066896,0.33845528631906385,-0.41380730097396035
8.1,0.16769877919227327,0.24039410092217492,-0.0329968818265485,0.003498489670853879,-0.027263625580045796,-0.026435332196823653,-0.17942086381740496,0.2781692231447183,0.9436259612314016,-1.453293795768922,-1.8815861018614128,4.131973514366218,-0.25678879239318264,1.3958819074743094,-1.2984457791032982,1.4201586159242319,0.520486366804976,0.5322164366613228,0.41954218951343886,0.8417738072091625,-0.07482154960319928,0.3384698918646281,-0.41383175991302895
8.200000000000001,0.15224228383593202,-0.03235869265590023,0.1346185667667605,-0.00385686399674774,-0.02343573825548588,-0.02909858519632891,-0.17863287234236194,0.27701928532336784,0.9441135191417189,-1.453326832903857,-1.8815997077001037,4.13198709487915,-0.2567942899516602,1.3958527022356246,-1.2984205013292154,2.0,0.5204807236253935,0.5322216854510239,0.41954550849416594,0.8417740074655186,-0.07481071484565537,0.33847514918587523,-0.41382901140848294
8.3,0.17403301132931848,0.14884883490367778,0.14716360470692,4.784751467330067e-05,-0.02698722343164156,-0.029108706476469154,-0.17924071741632044,0.2778931912786385,0.9437414489838747,-1.4533175885360852,-1.8815665210118095,4.131977229216809,-0.25678937881025055,1.3958332067393975,-1.298433271757275,2.0,0.5204884635515454,0.5322163569962088,0.41952131039536417,0.8417833933007332,-0.07482426134092036,0.33846453836097323,-0.4138161487303057
8.4,0.17180310459107442,0.2045338501069758,0.05176477548434662,-0.0035131985984237775,-0.0251085901752652,-0.03249687675431483,-0.17887909225453158,0.27739393535886253,0.9439569803637625,-1.453309911735006,-1.881580708345276,4.131984344352777,-0.2567942899516602,1.3958526762619559,-1.298423071142069,2.0,0.520478973967091,0.532218618223998,0.4195507201187538,0.8417689269637418,-0.07481917252194933,0.33847066625010175,-0.4138414830700926
8.5,-0.32816672373913086,0.497128625916922,-0.3166946853408298,0.023242969038515453,-0.05947701588967925,-0.053114562036330346,-0.17909262528248193,0.27766815629725566,0.9438358215096723,-1.453312873840332,-1.8816047959309266,4.131998538970947,-0.25680344564377294,1.3958947041841496,-1.2984248460069112,2.0,0.5205001544440387,0.5322004377377149,0.41953628024759304,0.8417811455772426,-0.07484590834241223,0.33846843852208225,-0.4138136163534109
8.6,-0.6448886709681549,0.8263369548330268,-1.094508214829908,0.026899901989540308,-0.12107498899932302,-0.07637823877417371,-0.17927740757566804,0.27791900688511273,0.9437269920506133,-1.4533098680471315,-1.8815638001086405,4.131998538970947,-0.256788922463802,1.3958870080405759,-1.2984295465691043,2.0,0.5204977105647612,0.5322165759748771,0.41951740057495607,0.8417872485236535,-0.0748204976401981,0.3384675205913582,-0.41380654762894786
8.700000000000001,-0.7200930952394077,0.9189766258015161,-1.6348464217983951,0.03316650297714673,-0.18399295268896873,-0.11464154476585135,-0.17923579391965364,0.2778889752257699,0.9437437401475137,-1.4532992014866817,-1.881579885768937,4.132005375147773,-0.25677879047768226,1.3959031105041504,-1.2984375007501765,2.0,0.5204874504482442,0.5322171500038474,0.41953004977065905,0.8417855270072326,-0.0748124556486558,0.3384635784501422,-0.4138147279444003
8.8,-0.7132899813990584,1.1202003687532505,-2.171001838994669,0.03803125661740875,-0.2330048221043335,-0.1347054214077305,-0.1789885573147903,0.27757357888974227,0.94388340018817,-1.453336794637117,-1.881559511224264,4.131978690274875,-0.2567981295303501,1.3958792686462402,-1.2984364419661307,2.0,0.5204865253744942,0.5322263916504401,0.419520558164039,0.8417898983160637,-0.07480926236688089,0.33845251739515037,-0.413815459868333
8.9,-1.0766891250299662,1.361859517619684,-2.4606130776528765,0.05033792353502554,-0.2601659688007071,-0.1528607774755339,-0.17857921354094142,0.2769869853615834,0.9441328005038547,-1.4532970977481265,-1.8815646271072184,4.131966631347333,-0.2567721372567962,1.39585542678833,-1.2984181288499566,2.0,0.5204806415719228,0.5322259761771715,0.41954520947108676,0.8417773976172516,-0.0747928314975953,0.33846270550225155,-0.41383552554293374
9.0,-0.7555934416421973,0.8039225624911416,-2.5113381834096495,0.041878103684890956,-0.2893046656713652,-0.1555584413046449,-0.17793109118633804,0.27598318344943884,0.9445487735196835,-1.4533053232713014,-1.8815833530821742,4.131974697113037,-0.25677044809375005,1.3958459294579162,-1.2984442011142738,2.0,0.5204993990393534,0.5321957939597225,0.4195452533672176,0.8417752867408819,-0.07481706775583317,0.3384790804725184,-0.41382204519237964
9.1,-0.8375431765453667,0.9386586882017384,-2.674594251558933,0.04307680435045774,-0.2916924066560576,-0.15606782293514312,-0.17746980985281113,0.2752884260517476,0.9448390023299689,-1.4533096909107945,-1.8815933485943241,4.13199934177946,-0.2567857642475421,1.3958735848434949,-1.2984517628263663,2.0,0.5205017341284002,0.532197673911647,0.4195275480896158,0.8417825674848621,-0.07480640053091485,0.33847742641254985,-0.4138105162116339
9.200000000000001,-0.8525701597200003,1.0859282956304763,-2.6466448705058503,0.048162691174869286,-0.28752905009036295,-0.1541389531661965,-0.17736928817437933,0.2751903834001054,0.9448864395093763,-1.4533170130563426,-1.8815581261738468,4.131976628141735,-0.2567978019111728,1.3958456327684703,-1.2984010067984428,2.0,0.5204856352537275,0.5322142279508876,0.4195257592355617,0.8417864822659226,-0.0748055418408283,0.3384609297393473,-0.413816201017119
9.3,-0.6537506176630382,0.9525661820430515,-2.570581349182153,0.04042353036327346,-0.29146325275294044,-0.15703249903769062,-0.17869618723949532,0.2770791209560233,0.944083443169724,-1.4533157193157524,-1.881568468116323,4.132001926064897,-0.2567912611333937,1.39585542678833,-1.2984074827948515,2.0,0.5204964723154685,0.5322101827976742,0.41952001114259513,0.8417894976300868,-0.07481585642373989,0.338466733252255,-0.41380345550613173
9.4,-0.5828610638756196,1.2134428035731526,-2.516356625423693,0.04313018373789685,-0.2924967149029407,-0.15977851889773917,-0.17858101747046992,0.27692346219139474,0.9441515207917823,-1.453309510366153,-1.881586264705293,4.131953738232995,-0.25679128684971475,1.3958761454202169,-1.2983986040328912,2.0,0.5204995921712628,0.5322057951258854,0.41953174782011676,0.8417848409713573,-0.07481465712163077,0.33847276575127344,-0.41380821093265346
9.5,-0.2781958708731243,0.9573691656311687,-2.519894581390412,0.04145166727971768,-0.28581439605180425,-0.16030470273531433,-0.18038007980908868,0.279500727196027,0.9430394072207838,-1.4533443139688476,-1.881551288200301,4.131975853247975,-0.25678976483268895,1.39585542678833,-1.2984291878298448,2.0,0.520498528814056,0.5322162729906549,0.4195199400751802,0.8417871113320601,-0.07482821699823736,0.3384554772247101,-0.4138152813426351
9.600000000000001,-0.6840753729469327,1.1921444129154577,-2.5756367536991793,0.03811221861459412,-0.29229137171719466,-0.15239606989217186,-0.18271757509332795,0.28284546392691434,0.941596535788221,-1.4533329190043032,-1.8815594362104031,4.131977777050961,-0.2567853739467687,1.39585542678833,-1.2984402815448206,2.0,0.5205062523254095,0.532200026629375,0.41951244476251254,0.8417888432705023,-0.07484209112810103,0.3384663541176048,-0.4138003526716943
9.700000000000001,-0.9170640945138256,1.5501472151561693,-2.4245725499047635,0.031473204162313376,-0.2870618583020828,-0.16203244583886645,-0.18293785037175295,0.28317186203507244,0.9414598330184443,-1.4533093537799229,-1.8815744012310378,4.131989512974378,-0.2568151627317517,1.3958613649439675,-1.2984253915380468,2.0,0.5205130322662745,0.5321880886403667,0.4195198141236327,0.8417871568332664,-0.07484427988909428,0.3384783244098768,-0.4137935962084609
9.8,-0.5976295483698305,1.716304938009187,-2.8861868200839926,-0.03526116558959709,-0.2805078957089726,-0.1491349465476205,-0.1824274713835682,0.2824566291428085,0.9417738900675603,-1.4533297141703967,-1.8815777320006453,4.131999694574002,-0.25680287809067515,1.3958792686462402,-1.2984220607684394,2.0,0.5205074975359997,0.532199427633242,0.41952448019671534,0.8417859423754934,-0.07482603265433221,0.3384751934274214,-0.4138019278477142
9.9,-0.36438421206385707,3.021615844827188,-2.8387578783619367,-0.10867002760927565,-0.26381503853720506,-0.14361395616329334,-0.17959604460878523,0.27839004523099714,0.9435224351656982,-1.453309415833971,-1.8815921865054497,4.13196551035283,-0.25679120244598064,1.3958345489358723,-1.2984164396869105,2.0,0.5204901837611429,0.5322154836243592,0.41954924210703126,0.8417740616298499,-0.07482821457309458,0.33846847001657177,-0.4138312002201257
10.0,-0.40400120430115777,3.5622975656490534,-2.7584680035828812,-0.1924307070892135,-0.26412032070601266,-0.137813691074709,-0.17715708592353038,0.27481133513240974,0.9450350510401286,-1.4533272971963611,-1.881574535553461,4.131992332170464,-0.2568062108806153,1.3958286215010418,-1.2984221538153817,2.0,0.5205057136883552,0.5321941537446649,0.41952581888872115,0.8417845921233286,-0.07483353866264347,0.3384756292550484,-0.41380296078615375
10.100000000000001,-0.1462384771077378,3.896977928978402,-2.840353763601517,-0.23050178495695567,-0.2709532006967274,-0.13403238295463385,-0.177037698760571,0.27461222549596986,0.9451166549397064,-1.45333035767968,-1.8815833530821742,4.131965440015651,-0.25681813180957036,1.3958583258671546,-1.2984164396869105,2.0,0.5205177678291086,0.532183706269253,0.419527277171241,0.841784452588811,-0.0748472091282368,0.33848282052178313,-0.41379488986343016
10.200000000000001,-0.06109688881141054,4.543040374968607,-2.4580651741201094,-0.27673276017211557,-0.25372704957447456,-0.14241114487629294,-0.17684842201341353,0.27435911582220124,0.9452254628280602,-1.4533298837666777,-1.8815940543480711,4.131966957941114,-0.25682587098149345,1.39585542678833,-1.2984149223633938,2.0,0.520500662168615,0.5322035054956872,0.41951170347493794,0.8417934020097844,-0.0748331133637235,0.33846656518961016,-0.41379252980912246
10.3,0.4520486345480327,5.241123973106591,-2.060411363412469,-0.3435978332491386,-0.2324685246323939,-0.1577736978500435,-0.1762570789414978,0.27351788670911303,0.9455794747362232,-1.453312873840332,-1.8816076717772425,4.131995628752695,-0.2567823690227051,1.3958191871643066,-1.2984398715839593,2.0,0.52050391405206,0.5322019439756521,0.4195159491573141,0.8417932229645271,-0.07482432027681418,0.3384663324409203,-0.4137946745308588
10.4,1.0582154990372308,7.673307722453501,-1.8079925785044337,-0.4741167176998505,-0.19995557732532884,-0.21587102908580894,-0.17543614422274012,0.27227392700943404,0.9460901917608017,-1.4533690667475214,-1.8816165355182521,4.131950855255127,-0.25678542621065065,1.3958191871643066,-1.2984075759459008,2.0,0.5205199586034555,0.5322020454202628,0.41952002892529866,0.8417888625502599,-0.07483718332752526,0.3384751366210813,-0.4137940173169285
10.5,-0.4856277575973398,4.177690409097458,1.625494416942892,-0.43257331740084853,-0.1351968529952794,-0.028931951905005485,-0.17493253869928338,0.2715065609303459,0.9464048106979628,-1.4533450797200202,-1.8816647916533888,4.1319756507873535,-0.25678777143869597,1.3958614245057106,-1.2984134780811232,2.0,0.5205409258544801,0.5321823700011419,0.4194891330177242,0.841795719003769,-0.0748577559447712,0.3384836007533871,-0.4137694235475383
10.600000000000001,1.4966464568155964,4.462154324239104,-0.08348394546602497,-0.43377501296370924,-0.010903384212786462,-0.017165447248540106,-0.17584649685203907,0.2728682198980184,0.9458434260091927,-1.453327169439022,-1.8816553554930628,4.131965388479391,-0.2567644678041556,1.3958489696615775,-1.2984104990475498,2.0,0.5205395698674935,0.5321811278847517,0.4194735377863598,0.841801497099425,-0.07485165500480702,0.33847818680297365,-0.4137632007353721
10.700000000000001,1.1851325070596586,4.585839297726616,0.38966107742362344,-0.4795523862663582,-0.025835315584304578,-0.05635245713126429,-0.17536787727963327,0.2722022454684758,0.946123410839417,-1.453348159790039,-1.8816252919341216,4.131959392963355,-0.2567852075030099,1.3958732136804735,-1.2983897593486955,2.0,0.5205143697092929,0.5322298685056668,0.4194332640964375,0.8418186672009049,-0.07482963865152131,0.3384291975091872,-0.41377232266629743
10.8,1.316310680681239,4.507271616725463,0.5412902188921933,-0.4843552733840162,-0.010501386228072567,-0.04562468086293064,-0.17459101879839933,0.27110327208315926,0.9465833241688933,-1.4533449957877473,-1.8816279944880985,4.131992454351155,-0.25677932671280923,1.3958792686462402,-1.2984311546151328,2.0,0.5205150435362272,0.5322194232752518,0.41945257941446096,0.8418145340791189,-0.0748446502539026,0.33844059908816904,-0.41376869073235645
10.9,1.1907828157237657,4.3493248918973,0.5779783262852914,-0.4933916941998697,-0.019300217821757993,-0.04249338636284349,-0.17571274125963524,0.27277500331081656,0.9458948222152365,-1.4533610291852208,-1.8816071949400843,4.13197188830804,-0.2567823690227051,1.395858454881314,-1.2984076730214804,2.0,0.5205008679197403,0.5322343518849149,0.4194734728228109,0.8418052848106818,-0.07483477681514196,0.33843555250825835,-0.41379342121675233
11.0,0.8430620488161725,4.931360291570858,0.5822673903920763,-0.48564984119600974,-0.012133099079334525,-0.04246557328194161,-0.17586250835602113,0.27300549768357246,0.9458013120312418,-1.4533447332717666,-1.881580058353066,4.131969152383469,-0.256790995222552,1.3958571184819668,-1.298409850228694,2.0,0.5204989383331948,0.5322169703778687,0.419505046673801,0.841789994413107,-0.0748339741965059,0.33845576162591057,-0.41380814278378175
11.100000000000001,0.9551673826821914,5.136284256256929,0.7255270014870423,-0.4881905614704503,-0.01689813279489483,-0.044068635959534745,-0.17589448727387344,0.2730442626603572,0.9457816511651981,-1.4533447462452689,-1.8816042582324723,4.131963984273474,-0.2567823690227051,1.395866870880127,-1.2984185138521052,2.0,0.520494620753853,0.5322133531340297,0.41949057122458006,0.8417999261007117,-0.07482020731776673,0.33845161283358094,-0.41379382156348166
11.200000000000001,1.0427889148629526,4.845148456067777,0.5098260271494922,-0.48784842690327773,-0.019619888284649188,-0.03834666953766287,-0.17820915287081004,0.27636859267456065,0.9443747629023939,-1.4533390940916513,-1.8815986060788548,4.132007604669335,-0.25680797404031136,1.3958759365785147,-1.298413235775636,2.0,0.520495959294766,0.5322051758491028,0.41947884374430544,0.841805663465298,-0.07482813858498369,0.33845203215744946,-0.4137803723742206
11.3,0.9558981811705711,4.590685716804473,0.37568192685962026,-0.49213190078132646,-0.019851029054584652,-0.04133244869610402,-0.18025909433428108,0.27931183337187776,0.9431285360801384,-1.4533357620239258,-1.8815833530821742,4.131962299346924,-0.25676506641665575,1.3958792686462402,-1.298455818151827,2.0,0.5205017166845707,0.5322097647177675,0.41948542766159325,0.8418008552468448,-0.07482322486767476,0.33845714572687213,-0.41378686014964366
11.4,1.0924725849769303,4.843019483962217,0.5823028605236789,-0.4872171289809723,-0.02236698343592963,-0.03476219375968425,-0.18063594427227697,0.2798465391986315,0.9428977108048954,-1.4532951519482655,-1.8816090131968246,4.13198355805907,-0.25679940930353834,1.395865493122404,-1.2983993994060772,2.0,0.5205007506935422,0.5322205974482533,0.4194730040914853,0.8418080603276674,-0.07481308198970965,0.33845177706968466,-0.4137784273363505
11.5,0.7653248043104033,4.676813363403915,0.610927206617524,-0.4833791213962881,-0.023283795593974744,-0.03781287979942745,-0.18078400900964303,0.28005605617667045,0.9428065095364452,-1.453312873840332,-1.8816247659395178,4.131984953610402,-0.25680103764729517,1.395858665682235,-1.2983993455246352,2.0,0.5204989965346605,0.5322180300367754,0.4194893396199636,0.8418043983408003,-0.07481506177674578,0.338460264673645,-0.41377857690130704
11.600000000000001,0.705051361474986,4.525120750809685,0.864205892049836,-0.46727698691761466,-0.04281136452638514,-0.04024909063338364,-0.17936940056596687,0.2780444334513474,0.9436689831134135,-1.453289990061165,-1.8816008602963656,4.131964211099984,-0.25678761202923195,1.3958770213222178,-1.2984526793109339,2.0,0.5204975094022413,0.5322244694903405,0.4194869039320695,0.8418046944125938,-0.07481459081085223,0.3384526105608227,-0.4137843204753999
11.700000000000001,1.440532825110178,3.608441868706579,0.4323579250171318,-0.4661162548003394,-0.0309356553552969,-0.03471975755719731,-0.17818944600430653,0.27636674331488487,0.9443885603078865,-1.4533057041348718,-1.8815764591346165,4.13199522987612,-0.2568269447229536,1.3958673477172852,-1.2984283606158655,2.0,0.5204947210069958,0.5322222314303805,0.41950729631454947,0.8417959444062404,-0.0748175520902602,0.33845271056522236,-0.41380150385357634
11.8,1.0399966013034665,4.151660068142893,0.569139051057391,-0.4550135947950262,-0.011071630783195847,-0.02462316324608797,-0.1787773477255873,0.27720486421135543,0.9440315720288467,-1.453327593281722,-1.8815937250225527,4.131995263621354,-0.2567942899516602,1.3958587021379232,-1.2984130278644175,2.0,0.5204913633269852,0.5322173109071315,0.41952459801869324,0.8417855067876949,-0.07482632986992135,0.338460994510131,-0.41381437398378806
11.9,0.5450383527967313,4.020880492628047,0.5511841128307796,-0.4732965974338282,-0.04668528438798544,-0.03622752449944162,-0.1783880670419291,0.2766317451892777,0.9442731038960877,-1.4533185401789517,-1.8816040607452318,4.13200732570505,-0.2567823690227051,1.3958623710806584,-1.298470942481132,2.0,0.5205013645537402,0.5322067678271344,0.41952282078095005,0.8417896131614832,-0.07483843474794201,0.3384622584868267,-0.41380279776472645
12.0,0.6804182470621811,3.9876235251817547,0.9103388521691862,-0.4648081255158173,-0.05665754372265725,-0.03893493062200311,-0.178107067386763,0.27623548054645014,0.9444425820752422,-1.453307032771118,-1.8815667327350483,4.131980786414531,-0.2568098216360074,1.3958706260657348,-1.2984547122062755,2.0,0.5204917850428386,0.5322141243001571,0.4195345764698775,0.8417837448736545,-0.07483333594457625,0.3384657974452389,-0.413812762801791
12.100000000000001,0.36663266399783323,4.051806244582091,0.9321163988635657,-0.464138698086744,-0.05964349041032532,-0.04466379468680506,-0.17822412089295334,0.2764098430574747,0.9443695021362382,-1.4533395577579034,-1.8816121472280107,4.132023683372575,-0.25680158944007864,1.3958468247561944,-1.2984118182463738,2.448634884981813,0.5204904999286593,0.5322242482210309,0.4194980884679354,0.8418029424333123,-0.07482141852891531,0.3384468936159587,-0.4137913262039775
12.200000000000001,0.04419938228031811,4.291175131247425,1.8028831688940379,-0.47008704319708433,-0.07838860251451077,-0.037845199613516005,-0.1782490736562963,0.27644054444916055,0.9443557885909093,-1.4534581918609064,-1.881363494128489,4.131998538970947,-0.25683052957568364,1.3958514140411191,-1.2984160939902945,3.0,0.5204817650088593,0.5322140958528156,0.419516138959058,0.8417984413032918,-0.07481550661494063,0.338455506980536,-0.41379450695223907
12.3,-0.09781081255464925,4.291601904689884,2.8115899838362846,-0.4772251391360878,-0.09935815670655351,-0.04881618127843309,-0.17792757829269776,0.2759906553529881,0.9445479211328415,-1.4543693579969104,-1.8802619019233855,4.132103241941501,-0.25694406356583593,1.3957562169772666,-1.2984159628497522,3.0,0.5204297282908593,0.5321338733931191,0.41959546541772824,0.8417742926495042,-0.07481530998863485,0.33847706114448073,-0.41382603676512025
12.4,0.058623974620246336,4.2806391185459685,3.456447825206435,-0.4829179126745146,-0.10748777181166294,-0.07396349856814678,-0.17754501261574734,0.275442837312299,0.9447797899826154,-1.455291576239899,-1.879209658228636,4.132203578948975,-0.25711853921923833,1.3955804733309647,-1.2983055753076267,3.0,0.5202645465706406,0.5319309412397342,0.41975933452473524,0.8417520628649514,-0.07481871946939309,0.3384948439548033,-0.41385609152889463
12.5,0.1371038405452312,4.405309600126627,4.000863678596957,-0.4900492043714333,-0.11771098274779541,-0.09216665181788171,-0.17686867669228662,0.27443283603245705,0.9451997726334884,-1.456254737643802,-1.8782331808943606,4.132427073327519,-0.25730296207360076,1.3954552181639448,-1.2982332776552294,3.0,0.5199564780632802,0.5315875053417318,0.41996882432945226,0.8417589738150484,-0.07484648738946728,0.3384864421925403,-0.4138438857578196
12.600000000000001,-0.19900436964379373,4.598388649113828,4.567789850663622,-0.5029526773668771,-0.13428544955480942,-0.11802611299723645,-0.1760053653451864,0.27313298441395256,0.9457380208969941,-1.4573681187794778,-1.8770634562258908,4.132630650320346,-0.25749712663968966,1.3953074983272307,-1.2981370556785274,3.0,0.5196100850056404,0.5312887645388896,0.42007290679995624,0.8418148374791439,-0.07481982034421612,0.3384522594055449,-0.413763026365218
12.700000000000001,-0.4542578050438031,4.443228420690503,5.1660317331299295,-0.5048070498496066,-0.15218954867026704,-0.14717233156892118,-0.17534245421247416,0.2722005734929821,0.9461299348513814,-1.4584357128578924,-1.875629194543706,4.132770732816692,-0.2576879531571027,1.3951324004812218,-1.29806123055664,3.0,0.5193088413503673,0.531000989661531,0.42027027549388,0.8418152621906403,-0.0748250897487318,0.33844445292379866,-0.41376759487918835
12.8,-0.12094909847842915,4.2902627996172615,4.452668034395842,-0.4777219097898926,-0.12773030356245682,-0.16419754702337122,-0.1757072248935746,0.2726896190896023,0.9459214184245629,-1.4595297492872783,-1.8743309213510655,4.132930762216983,-0.25784013446480325,1.3949726298016445,-1.2980220579736796,3.0,0.5189278984714879,0.530560224136441,0.4206033587072583,0.8417774879221034,-0.07482947712082222,0.33848982707112996,-0.41380653347999935
12.9,0.35533140819286674,4.137168654209334,4.45771652792345,-0.46727544284617784,-0.09796041903132073,-0.18988689143379187,-0.17519311808419785,0.2719296213444448,0.9462355126452521,-1.4604730940219963,-1.8733636341490687,4.133126520822582,-0.2580230283034167,1.3948364789156968,-1.297930032371457,3.0,0.5186897514476237,0.530303468123468,0.4207578276823953,0.841778729194012,-0.07483944983258102,0.33848936087160986,-0.4138025862678971
13.0,0.28543930745479285,4.2921637390996965,4.548176766539747,-0.4458150546487084,-0.09122233743296623,-0.21620812604820394,-0.1758259595661426,0.272894350535685,0.9458403134163704,-1.461406429962723,-1.8722882756634815,4.133300582213791,-0.2581732972937523,1.394681453704834,-1.2978830579430904,3.0,0.518331246829547,0.5299858143988297,0.420961661985287,0.8417878777544322,-0.07482762826296163,0.3384722549964754,-0.4138001057416855
13.100000000000001,0.24549934751231178,3.919152203790143,4.6795260124426346,-0.4341115740382539,-0.08592021842279285,-0.23636362244661785,-0.17538146834731114,0.2722303437579729,0.9461139497360165,-1.4623767989543381,-1.8710592348506323,4.133426830964608,-0.2583901589567285,1.3945253632492591,-1.2978184858905237,3.0,0.5180013240234626,0.5296717625888447,0.4211548912196626,0.8418033968843417,-0.07482484511226474,0.3384602084100802,-0.4137788912824264
13.200000000000001,0.42705902797512374,3.784825843009506,4.604334734115991,-0.4313973090849296,-0.08620343052159575,-0.24680365407167076,-0.17493403211047928,0.2715879033526168,0.9463814939078822,-1.4633606264400552,-1.869760031184183,4.1335825274491205,-0.25858124106142355,1.3943946477323663,-1.2977145276712412,3.0,0.5177670234652425,0.5294190900677144,0.42134535275632456,0.8417909416245359,-0.07483526115393985,0.3384729828806978,-0.4137918971496925
13.3,0.32934085594984164,3.9000897231760048,4.730648256516932,-0.4244040946302404,-0.08728796373138642,-0.2656484542764648,-0.17491555889343627,0.27161259991833286,0.9463777932101282,-1.4644089879234836,-1.8684546911207969,4.133765986461806,-0.25876098093181166,1.3942265510559082,-1.2976393619010465,3.0,0.5174149630360447,0.5290749300766664,0.4216393454939815,0.8417628470925652,-0.0748377478604737,0.33848833378100457,-0.41383604077454383
13.4,0.7749136505926937,3.860798249089969,4.902870295052129,-0.4057464464090302,-0.07036188884700814,-0.27054408427800336,-0.1748939037320867,0.2715764187935885,0.946392103721673,-1.465435312388061,-1.8675396192872946,4.133909871007099,-0.2589596074870606,1.3941073417663574,-1.2975635705361541,3.0,0.5169755731749704,0.5286033905875123,0.421989833023831,0.8417423098724535,-0.07483866306795206,0.33850673021590283,-0.41386260024230986
13.5,0.6229201317965567,3.4794187207161715,4.647091373339802,-0.40394504429094374,-0.06091653141572549,-0.2561191168512176,-0.17419235602724176,0.27051259196658506,0.946825940116082,-1.466386715666126,-1.8663474362364652,4.134109973907471,-0.25913482529824544,1.3939473430553255,-1.2974959650863638,3.0,0.5167310501139538,0.5283454600888748,0.42206406031015475,0.8417832924450106,-0.0748452154651559,0.3384811429105683,-0.4137989828121469
13.600000000000001,0.3782174021790672,3.5672783638080716,4.552407552009656,-0.3924009293288426,-0.057574526996534835,-0.25181023662134294,-0.17345167090662109,0.26947457435471467,0.947257840378765,-1.467350959777832,-1.8651752756224282,4.13426060228665,-0.2593420308879395,1.3938193321228027,-1.297416095901783,3.0,0.5163694721744054,0.5280162026392796,0.4222551053505763,0.8417979798695957,-0.07483374638753752,0.3384615093752925,-0.4137872377931351
13.700000000000001,0.6523041183814037,3.5637580909028936,4.741827189717129,-0.38562878395632033,-0.06361959738335149,-0.24593041860912226,-0.17283421949888406,0.26864464905139596,0.9476065967024749,-1.4683385983129145,-1.863912169588411,4.134428477049818,-0.25951732293380103,1.3936835694024075,-1.2973322960175138,3.0,0.5160675330248757,0.527718825955286,0.4224734744827512,0.8417899653411985,-0.07483559483162498,0.3384527505956687,-0.41381037156079975
13.8,0.44739954074552435,3.7935878807797074,4.557065159079793,-0.3907601204708258,-0.06873253801649752,-0.24090776475476872,-0.17228216998207987,0.26787329832233253,0.9479254597043506,-1.4693798780578227,-1.86278238917588,4.134588718414307,-0.25973399296014654,1.393515060431378,-1.2972737113513584,3.0,0.5157280353279025,0.5273899131674267,0.42273823362365176,0.8417723227128231,-0.07482262638231002,0.3384648988602106,-0.41383866848744266
13.9,0.028186668056005074,4.21607431887401,4.307112364711385,-0.4206976879122733,-0.08381243835750543,-0.2357927690910248,-0.17164895452307888,0.2669333282118131,0.9483050354417768,-1.4703578503031127,-1.8617062182575914,4.134754845704271,-0.2599474584911462,1.3934055930571936,-1.297204164043047,3.0,0.5154875747031867,0.5271537981724519,0.42287462563072165,0.8417870561803066,-0.07481153785162292,0.3384604597671983,-0.41381433400227374
14.0,0.1298782809852577,4.132796533014272,4.232999640087451,-0.40760168773465233,-0.08170828250826935,-0.23746307837710048,-0.1708288139042759,0.2657259278161178,0.9487911255466562,-1.4712794185688922,-1.8604826403415664,4.134904612989919,-0.26014740024097566,1.393256664276123,-1.29710724740586,3.0,0.5151839198809482,0.5268414842845685,0.4230463094270141,0.8418057178013957,-0.07481171226833844,0.33844553453879334,-0.4137885466456349
14.100000000000001,0.26018512407029404,3.780960745771786,4.27591902952029,-0.4019750938996278,-0.08831312769127475,-0.2300877405145744,-0.16975370819528424,0.26415985666391667,0.9494207979210298,-1.4721912932325771,-1.85933360693355,4.135073702342374,-0.26035448688263363,1.3930979628223332,-1.297051164733321,3.0,0.5148911237643157,0.5265377382759046,0.423303863389388,0.8417777203082584,-0.07482239508459955,0.3384696585199432,-0.41382383818217766
14.200000000000001,0.4964078856722051,3.425047191229203,4.207408063560869,-0.39860042452746186,-0.09258060462717833,-0.22879733765775304,-0.16906792397679477,0.26316900153201206,0.9498200359932755,-1.4733029870812926,-1.858161038923852,4.135275134182953,-0.26052854763231803,1.3929457664489746,-1.2969675504052849,3.0,0.5144678386395283,0.5260872210765056,0.423589937930568,0.8417818063558098,-0.07482039183266599,0.33846973701073507,-0.413815824470549
14.3,0.18704631638693395,3.295947385870545,4.17327111031543,-0.38714333014526253,-0.08919994674406077,-0.22914429458938038,-0.16896675684266846,0.2630419084088033,0.9498732468537339,-1.474293773429637,-1.8569911656293792,4.135426109092479,-0.26074018206415855,1.392816805460904,-1.2969265208209606,3.0,0.5141611831177153,0.5258127799954876,0.42375686409631125,0.8417914528026001,-0.07480764935042973,0.33845789833184964,-0.4138081882272735
14.4,0.23232876977651215,3.4895095572592223,3.9526793894950756,-0.3888664495198732,-0.09093814811138241,-0.22334163854604963,-0.16881800955625692,0.26289363932780957,0.9499407154055232,-1.475223282525069,-1.8557835772024938,4.135638972571367,-0.26095154980139446,1.3926390893230902,-1.2968550813264341,3.0,0.5137957567218625,0.5254755920423546,0.423946369691815,0.8418184723969279,-0.07479872822928343,0.3384264002740048,-0.4137805957076329
14.5,0.11585557490914646,3.5383593749892275,4.031441496229634,-0.4002245675697103,-0.09773326306895945,-0.22451084226188817,-0.16866350553335863,0.26274280816151413,0.9500099089995404,-1.4761323207414685,-1.8545631587478721,4.135766094489094,-0.26118357599291997,1.392514705657959,-1.2967546621905726,3.0,0.5135093602552167,0.5251856245239748,0.42418916485670294,0.841799424341724,-0.0747955937028928,0.33842351706282636,-0.4138222703521416
14.600000000000001,0.07391244843760096,3.57972315245369,3.987027848002671,-0.3984030802691184,-0.1063755386811188,-0.22386069955326707,-0.16823111911607308,0.2620932490361769,0.9502657320585848,-1.4769793944906797,-1.8534795246519984,4.135921419056598,-0.2613684721490929,1.3923737951815505,-1.2966826597796839,3.0,0.5131908591003208,0.5248417216748883,0.4244938255574165,0.8417592589834234,-0.07481615175526937,0.3384582418711971,-0.41387185439658625
14.700000000000001,-0.45979878578804717,3.80720352088576,3.5834773965826887,-0.4072215141207058,-0.13217040094061422,-0.21193787217716076,-0.16697704541332797,0.26024190839015127,0.9509881241674515,-1.4781058265030527,-1.8524522922975315,4.136079123594881,-0.261574648821536,1.3922432213694498,-1.2966393614862721,3.0,0.512971637717626,0.524586384736884,0.4246575159711976,0.8417556339565195,-0.07482982732543828,0.33847977229197806,-0.4138591468048928
14.8,-0.6557639863175894,3.8045833295701903,3.4064491822411895,-0.41131718931594746,-0.15275545608818125,-0.2152200946100126,-0.16433404819196343,0.25638098925884245,0.9524923509907532,-1.4792287708581233,-1.851125041159148,4.1362342798948974,-0.26174484743997145,1.3920801716297153,-1.2965519722864898,3.0,0.5126734669394509,0.5242699478451353,0.4247884013981319,0.841786501554532,-0.07481996515340689,0.33847333525463835,-0.413803407352605
14.9,-0.28687656785231674,3.5905139285498455,3.2378055635321252,-0.4263637706976793,-0.15246716658187542,-0.2127995145700512,-0.16233696562081612,0.25346349798546314,0.953625765750656,-1.4802105018663958,-1.849862487303998,4.136406211336544,-0.2619566278294382,1.3919212927301245,-1.2964872553478917,3.0,0.5122711862204544,0.5238687300786116,0.42497087898125707,0.8418119537962714,-0.07481322308383685,0.3384356742941077,-0.4137836517585067
15.0,-0.19730034870234675,3.9625043203530166,3.289155624816083,-0.43419211372257355,-0.15171239742893494,-0.21517688685887332,-0.16154946249774832,0.25231272766710994,0.9540647750642101,-1.4810422167248474,-1.8487711927394537,4.136526078369148,-0.2622223251188946,1.3917810351681477,-1.2964384220095972,3.0,0.5120533379241137,0.5236275519371497,0.42513855836483805,0.8418025194596817,-0.07481481292065406,0.33844718481860253,-0.41379314287134183
15.100000000000001,-0.6026850582325463,3.7256863118935097,3.160647227289099,-0.43240241852249345,-0.14790881841209674,-0.20937202004244795,-0.16163373089083666,0.2524216447567814,0.9540218730544265,-1.4817697447064067,-1.8477109401412546,4.136726085496202,-0.2624959989188839,1.3916022064037472,-1.2963340674544288,3.0,0.5116746901144261,0.5232457140390177,0.42551266921004494,0.8417590028846283,-0.07480908582240023,0.3384951214081378,-0.4138434903728501
15.200000000000001,-0.4118654812412311,3.094538556478255,3.0147843536026295,-0.393719434718963,-0.13601980031419847,-0.21037180646171205,-0.16135117838204388,0.2520159379697747,0.9541757052737869,-1.4828151783534458,-1.8467088175669792,4.136894138772147,-0.26265752778677226,1.3914579863775345,-1.2962559386609385,3.0,0.5113225897430944,0.5228890176333085,0.4257725789305041,0.8417606372441787,-0.07482065668991636,0.3384905616458151,-0.4138418038278202
15.3,-0.5214428126588838,2.2981352059224847,2.716611506590539,-0.2626261064184935,-0.11908603719638848,-0.21342846015040537,-0.1599514211120589,0.25002816597949834,0.9549344809985889,-1.4828853254715362,-1.8465855793965922,4.136934141494024,-0.26264478178331824,1.391461208587536,-1.2962496864601507,3.0,0.5111386497137529,0.5227291048280456,0.42585005130876774,0.8417778404914729,-0.07480916286405598,0.33846942030575417,-0.4138261808138512
15.4,0.0018465686065122222,2.028351464018413,2.9881340891847374,-0.2464466195853605,-0.11075492928174549,-0.21747130397486758,-0.15869716179178148,0.24823276750560153,0.9556123191039899,-1.4829626083374023,-1.8464636096269738,4.13694533451289,-0.26267137397575807,1.3914618492126465,-1.296264950429098,3.0,0.5109734000982974,0.5225919817775355,0.4258813150771454,0.8418029159374283,-0.07480964663612566,0.33843510308508534,-0.4138031518599258
15.5,-0.017836601894051972,1.907061357507542,3.0915324618358153,-0.24805523892409936,-0.12077338708613504,-0.2130935893772348,-0.15891923244274636,0.24854240719451443,0.9554947884717774,-1.4830101717761321,-1.8463656519107037,4.136916863965288,-0.26269378009488703,1.3914531444999232,-1.2962214449753848,3.0,0.5109634433244722,0.5225530595432938,0.4259271731067457,0.8417889297448433,-0.07482407195738087,0.3384586132373215,-0.4138097668497169
15.600000000000001,-0.23414730148936083,1.9017059278841324,3.1154481940875427,-0.2354502163933381,-0.12381062771620384,-0.2120731480538688,-0.1594946692247337,0.24935674087270515,0.9551870254795187,-1.4829927352487977,-1.846356918966847,4.136905015222715,-0.2626938083260206,1.3914395298019249,-1.296249869746178,3.0,0.5109319068001393,0.5225125159515595,0.42596308109260256,0.8417849370905301,-0.07482626082674684,0.3384631329491318,-0.4138137963050995
15.700000000000001,-0.16881010300705016,1.930726132152583,3.1929176757976876,-0.23187774883367945,-0.12258356779292559,-0.21410139551353144,-0.15922284311546173,0.24898095347438645,0.9553305356950265,-1.4830118211287624,-1.8463678225913533,4.136902980613817,-0.2626869449886692,1.3914569281578608,-1.2962287108050745,3.0,0.5109238069046848,0.5225199654844155,0.4259721468205037,0.8417847936734713,-0.0748150932787447,0.338453685063547,-0.41382383452951277
15.8,-0.020136071684454006,1.7532913814386415,3.0764698884611503,-0.23381454783734598,-0.12748926577232847,-0.21002094841998434,-0.15969354407620362,0.24963422837525892,0.9550813442601155,-1.4830581417002269,-1.8463666337711766,4.136902332305908,-0.2627167814443965,1.3914618492126465,-1.2962583637169773,3.0,0.5109369436450271,0.5225131004718138,0.4259743648569406,0.8417859636073717,-0.07481071043887659,0.3384631915515998,-0.41381447176475633
15.9,-0.3017753419737352,2.077948571867267,2.8212574587828847,-0.22467426099521084,-0.12190586808207303,-0.20962790967488357,-0.15995021898095352,0.24999804483451718,0.9549434010169087,-1.483005353648099,-1.8463807321219632,4.136920987570824,-0.2627044510158574,1.3914696613168591,-1.2962548249066075,3.0,0.5109365847550444,0.5225056636165357,0.4259476487304651,0.8417955392617323,-0.0748063850470174,0.3384582014093148,-0.41379985588931556
16.0,-0.3075367161109351,1.860722362821412,2.938392784737094,-0.22636813525954588,-0.12267380364383858,-0.2145244108081239,-0.15993429941990295,0.24998974611553892,0.9549482408211868,-1.482985496520996,-1.8463458976167133,4.136889934539795,-0.26270889863690644,1.3914489111724402,-1.296284421327479,3.0,0.5109259092911468,0.5225131060067021,0.42595269276038783,0.8417943434664061,-0.07481070501280607,0.33845336806464704,-0.41380546077733893
16.1,-0.08347223052235186,1.7605358532347521,2.963068400679813,-0.22511890975423646,-0.12575489125469405,-0.21451172828570325,-0.1599265461420549,0.24999841250534854,0.9549472646754655,-1.4830455780029297,-1.8463369808592738,4.136920852413965,-0.2627013486674805,1.3914427394365678,-1.296226366870646,3.0,0.5109291562891854,0.5225144214805756,0.42596489222313616,0.8417851058561199,-0.07481254620999733,0.33845741341772584,-0.41382061064060227
16.2,-0.27073955258826454,1.7915974848492047,3.0581999517700162,-0.22532429588103953,-0.12161126688125928,-0.21716549195857315,-0.1600783148020017,0.2502253975718594,0.9548623788313506,-1.4830217361450195,-1.8463586399131928,4.136899527020127,-0.2627203942852247,1.391445417031077,-1.2962697466692639,3.4445290126954395,0.5109253959105713,0.522521823497257,0.4259647652231839,0.8417877541463732,-0.07479753607170841,0.33845450484230083,-0.41382031573952427
16.3,-0.3501126031460663,1.8394249981325932,3.027241980308755,-0.22388303530074596,-0.12240985501079181,-0.21286663096577574,-0.16024839294947915,0.2504180764736387,0.9547833330420065,-1.4830362388314193,-1.8463732204832972,4.136913776397705,-0.26269876691003585,1.3914310460652644,-1.296245778156943,4.0,0.5109232953097436,0.5225219167800835,0.42596087393719073,0.8417927421603502,-0.0747900501510268,0.3384589675675495,-0.4138078719861113
16.400000000000002,-0.4516165407987644,2.3298002667815667,2.8554666280584473,-0.22723485955744754,-0.13267071196221206,-0.20647880425944712,-0.16027607796772508,0.25046358475795677,0.9547667624562011,-1.4830217361450195,-1.846349378625387,4.136904368919364,-0.2626941314776958,1.3914549207104532,-1.296264950429098,4.0,0.5109411719122268,0.5224963070168468,0.42596021966823494,0.8417905793155183,-0.07481369513741903,0.3384681505767053,-0.4138004865158015
16.5,-0.21638378322132737,1.9391079074105655,3.082990860324062,-0.21723751119377468,-0.12670498288080154,-0.21315221601006606,-0.16022120723312108,0.25041524837805934,0.9547886461509812,-1.4830171864679833,-1.8463804021653394,4.13689941303362,-0.26268669803611433,1.3914524146653513,-1.2962744289229235,4.0,0.5109267876633805,0.5225115359290325,0.4259774610525399,0.841779753394776,-0.07481868832761479,0.3384616980187609,-0.41382688364317594
16.6,-0.08608366188927732,1.0499908215914737,2.8009584067897637,-0.17219051674167854,-0.11264520171963699,-0.21441411751458397,-0.16002540646663546,0.2501547820297649,0.9548896815771735,-1.4829785723005022,-1.8463612995543421,4.136902332305908,-0.26266761357386426,1.3914549249921526,-1.2962430237308673,4.0,0.5109259794236761,0.5225175822627462,0.42596437422357925,0.8417852933032299,-0.07482086560497267,0.3384522291477649,-0.4138229653286857
16.7,-0.12094803123936651,0.4030896248532225,1.807190847182851,-0.0977147595814384,-0.0948353847909584,-0.22125424702591356,-0.159602301311537,0.24951743731705742,0.9551271656592603,-1.4830322127384925,-1.8463279502751946,4.136894630443516,-0.26265770340654154,1.3914380073547363,-1.2962694657211375,4.0,0.5109358803860204,0.522510200827015,0.4259565343814737,0.8417877282226642,-0.0748259232521683,0.338454354374456,-0.41381535958463
16.8,-0.08208369767195588,0.2886673208072303,0.7585479008005028,-0.06234176184079024,-0.0697987704152557,-0.22266622628785404,-0.15904281859545388,0.24871645753310145,0.9554288860210748,-1.4830066232263648,-1.8463131390013636,4.136899244745153,-0.2626766498320028,1.3914380073547363,-1.2962483743974642,4.0,0.5109315175296811,0.5225045746338239,0.42598458431212355,0.8417712245436548,-0.074820939747217,0.33847591455884984,-0.4138321975984585
16.900000000000002,0.12884523548688018,0.007393925822087558,-0.009558483997069794,-0.049180903824598346,-0.06343929915342783,-0.21760198838834946,-0.1584152092160693,0.2478337347459506,0.9557626952644411,-1.4829740524291992,-1.8462679479715558,4.1368823433289075,-0.26267702997241216,1.391466655767872,-1.296267627982619,4.0,0.5109294697041732,0.5224895637206555,0.42602878862189114,0.8417560342913826,-0.07481793335996052,0.33848431869448664,-0.4138567645692387
17.0,0.04412323370315946,0.46904555133300163,-0.01762292855449203,-0.03302091042437552,-0.06219608581077167,-0.22335529477016325,-0.1582433481643764,0.24757748466142926,0.9558579530304776,-1.4829876910799544,-1.8462941146084735,4.136906957072328,-0.26272265905928566,1.3914664212104766,-1.2962411085711878,4.0,0.5109214759401483,0.5225042179137922,0.42602114419378884,0.8417591101118151,-0.07481519726486846,0.33847333627687815,-0.4138599852988729
17.1,0.019342278536677776,0.08637724809368771,0.046690119247631695,-0.04146834632939536,-0.06001960147101182,-0.22181286409390835,-0.15836715930099335,0.24773381864260713,0.9557968691063456,-1.4830121776386351,-1.8463012180724085,4.136902332305908,-0.262704078724912,1.3914504051208496,-1.2962796014154845,4.0,0.5109255891252598,0.5224910029464223,0.42601062512530957,0.8417685353007123,-0.0748182082099988,0.33847500786252926,-0.41383890313792376
17.2,0.0768081516417943,0.19294578885129715,0.07314924901173933,-0.034535143651004956,-0.05977690930906998,-0.22430224160737777,-0.15882944287980277,0.24839068485932647,0.9555495704461524,-1.4830360879675653,-1.8463084180071052,4.136897422471879,-0.2627013486674805,1.3914667590466754,-1.296264950429098,4.0,0.5109327053367849,0.522482797598658,0.42601076535305044,0.8417663769196648,-0.07483088556796134,0.33847704391596317,-0.41383933596815836
17.3,0.28937239743565235,0.051578249981001856,-0.08137128512176833,-0.034606568227155736,-0.05975654350638663,-0.21878217112398726,-0.1584460149538456,0.24783865385920453,0.9557559694590271,-1.4830310338777153,-1.8463204763296124,4.136916294666114,-0.2626865136597619,1.3914380073547363,-1.2962287108050745,4.0,0.5109293358133731,0.522484651977797,0.42602641626772003,0.8417574494774347,-0.07482460866049626,0.3384848943512992,-0.41385220850448184
17.400000000000002,0.11839550217936148,0.10744865335806608,0.04180958879654165,-0.03322003580381777,-0.055020121526715524,-0.22245069808491102,-0.15775464543267273,0.24684493750443975,0.9561280850420509,-1.4830313174993082,-1.8463612995543421,4.136897350001678,-0.2626698997206014,1.3914550041709082,-1.2962530295001429,4.0,0.5109329097631673,0.5224949873142559,0.42598317816021347,0.8417780123309089,-0.07482149591584106,0.3384644829948814,-0.4138276397923991
17.5,-0.011280810985424508,0.26122034899380425,-0.11379346410206675,-0.027230098998622804,-0.04903302856018885,-0.22313893553298003,-0.15823773802118996,0.24751987595702374,0.9558736349482794,-1.4830217361450195,-1.8463398469443992,4.136906456093705,-0.26270500881948067,1.391451015162726,-1.2962576301250976,4.0,0.5109360985766482,0.5225010354935601,0.42596756392660445,0.8417833385016907,-0.074828961291831,0.3384622637602908,-0.41381727076475816
17.6,0.16788330734321102,0.09098937807998309,0.06498892061317776,-0.027383738027759758,-0.051476243977998465,-0.22494030892194014,-0.15849981537278543,0.24789071257554907,0.9557342585035516,-1.4830148986794731,-1.8463443881136157,4.136889934539795,-0.2626942263075364,1.3914550117471,-1.296260151860087,4.0,0.5109503249663886,0.5224992757509664,0.42598494657688973,0.8417755985724056,-0.0748247420575299,0.3384759679572099,-0.41382256915195204
17.7,0.16312714880166207,0.29110923908564523,0.05511061459575149,-0.02027466076386416,-0.05165047776640009,-0.22502093861286998,-0.15859646182881343,0.24803011015791068,0.9556820698480002,-1.4830601859647083,-1.8463250599303187,4.136899168435926,-0.2626940446865912,1.3914309955330826,-1.2962582188878673,4.0,0.5109349919874079,0.5225077478027182,0.4259643885371988,0.841781915659203,-0.07482002540526066,0.33846842845856984,-0.41381673867095403
17.8,0.15369075212729863,0.12446339385906308,-0.04102184272905485,-0.023640055662763334,-0.05179410564983596,-0.21926152706756638,-0.15844522590709081,0.24780028305299556,0.9557667661955072,-1.483001238993659,-1.8463612995543421,4.136908805090548,-0.26269617022252556,1.3914369201528494,-1.2962799994361434,4.0,0.5109377464356311,0.522504757588753,0.42596506742409146,0.8417840880637331,-0.0748244575048166,0.3384698805048435,-0.4138103305052408
17.900000000000002,0.03639721856083579,0.43427283097844727,0.0779089216007144,-0.019978100980080814,-0.05195251063598723,-0.21972228003430982,-0.15828417770829817,0.2475871498756983,0.9558486288655053,-1.4830011622872874,-1.8463561463417464,4.136888255455881,-0.2626945809511213,1.391448313779928,-1.2962617214215713,4.0,0.5109397986895011,0.5224949904087963,0.4259557000533707,0.8417897151448892,-0.07482487471621949,0.3384653152763857,-0.41380254222859125
18.0,0.19055069151599927,0.10996220251883232,0.0638066990548495,-0.023754040092238547,-0.051406220415899345,-0.22038281616173833,-0.1581231295095055,0.24737401669840103,0.9559304915355034,-1.483026801629346,-1.8463651920023203,4.136903223305358,-0.26269998083087215,1.3914609582131963,-1.296268859138663,4.0,0.510943722721142,0.5225032204472181,0.42594087402598385,0.8417938026857565,-0.07484085300672969,0.3384396503915299,-0.4138123288689425
