xiamingqian9007/apple-picking-rnn/training_data/grasper_20191127_133445_noimg.csv
,/manipulator_wrench.fx,/manipulator_wrench.fy,/manipulator_wrench.fz,/manipulator_wrench.tx,/manipulator_wrench.ty,/manipulator_wrench.tz,/ground_truth.x,/ground_truth.y,/ground_truth.z,/joint_states.elbow_joint,/joint_states.shoulder_lift_joint,/joint_states.shoulder_pan_joint,/joint_states.wrist_1_joint,/joint_states.wrist_2_joint,/joint_states.wrist_3_joint,/mode./mode,/manipulator_pose.x,/manipulator_pose.y,/manipulator_pose.z,/manipulator_pose.rx,/manipulator_pose.ry,/manipulator_pose.rz,/manipulator_pose.rw
0.2,0.15836022830887098,-0.19281618502966108,-0.3934400695640927,-0.003741804495748037,-0.0014333687175535903,-0.005074422450010232,0.13750516098393448,-0.12962917347932237,0.9819818221783682,-1.1294626704272883,-1.8598148316722198,4.168754908372757,-3.7074104748167933,-1.3615047106390132,1.7041998394909246,1.0,0.46294809278873883,0.47599176749879135,0.392133601232261,0.8345032751922965,-0.011927415512762135,0.3783914574626682,-0.4003522516132433
0.30000000000000004,-0.2347803788458204,0.15328127678321424,0.07779432712267698,-0.004517663774898969,-0.014334756964555176,-0.008750932232053234,0.1380378820971768,-0.13019629637388053,0.9818321859629516,-1.1277815895107584,-1.8617954276510333,4.168472766876221,-3.7070859028623886,-1.3617981690582848,1.7040163810462519,1.0,0.46305961505619087,0.476108164674897,0.39208642081611284,0.8344920336192891,-0.01192025834091129,0.37840595279106387,-0.40036219621652125
0.4,-0.30671089477813096,0.11856236008391215,0.03863436035299579,0.005942078199346097,-0.00323434578343046,-0.00891456621902561,0.13797639958982738,-0.13015176351073887,0.9818467426882554,-1.12475395244434,-1.8652838588062597,4.167741067954622,-3.7066143415065156,-1.3625015847497326,1.7037643466751622,1.0,0.46350865308950734,0.4766163174610776,0.3917795416132281,0.8344961145402301,-0.011918145445333834,0.3784110971197959,-0.4003488905979329
0.5,-0.09079041034760543,-0.02521633850824604,-0.12053643769638751,0.005583532642278291,-0.0037322905072862426,-0.010992158356494093,0.1377884328218544,-0.12994240284639916,0.9819008377325241,-1.1217690323267924,-1.8687621591038734,4.167018093297952,-3.7060747677063413,-1.3631563092167112,1.703454737298053,1.0,0.46441828810083197,0.47753659021435174,0.39118096066935215,0.8345222081111209,-0.011906818474655481,0.37838870868712704,-0.4003159964093854
0.6000000000000001,-0.10063092085316433,-0.09567282549507831,0.05442994160263649,-0.00096213418871469,-0.00021367431297843512,-0.014947554400981118,0.13777709937501698,-0.12992948049813205,0.9819040511812744,-1.1188644221899944,-1.872207611744866,4.166304111480713,-3.7056586475480615,-1.363773623707158,1.7032345274007639,1.0,0.4654599265419872,0.4785542582288199,0.390572094299785,0.8345110552624374,-0.01192303898450352,0.3783907404540051,-0.40033684232757916
0.7000000000000001,0.010041164862517979,-0.2019522871405472,-0.11602174873719406,-0.00858463136185721,-0.0047076766893411025,-0.007649060461740905,0.13813908038876013,-0.1303685479863621,0.9817949707476195,-1.116042395191206,-1.8751571291300253,4.165750505606,-3.70519785527966,-1.3642559114439476,1.7029548642575922,1.0,0.46658164057609414,0.4796671538410508,0.389820422746978,0.8345496167244599,-0.011936066063583897,0.3783569419471167,-0.4002880113523374
0.8,-0.11414597025201847,-0.1568145889676551,-0.1021025492426082,-0.001400207176828996,0.0010066903663862757,-0.010440246653805347,0.13813308406850575,-0.13038913231510485,0.9817931000801534,-1.1133123940820093,-1.8784199475005365,4.165263325631082,-3.7048470016703376,-1.3647396208942408,1.7027558462469428,1.0,0.4672738363939555,0.48035534477360814,0.38950371623364854,0.8345012653655647,-0.011957358612478786,0.3784081712537936,-0.40033975022053936
0.9,-0.18937199115529024,-0.04469224909594941,-0.07307726735654968,0.0009116341061951882,-0.0022711873780208174,-0.011400859525168217,0.13766255497454474,-0.12988142556484464,0.9819265704933869,-1.1107847374139264,-1.8811626793215002,4.164698123931885,-3.7044622940547622,-1.365195453136917,1.7025039096911558,1.0,0.4679806286832689,0.48112392424231987,0.38902630199289556,0.8345150388409944,-0.011936971854388953,0.37840282498480127,-0.40031670049434975
1.0,0.034013369904567825,-0.06765371518062033,-0.23197020947087135,0.004928652954233081,-0.0035011429466671484,-0.011786296899496411,0.1375106270919231,-0.12970231358641704,0.981971534370112,-1.107996443632607,-1.8842087026082674,4.16418293944029,-3.70407857740206,-1.3657895951203514,1.7022552490234375,1.0,0.46879916149286155,0.48198975022388835,0.3885128351355392,0.8345164905902176,-0.011930883714167551,0.378404888475395,-0.40031190504993763
1.1,-0.1552893733254646,0.037730856693921726,-0.0946750077249793,0.0048784693558009806,-0.005171085589642321,-0.01661770090731207,0.1373807605896406,-0.1295459549873893,0.982010369656314,-1.1055737963275734,-1.8869618404475492,4.163609690239294,-3.7037829890147544,-1.3662446302242675,1.7020446604075041,1.0,0.4697418328691872,0.48294756399443217,0.3880224994944906,0.8344754425144203,-0.011948455917283794,0.3784294193651098,-0.40037375638338324
1.2000000000000002,-0.08361734875008833,0.14472816489494247,0.15014151196906625,0.00016691887940851568,-0.010663674641291697,-0.013042430594276825,0.1372493196425654,-0.12934993512482743,0.9820545741710711,-1.1029029600812634,-1.8897814765276857,4.163120020151084,-3.703445357265589,-1.3667914066079814,1.7018723487854004,1.0,0.4706053305129971,0.4838611511958429,0.3874271975877,0.8345036309210179,-0.01191993451527977,0.37838346931941885,-0.4003592827531167
1.3,0.09571347360429076,-0.04779863625366723,-0.11409654343970445,0.0009208988123466152,-0.01075235234295282,-0.010531840513744289,0.13747709804543107,-0.1295609396387306,0.9819946359750484,-1.100728758328054,-1.8923965550138533,4.1625979389808485,-3.703132910365421,-1.367261853445987,1.70168692964885,1.0,0.4713783483261972,0.48462641019616876,0.3869511289101846,0.83450631561288,-0.011928017039878638,0.37837907682854943,-0.40035759744269545
1.4000000000000001,0.006491377881562427,-0.23078398833039565,0.027262042929173835,-0.0003050940966659813,-0.005168343582205843,-0.014906177778238432,0.13820832488438628,-0.13034657373852926,0.9817881986156382,-1.0982345013949009,-1.8949746854535714,4.162087140573935,-3.7028320726536017,-1.3676072563112374,1.701475356504863,1.0,0.47212192580791984,0.4853962493888403,0.38647206301360304,0.834512840971338,-0.0119345799459975,0.37836319427403864,-0.4003588106613927
1.5,-0.15148520102491664,-0.04679967132575026,0.09526702592706607,-0.006456981179297604,-0.010336133937523138,-0.011878961362729147,0.1380033871992656,-0.13026416819733674,0.9818279806785779,-1.0961112751680262,-1.8975465743797189,4.1615425600725064,-3.702577751255338,-1.3680140773402614,1.7012966205092037,1.0,0.47272916564668,0.4859940118457678,0.386132940294016,0.8345003314264378,-0.011954236760113052,0.37838676926662895,-0.40036201857395504
1.6,-0.2166870474807604,-0.11384586799291965,-0.011292418323806563,-0.0017706356103041106,-0.007289954141750005,-0.015065857663213096,0.13769885056598158,-0.13008941154372392,0.9818939581322345,-1.0938256238964008,-1.8999008232733474,4.161147736264606,-3.7023297914182853,-1.3683445380310475,1.701126311351866,1.0,0.47365457396294,0.4868423901425381,0.3855808886136947,0.8345044764002962,-0.012000335418952505,0.3784208054111319,-0.40031982819951684
1.7000000000000002,-0.18856413506322883,-0.11212271486077324,-0.04431692847256949,0.0047466697677364935,-0.009169519878840297,-0.017544900938115247,0.13765439932282292,-0.13004282317508034,0.9819063753014364,-1.0916948318481445,-1.902423613691423,4.16078047073106,-3.702082540546276,-1.3687063768152115,1.7009307583565436,1.0,0.47430678189929437,0.4874977786124867,0.38519488282433406,0.8344954959667732,-0.012010152562374931,0.3784412041346346,-0.40031897089661583
1.8,0.1042548111511845,-0.46643408875854003,0.09663545098213519,-0.005322967225660271,-0.011559821977649697,-0.01575782484994273,0.1377583740380633,-0.13012222996848147,0.9818812388345172,-1.0895553055350766,-1.9046101221739207,4.160399923331898,-3.7018785128294383,-1.3691527253653586,1.7007544298479162,1.0,0.47492582685706564,0.48819972777916976,0.3847413971176847,0.8345227030759801,-0.011982768540588336,0.37841281102823443,-0.40028991463509545
1.9000000000000001,-0.0668986830959845,-0.31411331702215567,-0.11319112203442837,-0.004835897275722893,-0.0029518556192723658,-0.017884662993096736,0.13805064933128627,-0.13037982871835477,0.9818060340585002,-1.0876118223806364,-1.9065971019048935,4.159999370574951,-3.7017321102181953,-1.369513905086227,1.7006195327113143,1.0,0.4755192766438741,0.48884188501912307,0.3843761816010383,0.8345182079042404,-0.011967733422832342,0.37840475419700376,-0.4003073519611157
2.0,-0.06904059598443577,-0.2753603707631682,-0.03551501852290065,-0.003567153547405412,-0.009234272454642738,-0.01362016519568322,0.13800467521866697,-0.1302860049478951,0.9818249578437597,-1.0856712193205325,-1.9090491595038135,4.159652233123779,-3.701515173453922,-1.3698982382239258,1.7004471522704363,1.0,0.4760097756092717,0.489349897262274,0.3841038640064664,0.8345064823059114,-0.011955903465274732,0.37840493211666426,-0.40033198062548747
2.1,-0.35143705815068754,-0.15509634999251418,-0.023012113641384932,0.0058822764105673515,0.0015528870373908684,-0.01436624755433892,0.13803344690041064,-0.1302682408162982,0.9818232539867364,-1.0835512440776869,-1.9107701074412178,4.159295064860532,-3.701337639552583,-1.3702414326892256,1.7003299318504421,1.0,0.47675204205967775,0.4901203134624414,0.38362734237932183,0.8345199598527266,-0.0119466445449815,0.37838566878255186,-0.4003223700363252
2.2,-0.11017752521285545,-0.04726086831196247,0.09241732545963643,-7.432792012687997e-06,-0.004600062411651769,-0.018560325509832783,0.13829547698880912,-0.13048992612207228,0.9817569515286926,-1.0818396902674159,-1.912855100769738,4.159004817067953,-3.7011822599231436,-1.3705360237114868,1.7001279624272936,1.0,0.47726881064753635,0.4906599473111394,0.3834396837714504,0.8344547921781004,-0.011944314390471687,0.3784328160149486,-0.4004137072175987
2.3000000000000003,-0.11783081411746915,-0.22855402462140884,0.11358662991117889,-0.006024153159405037,-0.004355194348770135,-0.018001136740960037,0.1381965847367747,-0.13031710422966009,0.981793797360989,-1.0800813434874157,-1.9149082782859828,4.158674468855496,-3.701016706749864,-1.3708304830797533,1.7000536391891052,1.0,0.4778971670537075,0.49134677397519605,0.3829283232042059,0.834508566341008,-0.01191249387517101,0.3783845766090741,-0.4003481701937967
2.4000000000000004,0.021776423414010995,-0.10255010624298963,0.04310901290784887,-0.0018837912546435052,-0.002444234121734501,-0.015471273664825308,0.13802317571051326,-0.13006283156370219,0.9818519394030296,-1.0780941049691852,-1.9166155636528999,4.158347875106105,-3.7008608462907433,-1.371116049979977,1.699867312014258,1.0,0.47829647568216904,0.4918208084214156,0.3825834572243367,0.8345472946828418,-0.011875053195899644,0.3783426632752427,-0.40030816278829606
2.5,-0.08845759088659175,-0.19545966661473504,0.191818317608059,-0.005014892535182122,-0.011911797010480342,-0.01289099925460413,0.13769284739336882,-0.1297552998378552,0.9819388500189247,-1.0766014190168383,-1.9185462537528053,4.157962970656769,-3.7007164148590834,-1.3713805941482284,1.699702569071975,1.0,0.47871120739859335,0.49223791123145555,0.38245378921738443,0.8344904819786476,-0.011887000145855435,0.37839160183893594,-0.4003799824820682
2.6,-0.25012474562771686,-0.10919681157005284,0.11133630390352295,-0.002835430126566391,-0.011069444217963877,-0.01449401446497343,0.13732858338890583,-0.12943625019860755,0.9820319821855381,-1.0749897557568837,-1.920380463329499,4.157737407339624,-3.7006035482618493,-1.3716713014324,1.6996132465730232,1.0,0.47943958611221626,0.4929379428906786,0.38195460752275745,0.8345197472432517,-0.011916103485567561,0.37838315336837347,-0.40032610105486055
2.7,-0.16528451054423196,0.0556150569849469,0.03868495410167976,0.0036688465763890076,-0.0050984465875854885,-0.015625529036135614,0.13702196857442245,-0.12915561910087198,0.9821118906974281,-1.0731565064207067,-1.9220216725255235,4.157407278415709,-3.700503037824179,-1.3718889395343226,1.6995064270483298,1.0,0.47984800360555335,0.4933574796530711,0.38161673864858425,0.8345639343112187,-0.011914714174942092,0.37835855898916415,-0.4002572672329041
2.8000000000000003,0.2298269757984782,-0.2703586360461525,0.19283607243305678,-0.0036191621807118704,-0.012788227719799455,-0.011488874884830278,0.1368404271319996,-0.128958339331026,0.98216310969802,-1.0716385724524498,-1.92368513560312,4.157101615147525,-3.7004121727546817,-1.3721925297532163,1.69940248735679,1.0,0.48025717610056146,0.4937747892485895,0.3814779171668193,0.8345118604706037,-0.011934627252864968,0.37839399233502946,-0.40033174489538625
2.9000000000000004,-0.09313077389804192,-0.0897713011954929,0.2329826926328415,-0.009427329544775744,-0.01018172789400717,-0.01230814570398928,0.1368071835403479,-0.1289307187011516,0.9821713105633257,-1.070259178933805,-1.9252917818318804,4.156777009377148,-3.700287004510397,-1.3724595789110092,1.6992905873248572,1.0,0.48081953502856745,0.4943198048767071,0.3811927373439386,0.8344891289162206,-0.011944329083806798,0.3784221425097416,-0.4003522308938997
3.0,0.019272121203071313,-0.12725796417991572,0.022104064962636304,-0.00319053946569339,-0.005797433007701883,-0.016045425792322206,0.13714774589369955,-0.129330748201173,0.9820710780654415,-1.068705468736997,-1.9268255282376838,4.156532130672889,-3.7001408010004164,-1.372686048275215,1.699178561263908,1.0,0.48120281657100034,0.494685403514746,0.3809161541847992,0.8345121935407502,-0.011938818429241622,0.3784128212258163,-0.4003131276616311
3.1,0.20261017855786062,-0.004386892763027173,0.010850104324886208,-0.004309079738015066,-0.005824708857029077,-0.017301414826295804,0.13748830824705122,-0.12973077770119434,0.9819708455675572,-1.0672184049344495,-1.9284522818973813,4.1562442442027585,-3.700130252681335,-1.3729277123055197,1.6990623811634527,1.0,0.4815634369898524,0.49503948821998456,0.380700232371277,0.8345115395299578,-0.01194732393413081,0.3784090568375618,-0.40031779568919973
3.2,-0.008621296575133913,-0.30473266233287977,0.2069559183529708,-0.00505101238385529,-0.010941533134736404,-0.01840561351867233,0.137198255668434,-0.12940930536282466,0.9820537502134866,-1.0658140182495117,-1.9298269765010805,4.156018109370753,-3.699986597100729,-1.3731344381915491,1.6989462476907318,1.0,0.4822035604688242,0.4956937912534926,0.3803448253916459,0.8345015047087152,-0.011952821304129137,0.3784187943802356,-0.4003293453665008
3.3000000000000003,-0.02294282488344576,-0.2791409708436143,0.026343173143253143,-0.002701940556014223,-0.011375591887150566,-0.016175298004968478,0.13702961990218995,-0.12920084022057507,0.9821047273312306,-1.0645860265568228,-1.9311891049629852,4.155785529324694,-3.6999451544286335,-1.373391316734934,1.6988601371738155,1.0,0.4825257939954505,0.49603909552550407,0.3801227801949807,0.8345078780424499,-0.011940848880928362,0.37841436932003847,-0.4003205999011393
3.4000000000000004,-0.168726091177373,-0.3594966694189232,0.03939278486567139,-0.0067630686984788075,-0.010242459085681025,-0.018618566433972823,0.13772083117474596,-0.12990370032637202,0.9819153162291496,-1.063149568722853,-1.9327423201714713,4.155554178072801,-3.6998161996980934,-1.3736093059411192,1.6987833976745605,1.0,0.4829786818175264,0.4965114450603243,0.37985682453241026,0.834497509832862,-0.011945813179421024,0.37840299278837736,-0.40035281774833864
3.5,-0.25108567499341505,-0.055933732032413086,0.060664953165619845,-0.004193029336547713,-0.005564756880686066,-0.016626460278320824,0.1379954786626359,-0.13020068566561585,0.9818375546991679,-1.0618889801914215,-1.9342176560819249,4.155365253232788,-3.699774198048236,-1.3738288558080118,1.6986908067763216,1.0,0.4832744953821181,0.49682036973569227,0.37961653556584163,0.834531887958146,-0.011948500631034666,0.378365463895089,-0.40031654605466493
3.6,-0.032989583564467795,-0.11866476044897756,0.008794624401543459,-0.0018318185677357792,-0.005702624189986424,-0.02040949467414137,0.13813429052316759,-0.13036532091689457,0.9817962005339851,-1.0607007674147186,-1.9352257670431146,4.155097484588623,-3.699688954775311,-1.374024723214596,1.698603630065918,1.0,0.4835783724461849,0.4971337445261673,0.3794065915245431,0.8345446316765205,-0.011944757645282227,0.37835804062238315,-0.40029710666089924
3.7,0.05619075281687923,-0.3561179729141481,0.27857844128575227,-0.006337114981337436,-0.00765692720272865,-0.017624414632561643,0.13816519861932477,-0.13038179567529123,0.9817896745075558,-1.0593924240928232,-1.9363884735866554,4.154941712727045,-3.6996503011622077,-1.3741927619983774,1.6985039385682466,1.0,0.483999703474672,0.49756592567463426,0.3792077598932948,0.8345103260434773,-0.011940338563058631,0.3783903134935249,-0.4003382503534736
3.8000000000000003,0.04261968485479394,-0.2592413419248118,0.1702839516025576,-0.0052281258097778525,-0.009913071595316967,-0.01657888786126922,0.1378897920664357,-0.1301104040718211,0.9818643064998246,-1.0581636148804185,-1.9377583799549267,4.154704883716381,-3.6995733357576253,-1.3743714822501045,1.6984601020812988,1.0,0.48433044877531356,0.4978903689893791,0.3790954434749697,0.8344677731258082,-0.011960560443619137,0.3784280485094492,-0.4003906751032792
3.9000000000000004,-0.12544722175904893,-0.050326411461084006,0.11543893514064119,-0.003242866822976809,-0.00883766413875358,-0.016148305336657377,0.13767016383731895,-0.1299034485788257,0.9819225472003302,-1.0571094721160263,-1.9391671651791875,4.15449857711792,-3.699515011547441,-1.3745723955387794,1.6983683811022088,1.0,0.48476919982002437,0.49833862971943854,0.3787230429672297,0.8345226329232254,-0.0119555628264452,0.37839108897851925,-0.4003114080788119
4.0,-0.046581953886529345,-0.05750131799800488,0.17341618577621185,-0.0038552461491242287,-0.013224084110864913,-0.01890803447699095,0.13817593755527557,-0.13039983438758979,0.9817856676354912,-1.0560329973601632,-1.9401697935095168,4.154321736186717,-3.6994692287840785,-1.3746992121534378,1.6983058295118156,1.0,0.48501593445311336,0.4986352902405623,0.3784548718708443,0.834574635178233,-0.011918593905979245,0.3783433040275228,-0.4002492595045758
4.1000000000000005,-0.0853704785634979,-0.18081500556748564,0.1401826944331978,-0.0021429109873896592,-0.01007835520474712,-0.022237980186421015,0.13811341502975982,-0.1303333895901384,0.9818033241540108,-1.0548252719849465,-1.9411583370092367,4.154125511089651,-3.699422844681439,-1.3748633179707785,1.698212015002618,1.0,0.4852715097142589,0.4988945134100159,0.3783344982423612,0.8345580852361097,-0.011917303497859924,0.3783606348902778,-0.4002674233681827
4.2,0.2828147076969906,0.06758705099729531,0.03413682994211023,0.0015569491967625648,-0.01123297001733201,-0.017256597892494965,0.13780118776934286,-0.13001782894026334,0.9818890800603687,-1.0534810984704819,-1.9423290691771449,4.153925778883758,-3.6993589029047986,-1.3750490561888948,1.698103787916961,1.0,0.48567166991125355,0.4992790491476823,0.3783067076070976,0.834454297547936,-0.011951119884094088,0.378446429682572,-0.400401668200584
4.3,-0.039042259580823135,-0.33192859389784457,0.057968177804058135,-0.01031624722358736,-0.0055526547170516565,-0.018808710325761414,0.13755203647026443,-0.1297560323005949,0.9819586322543592,-1.0524688549551708,-1.9437364986129857,4.153757959884422,-3.6993198631506763,-1.3752310911761683,1.698043734115379,1.0,0.4859216705001003,0.49953486044363915,0.37823424381135734,0.8344201507714311,-0.011959815935298015,0.3784795554295405,-0.4004412577535354
4.4,-0.05588530129715548,-0.3474013780918715,0.12065919555308346,-0.013197574859828726,-0.007563603811849246,-0.01967252682843675,0.1376625494715349,-0.12988694540391416,0.9819257718925732,-1.0514187734397036,-1.9448710815447217,4.1535811581071655,-3.6992413006224574,-1.3753934509671344,1.6979955483720226,1.0,0.48622241041453507,0.4998584919137571,0.3779248353506993,0.8344792332953953,-0.01194783901799678,0.37843469701351196,-0.4003608852495718
4.5,-0.1575034793062004,-0.26386993181817153,0.23031855900556752,-0.010450808766338653,-0.009159601994869699,-0.020638851282818282,0.13795780024650844,-0.13021956972394494,0.9818403084018834,-1.0503897535974258,-1.9460623887288535,4.153412861497194,-3.699193140069479,-1.3755734176672558,1.6979044253518558,1.0,0.486642454847757,0.5002996520666418,0.37754875620365713,0.834527473097701,-0.01194135874381759,0.37839448459632447,-0.40029853187789677
4.6000000000000005,-0.08902599585576276,-0.08408450431745301,0.258494516168021,-0.0028461519866514184,-0.01132649371493742,-0.019391046916271262,0.1384686314114834,-0.130732624109929,0.9817000452645556,-1.0491105224062893,-1.9471122227110804,4.15325642499833,-3.699167601802673,-1.375758473073141,1.6977827043325193,1.0,0.4868644076016965,0.5005681140723568,0.3773767929396636,0.8345361672877403,-0.011923693623946699,0.37837355996570154,-0.40030071213767904
4.7,0.0049148625952942365,-0.04848911806506376,0.08989395218622805,0.0010182474531678148,-0.011103544501522532,-0.01932703681550737,0.13890379368502023,-0.13115111843110658,0.9815828356427055,-1.047749391811997,-1.9483397928605164,4.153021463137954,-3.6991330585875453,-1.375936177317726,1.697708002346665,1.0,0.4871103839224034,0.5008292625891118,0.3772997869707994,0.8345025783146418,-0.011921259136460511,0.3784018286573527,-0.4003440850513313
4.800000000000001,-0.18738653473507766,-0.11579536300794752,0.11837687685971357,-0.008988918889037379,-0.010741233917797102,-0.02784340881742432,0.13824100015001076,-0.13046988328545317,0.9817668301602038,-1.046731072942195,-1.9495712667055867,4.152822670748799,-3.6990876476419046,-1.3761130896212463,1.697641123905076,1.0,0.4875911076548989,0.501287973174108,0.37712056063735727,0.8344523343605088,-0.011953459164973219,0.3784551060527872,-0.4003974889991973
4.9,0.02310675631696902,-0.13538127630532848,0.08353324171083581,-0.00488809704750379,-0.012159226312783565,-0.023677583297056774,0.1376918389467921,-0.12990389604970576,0.9819195090068119,-1.0457155345274887,-1.9508059323261642,4.152666341757,-3.699024816552633,-1.376302532019218,1.6975865364074707,1.0,0.48787138035235444,0.5015821545215343,0.37689443416915114,0.8344767211971456,-0.011943607643135918,0.37843136907063113,-0.4003693930857555
5.0,-0.09077426490227872,-0.08916131065681134,0.03917071165029824,-0.0012205131980038593,-0.004850903232941589,-0.02233490217316993,0.13785104505263338,-0.13005634740030342,0.9818769705488878,-1.0446355151366447,-1.951923860814437,4.1524411447706,-3.698978996215992,-1.3764868226824418,1.697524004785565,1.0,0.48810004562849835,0.5018335949586786,0.3766664751983619,0.8345166581537797,-0.011922652789851372,0.37839339561033497,-0.4003226645754411
5.1000000000000005,-0.07472760590184829,-0.10211858231532765,-0.02079360649983373,0.0017607041770435641,-0.008076794673621553,-0.01775261883113131,0.13798954402720856,-0.13018846654529379,0.9818400321689222,-1.043230229996226,-1.953083027658241,4.152277502561246,-3.698935864694279,-1.3766548670107457,1.6974304172521801,1.0,0.48852672936068064,0.5022706486056565,0.37639560453007237,0.8345186380817148,-0.011927522039626264,0.3783882951538996,-0.40032321317000785
5.2,-0.00970761012455822,-0.0760276581168227,0.14238804989604997,-0.00038302320209801966,-0.009330349763946175,-0.023544195737364836,0.13797354779566492,-0.13016888779182648,0.981844875781226,-1.0420092131719128,-1.9543104733429641,4.152093670672103,-3.698932996720963,-1.3768161048071705,1.6973294544048754,1.0,0.48884855526325083,0.502580635510216,0.37627170056082554,0.8344865569040605,-0.011939514783252931,0.3784167305871835,-0.4003628508551381
5.300000000000001,0.0443159446750407,-0.21613078029590294,-0.07698617431243839,-0.004248741569464191,-0.015438488070150726,-0.020465878516759167,0.1379938915153615,-0.1301860466160222,0.9818397194421943,-1.040950470183158,-1.9554255144526507,4.15186071395874,-3.6989117685709867,-1.3769996426207913,1.6972584305053668,1.0,0.48920690200294475,0.502956623259938,0.3760707123131977,0.8344799779731527,-0.011939623401701772,0.378413139892963,-0.4003799536831244
5.4,-0.01056007152676082,-0.10352501500630829,-0.12978539498620864,-0.00032037205863509957,-0.015924112647134617,-0.019418925863640937,0.13831821752509818,-0.13051051385994308,0.981750913896063,-1.0398778154243915,-1.9566633903843969,4.151700181768432,-3.6988372576174524,-1.3771980869912552,1.697155475616455,1.0,0.4894576617322116,0.5032323001035993,0.3758924738813308,0.8344938134498348,-0.011927688561050448,0.3783921546433057,-0.40037130624451545
5.5,0.09071617074903814,-0.15527349167117963,-0.2772818706619422,-0.00485228202073963,-0.018910957396940306,-0.02116355977380006,0.13858376195355349,-0.13077566369561897,0.9816782767455948,-1.0386821004636118,-1.9579465680412635,4.151474848893753,-3.6988109369884583,-1.3773520628558558,1.6971430778503418,1.0,0.4896978473588252,0.5034650736762275,0.37569132916866943,0.8345188277580813,-0.011919092536892675,0.3783756844247542,-0.40033498821171465
5.6000000000000005,0.02380350710648972,-0.031023046357244788,0.06966167108928963,0.0006596870731788,-0.014923347118285916,-0.02493962829610103,0.13826622021318014,-0.13045241220617818,0.981766022621201,-1.0373554268227456,-1.959160463338286,4.151282275187211,-3.698791405725971,-1.3775266244035,1.6970291195432006,1.0,0.49002976798473885,0.5037935498712849,0.3754524561694929,0.8345327945714082,-0.011918462593391783,0.37836998173240166,-0.4003112813275039
5.7,0.18872646658979153,-0.1470092819722816,0.15276275870940037,-0.0020308010893904946,-0.011439433277203566,-0.0205657051257611,0.1379753194466319,-0.13015295046114192,0.9818466486496737,-1.0361686719613887,-1.960278409181698,4.1511072417383055,-3.6987734658079465,-1.37771128742098,1.6969755418228152,1.0,0.49045545275074665,0.5042474326149762,0.37525546573128926,0.834503278925858,-0.011938886629518732,0.37839407358506105,-0.400349429278652
5.800000000000001,0.05292268357852496,-0.34928854095443485,0.17581070281619146,-0.012929494596021997,-0.013887733502104364,-0.025086250991333145,0.13770359512399066,-0.12987061281607776,0.9819221497397685,-1.0350586273523874,-1.961424941099056,4.150908921238317,-3.698796411553854,-1.3778809010858097,1.696898711717516,1.0,0.49087971842269,0.5046561001726767,0.3749979931785158,0.83451322613435,-0.01193444003653525,0.37839388255428785,-0.4003290074343171
5.9,-0.09683927358669285,-0.23382083872740445,-0.05197473762889587,-0.005580009415495676,-0.008737202267798134,-0.023801227503299938,0.13744584434207288,-0.12960354971035148,0.981993665611621,-1.0339356780008662,-1.9626010956546553,4.150775301460803,-3.69877718009672,-1.3780160754913513,1.696780805795518,1.0,0.49105033498077066,0.5048511433873148,0.3748940393981883,0.8345059341404311,-0.011934021120228278,0.3783980810908456,-0.4003402518496909
6.0,0.09866624353376757,-0.27057009170531715,-0.1739854819673932,-0.00511059087638686,-0.008627409241755073,-0.023058390824628856,0.1373916377326305,-0.12955898164228252,0.9820071312036416,-1.0326382461517034,-1.964015950408956,4.150561854521226,-3.6987295261489623,-1.3781730246157895,1.6966886520385742,1.0,0.4913076967440763,0.5051157109858292,0.37473339780657505,0.834501708244296,-0.011937788680337624,0.3784037990559229,-0.4003435437206647
6.1000000000000005,0.2251511469757924,-0.3623371928732264,-0.0696205523927702,-0.010699344404215841,-0.014114250612831936,-0.026546441355177166,0.13728291606599854,-0.12944609469157767,0.9820372096716883,-1.0314784354838704,-1.9652698244765332,4.1503759770909845,-3.698731815361463,-1.3783496366759078,1.696656927125008,1.0,0.49166940040391144,0.505497276873319,0.37443542071838526,0.8345372008440837,-0.011928754060189582,0.3783774792169129,-0.4002947020075931
6.2,0.12565409066854755,-0.31615185025295045,-0.14878141927504962,-0.006351888832973147,-0.011924186860126485,-0.0237788572014786,0.13714339049861396,-0.1292934972323083,0.9820768186298149,-1.0302419662475586,-1.9661905924601173,4.150193040092753,-3.6986971143756175,-1.3785021940814417,1.6966047286987305,1.0,0.4920774729791308,0.5059280922141716,0.3741685564794836,0.8345458094184067,-0.01192116254601662,0.3783717700253213,-0.40028237722092275
6.300000000000001,0.0033956718265153608,-0.12637096233951917,-0.010624135953596462,-0.002817535494369731,-0.013698454835991528,-0.023954448616740495,0.13730866574929027,-0.1294970060724655,0.9820268937702278,-1.0290685625067686,-1.9673326454988673,4.150002956390381,-3.698690958994799,-1.3786725322675577,1.6965469598554963,1.0,0.4923993750879873,0.5062168329399903,0.37410222220943623,0.8344901669270722,-0.011941600691047341,0.37842114568944885,-0.40035109088155096
6.4,-0.07716915336601193,-0.17645968559926833,0.019012403775412055,-0.004729717088975889,-0.014472844957321582,-0.023009808763750014,0.13732780546062773,-0.12954607034647017,0.982017758295014,-1.0277321008535532,-1.9686414172599702,4.149786472320557,-3.6987035414913296,-1.378828463880978,1.696448802947998,1.0,0.492722387803202,0.5065346080775737,0.3739594526082685,0.834471156536861,-0.011961904842337445,0.37843540627258027,-0.40037662896313486
6.5,-0.07529163262270633,-0.04297307001599507,0.051216078806470486,-0.0038227003461501216,-0.008516423600877315,-0.023087102739559766,0.13721384672008619,-0.12945411584209085,0.9820458194959442,-1.0266590457243852,-1.970043845692941,4.149610730002663,-3.6987021478601494,-1.379002920304269,1.696359750579469,1.0,0.4930115357315673,0.5068288796660716,0.37377983167797285,0.8344714094578829,-0.011974878520709872,0.37843983188455865,-0.4003715308622424
6.6000000000000005,-0.037633080119622755,0.00786708281397681,-0.020385183102412052,-0.0024877155729594804,-0.011390834486294854,-0.022054791661386273,0.13733923342102972,-0.12957611812168363,0.9820121854487149,-1.0255389161222515,-1.971109991955785,4.1494164755181595,-3.698641011122781,-1.3791850248919886,1.6962834321851554,1.0,0.4932918329563599,0.5071359046707856,0.37349700268597585,0.834520248625609,-0.011952179232462003,0.3784043501320208,-0.400303944330567
6.7,-0.06695215887990671,-0.18249275794307884,-0.1297733178331118,-0.0025900842598657607,-0.01072493793474585,-0.023004540466588914,0.13746462012197325,-0.12969812040127643,0.9819785514014856,-1.0243423499552669,-1.9721539879759074,4.149264711480701,-3.698626085296503,-1.379340950642721,1.6962307929748268,1.0,0.4935954141883981,0.5074672438490013,0.3732333361982301,0.8345534909047345,-0.011930664999126024,0.37837707357927564,-0.40026106510749127
6.800000000000001,0.05068414448589498,-0.3504677791177279,-0.18300411855244827,-0.011378415503055699,-0.010207311299744596,-0.025932377369767744,0.1378786302932939,-0.13013366587979772,0.981862684567779,-1.0228821102311492,-1.9732914389767149,4.149101131803763,-3.6986922130699287,-1.3795134151045871,1.6961493492126465,1.0,0.49392339404093494,0.5077908283598971,0.3731367412143753,0.8345040324666619,-0.011953207830119729,0.37841319703436477,-0.4003293555682391
6.9,-0.18042612542677464,-0.31257890596492693,-0.24912539336617348,-0.008715613701924871,-0.0075176928474670855,-0.027509250582745233,0.13829430928204972,-0.13057102426132505,0.9817463422650897,-1.0215974016915819,-1.9747240876545853,4.148890707216261,-3.6987482510008753,-1.3796761671649378,1.696074232060174,1.0,0.4942913487729666,0.508158488033653,0.37306049749818565,0.8344388238611578,-0.011967382419801024,0.3784606909909146,-0.4004199500098682
7.0,-0.07677748705471577,-0.24142595233931502,0.16149000230730226,-0.0020403935878704946,-0.003967079052858316,-0.02797223034919532,0.13771397563800022,-0.1299134443039428,0.9819149261643917,-1.0206187041704262,-1.9759155171900522,4.148733948611124,-3.698711245656497,-1.3798323481557886,1.6960288973655826,1.0,0.4945486734350407,0.5084697264718393,0.37286894063371284,0.8344556876553821,-0.01195581657451723,0.37843773167635575,-0.40040685188102676
7.1000000000000005,-0.3823861356057489,-0.43556816803766424,-0.11193020058101917,0.010016435550969302,-0.02370013013771692,-0.02694902366169367,0.13756211400372137,-0.12975477458820622,0.9819573389639804,-1.020432472229004,-1.9761358683241765,4.148708820343018,-3.6986643276610316,-1.3798783070915115,1.6959929839580068,1.0,0.49493528886396376,0.5088760081685845,0.3724661604524422,0.8345319572797509,-0.011947762119067567,0.37837900733869906,-0.40030362234753125
7.2,-0.16090464378087882,-0.15572974589278574,-0.11088228626138516,0.0024629870127411283,-0.009214987944916328,-0.030138157961470704,0.13790510295930383,-0.1301712244104738,0.9818541739489612,-1.020425087057387,-1.9760829925256878,4.148716773604759,-3.698613435837711,-1.3798719146227154,1.6959824562072754,1.0,0.495037725385594,0.5089463916854372,0.3724138172450886,0.8345279841613806,-0.01193470810028557,0.37840044802592343,-0.40029202755973514
7.300000000000001,-0.2512020142895928,0.14936442804698863,-0.07138802191674004,-0.0014001191844142911,-0.008627343340816544,-0.028543652675888972,0.13766484881498553,-0.12989114567348944,0.9819249831705821,-1.0203569108338613,-1.9761394910052055,4.1487025046331265,-3.6986095882435834,-1.3798800597571586,1.6959649300592563,1.0,0.4950357226109255,0.5089508633010563,0.37240380359057956,0.834528447693986,-0.011940595275057114,0.37838722866466523,-0.4003033816462429
7.4,-0.13825406997455297,-0.17560763199781465,-0.1168160390952297,-0.009874494209313838,-0.0069362960633375815,-0.025989048197339142,0.13771769993264682,-0.12992742577055735,0.9819127737174399,-1.0203548515248677,-1.9761154076820762,4.148703678886928,-3.698624204525505,-1.3798659066934538,1.6959586143493652,1.0,0.495038751098284,0.5089685803789611,0.3724384697105115,0.8345029459403083,-0.011941638148476015,0.37840666991024635,-0.4003381354089515
7.5,0.1559353833059315,-0.3867735053067213,-0.009044051655942936,-0.0066320283452260135,-0.012880276525781161,-0.02426533831221566,0.1377056074401927,-0.12989652429066498,0.9819185524453913,-1.0203237533569336,-1.9761377773680628,4.148703960777295,-3.698631555732841,-1.3798755577432464,1.6959873157729979,1.0,0.4950342886321283,0.5089810833019099,0.3724338458261115,0.8345061801825492,-0.011939034653516017,0.37840015828569873,-0.4003376261332816
7.6000000000000005,-0.031044892752735448,-0.19016490220833063,-0.004673870316751781,-0.009286807959004571,-0.015284924986540032,-0.028562024970737232,0.13759487721353456,-0.1297626396609174,0.9819517827484304,-1.0203453263274664,-1.9761337796765712,4.148685932159424,-3.6986150326643643,-1.3798855663732013,1.6959637918622932,1.0,0.4950229646462614,0.5089892017658187,0.372424703619284,0.8345106568345495,-0.011925809401331745,0.378398958681373,-0.4003298224820939
7.7,-0.07120374005191396,-0.31580354209440864,0.07296341420899664,-0.00481801107867791,-0.011522100576658215,-0.031078822106449078,0.13739201126765405,-0.1295771776253766,0.9820046564236166,-1.0203555208391848,-1.9761377773680628,4.148698496299621,-3.698605412896182,-1.3798615249222834,1.6959768640171025,1.0,0.4950399105244735,0.5089762433774709,0.3724176638686837,0.8345115520418129,-0.011941215474099896,0.3783981621463249,-0.40032825002246497
7.800000000000001,0.15205868344864057,-0.28209023573102326,-0.004174366170954014,-0.007298790155531743,-0.014357803351856917,-0.027403958938126406,0.13742203224452657,-0.12963513338641072,0.9819926904531705,-1.020374737494034,-1.9761356455722088,4.148698502689763,-3.6986306966700204,-1.3798659436058467,1.6959939002990723,1.0,0.4950479732929194,0.5089693145692213,0.37241626845685466,0.8345144964809781,-0.01194728943281528,0.37839994407315175,-0.40032024650739795
7.9,0.14847525754688828,-0.4066615196931139,-0.16593549143146935,-0.01145578861003389,-0.014683046824083092,-0.0263372393073644,0.13779206749647138,-0.13004322663152712,0.9818867643626465,-1.020341804323954,-1.976141331791472,4.148708682653035,-3.698609681949201,-1.379866902028219,1.6959803574297774,1.0,0.4950468885537054,0.5089699929423346,0.37243087818312176,0.834506728490094,-0.011947654677112427,0.3784090056486832,-0.40032786325267433
8.0,-0.1536965763887337,-0.3188240387335932,-0.175465307017316,-0.008080456941900124,-0.008075378686961366,-0.025278553145889775,0.1381621027484162,-0.13045131987664352,0.9817808382721227,-1.0203059232036078,-1.976126333276266,4.148708335316801,-3.698610898326524,-1.3798843578246003,1.695990280969337,1.442236317762739,0.49505033717195246,0.5089632123777669,0.37244758939489864,0.8344968316123329,-0.011958657137736776,0.37841381945561525,-0.4003436146530291
8.1,0.07617159436683006,-0.3676503674616075,-0.08900384982121386,-0.008590615106877732,-0.014176212495306673,-0.03151524693497042,0.1382971326172191,-0.13059341381418565,0.9817429587877413,-1.0203485488891602,-1.976119589863286,4.1487170877660855,-3.698604246179098,-1.3798725563813523,1.6960006437120523,2.0,0.4950397450282706,0.5089735669613387,0.3724192008043268,0.8345129997467217,-0.011953844283681212,0.37839380984149396,-0.4003289691418908
8.200000000000001,0.042096094385474854,-0.2090498129865942,-0.07668316174144382,-0.004308676995727831,-0.014173711877277614,-0.028000917616016415,0.1384075193293165,-0.1307076145071882,0.9817122148130066,-1.0203428482031596,-1.9761096697325722,4.148697376251221,-3.698609727607945,-1.3798494996704174,1.6959939002990723,2.0,0.49504034916300604,0.5089718507928067,0.3724076183843103,0.8345172477302133,-0.01195476376899374,0.378392250396274,-0.4003215603787295
8.3,-0.016466992833959353,0.0932002800710536,-0.07015781564389657,0.0014863606064248532,-0.015165241222458568,-0.024730437932022776,0.13766146402402765,-0.12991915196323645,0.9819216711702016,-1.0203143048035046,-1.976121392628406,4.14871493731249,-3.6986032484099143,-1.3798725820713,1.6959829771393011,2.0,0.4950472922350382,0.508973427462467,0.3723955184011906,0.834522584888201,-0.011958358365055027,0.3783920215094143,-0.40031054324704807
8.4,-0.11117660530198936,0.12462649275922959,0.05956262296890503,6.418926172677456e-05,-0.013373503537544289,-0.030217862628883044,0.13757138626095677,-0.129799769113029,0.9819501684181614,-1.0203361511230469,-1.9761313593669787,4.148716308010949,-3.698622852525849,-1.3798819901871595,1.6959741114623963,2.0,0.49505502972780446,0.508979470582813,0.372403483129055,0.8345168930926008,-0.011954504698940473,0.3783984211755461,-0.4003164745702201
8.5,-0.07437985204264919,-0.14738492814581539,-0.04625321850823511,-0.005160307022458544,-0.016045086302685554,-0.03030680641116265,0.13758303619579274,-0.12978461828947574,0.9819505389364357,-1.0203230800382852,-1.9761555605207504,4.1486911021305355,-3.698606546490711,-1.379866902028219,1.6960029975747615,2.0,0.4950399357761198,0.5089783411795937,0.37242873621554545,0.8345071964067936,-0.011948889929043064,0.378397980469505,-0.400337272248459
8.6,0.09196221717754964,-0.21583351309627014,-0.028293934578510076,-0.010116611514456558,-0.020586205661880894,-0.029754289326947545,0.13767723677879784,-0.12991068962804186,0.9819206544970516,-1.020299309445906,-1.9761247775488322,4.14871089606322,-3.698604246179098,-1.3798441390605845,1.6960006602050721,2.0,0.495040450817487,0.5089721529107254,0.3724402594835163,0.8345013124856515,-0.011952153131892882,0.3784057476300338,-0.40034209828069833
8.700000000000001,0.2080226794497377,-0.1641617639205892,-0.018168269719553033,-0.011483642452039745,-0.02300029460906075,-0.02864509466998927,0.13771841828214543,-0.12997004324194486,0.9819070309844982,-1.020329204874654,-1.9761484707297452,4.14871906042099,-3.6986431506114257,-1.379866902028219,1.6959824562072754,2.0,0.49505078048664425,0.5089684832817878,0.3724469889234071,0.8344959011826021,-0.011955386234910582,0.378417330962877,-0.4003423326059128
8.8,0.19436735673978361,-0.13573724269192383,0.0001302876450742993,-0.009409393822594512,-0.02543093250524345,-0.024556231148922452,0.13763576989042653,-0.1298630388732551,0.9819327786264107,-1.020334543310519,-1.9761266603453718,4.148710610079848,-3.6985970798552246,-1.3798726828800185,1.6959939002990723,2.0,0.495048242891506,0.5089746171690723,0.37244328400140786,0.8344960154483416,-0.011953701518454266,0.3784126961828436,-0.4003465256355796
8.9,0.0038595714799840863,-0.139579192585368,-0.029942463842261978,-0.008016937937911712,-0.021602362466895158,-0.025292245628504427,0.13755998713149767,-0.12978913530226655,0.9819531636982424,-1.0203237533569336,-1.9761406414071507,4.1487111258219525,-3.698606845803364,-1.379853681287131,1.695990153967616,2.0,0.49503480008185874,0.5089878233396465,0.37245321611316506,0.8344895590718786,-0.011955603567031984,0.3784051719573761,-0.40036703807790947
9.0,0.061368156719637995,-0.210011605419288,-0.05252590042780578,-0.0033492103937036665,-0.02007826442257452,-0.03425409606623559,0.137485574759484,-0.12972183868236908,0.9819724783959226,-1.020331882727527,-1.976134025350866,4.148705505621814,-3.6985964294766043,-1.3798712021298953,1.6959778751436556,2.0,0.4950458986861755,0.5089668911834982,0.37245796794289415,0.8344928470181867,-0.011965215074248574,0.3784093202192245,-0.400355976944185
9.1,-0.015588493781932822,-0.2863322548766573,-0.0337271646844498,-0.005665473188857408,-0.025001864176762166,-0.03287342498242518,0.13752664887271523,-0.12976290250997785,0.9819612768021766,-1.0203159584440877,-1.976129982455217,4.14868097871837,-3.6986367636405917,-1.3798604548676905,1.6959957978721267,2.0,0.495049811238004,0.5089596929617857,0.3724437882712618,0.8345007423238381,-0.011964032260894413,0.3784110328195815,-0.40033793629063086
9.200000000000001,-0.17841044548445334,-0.34089049655695425,-0.05857893365134876,-0.005870045201265385,-0.04522901079814997,-0.024699967679848476,0.13781072345890935,-0.1300319725838469,0.9818858644634767,-1.0203150017160765,-1.9761400527946857,4.148722171783447,-3.6986064340893123,-1.3798497114173602,1.6959673659902224,2.0,0.4950404570962028,0.5089729187623059,0.37243695733664267,0.8345058667202885,-0.011939835131106148,0.3784076594230134,-0.40033116545737346
9.3,-0.054034908710391266,-0.46330457147754567,-0.08212068449488932,0.015728362764824474,-0.048499249746854725,-0.020234216016745767,0.13781436203335581,-0.13006860206667736,0.9818805212169295,-1.0203284917892046,-1.976126333276266,4.148713558775288,-3.698655124167582,-1.3798769305781968,1.6959993726641742,2.0,0.4950556552010781,0.5089619767684633,0.37243708842333384,0.8345028014104466,-0.011964524261994968,0.3784151942279844,-0.40032969584418526
9.4,0.14542950723046072,-0.13958235694575916,0.02890111415113386,-0.004194652885279178,-0.036336143481603356,-0.025411142803895472,0.1377211736185702,-0.12999188493703154,0.9819037429394243,-1.0203311917120255,-1.9761620960631312,4.1487072950732635,-3.698628088037008,-1.379854981099264,1.6959631922672311,2.0,0.49504672667212435,0.5089728573495205,0.3724302499622513,0.8345058569300144,-0.011954894128248737,0.3784064224373652,-0.40033190569081445
9.5,0.23144364220651614,0.08559233320352044,0.14092312741552804,-0.03096882607097337,-0.03377673109013803,-0.02582685964291548,0.13755427263090592,-0.1297760914981808,0.9819556849420671,-1.0203540658167607,-1.9761563492635474,4.148710628676909,-3.698604246179098,-1.3798611552286353,1.695994804466018,2.0,0.4950334300702634,0.508986592865859,0.3724368615522284,0.8345021790106091,-0.011947820575532338,0.37840506248099304,-0.40034106896344757
9.600000000000001,0.061584693128025156,0.3869215181085268,0.5645184798716354,-0.0464046028216827,-0.030535980894968878,-0.023481053792368284,0.1378575701626857,-0.13010150326649073,0.9818699773622519,-1.0203246672296717,-1.9761501751341761,4.148729009025631,-3.698604246179098,-1.3798430601703089,1.6960109049147982,2.0,0.49504251757450296,0.5089823342328653,0.37243544908435455,0.8345025787048854,-0.011958588079148038,0.37840252400569296,-0.4003423136918842
9.700000000000001,-0.007959578569392063,0.7347191689170635,1.01711895320943,-0.04197857923275371,-0.030387758818504366,-0.02124713770045748,0.1380596926982231,-0.1303297973164277,0.9818113688816555,-1.0203297984726962,-1.976180421016066,4.14870324023616,-3.698616167108053,-1.379861089416909,1.6959939002990723,2.0,0.49504496299227857,0.5089787962441584,0.37243186555833724,0.8345009802305949,-0.011965928846378,0.37840036673048816,-0.400347465333867
9.8,0.269517672808462,0.7296882846345574,1.331179479232394,-0.06218859343949167,-0.018902472458943713,-0.017619230152066217,0.13769035192378717,-0.129949274681766,0.9819136769967559,-1.0203237533569336,-1.9761620454446829,4.148697424844931,-3.698640195753725,-1.3798730745896826,1.6960000728605358,2.0,0.4950547007677967,0.5089849092715935,0.3723940251455294,0.8345132510678961,-0.011963356386934507,0.37839708809682293,-0.4003250624378832
9.9,0.5372524841730825,0.3636405705300776,1.660750135604742,-0.06970286131792745,-0.009399899656245535,-0.019921535065608263,0.13749749960241983,-0.12975029306419542,0.981967043486739,-1.0203362690562614,-1.9761561922973145,4.148697485112649,-3.698628088037008,-1.3798431735676304,1.6959761796456325,2.0,0.495062346100688,0.5089772649095545,0.37240053067155776,0.8345104211300377,-0.011968747836416228,0.3784025803709764,-0.4003256090599031
10.0,0.5297218116927516,0.5698053616921568,1.7171103707177655,-0.059214011279782416,-0.005706927237056555,-0.02180741458635232,0.13722234931631816,-0.12945520166316943,0.9820443289456168,-1.0203211709723239,-1.9761528651181446,4.148699958635831,-3.6986015561951295,-1.3798604686665599,1.6960116780331227,2.0,0.49505386283591163,0.5089726059658547,0.3724343858263793,0.8345006610136537,-0.011962150504165582,0.37840993381329,-0.400339200821644
10.100000000000001,0.21210004290227197,0.3397174851974951,2.110509859517873,-0.04168045985084837,-0.02104632585986993,-0.01998793117693141,0.1365790794887547,-0.12874981846728495,0.9822267263281126,-1.0203118473980426,-1.9761798619897903,4.148685932159424,-3.6986163980416,-1.379861057030515,1.6959992955333851,2.0,0.49505342816426295,0.5089767306067462,0.37243326981518193,0.8345004863697555,-0.011951381024421658,0.3784160223298714,-0.4003341314255991
10.200000000000001,-0.30402992241368365,-0.00569066190638165,2.6526994486441997,-0.027597072754107575,-0.04627421449899675,-0.02579492025043512,0.13714548890903094,-0.12935847294261307,0.9820673578352994,-1.020317698381055,-1.9762044615724534,4.148723873609526,-3.698592325250143,-1.3798871984151304,1.695973603912161,2.0,0.4950544714863237,0.5089766652075773,0.37242668617227465,0.8344993481386017,-0.011942142146459691,0.37842110011039337,-0.4003319799721754
10.3,-0.5032153597901942,-0.22608265172126266,2.9455501837102407,0.0011913873257258824,-0.06821738295679973,-0.033260195587888314,0.13776020256624022,-0.1300147372018726,0.9818951153714297,-1.0203295699154566,-1.9761719678745167,4.148712505819268,-3.6985976649715075,-1.3798769054637563,1.696008001969749,2.0,0.4950608581790907,0.508977052328689,0.3724440934394098,0.8344905601761068,-0.011955707746227593,0.3784292345563185,-0.40034220419832456
10.4,-0.6382486363446477,-0.47286536102149024,3.071800044169723,0.030454359954943798,-0.08883325765166773,-0.036530950734513845,0.13723224332636808,-0.12941397378834116,0.9820482170375363,-1.0203401888489092,-1.9761648460763717,4.1487119003578465,-3.6985958861388473,-1.3798976416257616,1.6959612543620761,2.0,0.49505244546709515,0.5089774344343615,0.37242938905723283,0.8345014636311582,-0.011957159815093793,0.3784099371978316,-0.4003376736662988
10.5,-1.3956659891449514,-1.3870907034826039,2.654495403546398,0.10171163426872863,-0.12691087570053372,-0.0436706411208437,0.13687977694660852,-0.1290040006474455,0.9821516399309239,-1.0203433851858572,-1.9761450114308732,4.148716610872198,-3.698592325250143,-1.3799079081475991,1.6959534506460623,2.0,0.49503617527942945,0.5089912416834951,0.37241848996647503,0.8345069332583994,-0.01193770377535298,0.37839903043116463,-0.40033716207840075
10.600000000000001,-2.21589960409481,-2.1309522059253343,2.493274541258681,0.14275305183175152,-0.2573774114125335,-0.05098354694214141,0.13712857464004485,-0.1292477027408444,0.9820848561206472,-1.0203289755530698,-1.9761928375075577,4.148747415048277,-3.6986473853896378,-1.3799246284289168,1.6959976567872275,2.0,0.49503783969004744,0.5089906871742741,0.3724392438442535,0.8344956061650843,-0.01194265230543055,0.3784032664402076,-0.4003566213945525
10.700000000000001,-2.555683945892951,-1.6400742253830376,3.019473858432332,0.10701457953141745,-0.30914708609898467,-0.05554856555987335,0.1371071587349391,-0.12921884801998063,0.982091405711746,-1.020359992980957,-1.9761937751342287,4.148757457733154,-3.698618208965937,-1.3798965392414324,1.6960157819734138,2.0,0.4950256402814446,0.5089986816822196,0.3724236116512629,0.834508059669459,-0.011926026078923277,0.3783837653605655,-0.4003495901836793
10.8,-2.776176289989929,-1.4213528448753814,3.285984747895953,0.10565487273482048,-0.3223202830259666,-0.05341495269877448,0.13610987547604644,-0.12820566350029777,0.9823627964238344,-1.020359992980957,-1.97616853446347,4.148738879102716,-3.6986227342763986,-1.3798494985706478,1.6959965116966704,2.0,0.4950283407893255,0.5090094922575475,0.3724026548112457,0.8345148589736164,-0.011930575348369821,0.3783891226946402,-0.4003302178832901
10.9,-2.8547495829305105,-1.249524543530144,3.311129834212045,0.10835272235873071,-0.32356137499936805,-0.05683915896322047,0.1356441763302562,-0.1276910811689224,0.9824944981316426,-1.0203428855858836,-1.9761815223982369,4.148730484793453,-3.698628088037008,-1.3798246637963185,1.6959830093312327,2.0,0.4950332099052348,0.5090033318381904,0.3724102697131111,0.8345124133141579,-0.011939048834191605,0.37839751765888846,-0.40032712844261
11.0,-2.4677069369392686,-1.345559645350131,3.4210054808639825,0.09569421665753716,-0.3382533769211936,-0.05673495587988817,0.13539835609954778,-0.1273827354528263,0.9825684203348476,-1.02031840171881,-1.976150084124483,4.148736540253007,-3.6986316419403833,-1.3798580273261007,1.6959970683749823,2.0,0.4950265253966861,0.5090061716002017,0.3724119916655789,0.8345162387711562,-0.01192052037696796,0.37838696930690785,-0.4003296764916614
11.100000000000001,-2.713671768013118,-1.316787092726935,3.3062056838726472,0.09433903366354016,-0.33976883022044124,-0.05132442443396243,0.13504509524343172,-0.12697423630955706,0.9826697704399276,-1.020326942344683,-1.976150165358936,4.14875143794254,-3.698616167108053,-1.3798700910159685,1.6959647470181143,2.0,0.495017194844974,0.5090092757138275,0.3724003964211495,0.8345225316583,-0.0119137160117231,0.37838227778926525,-0.4003211952675264
11.200000000000001,-2.7628410225879483,-1.6171901413919465,3.3079831054945688,0.09132626418587729,-0.3432452075559218,-0.056105700954087845,0.13422705290278167,-0.126132479649533,0.9828897719480757,-1.020339258722063,-1.9761706365738743,4.148722171783447,-3.6986144470772095,-1.3798498806502082,1.6959737116785703,2.0,0.49502511267017646,0.5089914680898563,0.3723945719745117,0.8345251333858597,-0.011926130815068565,0.3783899887255565,-0.4003081133119438
11.3,-2.718647495109672,-1.4250915514663174,3.3105889404630373,0.10311119169009283,-0.3500777787791861,-0.05782101701851783,0.13353982523903415,-0.12542762803030413,0.9830742709187567,-1.0203506468384305,-1.9761646708495597,4.148757457733154,-3.6986231253870017,-1.3798855943132722,1.695974918435276,2.0,0.4950288848075935,0.5089894192699908,0.3724131545377511,0.8345177996237858,-0.011948321239733247,0.3783889300715657,-0.4003237406523911
11.4,-2.9201465824698167,-1.4479201185797863,3.212414994275446,0.1038811936184736,-0.3477817938251655,-0.05798315118629829,0.13345582580914328,-0.12535408925700686,0.9830950563560573,-1.0203415470249606,-1.976167284430356,4.148735636906908,-3.698626400601883,-1.3798704029603188,1.6959839361077114,2.0,0.4950370650084794,0.5089891437068342,0.37241654213788206,0.834510442099312,-0.01196188308286471,0.37839446595956494,-0.4003334404112382
11.5,-3.0086875860254017,-1.5340639919721086,3.172897114359649,0.1016642698884914,-0.34791541727736336,-0.061957400166633037,0.13344812430008768,-0.1253387020298865,0.9830980657540814,-1.0203766671281878,-1.9761832664128192,4.148756068548879,-3.69861889204644,-1.379888072377907,1.6959625681815342,2.0,0.49504184266807283,0.5089902360565668,0.3724046113966127,0.8345138588493429,-0.011953875178374054,0.378394433593865,-0.4003265877777503
11.600000000000001,-3.0337022454849727,-1.436840233742892,3.1985450561665782,0.10245652375593126,-0.34487948715271666,-0.058976300750094655,0.1334782083373518,-0.12535211359462806,0.9830922718013967,-1.0203497095293095,-1.9761620960631312,4.148752901957916,-3.6986237074838946,-1.3798714578034574,1.6960105033961748,2.0,0.49504639356015145,0.5089906242393432,0.372434297787404,0.8344966600261943,-0.011941537417995767,0.3784145152189092,-0.4003438256809504
11.700000000000001,-2.8760831747180293,-1.5681082552774597,3.295955275666724,0.09688434771657373,-0.3458418289354304,-0.0590579526138006,0.13390490475447342,-0.12580543021425836,0.9829760766615591,-1.020357614726107,-1.976140353810817,4.148737528826683,-3.6986142546682585,-1.379854981099264,1.695998766924827,2.0,0.4950442431178153,0.5089882269159468,0.3724508978815803,0.8344905792964199,-0.011946416385658416,0.37841953270602435,-0.4003516122955171
11.8,-3.020175551446992,-1.3344435737041898,3.2575510101827407,0.09929727598821514,-0.34399979263244174,-0.06136040534639371,0.13444020276944127,-0.12638302252940825,0.9828291627225283,-1.0203485488891602,-1.9761377773680628,4.148739642473775,-3.6986218103302058,-1.3798792997943323,1.6959753182869373,2.0,0.4950424823100087,0.5089884271289524,0.37243199354570194,0.8345037753189364,-0.011938363932070062,0.3784056753507097,-0.4003374442984827
11.9,-2.996637939399156,-1.3220872234413346,3.1692956490106696,0.09732897178042868,-0.34346485506791685,-0.06380006824366281,0.1344081919288244,-0.12635332734787824,0.9828373587708651,-1.020369486695108,-1.9761518277378438,4.148745059967041,-3.6986264354333405,-1.3798792997943323,1.6960249050905962,2.0,0.49503780463077424,0.5089816311721092,0.3724296205537286,0.8345109526632164,-0.011933888339156158,0.3784028006891983,-0.4003253334786728
12.0,-2.841107082533824,-1.422749843751767,3.1113146414957322,0.09658341751726834,-0.34644282828513945,-0.05876394359454612,0.1349496959629246,-0.12692686267210826,0.9826887819687219,-1.0203455598982658,-1.976156644427798,4.14872539331443,-3.698617184766342,-1.379868178458253,1.6960192366524296,2.4479602889832393,0.49503016719494514,0.5089922044587567,0.37241240200641046,0.834516006484916,-0.011935561621063798,0.3783938833452556,-0.4003231773656809
12.100000000000001,-3.1470372660904227,-1.1365987762307648,3.1611120867249594,0.09128075730226265,-0.3517726607502769,-0.05806821636323772,0.13558251642828867,-0.12759821273497424,0.9825149637243482,-1.0203733444213867,-1.9761086415139069,4.148730813132392,-3.6986222489893996,-1.379866902028219,1.6959939002990723,3.0,0.49503639447087605,0.5090016672868816,0.3724030146974597,0.8345116553632546,-0.011947228280389834,0.3783916203881943,-0.4003340385469284
12.200000000000001,-2.872389748266438,-1.0830528435348115,4.13154993346402,0.0831090325175835,-0.3549054969384037,-0.07256372777057411,0.13468957887147073,-0.12667643756964497,0.9827563682576657,-1.021044846640693,-1.975199304090441,4.148745059967041,-3.6986074053551286,-1.3797960023681874,1.6959824562072754,3.0,0.4950243221294234,0.5089568264308939,0.37248473657350323,0.8344790937680785,-0.01196188751589685,0.3784217380363293,-0.40037300544945253
12.3,-2.6850331937412055,-1.212916489462549,4.824006522610032,0.07537169197128561,-0.35162170404360865,-0.10052901325758914,0.1339807828289303,-0.1259528665277732,0.9829469567676332,-1.0222140188469906,-1.97399931993018,4.148838437055109,-3.6985882651540956,-1.3796345941500505,1.696110165570734,3.0,0.49484250135860397,0.5086696656148554,0.3727103049905317,0.8344414310698518,-0.011986043993580307,0.37846827922753085,-0.40040678625871684
12.4,-2.4449625388300786,-1.109234365170595,5.133841141407358,0.07180355689468532,-0.3506498620135759,-0.12190547266011481,0.13477087452432754,-0.12684265101534198,0.9827239095225743,-1.0236447573871148,-1.9729210560833825,4.1491085210660605,-3.698591193837683,-1.3794230222261665,1.6961508353163557,3.0,0.4946324099396218,0.5083784872302008,0.3728913684851496,0.834426139867952,-0.012013723780983032,0.3785021828428268,-0.4004057755942074
12.5,-2.544327044294888,-1.047183843500097,5.106428644188439,0.06958591836857271,-0.3495253953646704,-0.15719185025195886,0.13546021984349993,-0.12761404295859696,0.9825299731841086,-1.024969601092866,-1.9718098421713288,4.1493821144104,-3.6986139440711443,-1.3792501081217927,1.6962342262268066,3.0,0.49433785593957624,0.5081447544645158,0.3729689073054752,0.8344630864446678,-0.011982537462595085,0.37845817434836543,-0.4003713106930851
12.600000000000001,-2.838656295398497,-0.6229399828379165,5.1010623898573515,0.05740289733848189,-0.34788944336389893,-0.18286084848022643,0.13519448991882457,-0.12726307405506737,0.9826120081237677,-1.0260608279128767,-1.9706570397466776,4.149559921427722,-3.6986404858031214,-1.379086920083579,1.6963488606076882,3.0,0.49390634008517664,0.5078145506455194,0.3730600318795635,0.8345266266683409,-0.011940498332528054,0.3783839681318989,-0.40031026284856697
12.700000000000001,-2.6707016949595785,-0.13985000423435223,5.467459295607834,0.02679023091506283,-0.36133300640908295,-0.19574589799449793,0.13526938362726532,-0.12728425956497394,0.9825970823650013,-1.0271835646663428,-1.9692767897397234,4.149775775637781,-3.698638020931446,-1.3789198551012105,1.6964176186467372,3.0,0.49357214377641934,0.5074981110471365,0.37322647259095165,0.8345425662973756,-0.011928984955770244,0.3783748447861962,-0.4002859992414639
12.8,-2.4978490198314374,-0.24511233434302332,5.471571930590008,0.017044080670614137,-0.36636972827647857,-0.2154227847435828,0.13909520318988056,-0.13140358588305834,0.9815144315419575,-1.0284354300926473,-1.9679026235449995,4.1499296658877665,-3.6986556021724346,-1.3787555192478151,1.6965142879551856,3.0,0.49330136476856934,0.507207834508901,0.3735027107691666,0.8344967953163642,-0.011930536303837436,0.3784110773660291,-0.4003471211797357
12.9,-2.3972944311662743,-0.49089878506169776,5.322325608781253,0.028133830106903228,-0.3592813308081642,-0.2320600052965029,0.140120809145071,-0.13249789244129742,0.9812280349438269,-1.0296755258902788,-1.9669205256466629,4.150173447381396,-3.698654724748722,-1.37858605125214,1.6965689659118652,3.0,0.4928900154407425,0.5067634308685087,0.37385353647076136,0.8344543996674225,-0.011942265288538818,0.3784446142790989,-0.40040343542307877
13.0,-2.620874673660093,-0.12978596142614907,5.379802490541537,0.017546361885728667,-0.37067916668614403,-0.2544897600842324,0.13908801635576135,-0.13136854832544384,0.9815269539418059,-1.0308506197258722,-1.9658048417545624,4.1503370194230005,-3.6987606487669886,-1.3783974927179947,1.6966722367638376,3.0,0.49257689267893584,0.506462341103499,0.3739402980795467,0.8345010430180557,-0.011930405471071985,0.37839998588479795,-0.40034875459960884
13.100000000000001,-2.6279709826754227,-0.17564365662575196,5.698484409108255,0.005965695639727035,-0.37364229267715954,-0.27102507795417424,0.13890612682102252,-0.1311716749193816,0.9815796762338043,-1.0320230339285128,-1.9646679015353938,4.1505096014892535,-3.698729015724416,-1.378248806815953,1.696712924667828,3.0,0.4923322893621773,0.5062353984462371,0.37398894795267845,0.8345494665700743,-0.011923035852360556,0.37835212472079915,-0.4002932659724929
13.200000000000001,-2.664528626073215,0.20469057794420592,5.907706328084938,-0.017449157153087827,-0.3906691934972414,-0.2814854793921632,0.13937911461240662,-0.13169245527928602,0.981442919123007,-1.033160792486102,-1.9632390577929801,4.150662528173358,-3.6987345287164697,-1.3780517683889277,1.6967952346061654,3.0,0.49194131287551834,0.5058303921300109,0.374236198452543,0.8345526385721187,-0.011918550469771211,0.37835325288285604,-0.400285720005068
13.3,-2.658621882139364,0.263539501777933,5.984220456162384,-0.025452321232694582,-0.39659890123760083,-0.2913820462750687,0.1392168024257269,-0.13155087367487803,0.981484874304511,-1.0343502076011788,-1.9619871402693938,4.1508658616371035,-3.698724409142965,-1.3778636505095452,1.6968545327525664,3.0,0.4916015283189542,0.5054181759713618,0.37457372433436503,0.8344926101381421,-0.01196469506298661,0.3784147023258484,-0.4003513990989917
13.4,-2.611915328326854,0.14776621982332971,5.854057862401929,-0.02558405190550477,-0.3899705456069213,-0.28184556980633085,0.13836386742995493,-0.1306790480943655,0.981720532216287,-1.0354628775560122,-1.9609648352588676,4.151049208442701,-3.6987363025407234,-1.3776968079888225,1.6969399452209473,3.0,0.49132169027525663,0.5051156704822887,0.374817664074221,0.834455175860314,-0.011974705307188794,0.37844860504413325,-0.40039707697845145
13.5,-2.7936932506010335,0.47188591645526234,5.970590199040855,-0.024999874633303408,-0.3922833007809924,-0.283027161858125,0.1338596834213162,-0.12579941071657455,0.9829720280750331,-1.0366514993703995,-1.9598366221171797,4.1512274742126465,-3.698754337765655,-1.3775067823316671,1.6970182586331695,3.0,0.49105975776061356,0.5048713127708885,0.37494769382922943,0.8344653099659466,-0.011968482052933396,0.3784387388212336,-0.4003854678434017
13.600000000000001,-2.996398542452428,0.35266449250880294,6.07390961077886,-0.03520352675917888,-0.38518224287471564,-0.27994222125666707,0.13137044756825694,-0.12311069204682855,0.9836587551433138,-1.037949492992499,-1.95858502835783,4.151444981037042,-3.698828940100994,-1.3773568657675652,1.6971121882414206,3.0,0.49067819567461113,0.5044701943123134,0.375117970076945,0.8344980157744346,-0.011965654955711478,0.3784227676895595,-0.4003324789024566
13.700000000000001,-2.992969822227264,0.40297262011727397,6.015093883399239,-0.04298663438933327,-0.38997990057609405,-0.2713075241252094,0.13060706354613555,-0.12229854824241851,0.9838617440824607,-1.0392048364211968,-1.9572997582119338,4.151615349565901,-3.698851888800837,-1.3771584669696253,1.6971789892011029,3.0,0.4903930580515473,0.5041727150930266,0.37529669212492267,0.8344965319895159,-0.011966203973615556,0.3784247280025761,-0.4003337024235021
13.8,-2.7204519532294205,0.4639312509013954,6.148495496218401,-0.05081067057378439,-0.39990136679842125,-0.26434848140407247,0.13202270453474263,-0.12382148317828011,0.9834727381965918,-1.0402895549154048,-1.9561174453510946,4.151810259175418,-3.698892732659811,-1.3769983396399164,1.6972403526306152,3.0,0.4901025709665194,0.5038922078131493,0.3754599762062093,0.8345037875944354,-0.011948137935467524,0.37841496655271945,-0.40032834471133905
13.9,-2.9033833680843735,0.17309688513506244,6.219610242387747,-0.06880706814017336,-0.399166545090768,-0.26860197873985925,0.135372166948511,-0.1274167326929754,0.9825583540931421,-1.041269622287269,-1.9550216655016293,4.152006801200821,-3.6989170513548792,-1.3768227736102503,1.697323497367814,3.0,0.4896891138697509,0.5034732636348063,0.3757290721915051,0.8345007249509302,-0.011940679184372735,0.37841285930254276,-0.40033694327586294
14.0,-2.7940783429401694,0.44824129375616784,6.07929362466553,-0.05937828731688748,-0.39527367244681494,-0.2628533309959066,0.13741759325667632,-0.12961631669990775,0.9819955244119729,-1.0425755274876813,-1.9538544244881475,4.152203768809983,-3.6989368635220714,-1.3766905094563129,1.6973987033584341,3.0,0.48940702780959516,0.5031875508299034,0.3759601633049233,0.8344724777956618,-0.011953857148457106,0.3784329908043257,-0.4003763986197689
14.100000000000001,-3.2203171442186864,0.5162485102542725,6.24420158080052,-0.05491812916763738,-0.38898885648696596,-0.266378976443629,0.138247907624739,-0.13051540771006995,0.9817602761330928,-1.0437918037903902,-1.9526292286314906,4.152380863701468,-3.698996404943284,-1.3765379278481589,1.6974959291335792,3.0,0.48904530916980343,0.5028249494165674,0.37613665654364226,0.8344883546514535,-0.011954771070765945,0.37841664112067863,-0.40035873304162994
14.200000000000001,-2.879176386414632,0.6804466456293236,6.362580135351721,-0.055879741055832204,-0.3909299424691301,-0.26032608454903094,0.13052178870579628,-0.12211106176023263,0.9838958677764134,-1.0450543801402794,-1.951499363484132,4.1525349617004395,-3.6990148317651688,-1.3763288269020604,1.6975780089283241,3.0,0.4887839471371272,0.5025727760405837,0.37624407615339467,0.8345099696223546,-0.011934347515394081,0.37839381623649027,-0.40033586122687537
14.3,-2.7645305233703685,0.8315812436328343,6.507563118216837,-0.06738718540720397,-0.40420277143302596,-0.25827707042131637,0.13203286237044415,-0.1238168200494559,0.983480266634034,-1.0460390157612292,-1.9503415405998685,4.1527424919796205,-3.6990438987464223,-1.376176094470731,1.6976174515772193,3.0,0.48853564839009717,0.5022973626667687,0.3763764814891665,0.8345238186995498,-0.011939854821826905,0.3783889853040878,-0.4003113934058049
14.4,-2.9312993764010864,0.3427842541032161,6.707546225559635,-0.08861312188347406,-0.4114090249140139,-0.2627960001170158,0.13192270552117843,-0.12372208050961507,0.9835062302892255,-1.0470311426162078,-1.949093090376022,4.152918338775635,-3.6991175829330074,-1.375995937977926,1.697706699371338,3.0,0.48811862492367986,0.5018319879493247,0.3766895154882389,0.8345072496843025,-0.011951493515496358,0.378414343802985,-0.40032161624279905
14.5,-2.66940428803429,0.5552389806001153,6.698479543028583,-0.08509630691915851,-0.4056241532907927,-0.2587721198706402,0.1298575013037767,-0.12145844889459266,0.984065233379433,-1.048308394791244,-1.9478422155271022,4.153104692643934,-3.6991844898337587,-1.375847552161167,1.6977909170068823,3.0,0.4878023112485056,0.5015007311875008,0.376999429539151,0.8344577524419281,-0.011961009027129611,0.3784509836616904,-0.40038986827605627
14.600000000000001,-2.562483882117022,0.40832005570265695,6.529083340640716,-0.06564835410487257,-0.39212534803735266,-0.26110600084760865,0.1333471012904431,-0.12521436557288265,0.9831194964336257,-1.0496682438802107,-1.9467350909383516,4.1533290854608405,-3.6991353897770742,-1.375641764943833,1.6978626251220703,3.0,0.48756145493096575,0.5012487432344135,0.37713247127608246,0.8344623551615783,-0.01196758138053212,0.3784386623542936,-0.4003917252511412
14.700000000000001,-2.8288022223159266,0.44970213037206563,6.883081153994664,-0.05624292866573129,-0.3888983132467899,-0.25530760967577865,0.13462214210863863,-0.12659443980280394,0.982774975345536,-1.050834193895828,-1.9456481847540699,4.153505802154541,-3.699200761165716,-1.3754796878135076,1.697952680889941,3.0,0.48719004285487305,0.500864072343108,0.37721847691527705,0.834522094658487,-0.011958639249851691,0.37838723654042955,-0.4003160797387485
14.8,-2.747916585654128,0.6080510676329467,6.762324731592763,-0.09354888818527347,-0.40290661521381277,-0.2578405850806307,0.13301055723261918,-0.12487509548379112,0.9832139845492195,-1.0517653044449586,-1.9443093750866347,4.153697490692139,-3.69933060516437,-1.3753160367827288,1.6980260442740054,3.0,0.4868588375388876,0.5005278770860259,0.3773329133354995,0.8345596814935805,-0.011954230177025224,0.378363393898451,-0.4002603859537608
14.9,-2.9669252598029345,0.9123120826840146,6.756823889608735,-0.08655292349319621,-0.4112146674420808,-0.2561501583699936,0.1321504098366754,-0.12396004790944913,0.9834480989203874,-1.0528032063435326,-1.9431740844767602,4.153916090816895,-3.699397142976814,-1.3750970999347132,1.6981139183044434,3.0,0.4864891812837728,0.5001657853901535,0.3777080629394948,0.8344959429401739,-0.011947662604744735,0.3784161364886842,-0.40034360519390233
15.0,-2.91356606716917,0.8651182369096331,6.819285806386797,-0.07962070434946042,-0.3990244305441949,-0.2589157594271362,0.13223744958766873,-0.12405881659936761,0.9834239432997353,-1.0539195805414763,-1.9419248003063776,4.154128339849338,-3.699541919665942,-1.3749098968304239,1.6981736278087143,3.0,0.4862540702862991,0.499909730467072,0.3779216497146719,0.8344742969805283,-0.011960862374373177,0.37843976103380783,-0.4003659984548998
15.100000000000001,-2.794000443320744,0.5741822790086457,6.827388480185655,-0.0732231048227289,-0.3942577564564162,-0.25998012493214007,0.13122283260570083,-0.12293344138399291,0.9836978240621741,-1.0553060033384143,-1.9409067131018634,4.154363677746373,-3.699515498377637,-1.3747333059614297,1.6982913181165078,3.0,0.48596014410380334,0.49964482920078646,0.37809665568123163,0.8344762348865538,-0.011944780564242807,0.3784307745186538,-0.40037093366532606
15.200000000000001,-3.317903131938632,0.35406100466715895,6.544881286999393,-0.06366304827481942,-0.41387970499675947,-0.26246600642890483,0.12875554665331584,-0.12019388289960245,0.984364702201035,-1.0560178727506797,-1.940270000770358,4.154509458814893,-3.6995374991346606,-1.3745835463153284,1.6983254628873539,3.0,0.48548314095615736,0.49922068107790385,0.3782325420010226,0.8345330088427696,-0.011914294265559825,0.3783780453221087,-0.4003033369361387
15.3,-3.559691785229438,0.27173937148128213,6.498385559335286,-0.05461637299879235,-0.4317406630536782,-0.2631401568289202,0.13013353801395455,-0.12171374022353566,0.9839971824848308,-1.055983022820105,-1.9402613069204142,4.154521593199881,-3.6995630131042154,-1.374620895531529,1.6983328707196927,3.0,0.48533712503099014,0.49907670731810266,0.37827028575936583,0.834557816873601,-0.011917526211863268,0.3783644382678162,-0.40026438102638984
15.4,-3.4290656407780236,0.26003408432555897,6.657661765014402,-0.05259613676192947,-0.4400845445056336,-0.2603707062292061,0.1367889965126504,-0.1289088517490848,0.98217139815204,-1.0559733674595893,-1.940089712374071,4.154543107946554,-3.699520625421397,-1.374599744912515,1.6983647346496582,3.0,0.48530672942682185,0.4990554756733372,0.3783041688775539,0.8345500713191405,-0.011915488626667355,0.3783723010950527,-0.4002731584256437
15.5,-3.465762109406234,0.3786809194117469,6.573112134059082,-0.05625793268906838,-0.4472896351647169,-0.261002730426389,0.13694353724129682,-0.12902019995182828,0.9821405900215857,-1.0559835099528199,-1.9400375933767577,4.154499530792236,-3.6995180335260445,-1.374601462545403,1.6983412999556222,3.0,0.48527548283386107,0.49903537301171275,0.37838529290271644,0.834513671071664,-0.011905727154166807,0.3783977336489238,-0.40032529476012757
15.600000000000001,-3.3500823458723157,0.1930442729250555,6.488704820316285,-0.056582427286415805,-0.449795962601135,-0.2600699520885296,0.13565633854655726,-0.1276479328809231,0.9824973376498172,-1.0559924926570177,-1.940051706820723,4.154506866445696,-3.69950594524526,-1.3745841586039484,1.6983520669647862,3.0,0.48527429679389666,0.499007673258572,0.3784248964483708,0.8345036629861622,-0.011929553942848175,0.3783971772342992,-0.40034597346110157
15.700000000000001,-3.3061182623871126,0.07162453150381698,6.384392425758727,-0.0548804151935299,-0.44866041107758703,-0.2569399465150588,0.1355828049281922,-0.12757999652793342,0.9825151138568436,-1.0559925368045764,-1.9400337061998765,4.154483589049884,-3.699517866174215,-1.3745869539847886,1.6983308060901459,3.0,0.48528164208509145,0.4989977849007716,0.37843846405652676,0.8344982780701973,-0.011944081630808838,0.37839850548830245,-0.4003555093365042
15.8,-3.5152592264854454,0.27249825974322617,6.191524720385062,-0.04853117623085674,-0.44198115606798216,-0.25723312083303035,0.1378433622045217,-0.13000029130554275,0.9818843158509596,-1.0559888812141691,-1.9400614922114665,4.154499530792236,-3.699514228061034,-1.3745656427817392,1.6983574584232954,3.0,0.48527886873941517,0.4990091696476183,0.37842171297315885,0.8345026433455212,-0.011922009592915735,0.37840052205768027,-0.4003451621327274
15.9,-3.3176344124929966,0.1781308431567047,6.230315019594416,-0.04836113516740433,-0.4466117321853144,-0.25599682255228035,0.1334771837074812,-0.12530772415828723,0.9830932582888062,-1.0559886912274687,-1.9400077651326715,4.154503068103623,-3.6995179635514828,-1.3745915138540787,1.6983370975371515,3.0,0.4852797090095432,0.4990145152055032,0.37842945793478155,0.8344945319165675,-0.01192652418257809,0.3784139421779551,-0.40034925076439276
16.0,-3.449487882352115,0.2615194709684434,6.103568281888373,-0.043674066204546086,-0.4444178590230803,-0.2602887398844746,0.13602878423230627,-0.12809535809574607,0.982386006283438,-1.055964469909668,-1.9400316677489222,4.154473854388081,-3.69950309083735,-1.374603913429861,1.6983544494092608,3.0,0.48528721481503645,0.49900923260807484,0.37842868454157225,0.8344910647351031,-0.011944441045735079,0.37841578707445295,-0.40035419980087783
16.1,-3.2655258867386063,-0.02948153817099635,6.226297104313189,-0.0502763719175354,-0.44752696287907573,-0.2608677123787932,0.13401066787821667,-0.12590589187427303,0.98294721679032,-1.0559819376382282,-1.9400197468199671,4.154487770172423,-3.6994973696449884,-1.3745943532608254,1.6983532905578613,3.0,0.48528727524702653,0.49900691883556647,0.37840765100986856,0.8345049639102312,-0.011942784870576964,0.37840081344775933,-0.4003394303348011
16.2,-3.377599852403219,0.04854013920030112,6.212021492365361,-0.04643711539206315,-0.44585770651922735,-0.2580575998612458,0.13617397137377465,-0.1282333829920438,0.9823487115328953,-1.0559861218897837,-1.9400294778711278,4.154472929267581,-3.699522856683973,-1.3745977910390887,1.6983294486999512,3.4328401791395944,0.4852842350939104,0.49900501402598946,0.3784259189341569,0.8344987349785988,-0.011944414485297816,0.3784002446111856,-0.40035290327399486
16.3,-3.4228647670316095,0.23445318091622533,6.156802960306896,-0.04263736470453794,-0.4442382326487269,-0.25238412909395996,0.1370690675370057,-0.12920235093657145,0.9820991179761218,-1.0560141237033551,-1.9400068485799058,4.154492823707405,-3.6995069225563664,-1.374577855634047,1.6983428474139606,4.0,0.48527484579493474,0.49900192772056756,0.37841253887398874,0.834509260577221,-0.011943594041794448,0.378381329277105,-0.40034886564934313
16.400000000000002,-3.2981232401260696,0.07717356998909766,6.126823058533919,-0.04168161251777483,-0.4481847423367847,-0.25501965336942045,0.1358470659686713,-0.12789292974123545,0.9824340350396376,-1.0559743274501414,-1.9400214265795614,4.1544888799761015,-3.699519613124193,-1.3745626543298326,1.698351543607883,4.0,0.48527853376529756,0.4989900660945332,0.3784082529086235,0.8345187401516418,-0.011942923785029572,0.3783883880613636,-0.40032245338914507
16.5,-3.2599024816180466,0.16627294073723106,6.067444339681368,-0.042082155389574265,-0.45009820639872333,-0.25185823815535713,0.13262058725167508,-0.12442317935144429,0.9833253668745636,-1.0559859794775592,-1.940023169699483,4.15447473526001,-3.6994889491463816,-1.3745920443647677,1.6983431402180147,4.0,0.48528182093364236,0.49898729785312296,0.3784206973713348,0.8345085215616038,-0.011944141542654994,0.37840219284033305,-0.40033067004353123
16.6,-3.311767489336918,-0.00765975632900439,6.0421012569666095,-0.042629759177871956,-0.44802393360018683,-0.25093340158827254,0.1335954048093004,-0.1254550068596638,0.983061725309372,-1.0560087544325918,-1.940022229360877,4.154504079256404,-3.699517866174215,-1.3745907292607753,1.6983196312732254,4.0,0.48527659118374444,0.4990001801062094,0.37842482877201067,0.8345026996688543,-0.01195000743868311,0.37839900010084127,-0.40034564852174015
16.7,-3.3980270277302,-0.07385412224758957,5.99465734903796,-0.04600262620797485,-0.44686761997252106,-0.25392479767787335,0.1316208652743613,-0.12328299260222837,0.9836028415309783,-1.0559923535969795,-1.9400350132502642,4.154501195726264,-3.6995125075748154,-1.3745976090154697,1.698337804636663,4.0,0.48527362099686117,0.4990012968219417,0.37845171596605237,0.8344888406402041,-0.011937434044307787,0.37840855687439073,-0.40036587841579013
16.8,-3.3984056005057948,0.19106680249691227,5.937607144999075,-0.040990136393502984,-0.4449163128809808,-0.2514203698741817,0.1321218892373105,-0.12382554413461395,0.9834678128174137,-1.0559741347155376,-1.9400124724322956,4.15447473526001,-3.6995254315373938,-1.3746047603268505,1.698340892791748,4.0,0.48527464434932555,0.49900056366683754,0.37845469095629075,0.8344881846704517,-0.011933940156528877,0.37840993521749394,-0.400366047069986
16.900000000000002,-3.2568813284086033,0.09183202793323125,6.063987049143987,-0.04342602436489579,-0.4463140093266386,-0.2516854390810687,0.13335048186673004,-0.12517083335363094,0.9831319171499311,-1.0559956176014906,-1.940022636967024,4.154471432901837,-3.6995463883922977,-1.3745912637212696,1.6983319151584115,4.0,0.485277490984933,0.49900007461873913,0.3784413315628513,0.834495653591994,-0.011940202408102422,0.3784038457751673,-0.40035604804359853
17.0,-3.2901261792895165,0.1895059833416571,6.006228918386004,-0.03941953402909392,-0.45005422096154185,-0.25095629454071405,0.13442993828240415,-0.1263670014570214,0.9828304705130713,-1.0559580199301764,-1.940030359308616,4.154467245589357,-3.6995144492513616,-1.3745954672442835,1.6983224612221688,4.0,0.4852850174635038,0.49899374858342477,0.37842821798171855,0.8344977556579237,-0.011956295144426985,0.3784004983392267,-0.40035435012615084
17.1,-3.035144442502694,0.23155796630737654,5.893642401188433,-0.03652772068909921,-0.4520645133887796,-0.24689040117695568,0.13550939469807827,-0.1275631695604119,0.9825290238762113,-1.0559846353105895,-1.9400197468199671,4.1544654749974,-3.6995302639403285,-1.374597742066353,1.6983125012896985,4.0,0.48530649026102307,0.49898044742424863,0.37842724043664644,0.8344956018259078,-0.011952688665177734,0.3784249741812337,-0.40033581239107435
17.2,-3.302765391659098,0.1998069487205564,5.8881608357953885,-0.03604863855236666,-0.44534352239995156,-0.251143060162479,0.13641028298949517,-0.12853200339317628,0.9822781142405176,-1.0559914706895894,-1.9400220439529827,4.154484744007787,-3.69951075714323,-1.374597764377299,1.6983504914316676,4.0,0.485292096730864,0.49899050482324353,0.3784090965594449,0.8345085237355043,-0.011941781172416954,0.37839654847969606,-0.4003360710376629
17.3,-3.271906893320292,0.3463697289844201,5.759679252563955,-0.036237680904542616,-0.44690896099617256,-0.24943646613327308,0.13724929899324978,-0.12942206789660937,0.9820447152321364,-1.0559919642649351,-1.940041843529153,4.154472595717448,-3.69948210338735,-1.3745928508645635,1.6983364266081151,4.0,0.4852833454286367,0.49900908594095333,0.3783967013726556,0.8345091353544802,-0.01194149985374199,0.37839388246183703,-0.4003373243985864
17.400000000000002,-3.038844216856637,-0.18511437324650332,5.933265459356149,-0.047900130456985365,-0.45239451542498993,-0.2438094255859833,0.13618587082704361,-0.1282608858656612,0.9823420584561559,-1.0559750708156328,-1.9400233195228067,4.154468183894043,-3.699500848655854,-1.3746073881732386,1.6983581832836911,4.0,0.4852891847637304,0.4989954865914943,0.37841470219181733,0.834505489325714,-0.011949225231668813,0.3784040620234077,-0.4003350723404068
17.5,-3.3698539750001575,0.17540695389079433,5.9481775291204295,-0.03672562024421226,-0.4460387746852829,-0.24827465608190383,0.13441092254841136,-0.1263325311692535,0.9828379009469763,-1.055949873164711,-1.94003694146778,4.154463291168213,-3.699512795290698,-1.3745865640351074,1.6983223246526957,4.0,0.4852929953995406,0.49898798709287084,0.3784331201979439,0.8344961491062661,-0.011946016077167698,0.37841465139853975,-0.4003446283311646
17.6,-3.297671439514179,0.03281104956225919,5.960907856193331,-0.0406624540142881,-0.4470412213258242,-0.2516054024452494,0.13321904936734652,-0.1250279733121569,0.9831680807101825,-1.055978758079859,-1.9400365558071455,4.154504042845981,-3.6995084660622473,-1.3745835463153284,1.6983294486999512,4.0,0.4852808008337128,0.4989991559753836,0.37843488697325534,0.8344944404326273,-0.011924938051511264,0.3784081232954736,-0.40035498868317065
17.7,-3.3778516369902234,0.12141887898925448,5.9117056752374,-0.03846729056979489,-0.4472897154953756,-0.2515585856670618,0.1324743074816924,-0.12421133817557205,0.9833728114534783,-1.0560158767828158,-1.9400243758022278,4.154463291168213,-3.6994672278160934,-1.3745928042798496,1.6983316348272268,4.0,0.4852794564942617,0.4989968602518984,0.3784284378723214,0.8344970587071107,-0.011942367057881447,0.37840574489050194,-0.4003512596609382
17.8,-3.069004332442649,0.018653001512577455,5.892917361916872,-0.04512376055263283,-0.43099457358378057,-0.24099460326920175,0.13258540902040766,-0.12434767532032427,0.9833405893864937,-1.0560114795936617,-1.9400243604621568,4.154494732604359,-3.699515357075327,-1.374588159957518,1.6983538796591362,4.0,0.48527911305766047,0.4990065914698116,0.3784270248658949,0.8344979814653462,-0.011940071543931402,0.37840748892564635,-0.4003477562654443
17.900000000000002,-1.6014939463148805,1.6029997290860438,5.703904675840785,-0.1365455394324103,-0.32298121160718796,-0.23213237989031454,0.13269651055912293,-0.12448401246507648,0.9833083673195091,-1.055993672619556,-1.9400197468199671,4.154460661431739,-3.699512571188964,-1.3745500460001319,1.6983126437561764,4.0,0.48528683493528096,0.49900089397369096,0.3784332428309924,0.8344937056819566,-0.011936390711859722,0.3784139009486499,-0.40035071789968724
