xiamingqian9007/apple-picking-rnn/training_data/grasper_20191127_133627_noimg.csv
,/manipulator_wrench.fx,/manipulator_wrench.fy,/manipulator_wrench.fz,/manipulator_wrench.tx,/manipulator_wrench.ty,/manipulator_wrench.tz,/ground_truth.x,/ground_truth.y,/ground_truth.z,/joint_states.elbow_joint,/joint_states.shoulder_lift_joint,/joint_states.shoulder_pan_joint,/joint_states.wrist_1_joint,/joint_states.wrist_2_joint,/joint_states.wrist_3_joint,/mode./mode,/manipulator_pose.x,/manipulator_pose.y,/manipulator_pose.z,/manipulator_pose.rx,/manipulator_pose.ry,/manipulator_pose.rz,/manipulator_pose.rw
0.30000000000000004,-0.23666499276454597,0.6235257672732311,-0.2995832523987383,0.013382091546476486,-0.002983115647862701,-0.01659230136386856,0.11785258995569785,0.13407535365741233,0.9839361049303617,-1.4747525490581888,-1.7332045034288874,4.178853450354939,-3.1800905075830075,-1.3339894406358443,3.027195392188435,1.0,0.458778138512537,0.4717092932144691,0.36858696740649255,-0.5633556136151682,0.4831572072779424,-0.04192159823282781,0.6689036890803203
0.4,-0.2390221199741488,0.08370996176861067,-0.0689503551720953,0.016227356605298622,-0.0029956319657134132,0.022410699109721384,0.11666926126082262,0.13246482313955607,0.984297387788485,-1.4706634799547755,-1.7368975847768504,4.178045771752997,-3.1802859338100036,-1.3348831632528704,3.0270514488220215,1.0,0.45908670392437195,0.47205329237412175,0.3685010279862256,-0.5633719723427763,0.483166429869079,-0.04192453629880767,0.6688830653277962
0.5,-0.06874816250336645,0.2527036492166138,-0.13769882397680824,0.02897186198580137,0.005153844215275356,0.05219940558651685,0.11658207948596505,0.13235870792089063,0.984321992678247,-1.4667306908577546,-1.7405926536220206,4.177212535960792,-3.1805587972429437,-1.335801104111242,3.0270031338849943,1.0,0.4605381773548493,0.47350813258179875,0.3683505178561116,-0.563337095626646,0.4831528213796646,-0.041932961015923705,0.6689217403136497
0.6000000000000001,-0.070955543110622,0.19525794933939083,-0.1759246473094148,0.011056693404131759,0.004714454246470542,0.07353502783043508,0.1174490482671157,0.13344087899120263,0.9840724444305605,-1.4629627241958378,-1.7440983325415256,4.176576137542725,-3.1808223872860037,-1.3364719840353272,3.026929260855564,1.0,0.4611350839248414,0.4741283282132007,0.3682596452931672,-0.5633358238903596,0.48315113161053685,-0.04189730517565305,0.6689262660146079
0.7000000000000001,0.03381887749877677,0.36440146036094856,-0.12463788728080931,0.014122331230767051,0.009051299902220793,0.09366553416186137,0.11685397590270728,0.132686237861666,0.9842445891189403,-1.459341552575285,-1.7477183603353506,4.17580930834344,-3.1810739492197153,-1.3370733706389712,3.0267989502748573,1.0,0.46213150847580353,0.4752120136915128,0.36800298200721,-0.5634163594850539,0.4831528115814406,-0.04188635077134129,0.6688579072901937
0.8,-0.18531600682685226,-0.1389162759972695,-0.2660540672346853,0.021793856076612758,0.0029780067407128344,0.11791350939264907,0.11620571519296087,0.13189022898351505,0.9844287602060339,-1.4555694149816867,-1.7506936343477035,4.17507791519165,-3.181328073669808,-1.3377210768573022,3.0267386436462402,1.0,0.46363672721754046,0.47670483336383074,0.36771552638297467,-0.5634121053460249,0.4832057577063358,-0.04195120725022053,0.6688191769673286
0.9,0.0866502063169323,0.366209627670716,-0.07510889067343748,0.008617973491070787,0.011290017366488587,0.13149341137519108,0.11718694456242985,0.1332168121160788,0.9841330229467001,-1.4522963859061517,-1.7540830851504787,4.174431572750476,-3.1816609377043483,-1.3384884072237915,3.0266908813792575,1.0,0.4641833130119601,0.4771695835937923,0.3678307619474275,-0.5632820281643475,0.483194011287916,-0.04197967007219749,0.6689354314903511
1.0,0.08793700647867041,0.6287712642993217,-0.15607950524669423,0.03090277736717191,0.009261582462946604,0.14559302000406596,0.11792031127922845,0.13418256960987782,0.9839155495792605,-1.448933141917322,-1.75683490912557,4.1737605211116025,-3.1818654615656032,-1.339268110640966,3.0266073830866578,1.0,0.4650213655026586,0.47815953117330423,0.36752865574557986,-0.5634145304151154,0.483183146261077,-0.041932376274599774,0.668834650647174
1.1,-0.25779847713341064,0.21197986222869628,-0.08709532379443036,0.01824313194371122,0.006931795638769573,0.15528664190243072,0.11782143621804633,0.13393679253841925,0.9839608607815814,-1.4455168316500695,-1.7600827962647947,4.1731551918662815,-3.1821171245970667,-1.3397925175167644,3.026553089270267,1.0,0.4662599582644166,0.4793909240171541,0.367551568070714,-0.5633323608975215,0.48310575996732796,-0.04187408223666091,0.6689634048951053
1.2000000000000002,0.09480891156847748,0.30596133586018465,-0.2259387741736472,0.021290871818889123,0.0043359792841649505,0.1663946782609592,0.11768277745266441,0.13371602558133736,0.9840075002190183,-1.4424880770239756,-1.7628783332450335,4.172489643096924,-3.1823931290325262,-1.3402756738989117,3.0264517562352817,1.0,0.4667802229425597,0.4799254738683692,0.3674107628583624,-0.5633480687435519,0.48313193673863497,-0.041883623213463325,0.6689306744742675
1.3,0.29496168871313233,-0.010299416950449392,-0.3036453442832222,0.020651288327682614,0.0003589493341778806,0.1749657056770954,0.11740354450783046,0.13358363089569714,0.984058832923844,-1.4393970647013876,-1.7656087907297424,4.1719116676363805,-3.1826487614098626,-1.3407748503306107,3.0264376767900587,1.0,0.46762869351210445,0.4807120187086334,0.367278986425738,-0.5633290828049689,0.4831766844617713,-0.04194916813801213,0.66891023564539
1.4000000000000001,0.0595091491028205,-0.05432458392894024,-0.3495452954144224,0.013112478826352213,0.005247823281743459,0.1645488749299512,0.11705143254499002,0.13326713364907625,0.9841436718408207,-1.436326797355983,-1.7684120365402478,4.171387617819108,-3.182932516137594,-1.3413579359444723,3.026368543987054,1.0,0.4688273313224058,0.48187347989116186,0.36714485179629996,-0.5632695580581152,0.48320759828234056,-0.041989805916402494,0.6689354812882408
1.5,0.08709560973579339,0.11263728705715637,-0.14532674559748324,0.02018337155896038,0.004236302909781769,0.1586508917759291,0.1169194943251501,0.13301823406628202,0.9841930505101014,-1.4335069462830858,-1.770998631920945,4.170956125119082,-3.183184767832814,-1.341979326463537,3.026283743319809,1.0,0.4692452892517772,0.4823248851903395,0.3670568636921005,-0.5632920461197266,0.4832006108274841,-0.04197936095138122,0.6689222478945601
1.6,-0.044288497464868196,0.31939261642598105,-0.08523221756408261,0.02675489300315795,0.005877832397391581,0.15558095244243453,0.11702836652603213,0.13300113316901477,0.9841823045097792,-1.4305688045298106,-1.7737255196718864,4.170463379307576,-3.1834486432423255,-1.342531677695969,3.0262584574045253,1.0,0.4699246679894222,0.48312891919915385,0.3669488205955668,-0.5633380150394184,0.48315052446848783,-0.04193419404144971,0.6689225477492649
1.7000000000000002,-0.17525628881647706,0.08336344319403383,-0.26508002464469005,0.019660992261302603,0.008176479624675204,0.15418034371965084,0.1177107453134323,0.13372035017218828,0.9840033846473225,-1.427857629677995,-1.776127812036876,4.169949054718018,-3.1837716353212815,-1.3429992551964502,3.026211205207312,1.0,0.4710399082136814,0.48436207881989746,0.3667232808794021,-0.5633911741361854,0.48313478726947445,-0.04187824947961511,0.6688926479309314
1.8,-0.073300771287246,0.08274407891486633,-0.236813172870954,0.024244902112041476,0.012355466487740977,0.15327355856434308,0.11645420497821765,0.13201836575169473,0.9843813175582223,-1.4250878756848375,-1.7787591633676716,4.1694454924166084,-3.1840244839329306,-1.3434432081586638,3.0261635883083766,1.0,0.47143154709542373,0.48473993095466,0.366673970381964,-0.5633960451827374,0.48313413587742143,-0.04188037662977272,0.6688888824578986
1.9000000000000001,0.08556759492927793,-0.01351246655400671,-0.08860318330366974,0.02139408319151231,-0.004406998358567694,0.14820712337821895,0.11564318847962958,0.13103275076406598,0.9846101052081021,-1.422690252625856,-1.780703866675183,4.169003009796143,-3.1842634143417547,-1.3438874921784891,3.026139597260866,1.0,0.4724545716683088,0.48573322046622014,0.3664566384166857,-0.5633901018165335,0.48319601363507025,-0.04193523113261542,0.6688457534979102
2.0,0.2904999081971824,0.1213785195530646,-0.012940916423109461,0.015087008537156728,-0.0019977305457881353,0.1519686202973302,0.11555654890252934,0.1310291333410799,0.9846207489609452,-1.4199779723512735,-1.78308696865162,4.168546199798584,-3.184563776055807,-1.344246813324207,3.0260680270489626,1.0,0.47283209378241514,0.4861105983536945,0.36644769581574294,-0.563384346801474,0.48318006611546854,-0.04193588460849624,0.6688620807534471
2.1,0.17220452586407403,0.13242413425594338,-0.15101445259172414,0.024475464083239598,-0.0045578524023556066,0.14717321690234658,0.11570716986034404,0.13130994006047567,0.9845656134834028,-1.41783077340783,-1.7852696519472429,4.168126397249865,-3.1847908699773853,-1.3446913998404486,3.0260427002638104,1.0,0.4734068335498794,0.48671326389619246,0.3664386597087848,-0.5633258983251183,0.4831671272439382,-0.04193515280558707,0.6689206996245599
2.2,0.061803043466926784,0.2370228946434612,-0.1210360207437754,0.02664775232862614,-0.0031950940583866183,0.1495011292269834,0.11589178860661652,0.13162008406551656,0.9845024983025344,-1.4151925721033694,-1.787060432010299,4.167683124542236,-3.185086246315432,-1.3451562201701672,3.0259603425415005,1.0,0.47432449443380736,0.48759699138384005,0.3661850390648388,-0.5633765780855838,0.48320866981867916,-0.04197783894884378,0.6688453286925352
2.3000000000000003,-0.022115754843047716,0.30345204225308486,-0.08629876869666628,0.0238296809649935,0.004331178965723548,0.1469325093108202,0.11627071901516373,0.13209790299880797,0.9843937757604804,-1.4130007595872367,-1.7894550334084347,4.167240908985003,-3.185319273625979,-1.3455074040707882,3.025923541431293,1.0,0.4746236742415426,0.48787219157016115,0.3663308542955332,-0.5632776321739869,0.4831598168785396,-0.041954923839011206,0.6689653838667777
2.4000000000000004,0.13387758481548048,-0.07826115422320412,-0.09780893788777849,0.017396487217787023,-0.0011014567312611634,0.14259442785892287,0.11672677203088447,0.13268864521244939,0.984260227120754,-1.4107062052918469,-1.7913258979693074,4.166843891143799,-3.1855354578479393,-1.3459987015288115,3.0258755683898926,1.0,0.4755655799829602,0.48885633021489944,0.36600294897185376,-0.5633708414502859,0.48321444532027047,-0.04195187593356169,0.6688476171319406
2.5,0.1459540592783697,0.22735698780292324,-0.03618641785419055,0.027922065292832244,-0.003686774714495198,0.14664638938628108,0.11712759937922788,0.13319399754126163,0.9841445265212868,-1.4084858564068872,-1.7932513468287066,4.166510009958241,-3.1858356673126624,-1.3463353212037312,3.025839417142484,1.0,0.4759031735624051,0.48917549799116766,0.3660359212495662,-0.5633368422445585,0.48319025933367227,-0.04194736848672307,0.668894007845807
2.6,-0.07737827505880437,0.43729095950795016,-0.08300209988437099,0.03049300546243739,-0.00041502439401473984,0.14862472860425516,0.1167361420264428,0.13254534222934894,0.9842781449757336,-1.4064302444458008,-1.7952439406283343,4.166149488798762,-3.1860867326685822,-1.3466466746118702,3.0258515402695854,1.0,0.4766158036016438,0.4899662392326721,0.36597590215561043,-0.5633358022021872,0.48315018827800854,-0.04191514941128793,0.6689258477394728
2.7,-0.02954518213455684,0.2007927474452157,-0.10291446373242372,0.027938977615836615,0.004281460832481445,0.14691424299378422,0.11532284184568067,0.13066960628560975,0.9846946757107441,-1.404362678527832,-1.796890496769375,4.165838764863385,-3.1863260713589914,-1.3469469699157355,3.0257441548720534,1.0,0.4768922580961849,0.49028802470657806,0.3658476380642385,-0.5633788820689579,0.4831764007170589,-0.04190831818730724,0.6688710592450168
2.8000000000000003,-0.08669273755466914,0.23727106957175814,-0.32025507642547857,0.022815901183658917,-0.0029584102002673074,0.14463009472058427,0.11619959544319092,0.1318912193612049,0.9844279486065748,-1.402367543206568,-1.7986580041117242,4.165539264678955,-3.1865192559427786,-1.3472359523192436,3.025744569476003,1.0,0.4776508625544131,0.4910146800468917,0.36582057966525167,-0.5633206943337916,0.48318242602375994,-0.04193075430341485,0.6689143071878751
2.9000000000000004,-0.05106060210788391,0.019949763518805064,-0.2349576105914767,0.021870342985499475,-0.00020425309209795486,0.13984681358683632,0.11718241488411797,0.1332438783872907,0.9841312586376573,-1.4003579386337037,-1.8003029833373778,4.165261484013342,-3.1867470591459126,-1.3475588615144793,3.025730380430941,1.0,0.4779552064451083,0.491344084550974,0.3658253121006502,-0.5632933281594654,0.48317182480313126,-0.04191978142061533,0.6689456974172812
3.0,-0.01855918923689572,0.3201118561901737,-0.09985709486962027,0.02935369078305355,-0.00342461849861068,0.1475199029261554,0.11725618740229214,0.13335878193442494,0.9841069094325867,-1.3985779987798408,-1.8019124361416925,4.164927314423151,-3.186963874541408,-1.347870021704334,3.025671816462788,1.0,0.47856547325568694,0.49201809155146425,0.36572643919158704,-0.5633071912742205,0.4831564897731051,-0.04193550497976412,0.6689441143107342
3.1,0.1958711288634034,0.16979050011275462,-0.14417196946018232,0.015309050770982562,0.00010628176096164283,0.14094436206574618,0.11811727552818677,0.13451429979565938,0.9838459272472989,-1.3968539779864593,-1.8036936306982003,4.164650928916521,-3.1872016417788087,-1.3481822590268673,3.0256710222399668,1.0,0.47881160195962497,0.49224599223630994,0.36568835044789505,-0.5633066032455326,0.483167742944333,-0.041960948000820626,0.668934886039689
3.2,0.07926326009605011,-0.1628371204696088,-0.17006488912034248,0.02148724260853218,-0.0033735039804657007,0.1427437362706144,0.11866781000259985,0.13518791654858556,0.9836880438440171,-1.3948240280151367,-1.8051552702214673,4.1643146766294485,-3.1874295673766078,-1.3484825831824927,3.025576629654308,1.0,0.47930065303005837,0.4928006454774018,0.3654591810755586,-0.5633938901840252,0.4831884779741801,-0.041932683254000166,0.6688481661269811
3.3000000000000003,-0.017570006150403113,0.4051813524706452,-0.27563794051291995,0.0277258856451322,0.0030588100538349343,0.148295208038981,0.11848818685447579,0.13490432074593123,0.9837485786699555,-1.3933069885056646,-1.8065155766126424,4.164064389291992,-3.187668957686667,-1.3487832820831498,3.025587778960986,1.0,0.47992556954914734,0.49342595222482044,0.3655497987079513,-0.5632925682281896,0.4831461139971742,-0.041909078021053134,0.6689655778048266
3.4000000000000004,0.19995501670357177,0.02020973179480971,-0.16815065462732068,0.02196432615960355,-0.005563052607561124,0.14364230038018433,0.11821691072778391,0.13454294309427278,0.9838307384426361,-1.39180170661692,-1.8081378301863194,4.163788984912091,-3.1878844471541488,-1.3490937096522568,3.025587225607309,1.0,0.4801883242338994,0.4936780410510917,0.3655238354815559,-0.5633044088374687,0.4831400946656243,-0.04191956460484782,0.668959297726029
3.5,0.05407521803622617,0.05885388878774601,-0.12144928204575908,0.0266222133732704,-0.0043190328237228525,0.14461634401056808,0.11785430441536467,0.13404666442950466,0.9839418919911918,-1.3899574756964788,-1.8096857679418938,4.1635123083458465,-3.1880879299453597,-1.3493703120442797,3.025562971666266,1.0,0.4805874343985786,0.4940979790801246,0.36529876068839245,-0.5633800859760506,0.48318682612022573,-0.041928798769323844,0.6688612304680565
3.6,-0.16812734431993076,-0.03180560441959307,-0.343251797181513,0.027118915319271936,-0.004370932368824798,0.14032294650693056,0.11810707912119218,0.13437000679499844,0.9838670340280212,-1.388393819293553,-1.8107436574631088,4.163260564181246,-3.1882340736590598,-1.34959908974389,3.025491625029859,1.0,0.4812006717441765,0.49474719316764776,0.3651996194080966,-0.5633918663232739,0.4831846285539515,-0.04190671701971591,0.6688542791659389
3.7,0.21633285298473287,0.35987081451945435,-0.15279070276058726,0.026927827219466606,-0.0026976272021111405,0.1402636308090034,0.11897895981789304,0.1355179314518449,0.983605038603885,-1.3871165268443455,-1.811921085811685,4.163069342853867,-3.188460670354788,-1.349837510498815,3.0254564486262954,1.0,0.4814030549877931,0.4949387970636546,0.36531380864009183,-0.5633250064482849,0.48314539707043075,-0.04190797733701179,0.6689388490999875
3.8000000000000003,0.20434765253868895,0.07908529928748115,-0.19392500446577127,0.024441175745549635,-0.00798120453104519,0.1464914593391823,0.11827038087902819,0.1345443508898838,0.9838237320247573,-1.385488503912221,-1.813412823777236,4.162792682647705,-3.188616904100548,-1.35004169145693,3.0254673900412876,1.0,0.48183062190867415,0.4954024241558027,0.3652150496398385,-0.563348669294298,0.4831406488736121,-0.04190105763516734,0.6689227844672229
3.9000000000000004,0.09279607120456612,0.18654527336308163,-0.05646373913783524,0.02398071341385031,0.0009971824311106122,0.13672922265316642,0.11816700065802431,0.13443237959617166,0.9838516021028747,-1.3839597702026367,-1.8148174593770454,4.1625656080177755,-3.188784634264987,-1.350293516880073,3.025408576747947,1.0,0.4821106817135052,0.49568253572144394,0.36516351165325767,-0.5633496743926044,0.4831448136405036,-0.041910934076529904,0.6689183111702524
4.0,0.273701348259237,-0.05040226670650649,-0.10659667363631267,0.015948875745565576,-0.0027777294534150777,0.13982467263419668,0.11873114201309895,0.13526963931206432,0.9836691497795784,-1.38270357259658,-1.8158144665866547,4.162313034731438,-3.1889311326822036,-1.3504865805255335,3.0254070555043016,1.0,0.48244210194258474,0.4960117770005428,0.36503443661069324,-0.5633788800260981,0.48317031719433645,-0.04194277076222924,0.6688732960013061
4.1000000000000005,0.32433339132806305,0.2022408610612489,-0.15377539889600622,0.025530541871722483,-0.007411551109722086,0.14122793796275265,0.11776635306394076,0.1340059830115028,0.9839573068974191,-1.3814245463237298,-1.8169078793618973,4.162026571252322,-3.1892396179158515,-1.3506903687650358,3.0253602733397242,1.0,0.4829887849682087,0.4965396477802252,0.3650377671469299,-0.5633332198869849,0.48316285087897204,-0.041932691032151026,0.6689177769539902
4.2,-0.19037490458160727,0.29859130748386964,-0.2571784387063516,0.03239758715157931,-0.0021132924478960554,0.14119989403163297,0.11760100666454072,0.1338209175279601,0.9840022850603226,-1.379787749370546,-1.818145852281379,4.161798255862171,-3.1893719318727367,-1.3508940451571747,3.0253717728243528,1.0,0.4831606554251131,0.4966730149197718,0.36501032461553,-0.5633331048667972,0.4831705962829619,-0.041950396203361794,0.6689111690703649
4.3,-0.06679285575965624,0.580620915661231,-0.02485907087687091,0.02412921925153624,-0.0010687650529830131,0.13800881596176612,0.11842227347421441,0.13496827481243454,0.983746960235191,-1.378350225743137,-1.819493053402275,4.161641403345394,-3.189564367333883,-1.3511352734630984,3.0253007431025773,1.0,0.4837031390012013,0.49719281139993643,0.3650261179597489,-0.5632765664297952,0.48317014889235277,-0.041959545004292415,0.6689585289937147
4.4,0.17769012161546005,0.3700657620965657,-0.06975862093885835,0.022008089425709462,0.0010994872424709597,0.14348801718971158,0.11941756834291328,0.13631364873793297,0.9834409347510276,-1.376992028170108,-1.8208270478312907,4.161367695742129,-3.189780752665275,-1.351350427103282,3.0252768566649997,1.0,0.4838732567952821,0.4973803596151894,0.36494144322885985,-0.5633090776680656,0.4831746310374575,-0.041962443788444145,0.6689277332043211
4.5,0.1152468310382786,0.12865090055247708,-0.07447057695330625,0.0242198117633107,-0.002460122292684207,0.1384779169332087,0.12062438161353853,0.13789969743564257,0.983073286316892,-1.3756037493084752,-1.8219557405348172,4.16112803257713,-3.1899477444090785,-1.351566292906268,3.0252398533183475,1.0,0.484397758232927,0.4979595160984573,0.36476683199731663,-0.5633511361108842,0.483195316183506,-0.04195451146175648,0.6688778683951974
4.6000000000000005,0.40117412784764195,0.15531840039318356,-0.19768257722403618,0.027359216918535354,-0.009020694268189921,0.14516848034578247,0.12047006759428097,0.1376948317300339,0.983121094010195,-1.3741418555856213,-1.8230258406585336,4.16098308358466,-3.1901752160423396,-1.3518055689361905,3.0252495644840294,1.0,0.4846039215418613,0.49816595521034746,0.3647186348842414,-0.563352355558553,0.4832055438963848,-0.04195189920736885,0.6688696165825769
4.7,0.20953260262461676,0.0888518025649286,-0.2671202697944794,0.02762819472810315,-0.007346689264288752,0.1427492895102193,0.11974891697449516,0.13669556474553848,0.9833481530083216,-1.3726868674420216,-1.824419873889972,4.160719481693966,-3.190392312015752,-1.3520215193377894,3.0252270698547363,1.0,0.4848677622800649,0.4984432811170509,0.36481864090709504,-0.5633079007896885,0.4831605002816029,-0.04194580760037815,0.6689399742131559
4.800000000000001,0.17853211349126075,0.48570778507018547,-0.13758164911461013,0.031189110144422164,-0.0027540861918132634,0.13996764775041923,0.11900550170260107,0.13568210135585354,0.9835790186540354,-1.3713006780801007,-1.8256938206315725,4.160540066899739,-3.1905833683409632,-1.3522266340812974,3.0252270520886815,1.0,0.4854288482115664,0.4990444894872977,0.36468348002068973,-0.5633314035130265,0.48316900749740704,-0.04193952145049716,0.6689144314114608
4.9,0.19579763907406322,-0.12452992748990932,-0.14084176893538677,0.02435947766055893,-0.006194533667419304,0.1386272730508884,0.1188768772427326,0.1355140026698618,0.983617598784571,-1.3697457126961563,-1.826860565932805,4.160311717571178,-3.1907864827126415,-1.3524773951184097,3.0252394676208496,1.0,0.485631102356807,0.4992520741845736,0.3645605161130664,-0.5633890364328011,0.4831970104752908,-0.04195280899407514,0.6688448284262715
5.0,-0.039413380253884515,0.22403140923965617,0.05552274557996348,0.02941112913498481,-0.00117969254800338,0.13765998544452313,0.11958779558317063,0.1364659918907574,0.9834000193279979,-1.3683705387306127,-1.8280516091339063,4.16010504015897,-3.1909811446634557,-1.352707782140995,3.025188573757555,1.0,0.48596559359318664,0.49959953627346154,0.364608974563573,-0.5633307263732528,0.4831743104845102,-0.04194240976899333,0.6689109900983623
5.1000000000000005,-0.07684434505644949,0.22548379813213154,-0.20855459953762742,0.028689933420292267,0.0022521955466886885,0.13570251389618543,0.11950733513677571,0.13633951936131472,0.9834273974648058,-1.3670063886947597,-1.8293000226263958,4.15987010429764,-3.191197952365091,-1.352923174996513,3.0251317024230957,1.0,0.48644697515649743,0.5000829606774867,0.3645226030445584,-0.5633435272465775,0.4831835265453683,-0.04193311751377246,0.6688941348525506
5.2,0.15542787588333334,0.012030370331834322,-0.06525732307191812,0.02548608305498305,-0.0036306999859882453,0.14121550846727232,0.1193447105401154,0.13610107656581924,0.983480208090892,-1.3654877008877633,-1.8305488607655824,4.15967565733218,-3.1914111663486353,-1.3531616700676075,3.0251073593445046,1.0,0.48666017926589766,0.5003043408898703,0.3644789705152997,-0.5633566957196086,0.4831886081213713,-0.04193007157138317,0.6688795642472829
5.300000000000001,-0.14003701651191217,0.29438200030919515,-0.05523613762207223,0.032732226020142655,0.005660966754360404,0.13302674647379578,0.1201543067445648,0.13713326505702095,0.9832375776266868,-1.363877296447754,-1.8317622062820855,4.159460802186684,-3.1916269348798214,-1.3533535723573604,3.025107621364719,1.0,0.4869764219536131,0.5006571519787438,0.36444655624823014,-0.5633478885523997,0.48318361369494667,-0.04191393556264495,0.6688916010280713
5.4,0.03458724586750686,0.37727427709556255,-0.13135812829091753,0.031703637916973816,-0.001133073762955434,0.14237699311146076,0.12069950759360522,0.13780453604139775,0.9830775803715541,-1.3626188883309307,-1.8329423080483382,4.159256051990484,-3.1917844233979795,-1.3535815001741103,3.025071620941162,1.0,0.4874425831960318,0.5011709990237655,0.3645050800623661,-0.5632984957731227,0.4831323406863768,-0.04190007831918017,0.6689710976413605
5.5,0.12537323199041095,0.3992238204686326,-0.04927697203209762,0.028569887577522393,-0.001732496756947196,0.1410176530015782,0.12064509390254406,0.1376678396830701,0.9831034144522023,-1.3613034274456894,-1.8343260732579298,4.159064341896673,-3.1920243212440953,-1.3537858444535913,3.02504844221406,1.0,0.48765321540687945,0.501412416102467,0.36442439586543607,-0.5633141762544552,0.48312300819666776,-0.041888565467334396,0.6689653547567738
5.6000000000000005,0.1833097166143588,0.4487163047213496,-0.10137061734046242,0.02942671481494423,-0.00440301471635019,0.140311153204998,0.12005141168625078,0.1370040173573176,0.9832687527832481,-1.3596913829530353,-1.835511325634837,4.158813734704263,-3.192237549773964,-1.3539550515708008,3.025000550982839,1.0,0.48814890060395644,0.5018894221668374,0.36417390071911027,-0.5633951558329263,0.4831846889788062,-0.04193620783373972,0.6688496162763141
5.7,0.18358619786211047,0.29442954638557994,-0.10894118775924401,0.030831074179042055,-0.0027563362964491897,0.13663553159604735,0.11954506419146887,0.13635003732540257,0.9834212087669564,-1.3581076180813672,-1.8366358629977393,4.158621311187744,-3.1924288390423543,-1.3541891698111097,3.0249784291023705,1.0,0.48838533794077676,0.5021091336747409,0.36411862631893926,-0.5633942237078924,0.4832027966820966,-0.04193644456590757,0.6688373050214471
5.800000000000001,0.3147810644663903,0.1697616231537714,-0.4306628303577879,0.028218145487953858,-0.008987140358436129,0.138023226692292,0.11940040360490022,0.13613589986169755,0.9834685743847598,-1.3568374112541621,-1.8377933393347858,4.158358813228699,-3.192694508730983,-1.354385527807198,3.0249528390328124,1.0,0.4888433333515593,0.5026051678975808,0.3642974642678684,-0.5632763785626898,0.4831329494517737,-0.04191751829946793,0.6689881883613082
5.9,0.1992291703794687,0.17861269726756895,-0.1419976212064064,0.0290664036418017,-0.004879951789244737,0.1402634987595348,0.11957044828304793,0.13633599767609525,0.983420186296105,-1.355519943832121,-1.839305668217676,4.158156478888833,-3.192897807813616,-1.3546033718988322,3.024953573118025,1.0,0.4890406241479683,0.502813763825269,0.3642283501212052,-0.5633196080135116,0.48313216220995275,-0.04191021932787341,0.668952813419399
6.0,0.21677540779752702,0.19471613816217023,-0.011620976544520795,0.030585067305629935,-0.005282459477285444,0.13753702171424564,0.11920492054819061,0.13588636419362496,0.983526821395976,-1.3538461293953952,-1.8405746169404285,4.157986095888845,-3.1931146331147446,-1.3548179084133725,3.0249399399976444,1.0,0.48937494628951633,0.5031617316190189,0.36401710272560633,-0.5633867061908363,0.48317499182676593,-0.04193691647902334,0.6688636943330658
6.1000000000000005,0.021078196981625913,0.41197535118962314,-0.017942518113739828,0.03328482587618274,-0.003446032246432694,0.13494354603649578,0.11920612341959805,0.1359025244164517,0.9835244724477823,-1.352244441833352,-1.8415732746447897,4.15769983657462,-3.1933073940654793,-1.3550570970354712,3.024913713536973,1.0,0.48975240306126633,0.5035716173151226,0.3639479601798171,-0.5633949352481618,0.48317829971229265,-0.04193103000888246,0.6688547423366689
6.2,0.09907617484121273,0.35968758708284143,-0.024920925900579753,0.02828865562375557,-0.0005042968042691888,0.1361380629190041,0.11927668604094886,0.1360067801905433,0.9835015113494368,-1.3510276821363887,-1.8427329972606015,4.157507419586182,-3.193558597155858,-1.3552858478746228,3.024856380687493,1.0,0.4902717717868805,0.5040564972358597,0.3640362829361509,-0.5633091389293847,0.48314472928217234,-0.04194621142963342,0.6689502970417104
6.300000000000001,0.09015872849343758,0.0976713688104392,-0.2576023090379994,0.024358708905552973,-0.003768644924148217,0.141511229816382,0.11833450095933044,0.13465848087288476,0.9838005045986403,-1.3496349487409791,-1.8439977371760046,4.157267093658447,-3.1938426088058027,-1.3555124173665665,3.0248602382966077,1.0,0.49053472601778114,0.5043504780753244,0.3639912737077756,-0.5633296628463088,0.4831390709666089,-0.04190050268617976,0.6689399651221561
6.4,-0.09831495878368345,0.19302846001984633,-0.1741089988965929,0.024010793873326025,0.004426083420276804,0.13468851414172192,0.11933334712809757,0.13603335803483418,0.9834904669930267,-1.3479943259835725,-1.8454729852548515,4.157061632564591,-3.1940263718225657,-1.3557406099723979,3.0248188972473145,1.0,0.49076603002370484,0.5045460077795206,0.36391554900181344,-0.5633422344173843,0.4831571862220639,-0.04192972202018915,0.6689144629434444
6.5,-0.19588770971135724,0.3237286015046575,-0.37907495881320386,0.03485608635443468,-0.0038992374398908237,0.13709311086222734,0.11942488222642308,0.13614258523638173,0.9834647266054761,-1.3465431648811572,-1.8466775161860292,4.1568254749962765,-3.194208183237111,-1.3559334913836878,3.0248074531555176,1.0,0.4911785349398755,0.5050161553325426,0.3637353591919824,-0.563388911924742,0.48318416425356875,-0.041914847517918005,0.6688565936674208
6.6000000000000005,0.14729748219121552,0.2383073173118554,-0.13014999217688575,0.025713951166638972,-0.0014356443046177692,0.13982202783112668,0.11935220567967988,0.1360626608494274,0.9834846223005987,-1.3451595999863253,-1.8476987409422454,4.156585095008022,-3.1945071398016216,-1.356174684144882,3.0247985748907618,1.0,0.4914997228161596,0.5053163093320175,0.36373036039468265,-0.5633762908681481,0.4831814042807052,-0.04192709050315593,0.6688684508383647
6.7,0.16576020000739233,0.2555140263039309,-0.3233644172210054,0.028812919596783546,-0.003095054828607879,0.13822032680934354,0.11961043718547859,0.13644223472603498,0.9834003553371737,-1.343593896191359,-1.8488167121398387,4.156366170208693,-3.1947925207674164,-1.356400502909824,3.024769604962111,1.0,0.4920175699505595,0.5057985677671255,0.36378910180570995,-0.5633113306658043,0.48316083251542236,-0.041919232548798674,0.668938511829783
6.800000000000001,-0.041639879974360486,0.24449660487788835,-0.17033733318297326,0.028476950535282364,-0.0005001161237035334,0.13345291212653945,0.12010939464423519,0.1371406277363788,0.9832424170608195,-1.3421645103432718,-1.850233333982169,4.156186915446399,-3.1949969730772914,-1.3565815130816858,3.024758196879504,1.0,0.4921870690523514,0.5059409379833097,0.36379998413433534,-0.5632884294723023,0.48316617185536437,-0.041931114804519,0.6689531950805752
6.9,0.05361303649769733,0.3699135589926621,-0.19941704099672267,0.03130104470229798,0.002107977421519223,0.13287609445995827,0.1193779822731777,0.13615485257478238,0.983468499668889,-1.3407659865495132,-1.8515190015339378,4.156038794624465,-3.1952006550958654,-1.3567616877659276,3.024747371673584,1.0,0.4927112835234635,0.5065330336048186,0.363605887102285,-0.5633484187194828,0.4831865298900247,-0.04192793080974296,0.6688881708306015
7.0,0.14062992475682345,0.2950104024130569,-0.10606613633499273,0.03266320822533622,-0.004791472247362074,0.13038892012715442,0.1181203969794534,0.13447583330834154,0.9838498465818142,-1.339204965297693,-1.852792137874466,4.155803345185828,-3.195430347252566,-1.3569424080089134,3.0247102493484856,1.0,0.49288126377376923,0.5067084744395387,0.3635743036314844,-0.563341510756675,0.48319008592317814,-0.0419345063245179,0.6688910077906998
7.1000000000000005,0.010301956177011393,0.17630787192905273,-0.12753101079886056,0.020662511425585617,-0.010294257342400977,0.13726446951472612,0.11698297866068831,0.1329555423000147,0.9841939413053381,-1.3388879988801554,-1.8529087505736292,4.1557698249816895,-3.195506096381707,-1.3570244948016565,3.024723529815674,1.0,0.49324308014331003,0.5071117536503855,0.3634995435785088,-0.5633553834236359,0.4831823089871947,-0.0419345372207888,0.6688849399093161
7.2,0.18266489676818948,-0.06648009110451791,-0.12548387262870703,0.028444250064955323,-0.01317832035593129,0.14068920116231598,0.11667215659223473,0.13252550650759545,0.9842888320078419,-1.338869245034643,-1.8529199984852354,4.1557244409748835,-3.1955007092965446,-1.3569910317238054,3.024669001426085,1.0,0.49339487622943673,0.5072605165830104,0.3636084769948206,-0.5632927562061391,0.4831540937335566,-0.04192753581059665,0.6689584996507989
7.300000000000001,0.5220434650864569,0.2800511186801927,-0.09170738909071147,0.025458613538856714,-0.009928375596400375,0.13053121210464683,0.11641074373541947,0.1321441714348523,0.984371077010859,-1.338899792249804,-1.8529018346547295,4.155755241356684,-3.1954802457570244,-1.3570006529437464,3.0247205110337423,1.0,0.4933799654328096,0.5072788384636162,0.36356519596443937,-0.5633225473214619,0.48315434424205483,-0.04191792707479346,0.6689338343282104
7.4,0.12503108087628848,-0.058993041000627966,-0.27503295400386724,0.024060355542725943,-0.004244992666663344,0.1352307009434563,0.11753137816399063,0.1336636079287497,0.9840319322493091,-1.338878422100616,-1.8529549647023136,4.155768661816192,-3.19550905710954,-1.3569899436455175,3.0247310810588823,1.0,0.49338585734981244,0.5072695404905858,0.3635719035538247,-0.5633321208447526,0.4831501238426969,-0.041936500687491204,0.6689276563018065
7.5,0.12876503211065948,0.07462874812622047,-0.22415760807460988,0.02771411576110446,-0.002475762924724999,0.1309186925358404,0.11781302864512334,0.1340930136639553,0.9839405897075933,-1.3388654530656852,-1.8529547515495315,4.155772513090321,-3.1954995594420375,-1.3570006529437464,3.0246784308196912,1.0,0.49340273019447234,0.5072642664312219,0.3635446986544086,-0.5633245102788123,0.4831786985046839,-0.04193387095368894,0.6689135907554098
7.6000000000000005,0.22416406731183808,-0.06275574528022904,-0.21965528259856915,0.020972219280153186,-0.0039260139391134475,0.13273728186972597,0.11770883736253732,0.13398772207147452,0.9839673459662058,-1.3388694476412093,-1.8529812298216761,4.155782222747803,-3.1955050574902115,-1.3569753957467023,3.024720808009647,1.0,0.49342926399183396,0.5072647523418357,0.3635269411361828,-0.5633201275539125,0.4831840879531086,-0.041953880360541526,0.668912133963991
7.7,0.25913086861205537,0.2604308403935178,-0.07235255870694485,0.02928591718471685,-0.004633002294907912,0.13243444606332277,0.11810044925854175,0.1344568529321935,0.9838562049581046,-1.3388681411743164,-1.8529784286149857,4.155763983303273,-3.1954890391164277,-1.3569963951095771,3.024691045072657,1.0,0.4934041298178549,0.507286138551677,0.3635236414725011,-0.5633300043741258,0.48317764132532376,-0.04193319390645367,0.6689097699570161
7.800000000000001,0.2779614347561981,0.23088241878274499,-0.1506465079521163,0.02929293530334405,-0.006241790438343209,0.13104675040602712,0.1184920611545462,0.1349259837929125,0.9837450639500032,-1.338854287421945,-1.8529377495709674,4.155782222747803,-3.195500717932698,-1.3570067350797708,3.024712085723877,1.0,0.4933888792461501,0.5072886661042441,0.36352827203606136,-0.563346948539832,0.48315326256422947,-0.041923271189433314,0.6689137311919812
7.9,0.152893611377186,0.29528176102262643,-0.2277970960388111,0.029688513565668307,-0.00303811838984575,0.12907858364705765,0.11818670927908648,0.1345324425548474,0.9838353565277359,-1.3389001184280958,-1.8529541485623804,4.155770933197953,-3.195501733250862,-1.3569995873511853,3.0247088463224916,1.0,0.4933887916553608,0.5072816954328281,0.36353193868120925,-0.5633456128253629,0.48315923628557955,-0.04193096059205438,0.6689100593100537
8.0,0.14477317207691165,0.03683443941882259,-0.16807654380765552,0.027395151932739836,3.97023244493963e-05,0.127258727044865,0.11757536648508281,0.13376015877847977,0.9840140853348375,-1.3388599009156095,-1.8529915488340862,4.1557468161203825,-3.1955011933969133,-1.3569776120441086,3.0246774480163983,1.0,0.4934013756127569,0.5072754890625069,0.36351524515461137,-0.563344533497787,0.4831788553571574,-0.041943776821159295,0.6688959933352007
8.1,0.27199175200699005,-0.026681456151227405,-0.08131855178623874,0.02220864850564544,-0.00516813010037141,0.13329830055551445,0.11848658871047751,0.1350035939561643,0.9837317405312325,-1.3388898273053393,-1.8529899171603004,4.155781101769821,-3.195534287479997,-1.3569984972168592,3.0247131204727826,1.901972559909889,0.4934021895070367,0.507276797049039,0.3635247145233392,-0.5633415444583981,0.48317724566464737,-0.04194320637254209,0.6688997092227967
8.200000000000001,0.17710646462331386,0.24271199546252542,-0.05654022820366914,0.028707071778046787,-0.0026412418124413676,0.12681953454541905,0.12009407956046775,0.13716881693655533,0.9832385468740981,-1.3388765314763809,-1.852988955599599,4.155774187938763,-3.1955195151800324,-1.356999988419605,3.024730591069455,2.0,0.49341655557640896,0.5072713481417193,0.363527452983057,-0.5633124121602928,0.4831880765774278,-0.041941244321537584,0.6689165426152348
8.3,0.08774048577366891,0.18888468656194368,-0.16847267184200382,0.02753335110564506,0.003158305515041116,0.13237170440817378,0.12102981251769909,0.13840037374967035,0.9829529681729848,-1.3388893444865304,-1.852958707236614,4.155791876426392,-3.195521186820496,-1.356967104636333,3.024708075134419,2.0,0.49340937199434903,0.5072828318508024,0.3635228144335354,-0.5633200886401237,0.48318262895394776,-0.04194032629422124,0.6689140705964922
8.4,0.1915868967555514,-0.03979820202264556,-0.302801927696117,0.02627980432782831,-0.0013869040507122794,0.13209673049892423,0.12147350144156788,0.13896286967565866,0.9828191064266264,-1.3388916920768148,-1.852957667728585,4.1557695564074635,-3.195523587181694,-1.3570003731789273,3.0246996879577637,2.0,0.4934044650444742,0.5072949428087128,0.3635309979715695,-0.5633239007353018,0.4831734325697133,-0.04192926899695628,0.6689181962845272
8.5,0.3059606076442533,-0.06575730754126326,-0.16695907469281154,0.018566717493561227,1.4117265414750413e-05,0.12961512741013956,0.12105693997030795,0.13840377459256759,0.9829493407633635,-1.3388835372907877,-1.852969308892721,4.155806064605713,-3.195517326096198,-1.3569874320066748,3.0246745980920617,2.0,0.4933965987473708,0.5072769774229834,0.36352164490116223,-0.5633443378767183,0.48317210857995435,-0.0419349688772864,0.6689015838356964
8.6,0.11658059307088703,-0.11507216452193819,-0.09990265668352188,0.016860521922677986,-0.003256436878502973,0.1327083104420349,0.11941642118672773,0.13620520607819148,0.9834552708797292,-1.338846035278383,-1.8529904965042892,4.155761070526186,-3.195523878137106,-1.3569662182072355,3.0247103162263156,2.0,0.4933985024520824,0.5072836213594005,0.36352065421148455,-0.5633323427956057,0.48317552374656014,-0.041937318954863155,0.6689090716170094
8.700000000000001,0.15516597997537498,0.10898878542217044,-0.3044428040056214,0.026635642898386814,0.006287728944055529,0.13041787610871192,0.11929223423305099,0.1360458066716495,0.9834932195925701,-1.3388997618661542,-1.852969308892721,4.155758380889893,-3.195476872317174,-1.3569802752849753,3.024740443275306,2.0,0.4933932556852268,0.507289022861511,0.3635243942634107,-0.5633431091327761,0.4831632158255019,-0.04192646848786709,0.6689095749844761
8.8,0.21188366555345428,0.2704440100965333,-0.1377842179704285,0.015047539332590351,-0.008990961296809834,0.13110258378629053,0.12006029224985983,0.13708291283969726,0.9832561236246059,-1.3388919830322266,-1.8529720664357843,4.155767067438626,-3.1954954231274426,-1.3569658472421158,3.024702445500827,2.0,0.49339828430257016,0.5072822368427358,0.36352088454492204,-0.5633320896985559,0.4831814529959434,-0.04193493538545557,0.6689051512664597
8.9,0.2137250046556861,0.2767153498334506,0.0031078969839193893,0.019708688982612313,-0.0021122764072275743,0.12502846556278863,0.11854102649267238,0.13503455541867732,0.9837229314338989,-1.3388570551850347,-1.8529577609872192,4.1557698249816895,-3.1955234976531837,-1.3570000859480975,3.024665148054963,2.0,0.493394176525046,0.5072763756105912,0.3634984572301463,-0.5633497907559043,0.48319043424426766,-0.04193802741719352,0.6688835618898628
9.0,0.3187167831803364,0.2689943965269943,-0.24273057478307955,0.026507966716045828,0.0007733369481514934,0.13621580483301954,0.11873942268807239,0.1352477802995645,0.9836706540923544,-1.338844164275452,-1.8529699484500353,4.155782222747803,-3.1955235519628755,-1.3569766448009346,3.024699534464008,2.0,0.4933859524615174,0.5073022941995617,0.3635188890674296,-0.563345264794477,0.4831588594797288,-0.04192201084500547,0.668911185544538
9.1,0.005262935700770993,0.3038537078452633,-0.08374058982351623,0.020149888375040087,0.012009591130390369,0.12801511875561,0.11959948571275117,0.1363832073510368,0.9834100445330053,-1.3389071679643734,-1.8529977553687484,4.155771334696624,-3.195501011091013,-1.356990183663767,3.0247149890218283,2.0,0.4933882703056483,0.5073082343564169,0.36351400716356225,-0.5633491426466669,0.48316580533338493,-0.0419119960014062,0.6689035301349402
9.200000000000001,-0.0793961583618608,0.5423952891380948,-0.23806833844421396,0.02989533237080298,0.011686026467710818,0.1299692956872485,0.11971110035254921,0.13654525173831664,0.9833740764363887,-1.338870583479006,-1.8529848932787103,4.155759553196144,-3.1955226081386674,-1.3570006529437464,3.024689416172218,2.0,0.49340134214111087,0.5072866009310965,0.36353118060113737,-0.5633276312438159,0.48317226863832596,-0.041925867476878945,0.6689161085909324
9.3,0.02555472580823223,0.2234173874713838,-0.042205331320155526,0.020217279364988266,0.004950900226010264,0.1330827926033663,0.11949026470949116,0.13625816683722355,0.9834407783571715,-1.3389031411747307,-1.8529705008384991,4.155795764781863,-3.1954900224046385,-1.3569994609979683,3.024703311472929,2.0,0.49338621674573324,0.5073012198219258,0.363523771862816,-0.5633448695276733,0.48316264292258426,-0.041926146957650165,0.6689085263787553
9.4,-0.21939627755379942,0.3020129098091672,-0.2968892465441467,0.01962002949025915,0.01265829608443855,0.13102535434323714,0.11918584852462329,0.1358874045789501,0.9835289702990437,-1.3388912134937152,-1.8529812298216761,4.155782222747803,-3.1955231085985942,-1.3569651828582343,3.024714275948871,2.0,0.49338729290457284,0.5072914436653576,0.3635254459951804,-0.5633389031933761,0.4831797054272397,-0.041932088355991444,0.6689008539224892
9.5,0.08196566495374996,0.14387093485404492,-0.203937473775513,0.014754068518862287,0.005128290309719527,0.1363951219661221,0.11884785656471304,0.1354585326673636,0.983629036038814,-1.3388899633021976,-1.8529682990277065,4.155793570254301,-3.195478747179171,-1.3569866718901618,3.0247090157342327,2.0,0.49340184772069945,0.5072957681163843,0.3635046086589333,-0.5633497768328657,0.48317790026792146,-0.04193919081089279,0.668892554831619
9.600000000000001,-0.1349213755551888,1.2901704141343742,-0.5397997428798532,-0.027988565613733578,0.023535611688213318,0.13789537054579573,0.11809245841791988,0.13443707819501757,0.9838592666906363,-1.3388667042043216,-1.852957387963766,4.155782222747803,-3.195544726307527,-1.3570215011141675,3.0246996879577637,2.0,0.49339686893563944,0.5072816553797332,0.3635370970301128,-0.5633371846410693,0.48316427282473495,-0.04194819503105404,0.6689124388139718
9.700000000000001,-0.32397210260315445,0.3921351961882851,-0.34724752140099446,-0.0014483706261649784,0.00153645138033889,0.13662788760647604,0.11703442659142867,0.13299468455045685,0.9841825364773157,-1.338900446659307,-1.8529731912667664,4.1557698249816895,-3.195503441816083,-1.356978105210518,3.02473075108306,2.0,0.4933895004965567,0.5072926577617641,0.3635254829159811,-0.5633427009503015,0.48316333875627676,-0.041929520117206506,0.6689096386737505
9.8,-0.02716422071259083,0.15953889372145066,-0.0919951806314796,-0.026438630243075398,-0.012030277017407259,0.1476599175266449,0.11625704781384408,0.13198610093813462,0.9844104083696122,-1.3388681411743164,-1.8530036247490416,4.155800276883534,-3.19551947946825,-1.3569962542748908,3.024712085723877,2.0,0.4934068966270619,0.5072807936385757,0.36347457884293327,-0.5633579139393528,0.4831904776399718,-0.04193263632481536,0.6688770269121277
9.9,0.3507984375924883,1.5843718652423928,0.2217217622841688,-0.08997335505935142,0.017092183509890092,0.1401963494375577,0.11708296351847507,0.13306528023478012,0.9841667977169894,-1.3388765661863353,-1.8530016744973206,4.155804433958226,-3.195531925046637,-1.3570006529437464,3.0246996879577637,2.0,0.49340531637274415,0.5072953685334601,0.3634959920031148,-0.5633509613414834,0.4831788721926843,-0.041923351181977264,0.6688918480949704
10.0,0.28114653718490323,2.3309438860407963,0.4393194029943972,-0.12563835821348662,0.010607637093981744,0.14015546274920912,0.11886834229474247,0.1354501017661691,0.9836251992877152,-1.3389122818276609,-1.8529949222818691,4.1557927781214286,-3.1955336215589143,-1.3570072592789877,3.0247102433313895,2.0,0.4933971988266847,0.5073017830058681,0.3634763122020032,-0.5633631262317774,0.4831842859999245,-0.041926018694476146,0.6688775244553611
10.100000000000001,0.23257765233384078,2.183772491172953,0.513939506122787,-0.12148649492067702,0.0027971602273548918,0.15130084728978493,0.1192859217874089,0.1360205060126073,0.9834975803351597,-1.3388709936404533,-1.8529931507506312,4.155795989697662,-3.1955038381412426,-1.3569901582478598,3.0247206773495368,2.0,0.49340011512900017,0.5072910879167937,0.3634881015213971,-0.5633585348757086,0.4831813109000636,-0.04194060583020875,0.668882626147657
10.200000000000001,-0.02832581584675581,2.127281743022506,0.33066028112200885,-0.1400646837402089,0.00038278572863033496,0.14481002112244323,0.11903907207368837,0.13567134996235755,0.983575927967672,-1.3388992137490363,-1.8529739991048664,4.155777903851116,-3.195519785941543,-1.3570078836605561,3.0247069186745734,2.0,0.4933998101407066,0.5073072093460156,0.36347711668526006,-0.563358342467423,0.4831814515218949,-0.04192722047528965,0.6688835257806615
10.3,-0.44194967065441015,1.762579897392075,0.3069317364891697,-0.13053366729528376,-0.032629030085119,0.1428547234348456,0.11999639858199722,0.13690865262965143,0.9832887514645872,-1.3389043807983398,-1.8529931507506312,4.155782222747803,-3.1955316549816923,-1.3569905656383965,3.0247157529710873,2.0,0.4933869693391047,0.5072870105613271,0.3635111564420937,-0.5633525877016108,0.48316792708236833,-0.0419167779294188,0.6688987964534261
10.4,-0.7026372714548818,1.5256098095436004,0.7016617115351004,-0.11679650581453063,-0.05311956210549722,0.1420517453977293,0.1184712752544679,0.13489202319347846,0.9837506683677796,-1.3388814049035886,-1.8530015723767492,4.15578572205064,-3.1954876385130824,-1.3569887320147913,3.0247102660864016,2.0,0.493395103532694,0.5073064790631647,0.3635156769052162,-0.5633515455370323,0.48315388784982005,-0.041932571670446867,0.6689088250499791
10.5,-0.6954562639822994,1.8435363475454367,1.4026773837683393,-0.13513839167853203,-0.06302718779395924,0.14004948537531856,0.11804688350973992,0.1343298798059132,0.9838801212653837,-1.3388776917447414,-1.8529712813108168,4.155826987284842,-3.19548862472213,-1.3570096152455577,3.024713032484563,2.0,0.49338763767445704,0.5073085145642992,0.36351724693619025,-0.5633444681894317,0.4831614768278256,-0.04193084399654652,0.6689094122462761
10.600000000000001,-0.7230226954200943,2.703805105881082,1.8630738373181177,-0.15043267214750783,-0.07064270219845276,0.13789279746387295,0.1187009944764316,0.13520344932821068,0.9836814556813128,-1.3388622541489796,-1.8530251587628612,4.155802309831078,-3.1954895159004,-1.3569968981691112,3.024712085723877,2.0,0.49338550476941084,0.507314200116585,0.36350653986510767,-0.5633425240794552,0.48316837184296335,-0.041911351699894454,0.6689072907459568
10.700000000000001,-0.7813196345519137,2.516933527232734,1.9649383756239698,-0.16220658163226406,-0.0760588904743526,0.14425887026265422,0.11934564324850902,0.1360758687099467,0.9834831112512326,-1.338857381966197,-1.8529588148047607,4.155829164506306,-3.1954568696696986,-1.3569753557080217,3.0246996879577637,2.0,0.4934040379277784,0.5073039245887333,0.36353405930698296,-0.5633330393146054,0.4831588353507477,-0.04193311885555875,0.668920802623243
10.8,-0.8080441729350961,2.052814294570431,2.1210875152750184,-0.18553074518302243,-0.08012083956053075,0.1479930192768942,0.11950839145597905,0.13627444386095475,0.9834362211114719,-1.3388622223622335,-1.8530233135918404,4.15581750869751,-3.1955077470738886,-1.3569987862951944,3.0246919771630707,2.0,0.4933977468874859,0.5073029444620111,0.3635190333212001,-0.5633427236987092,0.48316406239066817,-0.04192204800454591,0.6689095651588268
10.9,-0.7949856153898252,2.5343473460984387,2.347091509841067,-0.16525013528444202,-0.08729985358981726,0.14563048071484555,0.1191401587178953,0.1357305454124986,0.9835562105070104,-1.3388833551327293,-1.8529765586362132,4.155807804544151,-3.1954775300200002,-1.3569988405078732,3.0247157105956233,2.0,0.493383898946853,0.5073119972976058,0.3635309638926485,-0.5633538977181614,0.4831514116916615,-0.041912319141299385,0.6689099018629548
11.0,-0.7992421210398301,2.192442124444811,2.27667341952081,-0.15532567860242621,-0.09595294657818088,0.13993000574530523,0.11757873719191345,0.13367722608884852,0.9840232970925228,-1.3388795852661133,-1.8529829849376844,4.155809574837729,-3.195506215022968,-1.3569887320147913,3.024730592029122,2.0,0.4933892205942096,0.5073064150907582,0.3634874341683553,-0.5633672123294287,0.48316495893231126,-0.04193653503066675,0.668887384812816
11.100000000000001,-0.8873896895395477,1.6203154244949582,2.1494900554173113,-0.14412962948529215,-0.10746495462834078,0.13460683661285813,0.11671925800520741,0.13255532766300604,0.9842792790843023,-1.3388919830322266,-1.8530270388901617,4.1558032151417645,-3.195465671302507,-1.356987794691124,3.0247197805210044,2.0,0.493375767046574,0.5073120479095234,0.3635146693761039,-0.5633498631751102,0.4831553060115354,-0.041918899034381875,0.6689100745520504
11.200000000000001,-1.1528612631421946,1.3551580209971779,2.4814732130528645,-0.12896365750622685,-0.12097258583194201,0.12895199955112416,0.11672424168336452,0.13255552133752338,0.9842786612244424,-1.3388583952914432,-1.8529812298216761,4.155814112279662,-3.1954995594420375,-1.3569680220136857,3.0247173218680583,2.0,0.49339303357668457,0.5072955941953213,0.36351872592991147,-0.563336124216098,0.48317090925620076,-0.04193227118101717,0.6689095366604687
11.3,-1.2182238681110187,0.9030138224316573,2.25832146382385,-0.11783829769666251,-0.14274389255724912,0.13022498970252488,0.11670384407280003,0.1324883001311173,0.9842901311561018,-1.3388884785238138,-1.8529728134011338,4.155806064605713,-3.1955031340406186,-1.356986979760585,3.024701510302138,2.0,0.49337915663153087,0.507322175476571,0.36351512776677536,-0.5633392651291746,0.48316169935734704,-0.041905642445561796,0.668915212690717
11.4,-1.661651583295374,1.0971648056421517,2.3437127146097887,-0.08877631119323559,-0.16932419021542952,0.12414875671528706,0.1143877772612847,0.129409342921912,0.9849703086960336,-1.3388554105915966,-1.8529812298216761,4.1557968259269265,-3.195491130417016,-1.3569548356420917,3.024742777063145,2.0,0.4933763814987155,0.5073139663190928,0.3635256893140634,-0.5633395484709696,0.48316125134330606,-0.04191304959023982,0.668914833594637
11.5,-1.6752487156270464,0.7026074313455838,2.5525368571787843,-0.08764449327218599,-0.18099732187555032,0.12299375749525285,0.115833400774713,0.13133726828571093,0.9845438831269336,-1.3388836944173388,-1.8529832613449329,4.155812240436414,-3.1955135931551797,-1.3569705891504236,3.024707814050791,2.0,0.49339183432557543,0.5072998177465918,0.3635381649667502,-0.563325345610046,0.48315757599604486,-0.041927506891162834,0.6689285432068508
11.600000000000001,-1.732211462057133,1.0195208032559484,2.5315598597153857,-0.07754500549415479,-0.18023138410727177,0.11849816789077469,0.11662629744567081,0.13240442299777555,0.9843091092532789,-1.3388866413218303,-1.8530105577605338,4.1558280296464565,-3.1955078711072114,-1.3570089646089203,3.024723529815674,2.0,0.4933730862737848,0.5073097008432067,0.3635263777724115,-0.5633573210678317,0.4831492154374536,-0.04190925177295556,0.6689087972491318
11.700000000000001,-1.8592197898670948,0.8439211386287458,2.5434304441861895,-0.08147877954388628,-0.1764751888580632,0.1186674591966307,0.11530502586444812,0.1306727525561439,0.9846954358390179,-1.3388663544408386,-1.8529793686409701,4.155798193980871,-3.1954913608744944,-1.356984935206151,3.024708363362465,2.0,0.4933778895635859,0.5073164429074382,0.36348128382815553,-0.5633693370845929,0.48316667267401425,-0.04192468998479028,0.6688850998636966
11.8,-1.7843170696865778,1.0337268148469534,2.51519239339341,-0.07993090608186824,-0.1777002831492438,0.1195770095794851,0.11490696001383488,0.13016736011915997,0.9848097282797691,-1.3388587495466764,-1.8529638019142562,4.155804012141556,-3.1955016974255344,-1.3569865940312946,3.0247337040789506,2.0,0.49340337767910436,0.5072845431614661,0.3635037899873835,-0.5633541444911724,0.48317459285857284,-0.041943552516351915,0.668890991943291
11.9,-1.9429208417757686,1.3123979091639797,2.562776437246459,-0.08436266444946866,-0.1776180106302455,0.12335783560595623,0.11614665057359924,0.1318373708414382,0.9844414352576883,-1.3388433456420898,-1.8529891668631657,4.155792548892434,-3.1954816934153256,-1.356978803029569,3.0246962116408977,2.0,0.4933792061904581,0.5072949233893059,0.3635232401701407,-0.5633386651611811,0.48317509401348846,-0.04192034103202052,0.66890512172298
12.0,-1.5916428054012257,0.9775246984622541,2.480244215876106,-0.09208225524512255,-0.18249166596375976,0.12285246758386958,0.11687975393816656,0.13281381316498372,0.9842253503172028,-1.338882914398752,-1.8529913514185925,4.155802465941636,-3.1954876385130824,-1.3569680839570817,3.0247199311515964,2.0,0.49340064975998366,0.5072808464425852,0.3635247851284157,-0.5633340213557323,0.4831771938770389,-0.04193563524617554,0.668906557148896
12.100000000000001,-1.6347379453472557,0.6588197602392538,2.8123210708055133,-0.0943114520162078,-0.1816989225640451,0.11992041561946225,0.11668658948467063,0.13252210245690368,0.984287569781107,-1.338896581856656,-1.8529130543273604,4.155821073984503,-3.1955013119180533,-1.357019237373609,3.0247218474386988,2.8605420046760965,0.49339500772114436,0.5072994860018376,0.36349144168037345,-0.563359269231686,0.4831849556401025,-0.04192927005578293,0.6688800854610658
12.200000000000001,-1.6166742888611083,0.8974837600050952,3.5882531032632263,-0.11356783040592473,-0.17858296775597887,0.11749444522938497,0.11630644553291647,0.1320417959063887,0.9843969005896247,-1.339702156242427,-1.8523087652236967,4.155810597889132,-3.195448950916013,-1.356853813977433,3.024743812282064,3.0,0.4933849036613611,0.5073052117085726,0.3635076502765569,-0.5633588476349513,0.48316694546470457,-0.04191675381431477,0.668894234802033
12.3,-1.316460276157747,1.4124641466544146,4.179013227078768,-0.12808283535291173,-0.1523039108089269,0.11773637583357627,0.11556934298444295,0.13120144503074824,0.9845961706675245,-1.3411459209134915,-1.8510736911169092,4.155977894041476,-3.195210119287008,-1.3566635290728968,3.024742499705358,3.0,0.49321573981483996,0.5070172545615207,0.3635480744611967,-0.5633437687872273,0.4831943087938175,-0.04198187984761471,0.6688830838661777
12.4,-1.0343480057473846,1.6521847531067613,4.312770462082033,-0.13405432983340432,-0.13705916594227194,0.11886709814051225,0.11495556598719923,0.13041002589401052,0.9847732219266747,-1.34264777795606,-1.8497589196939146,4.1562602603962135,-3.1949221096434535,-1.3564232732236128,3.024735927581787,3.0,0.4930381546373405,0.5068100696976454,0.3635494251483136,-0.5633501043179726,0.4832072624585222,-0.041976987512836475,0.6688686971234467
12.5,-0.9100418395691564,1.4019165471588886,4.717638981137975,-0.15324528497722792,-0.12107318263536192,0.10783579650992821,0.11102477527931658,0.12513524122787734,0.9858773522987315,-1.3441118868143378,-1.8485662271626118,4.1565260887146,-3.1946610575937067,-1.3562044000670241,3.0247667816208823,3.0,0.49253510039224363,0.5062958744920907,0.3637121431516875,-0.5633005487298279,0.48317474776831093,-0.041983663717308016,0.6689334996100701
12.600000000000001,-0.36958253694548393,2.648666918773318,4.301316334962734,-0.20469817367783402,-0.07374027738117889,0.09159766204930682,0.1063834381653637,0.11890506566353792,0.987179554357416,-1.3456089826427564,-1.8474572178958701,4.15678801886643,-3.194488623050612,-1.3560256675071982,3.0248553250393497,3.0,0.4923311155694273,0.5061241425138899,0.3637154066910061,-0.5633113317146041,0.483187376619195,-0.04196219673158346,0.6689166440471037
12.700000000000001,-0.4114728338097213,2.564141395444011,4.712815764878637,-0.22585222360721935,-0.08982724454922146,0.08920747207810596,0.1008623302202851,0.11148380692656006,0.9885689492934391,-1.3469792522541966,-1.846348456212345,4.156990260712219,-3.194234809744972,-1.3557931470119586,3.0248294109710883,3.0,0.4919513716600616,0.5058061723505395,0.3636426482797576,-0.5633872295033586,0.4832036651456085,-0.041936264836574116,0.668842580368458
12.8,-0.7745650085757391,2.54546255020752,4.916224559381289,-0.23731847181501023,-0.12346386380284816,0.09156493121309667,0.09514466529011462,0.10379643830150156,0.9899778247219777,-1.3484770801080925,-1.844908591671944,4.157189824458996,-3.193963666955465,-1.355622433732396,3.024851343753894,3.0,0.491572159611689,0.5054478007128919,0.36368020910690807,-0.5633939495765227,0.4831967858711496,-0.04193821824807595,0.668841767202478
12.9,-1.2485366151999313,2.5834661367760368,5.196045296201336,-0.22238779286705065,-0.13667608584942859,0.08926248326404433,0.09110499234388272,0.09835189395759468,0.9909725932454017,-1.3499864462747406,-1.843474150821548,4.157384663013173,-3.1937715015807093,-1.3553867596834803,3.024867534637451,3.0,0.491084247830586,0.5049410083766788,0.36392051367740624,-0.5633126210282426,0.4831372023610603,-0.04192751989776132,0.6689539728264136
13.0,-1.2601091713328585,2.4350854744137154,5.321316855819632,-0.20732729772258618,-0.15655293005028975,0.07998711517628851,0.09081137731229189,0.09791437570795826,0.9910428827103669,-1.3514108657836914,-1.842416717112864,4.157579592940877,-3.1935218596784707,-1.3551540833986857,3.0248725742969698,3.0,0.49084802049874005,0.5046933595250891,0.36400627863021146,-0.563304432986779,0.4831204880047456,-0.041914778115270564,0.6689737373193717
13.100000000000001,-1.1781089162525442,2.206048634918948,5.294567121307797,-0.19978732227147106,-0.17740599251758998,0.06194805199920729,0.0900475519132007,0.09695143340669592,0.9912071060621451,-1.352708972227811,-1.84132554397052,4.157781148634972,-3.1933365482426828,-1.3549853396194735,3.0249515891568044,3.0,0.4904078551318441,0.5041949216334537,0.3640074753020296,-0.5633290986960057,0.48316055693870924,-0.04193143940301547,0.6689229829887845
13.200000000000001,-1.4254111488511259,2.2043017710189825,5.703105630396591,-0.17558534793546685,-0.1829542305084747,0.05672702282641745,0.09021360584872586,0.0971766662633573,0.9911699665075023,-1.354378876921523,-1.8400890861006396,4.15799191011778,-3.193081594555945,-1.354752552898747,3.024950954957991,3.0,0.4902264044774299,0.5040141666612958,0.3640096543334015,-0.563327046049338,0.4831596106495374,-0.041931662100678266,0.6689253811448546
13.3,-1.1085215597695293,2.371563218401998,5.595618128689783,-0.20697783605831668,-0.17651560352039286,0.05470324718395321,0.09043931060509135,0.09746681304008062,0.9911210085492446,-1.3559443943889824,-1.8386993798772482,4.158235273527772,-3.192856531964838,-1.354541415409857,3.0249842595221246,3.0,0.4898719076199303,0.5036738346661151,0.36397666044744487,-0.5633703004977275,0.4831782098538792,-0.04192455485165791,0.6688759628959549
13.4,-1.231123562337868,1.9921583767297368,5.3665802879064,-0.20004812821264498,-0.18507792871466758,0.05822585937604164,0.09012109325168086,0.09704532861007788,0.9911913583454356,-1.3572305463413932,-1.8373430737498522,4.158431046736999,-3.1926786949230324,-1.3543205042285624,3.0249565013928077,3.0,0.4893226438588534,0.5030909403183403,0.3641086756534228,-0.5633570422950623,0.48317125734276084,-0.041933239126697455,0.6688916073854703
13.5,-1.7082764458889295,2.1019001470579033,5.535953605498973,-0.16498990400631008,-0.20771938001780763,0.044256458776585086,0.0897261654347248,0.09653975742169721,0.9912764622993182,-1.3585528724164848,-1.8363072145581991,4.158628880259502,-3.192452475840143,-1.354089024932985,3.0249732718410263,3.0,0.4891149520797301,0.502856798654413,0.3642574085093098,-0.563306515983942,0.48313276507237557,-0.04191822050790244,0.6689629011783872
13.600000000000001,-1.7781349724680409,1.966109348662024,5.589316596704257,-0.1457979913885396,-0.2129823790547538,0.032735355964011115,0.08939284970580665,0.09613650512930334,0.9913458972388716,-1.3602220169717896,-1.835118353491715,4.158894079471762,-3.1922480068602503,-1.3539031958534693,3.0250115394592285,3.0,0.4888448222648854,0.5025694730199027,0.36425187119451036,-0.5633112902311688,0.4831575403049543,-0.04194368721456251,0.6689393908624381
13.700000000000001,-1.486702554340014,2.046811124527549,5.771405178551483,-0.14976471942320657,-0.2191836639431352,0.01793417216479007,0.08930544465705285,0.09610386902382394,0.9913569393080871,-1.3617671550666437,-1.8338772874018632,4.159085067650757,-3.1920085480531166,-1.3536430836563813,3.0250746519046596,3.0,0.48835350214753703,0.5020420178245067,0.36418122310272283,-0.5633663063636823,0.48321273845096524,-0.04197705859581251,0.668851090157222
13.8,-1.1410092380693113,2.0851193769637053,5.671684903140726,-0.17599419683126977,-0.22091515014751756,0.02500811844750737,0.08946953791626364,0.0963315419904636,0.9913199990503218,-1.3630056381225586,-1.8325017074455223,4.15929651260376,-3.1917781622065973,-1.3534161629346781,3.0250976836107295,3.0,0.4881254895185162,0.5018446684108084,0.36421046182368355,-0.5633710367291643,0.48320254223780723,-0.04195531424610454,0.6688558363026649
13.9,-1.818896402764985,2.20671788532059,5.8802298622389495,-0.14691993008302584,-0.22437048674267412,0.017366718638498896,0.08899831868313508,0.0956877821581041,0.9914225986515747,-1.3643643905180574,-1.831374557387129,4.159546109349816,-3.1915782696701567,-1.3531616450879185,3.0250863640902717,3.0,0.4876144122532124,0.5012854405221512,0.36447843427991655,-0.5632759540652368,0.4831654832008685,-0.04195261249239492,0.6689628492825532
14.0,-1.5879141215688883,2.969278633850629,5.884789008643052,-0.18192723448846274,-0.21290947040298475,0.01580256034597597,0.085297441593268,0.09073771800497844,0.9921988195438408,-1.3660279692003985,-1.8301588869541712,4.159775257110596,-3.1914082966246546,-1.3529766427648768,3.025146081934668,3.0,0.48742636014369495,0.5011224429058292,0.36449355920224136,-0.5632799564579614,0.48316205338946194,-0.041950989291102574,0.668962058202626
14.100000000000001,-0.8469382929618493,3.1915440066068004,5.4747636037516045,-0.2631875478850165,-0.1803301441341793,0.010716661302201887,0.07884311500507431,0.08210348519847135,0.9934791155496692,-1.3675014568320996,-1.8289603444322684,4.160002636233904,-3.191170496226482,-1.3527508510819917,3.025143695553205,3.0,0.4870931691558604,0.5007894087601034,0.3644098095762572,-0.5633550479723317,0.48319467938718624,-0.041952382872163914,0.6688751672078681
14.200000000000001,-1.6919615221373474,2.43128616337708,5.87941091132784,-0.2447003553519624,-0.23923005957159696,0.003891359206648665,0.07569304368239659,0.07790499527362274,0.9940806852150724,-1.368808636249003,-1.8276710027178609,4.160258659900126,-3.1909561103718747,-1.3525571520932547,3.0251750861856594,3.0,0.4865721106995001,0.5002716728516591,0.36443929265355807,-0.563382213857405,0.483202393467964,-0.041953566897265315,0.6688466388347607
14.3,-1.6706348682585,2.5238807021647345,5.997277368199139,-0.2328202981951154,-0.2539721812791519,-0.0008279184543082303,0.07420327069123452,0.0759064101644047,0.9943500469463954,-1.3701771752876148,-1.8265038179212147,4.160501420860687,-3.190763403989111,-1.3523357984918338,3.025209486121735,3.0,0.48640007468422214,0.5000684421783467,0.36450958415511137,-0.5633390630488665,0.48318941885518646,-0.0419571831208727,0.6688921290717765
14.4,-1.8392561617991088,2.4972129198569344,5.868328608162221,-0.21972035869429882,-0.25190841154405735,-0.009539744256578612,0.07408005749706935,0.07564409036850994,0.994378956467772,-1.3716972472400488,-1.8252721149621434,4.160719771146448,-3.1905983385241727,-1.3521008601300892,3.0252182889255144,3.0,0.48592113497637995,0.49963652677294595,0.36461103685291857,-0.5633457254292775,0.4831670092040038,-0.04191764193793999,0.6689051847248472
14.5,-1.6721171257306677,2.424073005811582,5.9008091367126765,-0.22662840853179875,-0.255541956187402,-0.009207146945516262,0.07506298027639209,0.07695797766001664,0.9942041720314881,-1.3730804733905313,-1.8239766275147586,4.160942568716325,-3.1903750189877242,-1.3518899194033493,3.0252610138240255,3.0,0.48568369673370787,0.4993694756676907,0.3646215346571773,-0.5633598130787704,0.483189913967245,-0.041924200637483526,0.6688763633505723
14.600000000000001,-1.7854922795993289,2.4782743099865088,5.949383454080017,-0.21757330243241152,-0.2581357557968907,-0.02573221178230856,0.07495042540956455,0.07679039190519556,0.9942257852586242,-1.3744983064781116,-1.8227158149679783,4.161153316497803,-3.1902334603964597,-1.3516839186297815,3.025256391867851,3.0,0.48533042987880415,0.49901462467225166,0.3647025132715646,-0.5633636783730577,0.4831599230616526,-0.04192888576236199,0.6688944783564613
14.700000000000001,-2.142565466862188,2.5310133141717914,6.062368169865799,-0.18936353341376835,-0.2545183420088831,-0.03224275352416047,0.07423928826583125,0.07581698363882854,0.9943540743555856,-1.375929496780089,-1.8216320476927699,4.161369800567627,-3.1900059185423792,-1.35149385124507,3.0252902869206326,3.0,0.48481956603078763,0.4984965741213975,0.36483676524290065,-0.5633378491547703,0.48315171292640724,-0.04191676437851573,0.6689229214715192
14.8,-2.0690319898771676,2.5859941399926107,5.8822263632924745,-0.18619229316022634,-0.25412518394591355,-0.03813314447632391,0.0734291294951492,0.07472556912013223,0.9944969466536769,-1.377337836429876,-1.8204676596904934,4.161581038909394,-3.1898119651581096,-1.3512743633296234,3.0253146170323464,3.0,0.4846256700584117,0.49830059484305506,0.3648392034606431,-0.5633591542558621,0.4831497864609204,-0.04192402397793095,0.6689059151871695
14.9,-2.0246941467231303,2.449443168398244,5.832558853507046,-0.20667061192863925,-0.25761283720829214,-0.03480760410886609,0.07312639920050444,0.07428884383756407,0.9945518663381088,-1.3787034218909744,-1.8190298280896062,4.161797183558793,-3.1896451251304088,-1.35109265352634,3.0253819097275727,3.0,0.48430962267400157,0.4980009270912216,0.36477911223942655,-0.5634052853436712,0.4831665653451947,-0.04191998666954002,0.6688551930701963
15.0,-1.7828046845239716,2.2249523130884934,5.829275908766983,-0.1954006959260945,-0.2764527240304541,-0.04402319735161019,0.07290988305172857,0.07397659927697849,0.9945911435228344,-1.3802017201916312,-1.8177397157279405,4.1620049476623535,-3.1894252272508945,-1.3508462030009638,3.025338466124404,3.0,0.48373509715026203,0.4973972624163372,0.36504700219271324,-0.56332028264504,0.4831234724556898,-0.04190009242867586,0.6689591555375688
15.100000000000001,-2.2165695250086777,1.8398091434572146,5.624840076520017,-0.16529480785190853,-0.29350244245214113,-0.05561035230330722,0.07325786686493592,0.07447941078542422,0.9945279991107266,-1.3817212698816699,-1.8166832088926719,4.162205320894755,-3.189222502455982,-1.3506477788495368,3.025406337177773,3.0,0.48355460761631486,0.49720195823627555,0.36509143868979643,-0.5633018095797901,0.4831258780704079,-0.041903021326360645,0.6689727902288359
15.200000000000001,-1.7311600477092561,1.7780178306251737,4.857878680037988,-0.15128099560209918,-0.29959026049225485,-0.049239391301126284,0.0739395328922197,0.07538891085609208,0.99440850126966,-1.3821611404418945,-1.8163185669652433,4.162298387983123,-3.1891151469467234,-1.3505852244066088,3.025417283391323,3.0,0.48326350437721294,0.49684634555441726,0.36500745883607477,-0.5633618445811102,0.483166561624498,-0.04192856047775623,0.6688912479726377
15.3,-1.8931598029612418,1.411517357348545,5.083210383390119,-0.13861877037290435,-0.29755044931899,-0.04275541347340423,0.0747836583215788,0.0764964212940384,0.9942613263844878,-1.3821709220237297,-1.8163145803257625,4.162298656597381,-3.189173641297438,-1.350554326996609,3.0253935216175596,3.0,0.48304191096584076,0.49665559866532416,0.3649840134423123,-0.5633778192924137,0.48316056118650486,-0.041908114907016944,0.6688834089347758
15.4,-2.1048509146456884,1.5801899591645807,4.993297538683413,-0.13564097837884292,-0.2957696175728589,-0.04452750088384503,0.0752997087862573,0.07720413110203572,0.994167555189294,-1.3821574225473194,-1.8162771664061488,4.162293693130009,-3.1891194782652796,-1.3505878321873248,3.0253844261169434,3.0,0.4830468430199968,0.4966527449882909,0.3649721760879909,-0.5633721194772006,0.48317647051457696,-0.04191371495426433,0.6688763666295706
15.5,-2.057601405173193,1.3680734950073197,4.938686096520643,-0.14239708005202664,-0.2979221412553018,-0.04345496404473199,0.07575061537335091,0.077839089724124,0.994083819896845,-1.3821496963500977,-1.8162107160877117,4.162291049957275,-3.189114035037386,-1.3505699989625122,3.0253958702087402,3.0,0.4830368367299006,0.49664263076216925,0.3650120808102492,-0.5633684029209448,0.48315433779447303,-0.041912900803598406,0.6688955353468251
15.600000000000001,-2.12138170163065,1.510762333734062,4.903391755175193,-0.13004585364492005,-0.3043937672874157,-0.04688684010494752,0.07607955396986665,0.0783137747296049,0.9940215096590264,-1.3822336196899414,-1.81620516399526,4.16227721633441,-3.189089946772159,-1.350559576186132,3.025417034591257,3.0,0.483043596296827,0.4966221823785259,0.36504200691893807,-0.5633369495176841,0.483164580464694,-0.041928902392274044,0.6689136241972243
15.700000000000001,-2.256276749044654,1.369388053466047,4.881795199403965,-0.13253556056063534,-0.3020412860228205,-0.05050186223649187,0.0755800025880533,0.07760621152496183,0.9941149783526616,-1.3822032257198364,-1.8162170849242152,4.162268161773682,-3.1891075573363246,-1.3505356441404168,3.0254197120666504,3.0,0.4830312179311144,0.4966245787846646,0.36504161697821774,-0.5633405634608257,0.48315609042769425,-0.04191115336268017,0.6689178253463387
15.8,-2.194618792616248,1.564312455225693,4.792611834147051,-0.12784416075870123,-0.3051653574291639,-0.048255763699659754,0.07554472783816911,0.07759612238756734,0.9941185279069724,-1.3821953458184377,-1.816195362074097,4.162249808025143,-3.1890815964706225,-1.3505690733539026,3.025398073976844,3.0,0.4830420833681489,0.49660937517316683,0.36502316365014353,-0.5633395683006259,0.48316533907163767,-0.041919190214529646,0.6689114794936714
15.9,-2.234506903970677,1.6390252499487923,4.679721524715183,-0.12095169278306117,-0.301091292831234,-0.039807973727790213,0.07582859851786203,0.07805714464144385,0.9940609157641395,-1.382197380065918,-1.81620516399526,4.162289670118985,-3.1890612534587954,-1.3505885457238913,3.0253858059552345,3.0,0.48306769637405594,0.49658951604026524,0.36500968981288523,-0.5633394968384462,0.48318572711475927,-0.04194684964330214,0.668895078632957
16.0,-2.017691451570796,1.4722704539727847,4.648255725374192,-0.1291217509836484,-0.3067563059342177,-0.0451880151617124,0.07580122228093668,0.07793250496139746,0.9940727797997003,-1.382217711779115,-1.8162144045366868,4.1622459394134825,-3.189079466090387,-1.3505662857508731,3.025389786892,3.0,0.48303265899529446,0.4966095560626929,0.36502234928901084,-0.5633537468366318,0.48316910369168886,-0.04191070627730699,0.6688973507663456
16.1,-2.39249653465018,1.3457580091262469,4.652897824003686,-0.11233998539875303,-0.3165132489865307,-0.04162148180297873,0.0758337994281817,0.07796836213201283,0.9940674777401707,-1.38221874079384,-1.8162085327456357,4.162256659843262,-3.189071317712301,-1.3505481234092098,3.02538772881339,3.0,0.48303176908071793,0.4966137958889383,0.3650485683388186,-0.5633419430642155,0.4831604070679663,-0.04191205814029318,0.6689134888825282
16.2,-2.4654673383117016,1.4321158092098303,4.57706919676529,-0.10838027559775085,-0.3192096498508199,-0.0503768678875461,0.07591490843466146,0.07813414041837029,0.9940482798426986,-1.382187639749967,-1.816215310157709,4.162277902089633,-3.1890837154784144,-1.3505672275967362,3.0253879756499558,3.839818837894938,0.4830506009720463,0.4965952940673489,0.3650256322880603,-0.5633335494733188,0.48318557430549863,-0.04192549906835174,0.6689015363629589
16.3,-2.4006375240471716,1.3354486054052976,4.574413477637663,-0.11046060723487136,-0.3203879586713947,-0.041577424864943396,0.07579472400129401,0.07793694701333406,0.9940729170687792,-1.3821744918823242,-1.8162079849263553,4.162268322141098,-3.1890928154762745,-1.3505596093561283,3.0254379120623702,4.0,0.48303765926238346,0.49660941084815124,0.3650410402411619,-0.5633358078815371,0.4831597824902435,-0.04191264603540776,0.6689190700262231
16.400000000000002,-2.1211937489202235,1.594325017383574,4.631191762132069,-0.10668247502344028,-0.32970970749208867,-0.04028293873993489,0.07576294257957028,0.07786272727520378,0.9940811681556706,-1.3822248532186616,-1.816199585619183,4.162246043861972,-3.1890956364073695,-1.3505538863997508,3.0254043493403775,4.0,0.4830419980441085,0.4965985225967539,0.3650261357834671,-0.5633305891058239,0.4831852609870717,-0.041909970499190895,0.6689052289489879
16.5,-2.416488449700523,1.128102527631702,4.4549919916223955,-0.11890040327773536,-0.3226031235625759,-0.044880894836555156,0.07582354790991307,0.0779172172240726,0.9940722794002201,-1.3822112992543405,-1.816215563501906,4.162268161773682,-3.1890743909853656,-1.350577921009793,3.0253727586335386,4.0,0.4830241054435476,0.49661236244363016,0.3650151212323179,-0.5633580573519686,0.48316297599504443,-0.04191392082211052,0.6688979451945908
16.6,-2.348155674173587,1.0863784123565194,4.360296798419773,-0.11870054212627722,-0.32179232004812053,-0.0397491161314575,0.07554430365131826,0.07756513476379104,0.9941210180080594,-1.3821884302373786,-1.8162025658043668,4.162235467741139,-3.1890818144035102,-1.3505663712353735,3.02538962249873,4.0,0.4830388696060512,0.49661587686619146,0.36502097585328647,-0.5633532558644047,0.48315498595559014,-0.04192282356767597,0.6689072024708221
16.7,-2.3261634192230263,1.3282219156750104,4.4031208244076625,-0.1124170457905901,-0.32016023067183125,-0.0371384333942347,0.07562964825497268,0.07768618969728273,0.9941048844002387,-1.3821931640226566,-1.816197998361394,4.162239150198194,-3.189080923408381,-1.3505761438818669,3.0254174295250076,4.0,0.4830398990638909,0.4966103285445135,0.36501575368909456,-0.5633482061854395,0.4831753793126788,-0.04191893309420432,0.668896968495104
16.8,-2.3539660484386387,1.5303497381234696,4.459630996755337,-0.11057481205933,-0.3225064142706527,-0.038500641343575885,0.07612306615782923,0.07833615586367354,0.9940161954962466,-1.3822394080226197,-1.81620516399526,4.162244723623644,-3.1890956364073695,-1.3505433407190546,3.0254039695979236,4.0,0.48303767219650434,0.49660642214961803,0.36503074052083156,-0.5633415115424637,0.48316881083148644,-0.041920221698423944,0.6689072705730552
16.900000000000002,-2.528828779754995,1.2419808888982478,4.49406750627676,-0.11617722599831214,-0.3180878899148251,-0.040393232572471745,0.07635232767174943,0.07864509083244549,0.9939744783771565,-1.3822336196899414,-1.816193243066305,4.162252757673318,-3.1891184091715643,-1.3505679614964388,3.0253752783957246,4.0,0.4830354419583475,0.4966133939342239,0.36503709503034903,-0.5633456760077404,0.4831618608377142,-0.04191236815553168,0.6689092755754059
17.0,-2.3637999395310163,1.2862843368718384,4.430539683822215,-0.11576850675368322,-0.32107569972201316,-0.036424451987282856,0.07628185228393226,0.0785670594477567,0.9939860599018442,-1.382197380065918,-1.81620516399526,4.162261423913269,-3.1890793644389293,-1.350549192719109,3.0253865146158962,4.0,0.4830657635608307,0.4965771493483618,0.3650367017378584,-0.5633278683470038,0.48318688354172995,-0.04194307911623469,0.668904272995098
17.1,-2.44959838496332,1.9263944792422596,4.59077670404515,-0.09885119437727442,-0.3222116935476212,-0.0412215136729452,0.07608977718184651,0.07831552544268225,0.9940205945283861,-1.3822476695947832,-1.81620516399526,4.162270567139569,-3.189076429114812,-1.350542956311323,3.0254147008877177,4.0,0.4830299480763056,0.4966109756417669,0.36503942384522775,-0.5633505220053161,0.4831508971538348,-0.04192590862026977,0.6689122648914038
17.2,-2.560678741183499,1.1784236821793808,4.4934688920050165,-0.11461749144115752,-0.3166083896138211,-0.04037967676997112,0.07554714674035456,0.07758856339887639,0.9941186020825803,-1.3822240419993104,-1.81620516399526,4.162265984305654,-3.1891075573363246,-1.3505387440002377,3.0253901808538712,4.0,0.48303621847948264,0.4966145222293881,0.3650471434776026,-0.5633487713274015,0.4831566664152038,-0.041933116665124316,0.6689091203363904
17.3,-2.4380738837100386,1.3832462213474133,4.453852245148833,-0.10804507992201998,-0.3210214827418941,-0.040539245872830185,0.07475187081874939,0.07653136706079426,0.9942610026100345,-1.3822336196899414,-1.816193243066305,4.162227381787622,-3.1890982909357737,-1.350566312644362,3.0253773374076385,4.0,0.48304146450648444,0.49659419761235885,0.3650604415515228,-0.5633280963713229,0.483155447330615,-0.041922182783941095,0.6689280978879902
17.400000000000002,-2.304249671967252,1.4698497205716352,4.37956363928719,-0.1090816498778628,-0.32711102741202924,-0.03728729738420421,0.0749505914059135,0.0768058848142219,0.9942249006597124,-1.3822192513086031,-1.81620516399526,4.162276906521287,-3.1891081185251378,-1.3505447546588343,3.0253785775378605,4.0,0.4830527590497015,0.4966020311990925,0.3650005392748003,-0.5633521897327547,0.483182985921513,-0.04193500808172926,0.6688871112052219
17.5,-2.31469708146055,1.3281276896860144,4.533378512441314,-0.1106816555948527,-0.3229842704746773,-0.040448252519207036,0.07508343510307464,0.07699916371906246,0.9941999822586574,-1.3822329386937235,-1.81620516399526,4.162244047237673,-3.18909705514949,-1.3505469111468578,3.025385844859064,4.0,0.4830360060908641,0.4966075260313049,0.36503788270203646,-0.5633486635292612,0.48315799244953067,-0.04192410499965989,0.6689088181896784
17.6,-1.949489303604306,-0.680639731553883,3.1752795321572465,0.029759101833293333,-0.2840851918866426,-0.05223900313515455,0.07503511482502245,0.0769591651240438,0.9942067279908477,-1.3822031064704328,-1.8161868282955371,4.162225030541732,-3.1891011425655567,-1.3505264189591113,3.025414205908463,4.0,0.48306264459554243,0.49659794326996154,0.36504636414428404,-0.5633244468671486,0.48317002458642816,-0.041929133842272544,0.6689202064807197
17.7,-0.23849066829772014,-0.7073213671780285,1.8770370036815724,0.057869915907125515,-0.12195296602956118,-0.03439371881299358,0.07460397697646606,0.07640807870844848,0.9942813849084283,-1.382230605174559,-1.81617824733166,4.16221026171343,-3.189138798350116,-1.3504835824660602,3.025364212648098,4.0,0.4830508420403129,0.4965901618971072,0.36501620530905565,-0.5633477983593053,0.4831814485420005,-0.04194023934936338,0.6688915922568441
17.8,0.30539070573385363,-0.05989016105917888,0.7980918518545483,0.032844913046352155,-0.05352672855171838,-0.03360318118485506,0.07413874446071218,0.07581147356410647,0.994362090161935,-1.3822336196899414,-1.8161694012083949,4.162207126617432,-3.18914332012319,-1.3505540511866416,3.0253989714470464,4.0,0.4830558437616499,0.4965689023250597,0.3650561123460588,-0.5633260801184907,0.4831838353369116,-0.04194129948061058,0.6689080924352205
