xiamingqian9007/apple-picking-rnn/training_data/grasper_20191127_134353_noimg.csv
,/manipulator_wrench.fx,/manipulator_wrench.fy,/manipulator_wrench.fz,/manipulator_wrench.tx,/manipulator_wrench.ty,/manipulator_wrench.tz,/ground_truth.x,/ground_truth.y,/ground_truth.z,/joint_states.elbow_joint,/joint_states.shoulder_lift_joint,/joint_states.shoulder_pan_joint,/joint_states.wrist_1_joint,/joint_states.wrist_2_joint,/joint_states.wrist_3_joint,/mode./mode,/manipulator_pose.x,/manipulator_pose.y,/manipulator_pose.z,/manipulator_pose.rx,/manipulator_pose.ry,/manipulator_pose.rz,/manipulator_pose.rw
0.30000000000000004,0.189082808221687,0.5353608513299063,-0.08897597470274954,0.0166815899253289,0.0033570284469355074,-0.002002820186918855,0.43400231747026885,0.4062168574543888,0.8041328629968473,-1.2508399337828087,-1.8529373416180126,4.1670317208467536,-3.6413387860454582,-1.3648595586987753,0.15231730808312938,1.0,0.45964581357470014,0.4696249428673699,0.3418865712739696,0.6111070701418522,0.5870784586919303,0.5306782677650753,-0.016358737249798028
0.4,0.07347423890890663,0.48839568693129193,0.03991214004014128,0.009048321243149736,-0.001864370632053398,-0.0034712761561851934,0.433779914337766,0.4060072289740377,0.8043588173542526,-1.248471299161338,-1.855760121337432,4.166385109866285,-3.640681734166056,-1.3653035542054934,0.15194855832740672,1.0,0.45985214324440715,0.4698945492635455,0.3417217043285419,0.6111139885038305,0.587100487410885,0.5306460552943318,-0.0163546549155386
0.5,0.13612183440741626,0.43703114012072736,-0.005584101194631624,0.011254668153848492,-0.004546011663255208,-0.0026898104953689862,0.4337271609317161,0.4059104077883687,0.8044361316081916,-1.2458991550263905,-1.859168609181875,4.165670224598476,-3.6398794837507236,-1.365994396374747,0.15165698102542333,1.0,0.46092668375875223,0.47093540884614316,0.3410556141191575,0.6110967549712827,0.5870664950004769,0.5307052168898925,-0.01629905755788671
0.6000000000000001,0.4337929010903345,0.20413528917787918,-0.0820496407717867,0.005240847789511728,-0.006407492187656667,-0.007881095602888848,0.4334205629110793,0.4057177154981826,0.8046984783621988,-1.2432547996605663,-1.8623495181064293,4.16508849714305,-3.6392545528619435,-1.366632796171339,0.15137694676325147,1.0,0.4615133858027041,0.4715335299781071,0.3405846816363951,0.6110992408080544,0.587090715291675,0.5306744079509934,-0.016336543330566416
0.7000000000000001,0.045680127943036636,0.5662065966647211,0.04676153659454184,0.02103515756926845,-0.00797589533552075,-0.01456954020022323,0.43325304702199446,0.40563210199900385,0.8048319040423967,-1.2407294314158963,-1.865581605764522,4.164530616871582,-3.6386362514891566,-1.3672618949315645,0.1510815983943246,1.0,0.46268586237824033,0.4727658742021172,0.3397842234535941,0.6110763162484416,0.5870994050487518,0.5306899445830364,-0.01637702751083023
0.8,0.24865378271127872,0.36708262415185955,0.13825024064617386,0.014176018982955655,-0.0073035981812531224,-0.0039060287197798596,0.43325985535081646,0.4056766900193092,0.8048057658321079,-1.238120871145912,-1.868664021654504,4.163899871024614,-3.6380383647250163,-1.3676961104022425,0.1508513867006083,1.0,0.46321447301117846,0.47329346268579797,0.3393654795010628,0.6110953589204149,0.5871184833610521,0.5306464136334677,-0.016393062547506353
0.9,0.2434571163362225,0.3330409472361214,0.24417880912893575,0.012273849198441083,-0.006805334600540256,-0.0040002868714743515,0.43331762990417344,0.4056593811764082,0.8047833829511435,-1.2358237153990974,-1.8719326929216407,4.163295269012451,-3.6374008759316245,-1.3680842350373421,0.15059820117231187,1.0,0.46404725519510215,0.4741629297877607,0.33876146344687247,0.6110942371698834,0.5871429917825448,0.5306216060965129,-0.016360062406917706
1.0,0.22739989046558418,0.5835266911990102,-0.011266665082841798,0.007665788741679188,-0.01163572094485731,-0.002047797577069306,0.43337810888349526,0.40563878789394897,0.8047611993396016,-1.2331642755169088,-1.8744897021053766,4.162694454655111,-3.636858751094945,-1.3685637330807998,0.15037606445946358,1.0,0.46541635190146746,0.4755035612061122,0.33765898344864387,0.6111668770736439,0.5871689405795337,0.5305119214112614,-0.016272210276718543
1.1,0.40693580359119286,-0.013323752402682642,0.23045192395239536,0.0039697865215472476,-0.011266864533705045,-0.012323528395093947,0.43327514812376644,0.4055022767533341,0.8048854091569486,-1.2310731835236806,-1.8775865105946878,4.1622014463517765,-3.6363145810095108,-1.3690977242305502,0.15015329987191864,1.0,0.4658503519976202,0.47593830123209074,0.3375577570155114,0.611115923878782,0.5870802839775522,0.5306678588001665,-0.016300042425294068
1.2000000000000002,0.0280433768468481,0.23698634748196973,0.21863988309816176,0.011344026266785226,-0.010405025846783596,-0.006558253167212923,0.4330200952790521,0.40523762830692744,0.805155677816964,-1.2285161309029726,-1.8800370088519438,4.161579492653979,-3.635850101339993,-1.3696263762844632,0.14990281097915034,1.0,0.4666331043652911,0.47672275801127667,0.33687168378376187,0.611168243248023,0.5871236516517199,0.5305601637428409,-0.016282160957477067
1.3,0.16405796844252707,0.3401520826397683,0.31163243709775107,0.010511094814913989,-0.008822684422562323,-0.008348738644418352,0.4325747685885107,0.40481081142773395,0.8056095760335609,-1.2263840688786036,-1.8827998116848645,4.161044644637847,-3.635363319678321,-1.3700947264945482,0.14967291455873302,1.0,0.46781527038273835,0.4778020068008129,0.33640276839029787,0.6111050532000846,0.5869907022146535,0.530777965799182,-0.016348715207995818
1.4000000000000001,0.23506813636845875,0.3401545799442629,0.02789984626009312,0.012358500949079013,-0.004012714731946742,-0.009803896758454035,0.4324898316893936,0.4047248572422558,0.8056983900391128,-1.2242916773376273,-1.8853283936054859,4.160685036730303,-3.6349301907105622,-1.3704841002318249,0.14945648281739962,1.0,0.4682225861925675,0.4782336042645592,0.33602204464145097,0.6111174762235219,0.5870339730440437,0.5307160679692778,-0.01634013297212278
1.5,0.2993885781747457,0.5727699283213545,0.1683355343711641,0.015618750412798615,-0.0056325207431385,-0.01400873706086224,0.4329078994282727,0.4051146532581946,0.8052776472931016,-1.222085907434728,-1.8878609326682163,4.160193684520469,-3.6345436759678136,-1.3708501000805688,0.1492134899791697,1.0,0.46914644884944473,0.4792898760461452,0.3353052496806331,0.6110962352420286,0.5870857979845573,0.5306823102404737,-0.016368954630286127
1.6,0.29992199691846344,0.2973949653587446,0.22654977840008422,0.017011748308083573,-0.012243917252151102,-0.011377280503003366,0.43332596716715177,0.4055044492741335,0.8048569045470904,-1.2201612455435267,-1.8902603265494466,4.159794761630075,-3.634073304774662,-1.3712140702822633,0.1490090030073812,1.0,0.46958444565671154,0.47966859713255666,0.3350942208455165,0.6111105885450627,0.5870286128637942,0.5307295807340958,-0.01635140303238966
1.7000000000000002,0.1378563240602025,0.1729560140211609,0.09272153331744332,0.013131482143505173,-0.007709170370660111,-0.005088906493726699,0.43340662694151083,0.4055799351435042,0.8047755000960657,-1.2181151812042939,-1.892582959546733,4.1593982865980905,-3.633697619470899,-1.3715903959431643,0.14883899688720703,1.0,0.4702697954083742,0.4803789927379674,0.3344885687626764,0.6111403593983931,0.5870839010044696,0.5306353222391449,-0.016312850392746627
1.8,0.07903064858210655,0.1805274935379111,0.09644151228192441,0.012427558762732249,-0.007481731837374773,-0.007980323031055907,0.43345344703343563,0.40562389788163866,0.8047281289262544,-1.2161689787431196,-1.894794871179098,4.159038548903032,-3.633332826237803,-1.3719463586349974,0.14861392454667524,1.0,0.47091101127638446,0.48104864542271975,0.33405762370760905,0.6111308537931144,0.587071827155745,0.5306596691461228,-0.01631149422466998
1.9000000000000001,0.28737163749289885,0.2801945780954235,0.13668275531512114,0.016287595170388545,-0.012098767669534966,-0.005969208988843491,0.4334488066599325,0.4056586801849118,0.8047130957311392,-1.214219093322754,-1.897249686917476,4.15867955245953,-3.6329747873698026,-1.3723067092838932,0.14847949186941423,1.0,0.4717828408239785,0.48201879856762175,0.3334217654629361,0.6111092894898212,0.5870738456760131,0.5306818207750268,-0.016326087140672546
2.0,0.27214357729393246,0.5341132743940977,0.027844392607567076,0.019725315884312915,-0.013531308353284833,-0.010388134049771113,0.43359063626788846,0.40582150316490206,0.8045544083146705,-1.2124200437764399,-1.8992721044169805,4.158273868624689,-3.6326480157827534,-1.372688652557267,0.14831542980160317,1.0,0.47216267512008475,0.4823956778774449,0.33313874053930786,0.6111136490212804,0.5870914895660874,0.5306576372132372,-0.016314500489813193
2.1,0.10778245712799606,0.5028593493181692,-0.023256169537296645,0.015357604249291905,-0.009833040157259249,-0.012955369096383593,0.4339704980895906,0.406186069455718,0.8041654749622931,-1.2106991889128422,-1.9013644802301022,4.157856471624501,-3.6323276886476146,-1.3730279887748114,0.14814710978991166,1.0,0.4729555083663049,0.48327286746980047,0.3326082563486629,0.6110835616322797,0.5870917497736593,0.5306904953198236,-0.016363258468628645
2.2,0.1072967930972464,0.30841222720199835,-0.05602452832321479,0.016031737553077907,-0.01430148736200867,-0.008936885129223167,0.4339197605869245,0.4061694068098398,0.8042010847373608,-1.2087587684308978,-1.90358250765437,4.157524247729163,-3.6320214301513984,-1.3733633200274866,0.14800037660509208,1.0,0.47329657360773014,0.48354158711024864,0.3323441343772185,0.6111180210518782,0.5871004249913252,0.5306427927389352,-0.016312015046125592
2.3000000000000003,0.2590617494233607,0.35270338677247753,-0.03768672726745629,0.013013455995289726,-0.012376974146159044,-0.010734248790391745,0.43314948850585405,0.4055157078596382,0.8049461091420705,-1.2071468557398093,-1.9052114345904647,4.15717077255249,-3.631747512156163,-1.3737001997265073,0.14781718263840626,1.0,0.4741420224413148,0.4844607332796505,0.33174011537663634,0.6111082215266609,0.587114194350371,0.5306373747436467,-0.016359734105633995
2.4000000000000004,-0.006416346113778337,0.27710275563183256,0.1360097191268898,0.015725684108557056,-0.010324461983448191,-0.009430345898048875,0.43312813397075284,0.40549170050020533,0.804969867593171,-1.2056955798066777,-1.9071773737867455,4.156776726160118,-3.6315010740157865,-1.3740134401305886,0.1476536145741991,1.0,0.4743942208709416,0.48473042518900583,0.33164845500734597,0.6110733360520729,0.5870922080355865,0.5307012436916625,-0.016380084682701492
2.5,0.09176712843300694,0.11306737077433182,-0.032038895495547365,0.011870208406993014,-0.012660473346921164,-0.010217364114254382,0.4333461737168699,0.4056559909521741,0.8047696065736343,-1.2039289474487305,-1.9092003612518518,4.15647379244,-3.631200104329796,-1.3742714411562709,0.14751532741406248,1.0,0.47489991676274484,0.48515722475357637,0.3312137310395695,0.6111220167638224,0.5871145992687894,0.5306217831546101,-0.01633558060766768
2.6,0.11428536849836357,0.45579396889825585,-0.02635497339542066,0.0163827119502684,-0.009460451605713897,-0.011186582377642645,0.4337890630358913,0.40598547545495284,0.8043648071758915,-1.2022891446157982,-1.9105826673413184,4.156139850616455,-3.6310094738393497,-1.3745368162738245,0.14738897524323957,1.0,0.4757451711114233,0.485992898848513,0.330666237216592,0.611129300071707,0.5870917304854935,0.5306390959163465,-0.01632263687326818
2.7,0.3552461215827447,0.28602820811768737,-0.033799286192258506,0.009811115154560714,-0.012604670511004541,-0.011409100248134867,0.4337300489213279,0.4059145880493896,0.8044324417589015,-1.2010476291949532,-1.912398904942853,4.155889959160281,-3.63078517982564,-1.374743862576881,0.1472492218017578,1.0,0.47599399199528475,0.48622938270497146,0.330640365560995,0.6110932027855925,0.5870415187350329,0.5307357300697804,-0.016338225662846206
2.8000000000000003,0.17337043976072936,0.17829496280357174,-0.0404150023731075,0.01118690255084657,-0.014980426668510082,-0.015476341337766347,0.43368204492861645,0.405855187689609,0.8044882955795484,-1.1996421758840445,-1.9141622982420863,4.155564785003662,-3.6305233440794886,-1.3749897594948977,0.14710569381713867,1.0,0.47640929364554824,0.48666630978628367,0.33022545996459507,0.6111284007578285,0.5870878091236135,0.5306447100532955,-0.01631483552073468
2.9000000000000004,0.03428307517065697,0.5308504484674178,-0.00799961840791655,0.02251099055323678,-0.005461854534156607,-0.016535773419243612,0.43384221134326456,0.4059672343997857,0.8043453782385641,-1.1979578792537475,-1.9157216123993923,4.155285088009102,-3.6302943270336248,-1.3752331337347274,0.14698844852620244,1.0,0.477120743165814,0.4873577878892138,0.32970677440528406,0.6111489809495317,0.5870807914292093,0.5306292428320536,-0.01629951136333726
3.0,0.16550244993652596,0.23107861398487678,-0.16867191828791786,0.012796338283777265,-0.009765662658133301,-0.009255430158217823,0.4337879333400658,0.40588965672494576,0.804413732423779,-1.1965248574692307,-1.9171516619785112,4.155016225768164,-3.6300551882419154,-1.3754607588539918,0.14687375646568893,1.0,0.4774038263855009,0.487663973590342,0.32959869508672535,0.6111232710353782,0.5870450045830405,0.5306978508763627,-0.01631873978981581
3.1,0.06363753954660473,0.3698495924635274,-0.06719034145785172,0.01671258804850812,-0.01441548393069883,-0.011820576637540076,0.4334461850340857,0.4055712755642899,0.8047585631150701,-1.1953983373599832,-1.918856273220178,4.154753353809924,-3.629911012343594,-1.3757007724412451,0.1467566523530873,1.0,0.47779098109152773,0.48803874543541537,0.3294041905243008,0.6111109830234469,0.5870087086590114,0.5307518276099608,-0.016329111282694937
3.2,0.17800564247190448,0.15477124026961137,0.06599014429445359,0.014019743846522497,-0.017576968231472496,-0.015843747687586816,0.4334498633519801,0.4055878641619054,0.8047482215221349,-1.194096565246582,-1.920336801534644,4.154531902268088,-3.6296693718645696,-1.375948595948377,0.14664091273877747,1.0,0.4784354658768317,0.4887095399477202,0.32874238175950204,0.611159508581751,0.5870962120742649,0.5306000921368991,-0.016298314712775167
3.3000000000000003,0.016305104590701947,0.4178409256073169,0.12638148664709736,0.021729928510954913,-0.010826229232983358,-0.01655196282205844,0.43334043946837075,0.40549522041614977,0.8048537421102103,-1.1927302740496428,-1.9216350358989507,4.1542758150425145,-3.629514680751202,-1.3761656920062464,0.14652798042151138,1.0,0.4786532678394672,0.4889454784281452,0.32858848013918424,0.6111623051121117,0.587093404577882,0.5306000448402741,-0.016296119989137138
3.4000000000000004,0.21126111368898948,0.36567127020276696,0.0801491408076878,0.017715428560846243,-0.01506910263700428,-0.010105934360801136,0.43297120056315863,0.40515165137207654,0.8052254178629247,-1.1914635669333493,-1.9230788835907764,4.1540448609188125,-3.6293273541742486,-1.3763760340574285,0.1464579984932635,1.0,0.47917092076035817,0.4894542981995128,0.32837315636741715,0.611135556567215,0.5870455041026574,0.5306833586307378,-0.016311973655494937
3.5,0.19846643561208757,0.1450992744398274,0.07389051341026996,0.011900059533584837,-0.00922262333961934,-0.016977285034056697,0.4333455080881385,0.40553403048769954,0.8048311965147368,-1.1904095992643875,-1.9243106914903312,4.153839588165283,-3.6291930124046994,-1.376596752797262,0.1463221183764188,1.0,0.4793902609999371,0.4897062579057668,0.32823303544497584,0.6111149466863761,0.5870544860558078,0.5306966760432132,-0.016327595504059548
3.6,0.3326489574121914,0.3777254995202214,0.23204443026913482,0.016617379933455672,-0.013045009902562488,-0.013407267271875882,0.4336108228775193,0.40582074803236046,0.8045438830849059,-1.1892839765151815,-1.925666993717117,4.15363333719097,-3.6290415082572007,-1.376790999586058,0.14622172844395767,1.0,0.4797264997158317,0.4900838388402784,0.32794933995634984,0.6111129634551766,0.5870718133936826,0.530679204259342,-0.01634668108077706
3.7,-0.048662531827350766,0.4472781252550952,0.22245320672500338,0.018071921328423963,-0.005868490932196671,-0.019461114120006576,0.43312408825113724,0.405400014852015,0.805017862321869,-1.188051799701582,-1.9269981526474207,4.153424163890947,-3.6288963756956996,-1.376987634210653,0.14616854588425535,1.0,0.48024727333067524,0.4906108885317927,0.3275530396365858,0.6111234468065322,0.5870793861137329,0.5306589529446611,-0.016340221029794003
3.8000000000000003,0.10160271236954696,0.5491078161655876,0.10179620770816716,0.019486146671006933,-0.00970974519950557,-0.01522439804641735,0.4327856106864789,0.4051129140795577,0.8053447313933084,-1.1869534959902974,-1.9282420477641133,4.153263568878174,-3.628732603964001,-1.377176370195202,0.14604555965120536,1.0,0.4804433909928248,0.49084778257544065,0.32739346158823723,0.6111207378195261,0.5870947890570491,0.5306448348281567,-0.016346612467894886
3.9000000000000004,0.11319912923529216,0.4743501894533473,0.06889795310169392,0.022015899514706012,-0.010586280014962514,-0.009287498388125965,0.43283313453018,0.40517373803356904,0.8052885851100934,-1.1859735106742801,-1.9293110609013129,4.153082714012903,-3.628620763818258,-1.3773604990749868,0.1459609546500097,1.0,0.4808968941541586,0.4913383267244971,0.32707626629454006,0.6111111188414957,0.5871017021916051,0.5306481406096527,-0.016350614041487195
4.0,0.21766151663253983,0.5087678569793452,0.2407854941258701,0.02570325020907894,-0.012137777549929474,-0.016129228847422166,0.4328806583738811,0.4052345619875804,0.8052324388268783,-1.1849350418263134,-1.9304381512343318,4.152855396270752,-3.6284998815319915,-1.377531441074597,0.1458448191948911,1.0,0.48107338382467363,0.4915210690317817,0.326962597078504,0.6111092368760894,0.5871043848899169,0.530647196982791,-0.016355249373316724
4.1000000000000005,0.21942826981546454,0.4251235077847766,0.006132406293229268,0.016746527080490965,-0.014580653085187276,-0.016853430080505466,0.43307318909003667,0.4054056015748848,0.8050426395718886,-1.183794544722147,-1.9315720997252406,4.152663593499557,-3.628340541731743,-1.3776850313903346,0.14581217080498662,1.0,0.48139330704272004,0.49180119868138855,0.32675450267472694,0.6111217926314617,0.587090586336519,0.5306483365808298,-0.016344445232237742
4.2,0.2764785861317281,0.17348538929498608,-0.03499956017082161,0.013002342634543107,-0.01790343708848989,-0.012205010146260539,0.433309804646562,0.4056101488057769,0.8048122072777477,-1.1827391015561008,-1.9329866311213189,4.152455478910941,-3.6282574163172,-1.3778454354716894,0.1457060124334527,1.0,0.48185077999713233,0.49229442218708114,0.32652077675485236,0.6111020824011805,0.5870500580661111,0.5307151666095358,-0.01636722762502805
4.3,0.23988539198741296,0.48089704801231864,0.08101271033958489,0.02787976952112214,-0.018928474346631634,-0.012967062491477228,0.4335464202030873,0.40581469603666903,0.8045817749836068,-1.1818205878859074,-1.934158091706919,4.152283473240802,-3.6281010847302246,-1.3779963304027751,0.14563731692976647,1.0,0.48204619358867024,0.49251102099245064,0.3262874205934707,0.6111084187105148,0.5871003878742804,0.5306531226571212,-0.01633703012331182
4.4,0.07284574713391503,0.5168894357505784,0.18025471828028022,0.02026681183261593,-0.018298120519387832,-0.015850563990067422,0.43361691453635837,0.40582899044482684,0.8045366370877886,-1.1807596353676857,-1.9350704914636783,4.152098970046543,-3.6279964214868716,-1.378180014653795,0.1455382488324757,1.0,0.48237687241027416,0.4928076650587926,0.3259910706336552,0.6111493587591791,0.5871079887470265,0.5305983118947875,-0.016312640867365114
4.5,0.4153688750051483,0.11478493023916668,0.19200429087901114,0.016084134202000975,-0.015009412375042783,-0.013562414277227685,0.43366488532784536,0.40582850810465726,0.8045110131157991,-1.179730857641196,-1.9361363970869314,4.151882492980118,-3.627854963342184,-1.378341884803078,0.1454103023219901,1.0,0.4828305080086916,0.4932461859111586,0.3258029722889832,0.6111192283398373,0.587064335514111,0.5306811916290715,-0.016316481601320355
4.6000000000000005,-0.0191087025316804,0.3276111171413381,0.2799546711252945,0.022458983284496033,-0.012872103862988187,-0.017787431369415647,0.4338058255352584,0.4059678332857757,0.8043647209133576,-1.1785689529245673,-1.9373766384520472,4.151702926862259,-3.6277255146092027,-1.3785357086155123,0.14535549647536772,1.0,0.48298732088127083,0.49340608635985356,0.3256783973289234,0.6111269754755418,0.5870682952192048,0.5306673429103639,-0.016334251222133105
4.7,0.11414058080437539,0.1888552743160397,0.20090773584255323,0.016357750531194253,-0.014564759060854679,-0.020915164213375255,0.4336935786542331,0.40587933013464095,0.8044698802474094,-1.177440955386335,-1.938690083497708,4.151515671877743,-3.627570420944807,-1.3786729725346778,0.14524323862779664,1.0,0.4834321750196345,0.49388335037108877,0.3254326202465966,0.6110974871650428,0.5870602292555682,0.53071009201874,-0.016338501658079936
4.800000000000001,0.21438354328318332,0.2734296359545549,0.2705699007229522,0.014475514330512695,-0.01258970237781428,-0.017756161687987403,0.43357678173688885,0.4057883573765634,0.8045787450466488,-1.1765351589018316,-1.9398448947810796,4.151321887969971,-3.6274844197396936,-1.3788493374205404,0.14519247594025483,1.0,0.48363690740729576,0.49409425013857733,0.3252421397972734,0.6111113728985444,0.5870753912753375,0.5306780402658433,-0.016315405375583694
4.9,0.17196352558877567,0.36155620108853853,0.21991748523291238,0.019485677448827485,-0.014182950355379718,-0.017098470994129943,0.43374614549280327,0.40596034322668434,0.8044006776643314,-1.175550875934779,-1.940780913563201,4.15114042057237,-3.627362598117435,-1.3790165667364012,0.1450737075853965,1.0,0.4839194285798603,0.494385074299807,0.3249878255531372,0.6111236624246996,0.5871038635531554,0.5306325533414419,-0.016309995705753737
5.0,0.18948557900126672,0.31591646670542217,0.22584767142082543,0.018392962068305343,-0.01607077979216126,-0.014894826383415856,0.43384380675623496,0.4060598512668896,0.8042977894594825,-1.1745513498952758,-1.9418163817834106,4.150957442291773,-3.627251934218777,-1.379200623444491,0.14502525329589844,1.0,0.48423093921330623,0.4946915352146764,0.32479301886850326,0.611112070492921,0.5870984514876647,0.5306517526845789,-0.016314500648997796
5.1000000000000005,0.34569010815879464,-0.026482997000823127,0.20756135104993345,0.01611317375568684,-0.020363754680760546,-0.018065300965495263,0.4339138321082021,0.40613142456914325,0.8042238771663565,-1.1732749929473298,-1.943178428020546,4.150745868682861,-3.627131327643802,-1.3793867265353312,0.1449151951554827,1.0,0.4846115951316675,0.4950760818061326,0.32458634205188114,0.6110954000367754,0.5870780614334478,0.5306929442003713,-0.016332814006773094
5.2,0.2007468217643055,0.42068267887307265,0.3176855675635637,0.022943437628230184,-0.009400397751944928,-0.01952330741908718,0.4340319539708037,0.40624073122305965,0.8041049067105509,-1.1721000797871155,-1.9444266758360804,4.150597465227339,-3.62702488013031,-1.37954093875905,0.1448243199833765,1.0,0.48490817599008923,0.495417733114188,0.3243592719031871,0.6111012434358019,0.5870782665493379,0.530685530442883,-0.01634769082154704
5.300000000000001,0.19701156577112794,0.29755724450532794,0.27847368108022047,0.02145234773198169,-0.02566474207955258,-0.01935172945933887,0.43392356932915477,0.40614593950655886,0.8042109713143686,-1.1712320378572527,-1.9455584445878666,4.150362491607666,-3.6269332371153773,-1.3796771693611347,0.14476003479217636,1.0,0.4853076518745622,0.4958497021382641,0.32410206332682817,0.6110960190258806,0.5870681199763247,0.5307025333292383,-0.01635540143539379
5.4,0.1837879580764226,0.22236667580972386,0.27600185289806045,0.016766104537671935,-0.01680729488280587,-0.01848620513991264,0.43307510603455135,0.4053820617576522,0.8050536194988851,-1.1702463665393867,-1.9466143724278526,4.150170803070068,-3.626789709130758,-1.3798818051160278,0.14469423946226484,1.0,0.4854994256502865,0.49603777372996005,0.32392663657116527,0.6111038087837103,0.5870872304881136,0.5306726934657516,-0.016346592845105264
5.5,0.33918781154643346,0.09470189919530766,0.19535714355560363,0.012247246286781449,-0.02020240854290545,-0.01824669790948819,0.4331908384525641,0.4054395607402012,0.8049623907814474,-1.1692818480145086,-1.9476838177188778,4.149974680718437,-3.626696360566933,-1.3800404149942136,0.14453949851129935,1.0,0.4857589520653745,0.49626195951987245,0.323726653124744,0.6111203020743201,0.5870878125289587,0.530653527694933,-0.0163312680915193
5.6000000000000005,0.25215457374577804,0.2314529589266582,0.2257374301078863,0.019128399948366157,-0.018595788717864745,-0.021395697035526566,0.4331177834854148,0.4053934739613376,0.8050249095225299,-1.1680229525306773,-1.9489834247276463,4.149791308724956,-3.6265811543185187,-1.3802273909198206,0.14447498321533203,1.0,0.48617400187273474,0.4966450374456659,0.32345338270736457,0.6111232910803404,0.587087001115617,0.5306514210350981,-0.016317033236364773
5.7,0.23697246402805439,0.1887066049426892,0.20163995272465504,0.012651754257467349,-0.015041789819158543,-0.013765749070738117,0.4329283558883272,0.405220045268205,0.8052140854399453,-1.1668172394351497,-1.950216766202553,4.149588200136122,-3.6264729971843335,-1.3804018212463451,0.14442000883207187,1.0,0.48663101174400286,0.49711604358207784,0.32319930678431347,0.6111161599079606,0.5870627174446277,0.5306858502857963,-0.016338090228627825
5.800000000000001,0.18064099932783975,0.5937850315910325,0.1826077924483147,0.023755221201878184,-0.011179530195526245,-0.02207672768590453,0.4330430057177568,0.4053303962057909,0.8050967735371553,-1.1657905578613281,-1.9513437145004573,4.149415224718554,-3.6263824901976527,-1.3805651205489886,0.14434402076546865,1.0,0.4868009633815847,0.49732541860656226,0.3230576937292597,0.6110979073308185,0.5870941582074886,0.5306722127002794,-0.016334005091354468
5.9,0.24553362738766193,0.3224326898085759,0.38353669720962413,0.019198502242064566,-0.014510195858441533,-0.01636374710954007,0.4333204609817754,0.4056060049273175,0.8048086793752282,-1.1648317831423107,-1.9524274750149273,4.149228469848173,-3.6262532158291365,-1.3807231985670654,0.14424075317336782,1.0,0.4872059100670297,0.49775035164639553,0.322762576670421,0.611095778893129,0.5870954939401204,0.5306730634793384,-0.01633798370852857
6.0,0.1734253155839412,0.43522305364685715,0.37077348716816294,0.017673744191027775,-0.012963847459974937,-0.013075025204395187,0.43339710020451894,0.4056708103287357,0.8047348276793185,-1.1638971051019524,-1.9535985131208047,4.149013100307415,-3.626167436639303,-1.3808814144990749,0.1441640853881836,1.0,0.4874008470323462,0.4979261369543059,0.32264050807823913,0.6111103197875362,0.5870737153714801,0.5306803024719033,-0.0163415524792158
6.1000000000000005,0.4606428294054729,0.5283254967165613,0.20295638276641326,0.023169973581894987,-0.01973289919708294,-0.014250493001879257,0.43336648486102186,0.40562302702201714,0.8047754015174305,-1.162634685303811,-1.954761609892018,4.148913526239831,-3.626072580555778,-1.381051043590313,0.1440713158362297,1.0,0.4876898544297118,0.49821989391690263,0.3223854159345751,0.6111236325937351,0.5870920620790017,0.5306452434386804,-0.01632304950573588
6.2,0.08891634883648927,0.7791842807569753,0.16108000631004823,0.024406149506603893,-0.012248710322839017,-0.017782796452175387,0.43337968660772597,0.4056229474143823,0.8047683318271287,-1.1614624419195332,-1.9559150058856292,4.148681442337852,-3.625984978954683,-1.3812089916778323,0.14397825383969917,1.0,0.4881571465832697,0.4987076012181345,0.32211014519875986,0.61111316451646,0.5870733658840421,0.5306776303112005,-0.01633450065195001
6.300000000000001,0.2743530300491034,0.543813131944013,0.11447392064444428,0.020330773062817997,-0.015482512423860883,-0.016497817216648322,0.4334170997414941,0.4056492267620684,0.8047349364291582,-1.160379413648312,-1.9570740633079762,4.1485097675877265,-3.625902788158227,-1.3813493571719728,0.14389729210446417,1.0,0.4883794875043393,0.4989186024783484,0.3220083750453306,0.6111053616478098,0.5870487395510129,0.5307137280174978,-0.016338704068440235
6.4,0.14877690962099951,0.481073780211314,0.1528016471992421,0.02073562874441304,-0.014216137241164556,-0.018722618773867508,0.43337852090965734,0.4056000169540504,0.8047804545131177,-1.1593803525257733,-1.9583571812594291,4.148345863847795,-3.6257908396521854,-1.3815091292010706,0.14381639078411362,1.0,0.48878268982193396,0.4993635938360458,0.32172885508149923,0.611102408164856,0.5870567389865697,0.5307079842631717,-0.016348314435726867
6.5,0.11779365149373244,0.26863324580700276,0.20386273961140544,0.01598658855990414,-0.018552428706648676,-0.014997135710431337,0.43285615035760716,0.40508143296651966,0.8053226256434234,-1.1583862577165875,-1.9595234400270356,4.148139456559986,-3.625688692132467,-1.3816670721707487,0.14374839325654343,1.0,0.48900250069669543,0.49955605786764595,0.3214885277222395,0.6111467696962327,0.5870677703575952,0.5306454314182013,-0.016324368661998087
6.6000000000000005,0.1745663971182397,0.3431008348162031,0.23079846633090645,0.01938408827222342,-0.01882938143303065,-0.0215189910314965,0.4324870610146296,0.40478641202757665,0.8056692197206272,-1.1571798057005334,-1.960618169922941,4.147978390113684,-3.6256166897215785,-1.3818228957464451,0.14367293926759592,1.0,0.4892707087065595,0.499873026364448,0.3212459506825064,0.6111429389967016,0.587097579678018,0.5306169570447746,-0.016321303478304145
6.7,0.3251203444082804,0.49097810575602563,0.20070780317345466,0.021680097829603957,-0.020419031700334444,-0.017973472517948116,0.4325970624522517,0.40490786669172035,0.8055490858477061,-1.1560824336789517,-1.961696483673242,4.147818599978443,-3.625543873815693,-1.3820120240740557,0.14356789876111006,1.0,0.4896826571624883,0.500298813465284,0.3210192886708871,0.6111208685770955,0.5870798734774746,0.5306616656872756,-0.016331035400585118
6.800000000000001,0.4056109692721904,0.45324864251733676,0.23847195387679165,0.021472439738871328,-0.016171735995403766,-0.00801144614617934,0.43219525799893105,0.4045340998724594,0.8059524356557488,-1.1548791238586675,-1.9629364058954382,4.147583261575329,-3.6255115963536193,-1.3821646092489064,0.1434812908745589,1.0,0.4899449747720373,0.500556161606693,0.3209038376188523,0.611103493283929,0.5870627069107635,0.5307010024802107,-0.016320067931418592
6.9,0.37041479072095423,0.37745286960738345,0.19667468384715267,0.01872807975494271,-0.01970116350225359,-0.013575565709422178,0.4327844536898281,0.4050697305468022,0.8053670374336342,-1.1538779202453204,-1.964357646905133,4.147425174713135,-3.625379160666219,-1.3823229443652347,0.14343313326715043,1.0,0.49038390756328043,0.5009962519001345,0.3205913058934064,0.6111134966073283,0.5870704739219409,0.5306805582658625,-0.01633089073092367
7.0,0.13582828929999452,0.5235174214499403,0.10664709341516224,0.02181845563382307,-0.014053727539781248,-0.020504488431022903,0.4332182214812671,0.4054375482127831,0.8049485257934957,-1.1527519226074219,-1.9654170135782016,4.147243399239353,-3.6252956090519803,-1.382488929044672,0.1433355486440905,1.0,0.49058194016951295,0.5011718258075493,0.3203744266267904,0.611142785885795,0.587105922487522,0.5306087190138763,-0.0162947336976799
7.1000000000000005,0.015062812125781755,0.454703434088163,0.29685240657640516,0.029875749093635946,-0.017549180423924178,-0.020056823769812257,0.43348231147543115,0.40567237531442135,0.8046881171671955,-1.152651929224641,-1.9654406403884206,4.147230340311704,-3.6252525927780135,-1.3825126435916015,0.14332180618198548,1.0,0.4908790941132396,0.5014958862664021,0.32015312417054376,0.611151475509688,0.5870962553330505,0.5306092729922367,-0.016299091106278425
7.2,0.2577023030886111,0.29196992719118353,0.22701717803999832,0.023567385336287466,-0.019495830110680196,-0.01908220852876969,0.43361446666743675,0.40580379416773676,0.8045506432452961,-1.1526250839233398,-1.9654623470702113,4.147204314636884,-3.6252767892997824,-1.3824935172781796,0.14332513264432645,1.0,0.49099783494615273,0.5016203112243518,0.32013877930102214,0.6111140635181613,0.5870859866240302,0.5306633365897384,-0.016311617928816503
7.300000000000001,0.1819006198791014,0.26677166385306733,0.007077733032559624,0.01733165039748273,-0.015709411272838772,-0.019283862143623962,0.43380353833292856,0.4059932665669982,0.80435307307758,-1.1526386923600547,-1.9654202569021468,4.147241244068211,-3.62528195003652,-1.3825449480068304,0.1433059340952197,1.0,0.4910118912703657,0.5016194829467576,0.320136911333332,0.6111198029794875,0.5870686480785363,0.5306756800499375,-0.016319051844053394
7.4,0.13566415054836944,0.4746510962982323,0.026825459387622305,0.01967275892583207,-0.015007091509903684,-0.020637776411727985,0.43403130458682965,0.4062223491597419,0.8041145623431772,-1.1526232579359295,-1.9654504261412562,4.147207595360204,-3.6252762438258626,-1.3825305038371145,0.14331579208374023,1.0,0.49098650001676547,0.5016337298723977,0.3201727491088754,0.6110993760769914,0.5870717404440322,0.5306951692647249,-0.01633895496693506
7.5,0.33186297710480794,0.28601031773733876,0.09713756877682463,0.01724174327409909,-0.017808093938100983,-0.019437454757094675,0.43407348885028063,0.40626584251913556,0.8040698158203038,-1.1526384353637695,-1.9654414953175288,4.147205134110602,-3.625308742507702,-1.3825598296112627,0.14331579208374023,1.0,0.49099808592001304,0.5016322754603318,0.320119950381692,0.6111075911972237,0.5870998352802984,0.5306547207351827,-0.016335934513784536
7.6000000000000005,0.07022347999354356,0.2897694847514912,0.21534019294882195,0.016819573020420444,-0.013592109944315409,-0.01973878966628534,0.43406537145572116,0.40624888153488165,0.8040827652672559,-1.152641287099664,-1.9654354959580165,4.1472084622857075,-3.62526701985328,-1.3825297890772286,0.14331270270318786,1.0,0.49099963190779583,0.5016109078239082,0.3201516898971712,0.6111168735743705,0.5870780434326777,0.5306683538431138,-0.016328992050514534
7.7,0.14912360231459315,0.4509673241883665,0.14623226860874539,0.020163275030133997,-0.017520660884905656,-0.020904393138428148,0.4340137864130163,0.4061801974296757,0.8041453105047052,-1.1526613235473633,-1.9654528566706364,4.147229773233444,-3.62528195003652,-1.3825414307709942,0.14333477288289015,1.0,0.49099541896508625,0.5016073775629547,0.32010957027161235,0.6111290234006953,0.5870980864145011,0.5306327336908936,-0.016311211526828698
7.800000000000001,0.2993227383515867,0.40916768590512687,0.1958403821040558,0.020594025293432267,-0.01975131900227966,-0.018545412896413507,0.4340131670777458,0.4061954295659399,0.8041379505494728,-1.1526412054540178,-1.9654746468854205,4.147222995758057,-3.62530579189443,-1.382526436230849,0.1432947203160783,1.0,0.491002573617875,0.5016043084373258,0.3201110918943889,0.6111292685134647,0.5870905738257948,0.5306404636985547,-0.016320955146057546
7.9,0.35886592566706776,0.5967221755441319,0.1926460136595557,0.025638893498386692,-0.019833118782902042,-0.013675624265012898,0.4340098412589128,0.4062079872659547,0.8041334009285352,-1.152622842986507,-1.9654354778586944,4.147202302347897,-3.6253027645408236,-1.3825238608285408,0.14332752452722386,1.0,0.49099473703580826,0.5016180746366692,0.3201241622363743,0.6111153154947209,0.5871007447553958,0.5306454260359382,-0.016316203681778493
8.0,0.07219076781521891,0.5888469198375429,-0.00835843719957901,0.02434156381034789,-0.013111531120284955,-0.021712105693849102,0.4338106455874958,0.40602699439681983,0.8043322369004893,-1.1526297685419193,-1.9654415871982087,4.147202235886054,-3.6253130898445236,-1.3825179223933468,0.14336039381365293,1.7909288895300408,0.49099384108338456,0.5016339550649276,0.320117935118514,0.6111153279674569,0.587092908497495,0.530653467915521,-0.016336147171559814
8.1,0.03171403254291988,0.5255411879600485,0.048826085134973246,0.021749646174149786,-0.01279641532741891,-0.018008281614910554,0.4338547556683636,0.4060402430796577,0.8043017323222941,-1.1526438524495282,-1.965477089397999,4.147223154254523,-3.62529951376314,-1.3825505415545862,0.1433242562802381,2.0,0.49099826724027473,0.5016290266507981,0.32012581970399184,0.6111297537791298,0.5870769421450656,0.5306542209340928,-0.016345820636819046
8.200000000000001,0.33214630091517877,0.4514723818802461,0.09614960694633944,0.019435636557616667,-0.02207074862165844,-0.02020857221409269,0.43413816686819745,0.4062445362417168,0.8040456619703363,-1.152633356354354,-1.9654211418945209,4.1471991539001465,-3.625287392425345,-1.3825362674206003,0.1433103496949151,2.0,0.4910029567075218,0.5016122416050536,0.32014546794923776,0.6111309655616507,0.5870620846935963,0.5306696623292416,-0.016332823707552086
8.3,0.21598532034502999,0.2826822767288679,0.27279991089983835,0.023917109971674122,-0.01934783162749488,-0.017184403610622935,0.43418029307393496,0.40631330612348604,0.8039881625124757,-1.152622241884718,-1.9654623470702113,4.14719291388438,-3.625290831407213,-1.3825326206104716,0.14332167368062396,2.0,0.491009721721413,0.5016074757526626,0.3201476760679227,0.6111201934807964,0.5870668821656493,0.5306768440294635,-0.01633010089454983
8.4,0.10888359575557333,0.48411913318244604,0.03530374529947562,0.02138523991516337,-0.01788805224191972,-0.019181274364778497,0.4340724415429696,0.40622895787142027,0.8040889828820095,-1.1526170853162123,-1.9654600803039814,4.1472103729478205,-3.62531657944027,-1.3825390974627894,0.14329535037517482,2.0,0.4910047372077356,0.5016171973648885,0.32013937261633324,0.6111131558295984,0.5870841258559603,0.5306661225495588,-0.016321958159141926
8.5,0.17720188978669138,0.2802518407138429,0.06624631551967247,0.01687894895565323,-0.01847470480511017,-0.021871944228371038,0.4341683510526265,0.4063050028128714,0.8039985626088051,-1.1526202659108338,-1.9654504261412562,4.14722540476431,-3.6252888522024476,-1.3824984650543517,0.1433396339416504,2.0,0.491008382544453,0.5016027898405905,0.32013436761972675,0.6111387192008881,0.587066548111283,0.5306558855906705,-0.016329882736325154
8.6,0.23227265352717835,0.6078425669961893,-0.04244483988432432,0.02678452381634257,-0.0211393774491614,-0.01820982470959023,0.4347225393114084,0.4067915366629769,0.8034531029495494,-1.1526220067584094,-1.9654319265835722,4.14718786733248,-3.6253047234343847,-1.3825462677144051,0.14331792900383075,2.0,0.4909971639219606,0.5016146368498648,0.3201122614208094,0.6111377864718549,0.5870811859225602,0.5306407983736076,-0.016328814514902947
8.700000000000001,-0.030950698816057665,0.6007332152865239,0.13793019327776962,0.028269064500007865,-0.015169080400467421,-0.025329216573939793,0.4342528013248454,0.4063815981057491,0.8039140030533848,-1.1526478720776332,-1.9654385052123011,4.147213559044193,-3.6253037008757496,-1.3825369228033617,0.1433318950500561,2.0,0.49099698961131155,0.5016058082099415,0.32012430521526625,0.6111280385455078,0.5870882450478022,0.5306443928381974,-0.016323032181344385
8.8,0.3552436152940033,0.44279856772733506,0.1725208835443931,0.018496555267093998,-0.020837998793938557,-0.023507885110086984,0.43371982193116104,0.4059162901537597,0.8044370595945394,-1.152637964353203,-1.9654563895190296,4.1471991539001465,-3.6252640657297914,-1.3825207421454944,0.14332473423710443,2.0,0.4909926377500795,0.5016155419772195,0.3201321529928154,0.6111243970999478,0.587083451032204,0.5306535936961997,-0.016332675550925276
8.9,-0.00725956532350415,0.6008158288018954,0.06512392350490356,0.0013583694007303791,-0.021942129705504812,-0.019102920481762896,0.4334496161434108,0.4056632062491253,0.8047102629637741,-1.1525991907348778,-1.9654654772836158,4.147219990753189,-3.625303261605689,-1.382532711827444,0.1433315683592992,2.0,0.49099116353739775,0.5016252152093128,0.3201236626341751,0.6111317456261571,0.5870796014592554,0.5306491057823542,-0.016341896179929302
9.0,-0.18036907133532207,1.1771739676217052,-0.13849320615118343,-0.03363513589275542,-0.032031831480379115,-0.019665730819130183,0.43319785575139513,0.4054250194134865,0.8049659278872611,-1.1526462332519962,-1.9654774240156931,4.147188579235818,-3.625263367126067,-1.3825063638037371,0.14334278995817723,2.0,0.4909998670809726,0.5016123081020746,0.3201251192862797,0.6111309180887928,0.5870801655866598,0.5306499225823824,-0.016326046490220066
9.1,-0.15117513892940654,1.983542408331166,-0.450889885098001,-0.07325446738932134,-0.04444915663882705,-0.011448068461270089,0.4340704533684772,0.40617805259177336,0.8041135237312853,-1.1526352087656657,-1.9654533070324203,4.147220230102539,-3.625300030112102,-1.382511897876557,0.14333675305048624,2.0,0.4910192999464542,0.5015993427003054,0.3201227986661494,0.6111393958743165,0.5870683101975378,0.5306537705369124,-0.01630992909675425
9.200000000000001,-0.035841757160999535,2.560061652508383,-0.6825710748936373,-0.12583096950354855,-0.06599982034838203,-0.006401748591388952,0.43503215624653974,0.4070096398580956,0.803173305210391,-1.1526551095882165,-1.9654233478462904,4.147198347003073,-3.6253025554573743,-1.3825115423306653,0.14328637271350408,2.0,0.49102428048226576,0.5016001931782904,0.3201501020695303,0.6111382247755601,0.587050645312631,0.5306746827558579,-0.016309234751203786
9.3,-0.5014816838727836,3.357154470878403,-0.8175400572030175,-0.18661674472752401,-0.08909496070578168,0.00966323606961116,0.4366024767269702,0.40841135090590225,0.8016051248217096,-1.152634928492015,-1.965432242941311,4.147166170657038,-3.6253026607589347,-1.382514526746434,0.14332458187720018,2.0,0.49102321018762896,0.5015896455523887,0.3201396802342612,0.6111418321187144,0.5870579697600045,0.5306625632397761,-0.016304758557969014
9.4,-1.2440079682320837,2.7433300976600608,-0.7958957792923443,-0.17574219951597184,-0.135960459109405,0.015602733983359087,0.43903058833163267,0.4106165995404764,0.7991518893270835,-1.1526200784279612,-1.9654177588334383,4.147186524345634,-3.6252876800073803,-1.3825091726160224,0.14333653846260314,2.0,0.4910149325579155,0.5016005169166123,0.3201498276629947,0.611131899083096,0.5870605492494781,0.5306709228625186,-0.016312114094524238
9.5,-1.051249122823395,3.1174134886469056,-0.34075131938985903,-0.22220140993515053,-0.16780629440325298,0.026770473600889234,0.44449642107751536,0.41553794718771897,0.7935076467272507,-1.152613639831543,-1.9654321578318878,4.14720495039063,-3.625285897558598,-1.382542271152996,0.1433245393224887,2.0,0.4910063698934696,0.501599920377281,0.3201444395023446,0.6111327672343201,0.5870744362474798,0.5306543683765872,-0.016318346732176966
9.600000000000001,-1.3700503621649323,4.235977480834352,0.3868881638574574,-0.30091112739564085,-0.18524351289526733,0.027942320592811785,0.4503052267334529,0.4207659551039808,0.7875031245158276,-1.152616734251057,-1.9654559003628906,4.147193460709647,-3.62528195003652,-1.382514778767721,0.14335380573857945,2.0,0.491007098531642,0.5016034299901592,0.3201455195582854,0.6111337839933516,0.5870668740016476,0.5306612137465825,-0.01632971943742467
9.700000000000001,-1.3330983936374594,5.441112052778578,0.9264185020421217,-0.35990833578844195,-0.19500081696823662,0.03254765557431167,0.450791058394909,0.42118851430659243,0.7870117984632038,-1.152654290728403,-1.9654554067883427,4.147196963517508,-3.62528195003652,-1.3824836428354348,0.14330117342742899,2.0,0.49101507808758854,0.5015936531104058,0.320114618365659,0.6111413951507315,0.5870733235595182,0.5306459589099072,-0.016308715172689794
9.8,-1.4280424001970304,5.75706532679662,1.4733344137203266,-0.4143139833518455,-0.2146069815596379,0.04037254033608419,0.4506277893935443,0.42102508155274976,0.787192769379276,-1.1526348489218634,-1.9654527405293911,4.147196490762064,-3.6252787478562465,-1.382500543450631,0.14334515051005867,2.0,0.4910202268868642,0.5016072891366137,0.3201339450940103,0.6111335996953356,0.5870597255385055,0.530670002069589,-0.016308000415084473
9.9,-1.3847589202286872,6.169792610387866,1.8053286790526928,-0.4495109550673724,-0.22401195634487822,0.047213155670441175,0.45040873610163845,0.4208345149507457,0.7874200052747138,-1.1526319679706793,-1.965441098170453,4.147186756134033,-3.625243594291503,-1.3825182405555363,0.14329730004336888,2.0,0.49101607194064706,0.5016075647922916,0.3201280563574012,0.6111390194201218,0.5870598280733694,0.5306634786372588,-0.016313480477239167
10.0,-1.2945120465367825,6.2977794058223955,1.9832021817331422,-0.483287567700223,-0.24283611810907715,0.04333314170930966,0.45088455286860346,0.4213249326640671,0.7868851790875951,-1.1526286695584056,-1.965455944150451,4.147175312042236,-3.625255791629295,-1.382502857838766,0.14331579208374023,2.0,0.491001663085016,0.5016230783937055,0.32013348875872943,0.6111109536121196,0.5870784684719671,0.530674849620388,-0.01632416038496709
10.100000000000001,-1.4672787137390202,6.3845258550962924,2.350035221278195,-0.5100736179002725,-0.24911034594621037,0.04455494358451448,0.44962952060709344,0.4201697032881086,0.788217400064435,-1.1526468296696368,-1.9654416820726444,4.147201894010816,-3.6252795596885945,-1.382526699696676,0.1433189689440835,2.0,0.49101857073978944,0.5016006994094596,0.3201436775440909,0.611124005499447,0.5870642894923845,0.5306760442747086,-0.016306622521584102
10.200000000000001,-2.172598960446986,6.0216338873649855,2.0384173918588555,-0.4924035212136915,-0.2968828643982492,0.0431083888892385,0.44852877488986426,0.4191610368229989,0.7893832551440644,-1.152623378390644,-1.9654409398520765,4.147232229777315,-3.6252748983871155,-1.3825532007615984,0.1433301476524706,2.0,0.49101457243507635,0.5016168442602668,0.320169754837335,0.6111189690699167,0.5870481567812079,0.5306993113554024,-0.016318951853917706
10.3,-1.7447200939239658,5.751281285862144,2.1700686203920405,-0.5011454919877413,-0.26795653535174924,0.0483718037897539,0.4486141871165312,0.41926410771398354,0.7892797594047684,-1.152613639831543,-1.9654623470702113,4.147231189032886,-3.6252835741782636,-1.3825113925000463,0.14333624767397568,2.0,0.4910001254408546,0.501623610930922,0.320143395314471,0.6111213241631701,0.5870664904186745,0.5306760293953527,-0.01632834363114523
10.4,-1.5564471192192983,5.853381941549956,2.3259297114043176,-0.5123511573974466,-0.25906370186261835,0.04616539018299372,0.4492688254498829,0.4198636159612083,0.7885885001645021,-1.152628741127443,-1.9654536915020626,4.147181842763849,-3.625261373539416,-1.3825357014875508,0.14330025957125284,2.0,0.4909949177132264,0.501633251811199,0.32013986720141197,0.6111183036268624,0.5870716745887571,0.5306736083074459,-0.016333686471032234
10.5,-1.506437070544513,6.03878079239139,2.26183333613306,-0.5046023025246926,-0.2599394010917159,0.04890392605774725,0.4497428979185179,0.42026604729023165,0.7881038209663999,-1.1525904676900107,-1.9654707862414549,4.14720793063824,-3.625280474380699,-1.3825182605254325,0.14331874339538214,2.0,0.49101227353864263,0.501603562432622,0.3201472470614762,0.611129469481401,0.5870724373769269,0.5306605585670782,-0.016312461033582654
10.600000000000001,-1.464830594230448,6.0900600163298835,2.28846379822724,-0.5009950749341022,-0.2582083003306793,0.047517381947195673,0.44900719761683405,0.419588516459612,0.7888837556262572,-1.1525905413345707,-1.965453711423019,4.147178465912728,-3.6252581081786097,-1.3825422513332817,0.14330180607111853,2.0,0.491011845781764,0.5015940194817836,0.3201340828177926,0.611139677395068,0.5870698127217421,0.5306515511634101,-0.016317504471517454
10.700000000000001,-1.5870702889227777,5.872051603884,2.2237146720593066,-0.5016822242438256,-0.25619537027525313,0.04461587832846308,0.44894769283690045,0.41955733504762066,0.7889344311523041,-1.152634244188621,-1.9654385052123011,4.1472144443816115,-3.625293870965475,-1.3825359636878247,0.14331579208374023,2.0,0.4910126904392139,0.5016099236755742,0.32013500676851364,0.6111276236755436,0.5870686286302895,0.5306663874794719,-0.016329055646949663
10.8,-1.8278603173874248,6.0394801776417,2.285199224238186,-0.4914545951458483,-0.2529430582803113,0.045806274953036845,0.44909471631302317,0.41972003298050276,0.7887642252068711,-1.152627386909013,-1.9654419419816687,4.14721155166626,-3.6252904341961076,-1.3825459710015244,0.1433361971722829,2.0,0.4909941451701904,0.5016225433343865,0.32013831985889196,0.6111200917970965,0.5870730598590886,0.5306699600584741,-0.01633552206490645
10.9,-1.6422876849457564,5.786597958689591,2.285275463609884,-0.4985886702789011,-0.2552917598713135,0.043214318040440645,0.4491111817485147,0.4197683781495129,0.7887291390266608,-1.1526283471309777,-1.9654471076436273,4.147205790895404,-3.62530579189443,-1.382511460270092,0.14333766850558194,2.0,0.49099554077978685,0.5016316863087816,0.32014037439270776,0.611111531087728,0.5870790763173936,0.5306731551510452,-0.016335762117625816
11.0,-1.536951618667087,5.805355819496997,2.1719297789420513,-0.4912619953129659,-0.26073072640162914,0.044810551038358744,0.4490278325317844,0.41969997713987295,0.7888129391914624,-1.1526205838552535,-1.965464690855673,4.147206676592499,-3.62533490641065,-1.3825630475709278,0.14334452351422045,2.0,0.490972830506351,0.5016455259395356,0.32015065704907847,0.6110998845477698,0.5870888576612462,0.5306756854769461,-0.01633772197367881
11.100000000000001,-1.6282037471511825,5.790801466406984,2.0836408996745885,-0.4902272776633715,-0.2617025030633181,0.04483590310021412,0.4487784322393345,0.4194156032298606,0.7891060806700303,-1.1526089961320067,-1.9654385052123011,4.147223955911786,-3.625290329094506,-1.3825303832424838,0.1433383386256024,2.0,0.4910068653216056,0.5016263614337912,0.32016098549378114,0.6111165752513429,0.5870645278801556,0.530683709572617,-0.016327031333521216
11.200000000000001,-1.7562891219295158,5.667595490371668,2.184671224666896,-0.4851453208103684,-0.26114059266563105,0.041344936828904964,0.4489005401931011,0.41954505702330525,0.7889677751860638,-1.152648293741904,-1.9654471686898913,4.147226122911367,-3.6253288714149394,-1.3825300874460955,0.14333637649028555,2.0,0.4909945059795916,0.5016285703905591,0.320132908392797,0.6111187661329183,0.5870828471882068,0.5306607550744438,-0.016332398519179312
11.3,-1.479991561243387,5.690770598616893,2.3980362356316287,-0.4822494771711713,-0.26699083496247655,0.042092003938812204,0.44916597306091344,0.4198207898695808,0.7886699472131521,-1.1526102655604793,-1.9654553173388285,4.147206183631529,-3.625268652775684,-1.3825461271941721,0.14331579208374023,2.0,0.49098787257050536,0.5016266004208711,0.3201176787903402,0.6111239041240912,0.5870913343589884,0.5306456871389261,-0.0163246332138924
11.4,-1.305180054270074,5.7746047206389886,2.477326761152703,-0.4986598113665362,-0.25393624134562487,0.04411652964318746,0.44953933285419734,0.4201815441215535,0.7882650114412888,-1.152600793169486,-1.9654350185728786,4.1472061271789915,-3.6252903843260524,-1.3825319847183675,0.14331399370147133,2.0,0.4909813189552504,0.501634139374537,0.3201225593076971,0.6111141485044975,0.587092027704261,0.5306553396628586,-0.016351115895189804
11.5,-1.5166557108545051,6.511979055395402,2.7811437876098615,-0.5122360618508474,-0.2482642243115017,0.04696114083660251,0.44958243719442764,0.4201862143052712,0.7882380127374604,-1.152602195739746,-1.9654504261412562,4.147243101424461,-3.6252736215993973,-1.3825064503305984,0.14331205589223436,2.0,0.49099430482053436,0.5016237387931701,0.3201529394422802,0.6111085379978853,0.5870816070259121,0.5306741025737571,-0.016326001822162647
11.600000000000001,-1.2887773207201156,6.9008838188610095,2.8865530334006895,-0.5450288302562222,-0.23627091284751617,0.050842718324446326,0.44961782569440556,0.4201782345802994,0.7882220325933731,-1.1525999109538363,-1.9654361252269783,4.147221718591677,-3.6252708294367864,-1.382526699696676,0.14330988215929696,2.0,0.49101044576951436,0.5016128036899679,0.32013277752995034,0.6111235861571831,0.5870770604371833,0.5306623573946735,-0.016307973361149735
11.700000000000001,-1.0657906725990998,6.773956225842893,3.028507835941588,-0.576399640526461,-0.23425810320001578,0.05704062193478481,0.44992987567072507,0.4204557730389665,0.7878959064444975,-1.1526211865962996,-1.9654385052123011,4.147222995758057,-3.6252591443507045,-1.3825064860910528,0.14329628294314478,2.0,0.49100677489421335,0.501614350702516,0.3201444483664167,0.6111204315309191,0.5870662733318355,0.5306773692418998,-0.016326011644929753
11.8,-0.9944366046886091,7.1156952941206555,3.087441101226509,-0.5799697383347528,-0.23218868653429586,0.05893027947893117,0.449932056958377,0.4204686774744926,0.7878878152342532,-1.1526362386687492,-1.965457764789552,4.147222412865737,-3.6252654468269054,-1.382514778767721,0.14329987176644501,2.0,0.4909945917311774,0.5016319069422791,0.3201352697988593,0.6111130322341828,0.5870833605270521,0.5306670883606605,-0.01632271290641265
11.9,-0.9137717577183146,7.290111597851085,3.2071313807810022,-0.588058182137142,-0.23324672894361323,0.06402157666955387,0.4498269161979595,0.4203899267464253,0.7879898744271306,-1.1526326041642196,-1.9654668467088243,4.147220620945148,-3.625293870965475,-1.3825217521697815,0.143299371516172,2.0,0.4909960682449087,0.5016208611817897,0.32017009985649825,0.6111123534733549,0.5870699861963571,0.5306822234334722,-0.016337088827965283
12.0,-1.184757645429953,7.541126613082803,3.1661124662721587,-0.6032384647963046,-0.22893170035890514,0.06341112522023631,0.44929162201366,0.4199050501261799,0.7885530990488048,-1.1526315980285178,-1.9654623470702113,4.147202031050999,-3.625299528331759,-1.382526699696676,0.1433044773511724,2.0,0.4909851688047913,0.5016372353106827,0.32014944530434597,0.6111070073829776,0.5870808639375281,0.530676139019705,-0.01634381231308321
12.100000000000001,-0.8693553845543992,7.287139464743781,3.423625454184291,-0.641263516626131,-0.2365484010942114,0.06841707875005479,0.44889579445551897,0.41953862408696246,0.7889737715962015,-1.15264636958848,-1.9654284742117771,4.147221375819401,-3.625297245837673,-1.3825356550931471,0.14332265070439784,2.7836185131723514,0.4910076480853528,0.5016232308010472,0.3201225587208143,0.6111228498888814,0.5870746755118805,0.5306656122372044,-0.01631550505576695
12.200000000000001,-0.7807919501410961,7.544451213427578,3.9049288268687707,-0.6400525426120713,-0.20142657922751966,0.05530539337925679,0.449491051024465,0.42006335806556777,0.7883553911054622,-1.1532122387166373,-1.9648819106105218,4.147268783881967,-3.6253570934013184,-1.3824816800976076,0.14335405293783055,3.0,0.49100432261376165,0.501608571268888,0.32013008023146705,0.6111312140829112,0.5870696493881836,0.5306613667985763,-0.016321143595016713
12.3,-0.36971544250524674,7.549011796023782,4.553067109727714,-0.642484063983461,-0.16214823559130478,0.004341266922698377,0.4495966358496272,0.42019271873744046,0.7882264507681814,-1.1543026833240744,-1.963637924963838,4.147430508571627,-3.6253696449345414,-1.3823578993426722,0.14341835758341867,3.0,0.4908060630540677,0.5014241133103918,0.3202477053437309,0.6111115356142635,0.5871121140286693,0.5306368086260266,-0.016328929271366595
12.4,-0.1792830107395749,7.139634791617542,4.4917675037374005,-0.6231370809385802,-0.1727220925541967,-0.023869639452372565,0.4494266193974681,0.42008685789368644,0.7883797096506777,-1.155342119219065,-1.9623190236471235,4.147650250435949,-3.625470773259097,-1.3821747895818512,0.14348890543252266,3.0,0.4906509144069238,0.5012297660467616,0.32038762251184144,0.6111025039912944,0.5870972133582351,0.5306641280370712,-0.016314867367521416
12.5,-0.5312131958647726,6.952948266456621,4.369541027874112,-0.6144437456939388,-0.1723403475367127,-0.049562682602365314,0.44894029994922025,0.41967874004819455,0.7888739624444546,-1.1564879385295905,-1.9613203027016564,4.147806893537941,-3.625609618149313,-1.381982868523922,0.1436194625113284,3.0,0.4903032646347056,0.5009081898368878,0.32072641765195314,0.6110673186543775,0.5870654826705509,0.5307384816366018,-0.016355893109742697
12.600000000000001,-0.2004669335645793,6.976041481970997,4.601080544322888,-0.6136511722956868,-0.16228473499472834,-0.0839711606666837,0.4491384069780576,0.41982065686487546,0.7886855927504102,-1.157591329844652,-1.9602595700278378,4.1480185056442425,-3.62569777927535,-1.3817947546588343,0.1436996664237516,3.0,0.48986102440280305,0.5004421560235901,0.3209159205443104,0.6111188893016848,0.5870795819931882,0.530664138118345,-0.0163352398357813
12.700000000000001,-0.33326633981454257,6.991400957980035,4.730265014197984,-0.5936981130242871,-0.17462404975697174,-0.11258987553777164,0.44952110095665293,0.4201144837819713,0.788311231502878,-1.1587185361190802,-1.9590605621240869,4.148218137661426,-3.625784667128558,-1.3816638225771023,0.14375507447640073,3.0,0.48968318393884763,0.5002726127372764,0.3210174620822871,0.6111268986217858,0.5870893285825134,0.530644480544191,-0.016323887816227126
12.8,-0.22155551612802368,6.740974588543779,4.950624902976812,-0.5689172944715439,-0.1770431920611573,-0.13883366434018912,0.4494677663580118,0.4200726855732719,0.7883639125929124,-1.1597243230179168,-1.9578137915693843,4.148394081983429,-3.6258646192086688,-1.3814876973641268,0.1438421815536335,3.0,0.48939043126983744,0.49998363128518364,0.321204340548544,0.6111287366491022,0.587095151285383,0.5306357032140809,-0.016330984457873975
12.9,-0.28448978614580533,6.383812140189803,4.773705011807533,-0.5518805583891803,-0.18220995023619438,-0.1614330469993415,0.44936422234515055,0.4199845454382676,0.7884698481591971,-1.160771666699384,-1.9566262521711928,4.148607508167665,-3.625958624589967,-1.381310245480143,0.14392479838667965,3.0,0.48887616804996675,0.4994626935262069,0.3216178141722883,0.6111122079326228,0.5870819970777548,0.5306695238786268,-0.0163234325232657
13.0,-0.5177381348277218,6.173187047683404,4.824963867189033,-0.5340484787524188,-0.18390354798754946,-0.1862434256645653,0.44904108833826567,0.41969372969992524,0.7888086912449814,-1.161943396598272,-1.9555326724768292,4.148806095123291,-3.626069089456518,-1.3810842868284483,0.144037365432297,3.0,0.48872373324971735,0.4992953211504266,0.3218000830339868,0.6110890081482748,0.5870532367722896,0.530727638243264,-0.01633693117640983
13.100000000000001,-0.6228788658679593,5.86058767937357,5.126222692666688,-0.5242950276786267,-0.17338819667404212,-0.2065643334320651,0.4494963939286178,0.42010923076828555,0.7883278019126629,-1.1630709914429045,-1.9544252039224597,4.149035803171933,-3.6261336082882973,-1.3809480346882357,0.1441200098164528,3.0,0.48825425514301674,0.49882890302843097,0.32201719891530545,0.6111194033385383,0.5870957111126425,0.5306460346740274,-0.016324421613660108
13.200000000000001,-0.7874902549262455,5.7287521792378255,4.865532006876093,-0.4906470710982011,-0.21106588334308599,-0.22273551282081275,0.45003218985496923,0.42061118796497793,0.7877544217278448,-1.1641640920883816,-1.9532014793451904,4.149214267730713,-3.6262880764403285,-1.3807672218782978,0.14422258764400395,3.0,0.488081385146565,0.49868402863682576,0.3221163360158995,0.6111185746021855,0.5870930438341717,0.5306499565275887,-0.016323887251156258
13.3,-0.5741585022277326,5.7386826462365566,5.259379419701376,-0.4765172101270496,-0.1969706570002591,-0.23765274457313038,0.450275531947144,0.420847948872527,0.7874889227191879,-1.1651095274593313,-1.9520393460251295,4.149378422884988,-3.626383443871969,-1.3805726210223597,0.14427635380391973,3.0,0.4877482104884206,0.4983492057334839,0.32230740694591187,0.6111164659495933,0.5871192929108678,0.5306234735467561,-0.016319628007325428
13.4,-0.6524470082592703,5.547763023541017,5.281631711799974,-0.4692959407582893,-0.19012861052875057,-0.2337022496902043,0.44977498410899597,0.42036437285921363,0.7880329473675453,-1.166089798728515,-1.950922989157542,4.149590460523338,-3.626470821193818,-1.380444944785859,0.14436018158210293,3.0,0.487448516164261,0.4980232419928446,0.32256915174727907,0.6111184439805031,0.5870933376780997,0.5306497863641421,-0.01632374076393507
13.5,-0.7314591547303121,5.1130947981606445,5.012044237107535,-0.45995127551669857,-0.1914600699501667,-0.2225074304370826,0.4496428762880455,0.42022135323836013,0.7881848021563431,-1.1672654314373192,-1.9496887180169948,4.14973656048448,-3.626557666066194,-1.380281171117427,0.14445970818060072,3.0,0.48698596058355637,0.4975724230311136,0.32292841011156387,0.6111059632382293,0.5870793710526149,0.5306790026250945,-0.01634349876792343
13.600000000000001,-0.9038430170076496,5.571669981026134,5.169242297167493,-0.4593082442657043,-0.19226494713228978,-0.22021229618511357,0.44973090070904376,0.42028180620105604,0.7881023468094882,-1.1684671388715617,-1.948479791680807,4.1499205873004845,-3.626700717131517,-1.3800909890871396,0.14453878535329182,3.0,0.4868167695682455,0.4973572127430348,0.32301957044078455,0.6111302313190217,0.5870783680765901,0.5306530144673764,-0.016315892288602814
13.700000000000001,-0.6157820227227736,5.559853932215519,5.076690292035053,-0.4664552775875879,-0.19961362140539762,-0.2111898412366589,0.4496177382835808,0.4201747815537296,0.7882239235720275,-1.1695606747329115,-1.9473341918555742,4.1500960317147415,-3.6267870404871325,-1.3799536389044063,0.14464320643136533,3.0,0.4863433444300356,0.4968793148771594,0.3233418956691231,0.6111217817935258,0.5870879581271363,0.5306520789457342,-0.01631773115927828
13.8,-0.655043448539613,5.811964186999679,5.193129895980538,-0.464098918935179,-0.18975951441075883,-0.21456764602201492,0.44939051906852473,0.4199809085686499,0.7884568432332797,-1.1704223789458958,-1.9462911559628355,4.150297385290077,-3.6268947883757803,-1.3798020053365225,0.14467852242461335,3.0,0.4861648943190009,0.49668802966425246,0.32346073715357176,0.6111329404184972,0.5870803863164559,0.5306471166593351,-0.016333607044881526
13.9,-0.909281377639428,5.827391857566929,5.388268006103412,-0.4591466157587605,-0.17960114945561148,-0.2114878929438778,0.44920357748802625,0.41987126264842645,0.7886216786071079,-1.1713607015137075,-1.9452180141162567,4.150492325329572,-3.627042432824606,-1.3796341861481245,0.14477874783199893,3.0,0.4858880360677757,0.49645407761668736,0.3236579404783927,0.6111097917652817,0.5870918760562941,0.5306606233562144,-0.016347914132674383
14.0,-0.8088958712073018,5.271020330942635,5.174608273023044,-0.43256865560945756,-0.1963061130590042,-0.21467994433825455,0.448694445842498,0.4193786312745493,0.7891732992811713,-1.1725602081963549,-1.943928473317855,4.150637541135835,-3.6271484973745776,-1.3794820944415491,0.14489584580183168,3.0,0.48547216429522233,0.4959914056473069,0.32400348961673275,0.6111034924392218,0.587071779843302,0.5306905697105048,-0.01633297463855284
14.100000000000001,-0.7751564434818524,4.739652333070779,5.440758341645298,-0.4100161680997262,-0.2073137336757494,-0.21619675646722697,0.44834846189097444,0.41903543006718796,0.7895523542893884,-1.1737097149115534,-1.9426914139263085,4.150828225642543,-3.6272300260575503,-1.379315201436178,0.144963572547256,3.0,0.485308124098611,0.49581248895128666,0.324168699247116,0.6111073413950734,0.5870354696519645,0.5307255810455545,-0.016356414258667448
14.200000000000001,-0.9280509209347441,4.838150643838085,5.760214815437629,-0.3911257645491093,-0.2024261689849906,-0.22610149606055113,0.4478005958574765,0.4185558722849539,0.79011720666498,-1.1748654154333802,-1.9415419597164316,4.151023675435986,-3.6273412511874095,-1.3791354338275355,0.145050048828125,3.0,0.4849821767353145,0.495476004920972,0.32436195013376207,0.6111101922846089,0.5870537454158737,0.5307021487994668,-0.016354269738864793
14.3,-1.0464449242713139,5.01596753391619,5.963630218886428,-0.37915272372844006,-0.21478771011361014,-0.218837048366008,0.4482373801136844,0.4189720335668821,0.7896473045603174,-1.1758187888397733,-1.9405312168488427,4.151207198273621,-3.6274734936156214,-1.3789798363340078,0.14514913075860403,3.0,0.484637484897907,0.49510036471376045,0.324553289026709,0.6111213201592616,0.5870781016472977,0.5306632188284212,-0.01632736340215659
14.4,-1.3267420524227276,4.811498624667294,6.066654287202236,-0.34919297108689445,-0.23101261642410081,-0.22054129342567905,0.44945200200912566,0.4200702763535401,0.788374108630678,-1.1767872075294328,-1.9394622024891672,4.151407718658447,-3.627568861047262,-1.3788054550612363,0.14523238192111879,3.0,0.4843062519051665,0.49478654988804793,0.3247395390288096,0.6111213989558079,0.5870968311252032,0.5306423653314469,-0.016328708965751074
14.5,-1.3858104829535753,4.1225244893210204,5.865354465174151,-0.33421759084222225,-0.24098749598776426,-0.22023299363077017,0.44877951321034376,0.41944656220328175,0.7890886434952327,-1.177832712563578,-1.9380884472202564,4.151577337844527,-3.6277041608245777,-1.3786405249785016,0.1453334120757118,3.0,0.48393961873906743,0.4944262450695711,0.32500494829432974,0.6111219028833259,0.5870894747224696,0.5306496426182564,-0.01633784794501421
14.600000000000001,-1.3746135707917266,4.1819005762822945,5.901955274840367,-0.31930028165577273,-0.24026639419225632,-0.22634236923295534,0.44818271392529635,0.4189110127940914,0.7897122219209268,-1.1790351701023252,-1.9368158553898505,4.151778681302276,-3.6278402372849357,-1.3784358019271399,0.14540833310841034,3.0,0.48355512178775634,0.4940390650024097,0.32535686080109666,0.6110890548516043,0.5870683541257941,0.5307099480911619,-0.016366600797973845
14.700000000000001,-1.2262927764311455,4.013977653540219,5.920119077016497,-0.32832656020753875,-0.23266731329445173,-0.22649815116467029,0.44764732969027554,0.41844582262703733,0.7902625551481532,-1.180178871080497,-1.935790355560368,4.151970968367178,-3.627939840356344,-1.3782929419644667,0.14546871185302734,3.0,0.48332570300559063,0.49378371943632293,0.3255258457099505,0.6111022307526972,0.5870581848028456,0.5307063769780158,-0.016355202839883284
14.8,-1.1265077528436798,4.0194374280323775,5.986228020980693,-0.31970133661922506,-0.24307089161036022,-0.22358418275167133,0.4471181713005683,0.41796367903722564,0.7908168603099829,-1.1811001113575674,-1.9347581230803628,4.152174472808838,-3.628071447412008,-1.3780969243436298,0.14556006205141117,3.0,0.48306994204379927,0.49350181330150833,0.3256096764393145,0.6111282403943901,0.587089948978466,0.5306422005871161,-0.016325457328414873
14.9,-1.0976689351808686,3.9637482370517505,6.134946295873069,-0.30970919615071074,-0.23569161048658605,-0.22820009831349056,0.44680832561006856,0.41767760447943086,0.7911432963451703,-1.1821205613802037,-1.9335986576476039,4.152346538093554,-3.628167768517965,-1.3779166315808797,0.1456398899225337,3.0,0.4827837863214156,0.4932078509390018,0.3257460794201732,0.6111369840048735,0.5871101204467695,0.5306104049667921,-0.016306176479615766
15.0,-1.165980358559741,3.7723717326168975,6.147375534080159,-0.30337855037970024,-0.230940728963766,-0.2303444207701323,0.44668790860100616,0.4175604694502223,0.7912731290803119,-1.1830376059710581,-1.9323221611017143,4.152578348266538,-3.628372017954748,-1.377721134816305,0.14572779408962355,3.0,0.4824703531034496,0.4928999317890672,0.32600135180179324,0.6111260114697609,0.5870907444044203,0.5306443533075096,-0.016310310928393044
15.100000000000001,-1.3812326642762123,3.706361832219654,5.872156333883991,-0.294179259305695,-0.2512041969177815,-0.23179812980672937,0.44657340835533665,0.4174336194457145,0.7914046631169185,-1.1840387987803265,-1.9310329558297121,4.152761936187744,-3.628559092113127,-1.377545341616651,0.14582729454500126,3.0,0.4820664658071299,0.4924811666536916,0.3263765912528571,0.6111183106327807,0.587058099333508,0.530688805155425,-0.016327599302183735
15.200000000000001,-1.6247646112114578,4.109108808420335,5.401002426193756,-0.3124098799764708,-0.2526511802935251,-0.2207419014549641,0.4466220262001183,0.4174597459533088,0.7913634227994314,-1.1840286440844214,-1.9311021570520641,4.15279690616143,-3.628585477868551,-1.3774988193181765,0.14583936301489175,3.0,0.48169107811680967,0.49212522836007866,0.3267347080650487,0.6110874347748567,0.587033369026766,0.5307514346341071,-0.016336625820743286
15.3,-1.5254774991776954,4.128417789171271,5.426521070459589,-0.31766565724195384,-0.24294675039331418,-0.21814300439207018,0.44682877660090264,0.41763417340533043,0.7911546887959345,-1.1840196565931649,-1.9311640748318277,4.152780669046929,-3.6285746213994194,-1.3774994424662428,0.145865843348806,3.0,0.48167820904213554,0.4921124447802389,0.32672462305116806,0.6111087163074448,0.5870388905453059,0.5307211197720864,-0.01632699814008878
15.4,-1.5988089338625637,4.378486162702969,5.324143899081609,-0.31872338235337655,-0.24773372374492644,-0.2208850706992497,0.4459121792169743,0.41682284766417654,0.7920976121939439,-1.184026373296626,-1.9311744167434928,4.152761628604871,-3.6285582965669207,-1.3775232466038443,0.14587783971837853,3.0,0.4816934075797314,0.49213197541599835,0.32672613873513295,0.6110995119264968,0.5870273217857913,0.5307441576637197,-0.016338577233867387
15.5,-1.4582047722077929,4.008871426085117,5.327036208941961,-0.3290245970523909,-0.23944777989880972,-0.21571845897599076,0.4449955716555284,0.4160115129921104,0.7930405460259556,-1.1841144561767578,-1.9311744181508617,4.152788637837478,-3.628549715081686,-1.3774946371661585,0.14586353486670728,3.0,0.4816929434490025,0.4921373929112795,0.3266719612669226,0.6111156010891865,0.587052907526608,0.5306973734279758,-0.01633718784264232
15.600000000000001,-1.5383300038418588,4.366510619540654,5.435367287611026,-0.3232897684856758,-0.23722331081556822,-0.21415434415046633,0.4448008500409146,0.41582538696409205,0.7932473741913442,-1.1840848982777405,-1.931173972672472,4.152768675856621,-3.6285697102679992,-1.3775228025328234,0.14585065841674805,3.0,0.4816875804960924,0.4921339547086429,0.326642004180273,0.6111200405718885,0.5870568556086633,0.5306881104361567,-0.016330148069871972
15.700000000000001,-1.512639459821225,4.19889229799463,5.388063109824454,-0.32324891166452374,-0.2382743737063727,-0.21326771779147044,0.44444691855339835,0.41549532603017414,0.7936183917670387,-1.1840852027110467,-1.9311939678587855,4.1528132844417005,-3.6285578187834155,-1.3775389804919118,0.14588213472910877,3.0,0.48169576289601473,0.4921215328618717,0.3266605798853939,0.6111185936849436,0.5870472200347832,0.5307005872462698,-0.01632521358005842
15.8,-1.3700095416264972,4.02155025334169,5.23260557598596,-0.3275665812464087,-0.246034634881154,-0.21054879349296227,0.44391023377133065,0.41500039161225344,0.7941777730432689,-1.1841134008308882,-1.931170176836652,4.152797222137451,-3.6285736586111494,-1.3775665887412705,0.145897986282132,3.0,0.48168584406384296,0.4921167283786126,0.3266544386657673,0.611129824146391,0.5870493008461688,0.5306851663865424,-0.016331276499808638
15.9,-1.4186198606136768,4.147220979931277,5.316571782123469,-0.3212093956609581,-0.2457070145057956,-0.2127369623798978,0.44384239740784664,0.41499589632011746,0.7942180623848245,-1.1841076069563232,-1.931152555606226,4.152773264901174,-3.628549353622895,-1.377542797719137,0.14585210425191206,3.0,0.48167289789758305,0.49215017503298336,0.3266237073889739,0.6111119689292037,0.58708360503702,0.5306676873462469,-0.016334250359117463
16.0,-1.4168183555729632,4.319864237102311,5.365686436302285,-0.3184257395441663,-0.24526167733230753,-0.2142203237852804,0.44368658734445615,0.4148743515387241,0.7943685299928035,-1.1840896606445312,-1.9311820469298304,4.152784824371338,-3.6285982644552273,-1.3775244834968439,0.14585705171008623,3.0,0.481661195410242,0.49213834344546437,0.3266036438121461,0.6111311621216647,0.587085763435637,0.5306427487777851,-0.016348768289250713
16.1,-1.5768962166461264,4.176050029298277,5.251699151286808,-0.31891519653655714,-0.24036930671958429,-0.21181165246131628,0.44340522479405636,0.4145915838425637,0.7946732652446186,-1.184080674522868,-1.9311820469298304,4.152801222009534,-3.6285789170138396,-1.3775222362885826,0.1458555790577817,3.6823262331723003,0.4816752088998138,0.49212607455449126,0.32661941733365013,0.6111328078101581,0.5870783986035006,0.5306496474150041,-0.01632779254991765
16.2,-1.453366276823487,4.195406836607281,5.4449182632014095,-0.3215656391516905,-0.2444424106814881,-0.2094166838245302,0.4435453984371149,0.41475337844057286,0.7945105448732785,-1.18411001848675,-1.9311664968178635,4.152805845553232,-3.628549715081686,-1.3775298434102625,0.14584236667080488,4.0,0.4816691621844392,0.4921449456857097,0.32664499299974153,0.6111163080341883,0.5870638121922853,0.5306841317547342,-0.016349029715808108
16.3,-1.4213549791640572,4.155087299339015,5.303097866672228,-0.32190223886852953,-0.24496119502998628,-0.21079557591694537,0.44371871390586937,0.4149501252118307,0.794311072419855,-1.1840826977022247,-1.9312058887877406,4.152801610655509,-3.6285466638202784,-1.377554718648092,0.14583873748779297,4.0,0.4816633217327027,0.4921459646809031,0.32663811673550575,0.6111061213054129,0.5870826947135495,0.5306748988812576,-0.01635144544982049
16.400000000000002,-1.4930627141811557,4.040947414066602,5.241097546529579,-0.32480337169294254,-0.2418879745046807,-0.21123386551339718,0.4434559857143595,0.41469272547400826,0.7945920832550054,-1.184077262878418,-1.9311939678587855,4.152821063995361,-3.628545903427137,-1.3775189558612269,0.14583111417869493,4.0,0.4816781403924544,0.49213719143410706,0.32662215471719647,0.6111177717471781,0.5870772162867994,0.5306680947751309,-0.01633353481152919
16.5,-1.584551841646449,4.074847170271901,5.300983668428371,-0.3231420880564024,-0.23944966649848828,-0.21332632086719633,0.44350613723955246,0.41471786800179405,0.7945508206220706,-1.184120293852914,-1.9311928046734543,4.152796012424707,-3.628561636010641,-1.3775439609044682,0.14581605881521387,4.0,0.4816726134747881,0.4921258596130814,0.3266311190480311,0.6111076837243237,0.5870991691281471,0.5306557637798642,-0.01632252643865121
16.6,-1.5604367713661202,4.171936382479852,5.231403420401565,-0.3199905338949146,-0.24107205041900542,-0.20876240395146606,0.4440604368194767,0.4152058277600983,0.7939863527499621,-1.1841159861878208,-1.9311753003454157,4.152782340685959,-3.628570969767326,-1.3775189558612269,0.14586673875784778,4.0,0.48168325307650695,0.4921353468987057,0.3266160405473234,0.611118645376717,0.587083147644526,0.5306608469642881,-0.016323128495059624
16.7,-1.6003713682333807,4.050835234262519,5.215807633273307,-0.3212983136086468,-0.2354469113673417,-0.20888716027065304,0.44367001920185395,0.4148575898254071,0.7943863757414895,-1.1841020584106445,-1.9311982211076129,4.152782782811901,-3.628561636010641,-1.3775406710947233,0.14587024702583082,4.0,0.481680116651581,0.49212550845143316,0.3266178645686153,0.611131171502935,0.5870726633994603,0.5306578661712535,-0.016328140649997994
16.8,-1.4012724424717082,3.9145087939028294,5.238942319448341,-0.3258798512277243,-0.24219393190904584,-0.20692154467199905,0.4433888487566428,0.41461107932819075,0.7946722446030032,-1.1841086444279003,-1.9311701260008753,4.152791959223365,-3.62857861743391,-1.3775377372248234,0.14584053742812075,4.0,0.4816835904883166,0.4921393956260625,0.3265923439107883,0.6111228363958178,0.587095302698279,0.5306422991834494,-0.016332014647596774
16.900000000000002,-1.4595044567207982,4.1276079594628,5.148905382464318,-0.31930086560869386,-0.24183699968087263,-0.2092718568635725,0.44343825606154125,0.414664974957187,0.7946165517717572,-1.1840679069222146,-1.9311950119265822,4.152785910201847,-3.6285626800784376,-1.3775199999290235,0.14588642120361328,4.0,0.48166059502612957,0.49215917138801996,0.3266236300464457,0.6111046973698439,0.5870919875346423,0.5306663299396179,-0.01634910681204085
17.0,-1.3722218573343545,4.064638435584376,5.101573669979417,-0.3215658511928452,-0.2460862011207686,-0.20417671950664412,0.4437572285946591,0.41495664388040704,0.7942855251711136,-1.1841171357862155,-1.9311980359879641,4.152784824371338,-3.6285654206812388,-1.3775349449193606,0.14585794429936308,4.0,0.4816780006898621,0.4921437798214651,0.32663270839145786,0.6111221386430519,0.5870667538874337,0.5306744512273424,-0.016339674261521386
17.1,-1.3979426654460183,4.176966421682719,5.103591137078909,-0.3175270643968179,-0.24425826818727567,-0.20758586822045338,0.4445104783994527,0.41563137236281034,0.7935109280144158,-1.1840898831429407,-1.9311816190482738,4.152820858612214,-3.6285848360462163,-1.3775423698375804,0.1458502305351914,4.0,0.48166966238072045,0.4921170609958527,0.32661590065792845,0.6111199312230459,0.5870950724850431,0.5306462316224668,-0.01632122515613001
17.2,-1.4047434160552403,3.8440452627075827,5.148937920035019,-0.3257994321290341,-0.24167922768821903,-0.20473744405458805,0.4449642804977607,0.4160414228536198,0.7930424461482254,-1.1840725080519026,-1.93119286765068,4.152808475687134,-3.628571356523385,-1.3775341774144985,0.1458820203711913,4.0,0.4816762571519149,0.49213356563793764,0.32662399478905896,0.6111096817564534,0.5870859310869175,0.5306682451578127,-0.01631808703436703
17.3,-1.2762435235623228,4.015959318941379,5.074669721912865,-0.3212612809219788,-0.24224380336719534,-0.2038637162128345,0.4449176167197335,0.41600911796771156,0.7930855736675981,-1.1840916507500263,-1.9311611902301626,4.152789839437185,-3.6285725618868487,-1.377564649471552,0.14586158429295565,4.0,0.4816702162194867,0.4921444184968079,0.32661074464066386,0.6111098817029239,0.5870921000812309,0.5306609280125736,-0.016326603690997955
17.400000000000002,-1.3920163907812406,4.007134515709161,4.987585972219067,-0.322434209956571,-0.24087065951088626,-0.20647290698403906,0.44471658004248404,0.41583199817913474,0.793291139609521,-1.1840921561070112,-1.9311606045550742,4.15281422691122,-3.628559236527487,-1.377525981844548,0.14585538089624142,4.0,0.48167486050595515,0.4921384301828944,0.3266012449720351,0.6111234635523336,0.5870893817734388,0.5306483112863148,-0.016326047704917974
17.5,-1.4978228427122666,4.001750246464672,5.002150077482678,-0.32212953748648754,-0.2404634787061112,-0.20460814682809095,0.4445803571284906,0.41571677197414514,0.7934279240906734,-1.1841188269146419,-1.9311852342629536,4.152826388407561,-3.6285584486775178,-1.3775483439818457,0.14584428375050174,4.0,0.4816632126990498,0.4921563352129519,0.3266269868099447,0.6110991361166742,0.587088560563852,0.5306768068674019,-0.01633996773365374
17.6,-1.6532845693116291,4.152377990415853,4.995304119446654,-0.3166354336260702,-0.23472052321153475,-0.20966836032816663,0.44463614311371136,0.41576180682239394,0.7933730615471484,-1.1841342358841604,-1.9312048931626162,4.1528096199035645,-3.628582490993178,-1.3775288457149282,0.1458168868801316,4.0,0.4816658858041118,0.4921461480262522,0.3266331065640262,0.6111079208134901,0.587077967688218,0.530678146728383,-0.016348503265242332
17.7,-1.3910982336204682,4.111752899611086,5.159359674966047,-0.32018529226993153,-0.24459645537881824,-0.20240344959937664,0.44465737588184445,0.415756705512154,0.7933638154489663,-1.1841381156899013,-1.9311977923444972,4.152792779301619,-3.628562083482461,-1.3775589906056238,0.1458349130020813,4.0,0.4816676329159745,0.4921454296416481,0.32662551436748594,0.6111236956340299,0.5870684214573331,0.5306704122299467,-0.01635269842866782
17.8,-1.3830222547065492,4.223100137485249,5.1625023333908,-0.3161193524384982,-0.242561834301407,-0.20522806512335018,0.4444990327884073,0.41563122350429166,0.793518265351407,-1.184137812216379,-1.9311932671593302,4.1528203539532464,-3.6285618695771262,-1.377542564152652,0.145862345779218,4.0,0.48167549500890855,0.49214887484135894,0.32660730121413256,0.6111099407950236,0.5870905387119995,0.5306623208275404,-0.016335264622453154
