xiamingqian9007/apple-picking-rnn/training_data/grasper_20191127_125613_noimg.csv
,/manipulator_wrench.fx,/manipulator_wrench.fy,/manipulator_wrench.fz,/manipulator_wrench.tx,/manipulator_wrench.ty,/manipulator_wrench.tz,/ground_truth.x,/ground_truth.y,/ground_truth.z,/joint_states.elbow_joint,/joint_states.shoulder_lift_joint,/joint_states.shoulder_pan_joint,/joint_states.wrist_1_joint,/joint_states.wrist_2_joint,/joint_states.wrist_3_joint,/mode./mode,/manipulator_pose.x,/manipulator_pose.y,/manipulator_pose.z,/manipulator_pose.rx,/manipulator_pose.ry,/manipulator_pose.rz,/manipulator_pose.rw
0.2,-0.08087493933062537,0.23799271949563194,-0.012692178794483838,-0.002282118182038717,0.011902448819585021,0.002426133218630908,-0.16825205778853797,-0.32526311849079376,0.9305348331107377,-1.9821522733544101,-1.9116384403789337,4.176406030322895,0.6476347165218398,1.3279324814337357,-0.2691383379318346,1.0,0.4548174565824132,0.45951087404412866,0.29601233688859085,-0.5971476010055733,0.44054182143841486,-0.09661696739792945,0.6633270745174208
0.30000000000000004,0.10557380453774275,0.016531907331491603,-0.20169450201502664,-0.005323735005717088,0.01621943464126845,0.04118518842393189,-0.16787075576704014,-0.32471378601334616,0.9307954410440199,-1.9778957209719614,-1.9150093825408512,4.175520545134722,0.6467108294924587,1.3289645305063946,-0.2692454496966761,1.0,0.4554947109846841,0.46034119930125705,0.2959367954291097,-0.5971678624248751,0.4405224512283986,-0.09655577446017899,0.6633306087231493
0.4,-0.314157970271502,-0.26819750709780166,-0.040288672732529146,0.002691172391840248,0.019124343107434195,0.0728749104345427,-0.1673880460144851,-0.32400443744702406,0.9311294445555695,-1.9736463410578586,-1.9180320082628532,4.1745865965275355,0.6456801664922899,1.3296590471199614,-0.2693422122344621,1.0,0.4560894543385284,0.4610158428184127,0.2958739710445018,-0.5971607349449504,0.4404505925309568,-0.09648945617580082,0.6633943902581888
0.5,-0.21996030478684622,-0.27881126825992214,-0.14934599404978705,0.0051917310613586115,0.0238698287340848,0.10438258898193473,-0.1674927387026428,-0.3240761612194903,0.9310857126989778,-1.9696433337229602,-1.921111141261819,4.173866539848917,0.6446428839509292,1.3303674585849719,-0.2694013754474085,1.0,0.45759477440160023,0.4623242355886365,0.2956707161059878,-0.5971214058398902,0.44052820235058443,-0.0966001377777784,0.6633621507162358
0.6000000000000001,-0.44808710323342205,-0.16151654905446172,-0.15761597570507224,0.005208641591869238,0.03436616133856324,0.1260968071943162,-0.16780591860376975,-0.3243988429001298,0.9309170499668903,-1.965785676979357,-1.924048389451206,4.173039997733269,0.643767766751179,1.331076141919974,-0.2694976294865176,1.0,0.45818021126080216,0.46295016781712106,0.2954472641243591,-0.597193394967493,0.44057419790449237,-0.09659476119106572,0.6632675759137141
0.7000000000000001,-0.3504967895325698,0.010655680944605811,-0.03185371908974144,-0.007093552314738445,0.03712191017778033,0.1473205676437375,-0.16772623430798772,-0.32408556595987936,0.9310404795263825,-1.9619365754488174,-1.9269296213676357,4.172260761260986,0.6428452602275758,1.3319762824060126,-0.26959306398500615,1.0,0.4592440313467197,0.4639561547445186,0.2953661170218314,-0.5971136071332529,0.4405822846801472,-0.09662758284960889,0.6633292552232104
0.8,-0.09697283084100658,-0.24449321406598484,-0.1093318006427965,-0.009421005908335845,0.034222234930704275,0.1691422107737674,-0.16738557110874763,-0.3235144488100904,0.9313004003979987,-1.9581686073184494,-1.92978749681809,4.171541690826416,0.6418420998261583,1.3326561608540632,-0.26967485731587615,1.0,0.460166613178489,0.4648736615155276,0.29524637192640873,-0.5971185360874307,0.4405609339267476,-0.09660016939348103,0.663342991695508
0.9,-0.014193125010535768,-0.28503166643569205,-0.007316132692925914,-0.01239546213165656,0.037563410901339266,0.18940420705860547,-0.16716904371945918,-0.32319416635848197,0.9314504667032225,-1.9544917374310553,-1.9323850708067791,4.170944059360152,0.640929779699028,1.333271479572601,-0.26975919409629395,1.0,0.46159162993014097,0.46630560245884684,0.2949618534138339,-0.5971639895118458,0.4405598927392312,-0.09661214998007732,0.6633010199118646
1.0,-0.022294237498055747,-0.47144594375849486,0.03411607975642088,-0.015237938622009261,0.04403474183498242,0.2078089577977535,-0.1672296069803786,-0.3233386142517819,0.9313893891139716,-1.9511387704367347,-1.9351629414176927,4.170367438360805,0.6400941031402423,1.3338337656396129,-0.26980832574386526,1.0,0.46207986998300826,0.46685230829501273,0.29492987756204764,-0.5971662941715293,0.4405405041365493,-0.09660808200078033,0.6633124149393614
1.1,-0.28931780376976723,-0.22175743726925662,-0.08614082512945656,-0.0008424857067065904,0.04081790758641068,0.21468388269927602,-0.16743988131068005,-0.3237341542582887,0.93121423124734,-1.9476506316372617,-1.93738372057772,4.16972017288208,0.6392084926679434,1.3344450128442131,-0.26984526670877296,1.0,0.4632387197889014,0.46808117180022885,0.294670907134889,-0.5971831858873842,0.4405550991313536,-0.09661257347047907,0.6632868593377745
1.2000000000000002,-0.3445414484651289,-0.41739071095588937,0.04026986874013081,-0.020821233036328695,0.046962117008810714,0.2275345898742741,-0.16748823181198289,-0.3238259587079964,0.93117368855181,-1.9444130669539224,-1.9401049494320253,4.16908566542346,0.638262532532931,1.33517765565352,-0.2699645201312464,1.0,0.46374039100886577,0.4685733530539162,0.2948079949190225,-0.59706347218331,0.44050879214963146,-0.0965943614320933,0.6634280244026542
1.3,-0.14441320566954807,-0.3447936983018188,-0.014562465371425803,-0.006453463228626567,0.043138909142724655,0.2366293841259499,-0.16728042460941384,-0.323508588479079,0.9313211844309315,-1.9412992432811298,-1.9420836031940452,4.168511192520683,0.6374853881941613,1.3358585678440136,-0.2700228924299,1.0,0.4645779668885842,0.469410836193868,0.294511737183588,-0.5971818282425474,0.4405405203575836,-0.09659382609039902,0.6633004950255773
1.4000000000000001,-0.09954369555399083,-0.14696983857342114,0.24390515963213372,-0.012501040173051944,0.04078410829581182,0.24465542257590447,-0.16697378377724273,-0.32304898806279364,0.9315357667052008,-1.9381539565419807,-1.9444583294321653,4.167899258827023,0.6367437032803862,1.3362589699400593,-0.270072889218279,1.0,0.4656907194904781,0.4705286308927369,0.2944177245810256,-0.597169557043359,0.44050996933034486,-0.09654649667135877,0.6633387227063595
1.5,-0.17125524904717515,-0.3886051946870174,0.11390751620613765,-0.013858542611130885,0.04195972068685574,0.2538473080578019,-0.16673952680504703,-0.32250194395241955,0.9317672285445324,-1.9352115832617007,-1.946649482593227,4.167322635650635,0.6358834068481031,1.3367726198285452,-0.2701907682327081,1.0,0.4661265868005978,0.47095849540957585,0.29435949928894595,-0.5971552492127763,0.44051767541400494,-0.09657155493446487,0.6633428380279748
1.6,0.08849301952541926,-0.7254364368922561,0.12091890648352499,-0.01361292731966115,0.04031517154579439,0.27020753447438434,-0.16656227492386427,-0.32192939710219043,0.9319970314526941,-1.932233046533882,-1.948692339624947,4.166746733765603,0.6351383720379948,1.3372659964607296,-0.27017054192156575,1.0,0.4672380129834727,0.47197723424836163,0.2942253400983589,-0.5971082132893557,0.44055305484038343,-0.09663965027473757,0.6633517660246152
1.7000000000000002,-0.27971681845287044,-0.26289470183846886,-0.005183984081592707,-0.005464155851385122,0.04455586218453599,0.26877173378023134,-0.1665172595110797,-0.3217287053411473,0.9320743639743729,-1.929489586502495,-1.9508025960136024,4.166282964269407,0.6342918812192138,1.3377335791986065,-0.2702197237266273,1.0,0.46764048696538274,0.47233346231442314,0.2942408000115565,-0.5970487971499933,0.4405643415160012,-0.09664808490673162,0.6633965198055986
1.8,-0.21182235835528362,-0.3950178058526075,0.023620144347486403,-0.009334291053350107,0.04418951042298191,0.2660788351397823,-0.16627218876587638,-0.3212961781044101,0.9322670367880561,-1.9267624275325683,-1.9527542340487363,4.165801681042691,0.6337003112587609,1.3382612015537203,-0.27027644830221803,1.0,0.4683163993439107,0.47304827282772044,0.29406517913792185,-0.5971028888853649,0.44057857738149203,-0.09664967759419132,0.6633381468438184
1.9000000000000001,-0.23991736921809326,-0.3363772232598433,0.08272242106358114,-0.0034367232574186914,0.044756267519021536,0.2664155964965954,-0.16587455138797966,-0.3206868479929988,0.932547670666072,-1.9240090749641174,-1.9547306499876917,4.165401071979918,0.6329981974085384,1.3388443443548275,-0.2703354994403284,1.0,0.4692419082427866,0.47402064919804576,0.29391590262402295,-0.5971133655882576,0.44055976311359146,-0.0966094613954295,0.6633470703410433
2.0,-0.23648337085884522,-0.23547736804240996,0.18537629736299732,-0.0022765556657308,0.0450307025323857,0.26465088471281595,-0.1659668620172249,-0.32098818640820453,0.9324275941709075,-1.9215228874261243,-1.9565323762636921,4.165009010285736,0.6322213731661077,1.3392549077973996,-0.2703961496616845,1.0,0.46970516484830993,0.4745055333769102,0.2938455560761077,-0.5971231544956175,0.44053018184751674,-0.09660429669584085,0.663358656464585
2.1,-0.2089563982803933,-0.23296552510941745,0.0027102534638517584,-0.004996385356317248,0.042493734772975245,0.261516071787368,-0.16593448938996636,-0.32099722152525995,0.9324301607056937,-1.9190252004629922,-1.9584116496003372,4.164580325767855,0.6315413238979667,1.3396592788826482,-0.2704205597031712,1.0,0.4702314026228416,0.47509490289715517,0.29377798087877105,-0.5971428245473634,0.4405137052457109,-0.09658270544925517,0.6633550358521402
2.2,-0.27925452365214126,-0.30119588662816155,-0.0008353505123130933,-0.006881819259683641,0.04667398274709165,0.25392599807868665,-0.16554216261448795,-0.32028803664225874,0.9327439113476853,-1.9165786038118773,-1.960171742346692,4.164158081943582,0.6308957286996183,1.340069162813222,-0.2704564015665701,1.0,0.47115918114182814,0.47603941519952825,0.29362341495798017,-0.5971496753932094,0.44052563745167417,-0.09659582664381548,0.6633390341300435
2.3000000000000003,-0.28303702267225184,-0.2996610991197033,0.005361417107920527,-0.003464473371173852,0.04760989367298536,0.25128419432150545,-0.16663104666371842,-0.3223286784785761,0.9318416521193493,-1.9143793289770172,-1.961767437928179,4.163714411429613,0.6303079416755203,1.3404429277589924,-0.27053698482350236,1.0,0.47151132645826116,0.4764101684442191,0.29357112152775916,-0.5971546443469207,0.44051865930274403,-0.09659799113131252,0.6633388799478066
2.4000000000000004,-0.1730572131706546,-0.06694256422787259,0.22280306631035163,0.00832626132534059,0.040961396149266374,0.25031635641668254,-0.17394438748627908,-0.33578636648161747,0.9257374377865758,-1.9119191166831555,-1.9634142662787324,4.163418985304155,0.6297168049224113,1.3407773971557617,-0.27056212777518956,1.0,0.47228454554482946,0.4771230454607011,0.2934823741157114,-0.5971144300320815,0.440547948057073,-0.09659907959143965,0.6633554708693157
2.5,-0.14287919488054182,-0.2606003652117365,0.06070023466840913,-0.00972238948756798,0.0489021887847014,0.25212200872199797,-0.1761589397057257,-0.3399902772808252,0.9237757372086969,-1.9100210731486944,-1.9652369748935643,4.163035276006085,0.6290217945770796,1.341120033449028,-0.27059270107499744,1.0,0.47260366623985617,0.4775208392690353,0.2934863762031663,-0.5970839124992475,0.44051364728909953,-0.0965908373883939,0.6634069174490531
2.6,-0.27758802110254915,-0.10511087678885901,0.14130888894380997,-0.007339344974893419,0.04362541765076061,0.247152538922882,-0.17794496279575137,-0.3433739607722123,0.9221861417510169,-1.9077097344364422,-1.966500610026748,4.1625918342932,0.6284083063483822,1.3415238996980985,-0.270636509882029,1.0,0.473127439805767,0.4780769659216081,0.29317608875224327,-0.5972164577369994,0.44055700046832413,-0.09659993490031579,0.6632574798098237
2.7,-0.14280974206101435,-0.309275710498672,0.0494907656102929,-0.001593694638338548,0.04182924197898142,0.24993849631157963,-0.18620152701559833,-0.3587277332399208,0.9143555897524477,-1.9056034732105154,-1.967894006794852,4.162227126782037,0.6278664985512635,1.341906776614716,-0.2706831137286585,1.0,0.4738881559183938,0.47875871555773625,0.2932720425853305,-0.5971208886377867,0.44053175465765104,-0.09661105583939054,0.6633586672232974
2.8000000000000003,-0.18511315213451612,-0.4615373021658439,0.06902309795595127,-0.011461877966096443,0.04586986168782536,0.24796149441696663,-0.20095348179889083,-0.3861215880228037,0.9002912246167105,-1.9036877961194631,-1.9695353463922969,4.1618218421936035,0.6272541921566525,1.3422958132444167,-0.27071839967836553,1.0,0.4742156631793016,0.47908509891262047,0.2932901735616446,-0.5970844875179646,0.44052235862399913,-0.09658813292891562,0.6634010091151991
2.9000000000000004,-0.11900554531235245,-0.2780091256243191,0.08616262455124277,-0.005978111080931632,0.042620227677614274,0.2448695383191138,-0.20885212624890181,-0.4008193906827907,0.8918363674726437,-1.9017466171295334,-1.9710028336571463,4.161475115205391,0.6267943360245467,1.3426122172689525,-0.270777198463549,1.0,0.47490079053764833,0.4797197140793371,0.29299500575969956,-0.597187632232259,0.44057839472315286,-0.09662603246789256,0.6632654218798927
3.0,-0.09591048967066713,-0.30004309743391594,0.1680128906365313,-0.01205671983019442,0.04115586364931157,0.241957019372602,-0.21675077069891271,-0.4155171933427777,0.883381510328577,-1.899906521234534,-1.9720838574716133,4.161232253323021,0.626274785188862,1.3428993225097656,-0.2708121184554884,1.0,0.4751931476924245,0.4800238237179266,0.29289978848204523,-0.5972031000750797,0.4405808680797405,-0.09663046471359862,0.6632492059792084
3.1,0.24566541059410926,-0.6087812947154835,0.20521165085542947,-0.007068422950471475,0.03866811110425997,0.2463219974648007,-0.21512871862095556,-0.41243177713622614,0.8852093892562624,-1.8980124687315096,-1.9732785766732333,4.160912683093442,0.6257405527061702,1.3431995067090947,-0.27081334761423204,1.0,0.4756052603827116,0.4804382496027298,0.2929941212290965,-0.5971173112759085,0.4405476949295947,-0.09661065428895814,0.6633513597971362
3.2,0.01738261355680709,0.19230360410062286,0.24678226099730682,-0.002657058322026437,0.03782684606368238,0.24115103893589446,-0.21348391318538393,-0.409303861104455,0.8870618427274601,-1.8962482093584418,-1.9747357665920342,4.160624027252197,0.6251845580052333,1.3434703685269498,-0.27085310381497796,1.0,0.4762577519337739,0.4810870222102212,0.29301426661917596,-0.5970532563352386,0.44054057440254357,-0.09660335853530624,0.663414804269745
3.3000000000000003,-0.013201504409061295,-0.30441343002920546,0.22166786927875998,-0.0048026516060512585,0.04139466992306858,0.24300172244496235,-0.2118847227655871,-0.4063246234824145,0.8888168603546414,-1.8946412234281556,-1.9759701000593763,4.160342047120698,0.6246725583038711,1.3437577987655323,-0.2708703586448508,1.0,0.47652075301403224,0.48134415197246455,0.29285828646596657,-0.597111888843747,0.4405796142123139,-0.09662546116503816,0.6633328847544234
3.4000000000000004,-0.20848905484196228,-0.4085427901329197,0.22298734949301718,-0.0035484148622931134,0.0454027714049717,0.23973859737745548,-0.21033322107269634,-0.40350082336177645,0.8904700125921641,-1.8927468113321886,-1.9771505794920863,4.16008441423638,0.6242551238017409,1.3440150666417805,-0.2709105650531214,1.0,0.4769147418267018,0.481779371396228,0.29273281958358655,-0.5971688445767628,0.440573937593038,-0.09663650205214186,0.6632837726431624
3.5,-0.2027795532135881,-0.023241766687458004,0.02550546363842182,0.0029950254255822414,0.04576229388599809,0.2447721759078468,-0.20934568112857782,-0.40167834652514606,0.891531532169954,-1.8911954717466322,-1.978199346541259,4.159821749694347,0.6237808920237022,1.3442772278486268,-0.27091223494400085,1.0,0.47742482204575337,0.4823201613435496,0.292760667859747,-0.597104293666271,0.44053777716988957,-0.09662436621074338,0.6633676667021753
3.6,0.06555721089790698,-0.28697802419332985,0.04585733361698942,-0.007107331981269815,0.04241039530653005,0.24661294392517658,-0.2089722748111763,-0.4009462739601928,0.8919487855155093,-1.8898366709283245,-1.979315060602336,4.159591677271205,0.6233603172619977,1.3444966695984222,-0.2709541294084896,1.0,0.4777449712886021,0.4826353457113319,0.29276636356878877,-0.597077054545123,0.440532117846496,-0.09662056705410801,0.6633964953958863
3.7,-0.16443246302320152,-0.3806009810638837,0.18549683109916823,-7.021336784434312e-05,0.039754046465233076,0.24020799487053127,-0.20575022773380355,-0.3949439505708605,0.8953513963362966,-1.8881896075761564,-1.980442652313161,4.159399596498802,0.6229860896281965,1.3447816556832421,-0.2710171326984,1.0,0.4782389747890227,0.48310349835584177,0.2925934739330759,-0.59713503216559,0.4405684661449352,-0.09664816358665013,0.6633161482088514
3.8000000000000003,-0.29626114395413133,-0.04305480569262016,0.15519580732797542,-0.00043164861871349187,0.046940287610492806,0.24425765417262035,-0.20114970674217575,-0.3864348383874667,0.9000574666197467,-1.8866092721350958,-1.9815661889177885,4.159142309276331,0.622509165401123,1.3450109520725742,-0.2710176491968714,1.0,0.4784422510889921,0.483339719437247,0.29256708909159346,-0.5971255032658088,0.44055451693645115,-0.09662684482907903,0.6633370966671635
3.9000000000000004,-0.06890911914067266,-0.4271000703925714,0.16434160680715415,-0.00875540435663097,0.04645851911740013,0.24147822033229038,-0.1950400620900532,-0.3751846091207295,0.9061799556638129,-1.8853566024564476,-1.9825593800379842,4.158887534430925,0.6221199900246193,1.3452654632768744,-0.2710353805381503,1.0,0.478777372282435,0.48374055181718295,0.29254729068788415,-0.5971196325955559,0.4405225763290115,-0.09659207599720351,0.6633686569080192
4.0,-0.03690518249472443,-0.3937621407272426,0.1325223345802532,-0.007065415463167184,0.04103588286191052,0.2465314384123283,-0.19475304612207603,-0.37463373684193413,0.9064878298242196,-1.8839751083978535,-1.9835624726393255,4.158648961259151,0.621659441585205,1.3455143736496216,-0.2710622057531986,1.0,0.47931027916891594,0.4842399485227431,0.2924195692298872,-0.5971508657491154,0.44055065588126,-0.09660422399015473,0.6633201241067047
4.1000000000000005,-0.21917009778785695,-0.01191299161188264,0.11846876016309997,0.00536999745532216,0.04556553047683093,0.24215577745521433,-0.19566035189327155,-0.3763443340841939,0.9055800492778384,-1.8822924668546537,-1.9845302581715272,4.158445544074402,0.6212328581266476,1.3457619643675482,-0.2710837543854742,1.0,0.47952372448468233,0.48443606777939285,0.292351094511755,-0.5971864123315851,0.4405549592990139,-0.09662979895865183,0.6632815380491041
4.2,0.0140007619883164,-0.2195814255546295,0.10762505636002756,-0.003588457453320958,0.03768780383684522,0.23933809730196345,-0.1973324081127102,-0.37957657832173336,0.9038685676918979,-1.8807940664259166,-1.9855879655296163,4.1581785319033635,0.620792735950591,1.3459732441918268,-0.27112103455888825,1.0,0.47994561297815047,0.4849705014737981,0.29243467552504604,-0.5971132444575133,0.44048080911236237,-0.09656409503295224,0.6634062146585664
4.3,0.019890013560140408,-0.34776313738699954,0.1514609586584329,-0.010618843645642076,0.04626910370750774,0.24195689396721842,-0.19842227319516362,-0.3814923978156314,0.902824204199637,-1.879560835684217,-1.9865788936435564,4.1579903062716035,0.6203834342020517,1.3462259066921498,-0.2711742560016077,1.0,0.48018682533477736,0.4851401070535189,0.29236976502052825,-0.597118217027342,0.4405213365140289,-0.09659844580720671,0.6633698268971949
4.4,0.06131483355386601,-0.20005923331401737,0.2536593344941749,-0.002779937957576818,0.04373811894189913,0.24587566924810653,-0.19995560039956806,-0.38435743469206635,0.9012651146558904,-1.8780734849503835,-1.9876342465326184,4.157726531162563,0.6200075739834925,1.3464659801526029,-0.27119121758888615,1.0,0.48049031054382707,0.4854815891770259,0.29226867370580445,-0.5971576715267627,0.44052613292072873,-0.09657437777156515,0.6633346298126448
4.5,0.08078652959675692,-0.18398733460058078,0.20742545013268032,-0.003815827557419318,0.041780765280252055,0.24468972746711148,-0.20098611585929876,-0.3862655508511117,0.9002241231503251,-1.8765277046627469,-1.9887085492741738,4.157480016814338,0.6196001032274916,1.3466828531689115,-0.2711791920609237,1.0,0.4810862106669119,0.4860282785301415,0.2921577703891602,-0.5971517435329876,0.4405468564474106,-0.09661039267378452,0.6633209588858432
4.6000000000000005,-0.056218104655151396,-0.2683254985133108,0.2073056742464255,-0.005056848687130364,0.041685682165952746,0.2435295969523716,-0.2007799601336338,-0.38582978773294946,0.9004568274322514,-1.875020126879182,-1.989790495253936,4.157243251800537,0.619151644825729,1.346885654635657,-0.271184709476453,1.0,0.48128903293495856,0.4862327787431968,0.2921852374707704,-0.5971160007058754,0.4405326875184912,-0.09660481984876218,0.6633633557189788
4.7,-0.07935220466059156,-0.4081680765542803,0.06618960525669819,-0.003782365912980441,0.038622708316805074,0.2400411520701428,-0.20039940370754689,-0.38517529678983614,0.9008217804692852,-1.8736543056445345,-1.990731915327044,4.157012693092492,0.6186875020437418,1.347124244917216,-0.2712269984605514,1.0,0.48174778596821943,0.4867390550550411,0.292060264186678,-0.5971643262461639,0.4405290751664345,-0.09660753864512225,0.6633218561670516
4.800000000000001,-0.1955129576928379,-0.10716764531777254,0.07136502731669025,0.000699987077445351,0.04183218767351648,0.24034041949154553,-0.2002916284537856,-0.38489648818202227,0.9009650102414704,-1.872144156337031,-1.9917550373249642,4.156760676756635,0.6182683653335973,1.3473583215848894,-0.2712550469386778,1.0,0.4819540635537173,0.48690913423869564,0.29203377226042415,-0.597153007864967,0.44054510897711696,-0.09662464099331837,0.6633189058869612
4.9,-0.057678140470391916,-0.36233143893235403,0.11384947086653677,-0.0013332463672228421,0.043871023823167064,0.23678145884484061,-0.20015466454156952,-0.38456257562163293,0.9011379578957363,-1.8706545141546684,-1.9927220870869309,4.156471622154866,0.6178313928791503,1.3475651741027832,-0.2713011380074081,1.0,0.4824483154581666,0.48736715596054164,0.29203351609723277,-0.5971109117652378,0.4405508219235523,-0.09662948351023351,0.6633523010210446
5.0,-0.2981078469808489,0.31619388434309903,0.13898606329089508,0.010968103493837974,0.050005745837193964,0.23660313226612653,-0.2000381168196525,-0.38428707314326094,0.9012814194969672,-1.8693112465018062,-1.993776225404845,4.156260013580322,0.6174003320881347,1.3477811813354492,-0.27132970491518194,1.0,0.482640654382671,0.4875704410675111,0.2919927720063936,-0.5971215268877262,0.4405622774903009,-0.09663607570747414,0.663334177207604
5.1000000000000005,-0.25472547830151704,-0.04118374144147502,0.03230314730025477,-2.135070662659215e-05,0.04593072232566334,0.23982635766752758,-0.2000896698773712,-0.3843623887102213,0.9012378388340232,-1.8677425499708216,-1.9949704974070934,4.156050228268059,0.6169456668978986,1.3479856257469736,-0.27134761030585025,1.0,0.48301235210362986,0.4879283493745252,0.29192045479524004,-0.5971236504347092,0.4405687650438791,-0.09664416102404236,0.6633267788196082
5.2,0.06797067249472011,-0.2397897858903227,0.16585929589679638,-0.007506536383399028,0.04225433450436132,0.23792093993062163,-0.20031276317002603,-0.3847951920642911,0.9010034981831848,-1.8663002994017248,-1.9960897394836066,4.155842639324886,0.6165333212499781,1.3482295153694632,-0.27136546770204717,1.0,0.4835592862491493,0.48852321244963626,0.291760684469218,-0.5971490613939062,0.44058672730457793,-0.09662545897416346,0.6632946968561189
5.300000000000001,-0.2832706313874137,0.058578088957800534,0.12637192224035698,0.0006650880806012369,0.04887379099390237,0.2416035601335986,-0.20060091641956215,-0.3853853570412094,0.9006871777818743,-1.864851701453358,-1.9968826626199196,4.155564785003662,0.6161339776688287,1.3484606469245946,-0.27137190370350905,1.0,0.48373792299308266,0.4887019214724298,0.2917020228953114,-0.5971718563038925,0.44057195600407667,-0.09664032658777329,0.6632818201174471
5.4,0.025825341932624424,-0.25780763772203946,0.03373642660292389,-0.00502948078551935,0.044372873710889625,0.2421945208328978,-0.20068319113512262,-0.3855321100239543,0.9006060422013159,-1.8634186273199356,-1.99781161008384,4.1553309298625445,0.6156587178527791,1.3487025680162772,-0.27146132737118145,1.0,0.48405872426058566,0.4890129700561945,0.29174258685228294,-0.5971309801085527,0.4405575835265698,-0.09663225212785963,0.663329342062091
5.5,-0.20732502063699831,-0.1430960972475845,-0.047366383670832145,-0.00046833361592795255,0.03885266085944237,0.24177408821685611,-0.2006135434286614,-0.3853910296962186,0.9006816372069767,-1.8617343211132975,-1.9988004169859828,4.15518045425415,0.6152040615837101,1.3489539520157798,-0.27142554918398076,1.0,0.4845745021409661,0.48951743803812664,0.291785206242061,-0.5970837535723577,0.4405344941616378,-0.09662548359370741,0.6633881718827797
5.6000000000000005,-0.16241328255996013,-0.12693292003908344,-0.025554273137834732,-0.009577883180516106,0.04291734659993392,0.24486043001810517,-0.20001304104316425,-0.3843073328169262,0.9012779840621056,-1.8604132557867887,-2.000005901455268,4.154920463752532,0.6147678484547665,1.349205473860328,-0.2714888173326523,1.0,0.48477605385105,0.4897542123102853,0.2918292325601026,-0.5970459202703431,0.44050756153774817,-0.09660170644377138,0.663443567780077
5.7,-0.21716268468926647,-0.1422469527142841,-0.20791720772835903,-0.006241716562179848,0.04890745073752928,0.24236585289008145,-0.2002983787623124,-0.3848968498985929,0.9009626028061358,-1.859103789549526,-2.0011876472722547,4.154693578830003,0.6143652388905498,1.3494437014413847,-0.2714759075436535,1.0,0.48511426743927255,0.49009209299674417,0.29167188212915024,-0.5971009666732392,0.4405392403181591,-0.09661158468053355,0.6633715512767324
5.800000000000001,-0.000675731689500414,0.23714942103294512,0.03885354457217057,0.0015145650280212965,0.04359068656937774,0.24409946907610425,-0.20077356516967765,-0.38582683510436944,0.9004596511656743,-1.8575287128907345,-2.002074921957444,4.154473781585693,0.6138691599709665,1.3496202135000452,-0.2715213934527796,1.0,0.48561115155462503,0.4906252704505727,0.29138244546172504,-0.5972222730399452,0.4405775649892975,-0.0966046570106685,0.6632378955223788
5.9,-0.07790013041611804,-0.10114321372404292,-0.04707429322521928,-0.005678010503304163,0.04443806068599055,0.2404456529550921,-0.20065932272172393,-0.38557553118125787,0.9005926927734167,-1.8558748161907392,-2.0029435863953995,4.154253535535066,0.6134368352709192,1.3498528310582598,-0.27154070102692074,1.0,0.48581022232995824,0.49083822945177735,0.29139069001285134,-0.59719308366515,0.440565929726482,-0.09660168557563845,0.6632723397901463
6.0,-0.22785776981883163,-0.10374083799449006,-0.05747154806100033,-0.0023497903457554642,0.04431701367707296,0.24241294226852314,-0.20054508027377022,-0.38532422725814636,0.9007257343811591,-1.854527473449707,-2.003836064235522,4.153995037078857,0.6130007100067476,1.3500962257385254,-0.2715206747707676,1.0,0.4862718872467861,0.49127762867314917,0.29159019920964635,-0.5970679692995544,0.4405133526368241,-0.09660336946367525,0.6634196373287695
6.1000000000000005,-0.05852559305937102,-0.33580693424143837,-0.012398655103272031,-0.004833549781867563,0.04425490658939755,0.23988103361004603,-0.20038363764458975,-0.3850070109744817,0.9008972711100776,-1.8531906187484417,-2.0050593354552078,4.15380334854126,0.6125906543717585,1.3502639249004607,-0.2715858648143052,1.0,0.48651235619662897,0.49149141059343454,0.2915709821888615,-0.5970619016809402,0.4405296175745342,-0.09660152266401296,0.6634145667829193
6.2,-0.0427232879159484,-0.134135676991142,-0.020981887215060273,0.00024320463836730467,0.04534579409542403,0.23982445609253822,-0.2003465393680057,-0.384941687064594,0.9009332251688429,-1.8515742384087523,-2.0061564565097196,4.153595214526086,0.612160186036438,1.3505397239808847,-0.2715969667379728,1.0,0.48682672767574253,0.491818305662208,0.29140764031267297,-0.5971211965375678,0.4405493518063017,-0.09661185080680385,0.6633465878048026
6.300000000000001,-0.010422448368892563,-0.18782228815149013,-0.06108603897280215,-0.005817745266735518,0.03951987020684126,0.24103953779069823,-0.2009159398731882,-0.38605177782040234,0.9003310997856894,-1.8500755559765836,-2.0071563709619435,4.153423588276618,0.6117351429978305,1.3507130551345283,-0.2716116560600707,1.0,0.4873062979697917,0.49234643462898464,0.2912870284582435,-0.597139600781546,0.4405481929094762,-0.09660572920542636,0.6633316817304438
6.4,-0.1478312704658794,0.0175874885445651,-0.06624930050805695,0.0003202522964630438,0.04591771729215246,0.23993385986701282,-0.2011018851865434,-0.3864178626394817,0.9001329163100135,-1.8487646615283393,-2.0081369207167494,4.153170254547427,0.6112346642225772,1.350918947761836,-0.2716375068548983,1.0,0.48756510046815443,0.49263246016585954,0.29129036595695296,-0.597113433585017,0.44052026770384106,-0.09660684358287261,0.6633736194237771
6.5,-0.2150631628153912,0.18925989156262302,-0.19121342485850595,0.0011416365195175554,0.04741334004948497,0.24039004281852447,-0.20126355547360106,-0.3867279208326205,0.8999634511717468,-1.8473138809204102,-2.009110503971453,4.152944561659082,0.6108129956856996,1.3511551734376779,-0.27166492143739873,1.0,0.4880216763228474,0.4930655654583692,0.2911569407913819,-0.5971598890499595,0.4405686343940016,-0.0966076868370687,0.6632995553609513
6.6000000000000005,-0.25526218640341436,-0.17651529075477831,-0.0967456817723223,-0.004516709585616209,0.04529239819481612,0.2379831835795271,-0.2014977831566833,-0.38717449928825937,0.8997190538725259,-1.8456571820186594,-2.0101640899172746,4.152748307498575,0.6103526788898925,1.3513600108219168,-0.2717328290789044,1.0,0.4881978662428221,0.49326195345645696,0.29114233117970767,-0.5971695181801934,0.4405556271899104,-0.09660259565046637,0.6633002671651302
6.7,-0.1635196998395071,-0.028716611721516516,-0.1525643517096351,-0.0023928385460805102,0.04603660036976802,0.2385050337029693,-0.20099560337014716,-0.38620412473750215,0.9002478232020726,-1.8441627724519412,-2.0112450933407673,4.152517086143475,0.6099326755996193,1.351590317969283,-0.27171308199037725,1.0,0.48858888523629407,0.49365917537276294,0.2911583323649884,-0.5971231515082828,0.4405265109053443,-0.09662159871464311,0.663358577078948
6.800000000000001,-0.33303018880667523,0.012402561468902062,-0.11427178060130022,-0.0015168717725416937,0.05233140339584194,0.24460265943507625,-0.2003682807460843,-0.38502768747499816,0.9008912399610344,-1.8427861115617505,-2.0122969483835433,4.152250106054623,0.6094810205646972,1.3518175294619859,-0.271758500980738,1.0,0.4891235993589117,0.4941707976147121,0.29105231748554933,-0.5971125112381351,0.44056140607144023,-0.09662425965542087,0.6633445928394118
6.9,-0.153237386676342,-0.37665302238567766,-0.0982386203439245,-0.004483783423788069,0.04793089252696444,0.23784458458020405,-0.1998649981349552,-0.38410786418935533,0.9013957751542182,-1.8412771224975586,-2.0132907148484445,4.15206063406808,0.6089889246174316,1.352026570865086,-0.2717704557184482,1.0,0.48931611664141916,0.4943765831298226,0.2910005122350879,-0.5971456880873943,0.44054570993919406,-0.09663013379188792,0.6633242961750804
7.0,0.00943675114879354,-0.11345021971025232,-0.06918801480422154,-0.02310178323766685,0.04076565521126302,0.2382899250548416,-0.1999385448879554,-0.3842280752500013,0.9013282968839054,-1.840389410271702,-2.0138375868520293,4.151895107835635,0.6087313709504972,1.3521913931706144,-0.271797005330221,1.0,0.4897563184709723,0.4948632723608443,0.2909276258648948,-0.5971499215938053,0.4405439137012228,-0.09660091554223757,0.6633259337292065
7.1000000000000005,0.29201026691944976,0.19735500752872834,0.05964168642309922,-0.006703270132328347,0.04017157351506071,0.23139968947287592,-0.2003235449345853,-0.38490984253989474,0.9009519656177409,-1.840436523906876,-2.013836605677286,4.151881914084531,0.6086980810146583,1.3521681928363327,-0.2717850844012659,1.0,0.4899470248359073,0.49502256747571527,0.2909340710227584,-0.5971259091729226,0.44055739676185324,-0.09659868575607784,0.6633389199067309
7.2,-0.37690121172535224,-0.26830263745095284,-0.126813906362407,0.00039270494379219957,0.045521540188469524,0.24262790833789583,-0.20055842853221043,-0.38535723040140774,0.9007086305112654,-1.8404498623210468,-2.0138679943480433,4.151871819627897,0.6086970141550642,1.3521967457133808,-0.27177532615381106,1.0,0.4899492630571009,0.4950123692128295,0.29093965318995757,-0.5971233105177877,0.4405537570119176,-0.0966083794640698,0.6633422647745945
7.300000000000001,-0.1454806035518448,-0.19060556062694264,-0.22535425165901493,-0.0026999074668481718,0.04319285744574772,0.24325208347727093,-0.20064123857195473,-0.385549936879051,0.9006076935772047,-1.840436083906981,-2.0138532379352623,4.151889185229757,0.6086923319050292,1.352205753326416,-0.27176396460782876,1.0,0.48995027810000474,0.4950052009101713,0.2909235822200253,-0.5971407503871764,0.44054605103464445,-0.09660445756381761,0.6633322545479159
7.4,-0.09179903916552679,0.043780831717483815,-0.05602967815736899,-0.0008746511276329803,0.044651902721530926,0.23691259062870307,-0.20026495296801697,-0.38490978211334603,0.9009651001501091,-1.8403997421264648,-2.013912421404842,4.1518731117248535,0.6086941801704648,1.3521627272394934,-0.2717850844012659,1.0,0.48993872167624086,0.4950321154217569,0.2908872030767555,-0.5971762477482726,0.4405404266734569,-0.09659548852785714,0.663305339333046
7.5,-0.054022906866514876,-0.2530345629483497,-0.0625783329249351,-0.002247144472997664,0.04407868328933159,0.23361835959074573,-0.2004049678490433,-0.38518369269800373,0.9008167041029017,-1.840372625957517,-2.0138918362059535,4.151890809921658,0.6086923319050292,1.3522043863640112,-0.2717702982858019,1.0,0.4899569321291588,0.49501206202817816,0.2909026696269962,-0.5971620277104057,0.44054933773864424,-0.09660769186322721,0.6633104458333959
7.6000000000000005,-0.3105949253060336,0.1709556789072351,0.016532153209440403,0.002740711935521129,0.05119929278792442,0.23487514170309381,-0.20077807374675422,-0.38585762895397224,0.9004454157134582,-1.8404005676639237,-2.0139107394383093,4.151891560071365,0.6087055552086015,1.352203204873375,-0.2717675334328773,1.0,0.4899510456633692,0.495034181052895,0.29094357625654294,-0.5971377863041772,0.4405340487381713,-0.09659391005798827,0.6633444298475797
7.7,-0.1323465747615153,-0.09219762572056674,-0.08513444501771528,-0.0015069139083508814,0.04924991365282295,0.23530077914767064,-0.2003743254596253,-0.3850564468953437,0.9008782715398742,-1.8403685049156233,-2.013909837100842,4.151879553403469,0.608701508831835,1.3522027802439784,-0.27178186356195844,1.0,0.4899591816435311,0.4950244005451088,0.29092436997094295,-0.597137859945492,0.4405443486980143,-0.09661189490338243,0.6633349039611424
7.800000000000001,-0.028040465025809688,-0.3416829688019588,0.07867492052850836,-0.007345071262766586,0.0480836630357376,0.23507810513342914,-0.2003446276538697,-0.38502463244900603,0.9008983692146694,-1.840382162881736,-2.0138918362059535,4.1518959633019294,0.6086913416241955,1.3522076972815662,-0.2717834927631406,1.0,0.4899561133901548,0.4950359190170214,0.29094690084633423,-0.5971277696574304,0.4405339967570725,-0.09659875652531683,0.6633527754090915
7.9,-0.05937162266523169,-0.36181456813185525,-0.2042019881720099,-0.005204172808777088,0.04850928170228763,0.23591247941238563,-0.2009131777285386,-0.38603468714433686,0.9003390139606329,-1.8403773111391946,-2.0138849399350303,4.151892784076342,0.6086972580403547,1.3522033887814597,-0.27176362318321884,1.2547319770406409,0.4899699097598556,0.49502294867700997,0.2908876539212273,-0.5971593955537793,0.44055578234589765,-0.09662412471549447,0.6633061415865251
8.0,-0.22378157580054614,-0.0790147764479951,-0.08508462500218203,0.0005935959423171641,0.0519345995763258,0.2369342177221545,-0.20145176125748313,-0.3870375778914932,0.8997876569893142,-1.8403635025024414,-2.0139042339720667,4.151891154520195,0.6086946420518584,1.3521943092346191,-0.27178721684449286,2.0,0.4899743053855523,0.4950115313264991,0.2909170942051711,-0.5971428323430128,0.44056053127155553,-0.09662744757748794,0.663317414547326
8.1,-0.21357694670414515,-0.16112286346141977,-0.01343144033449091,-0.0021638006415598556,0.04707334874193958,0.23568391931350355,-0.20196743937504316,-0.3880349927595947,0.8992424136340829,-1.8403387069702148,-2.0139042339720667,4.151887222196706,0.6087047296711425,1.3522128085623424,-0.2717965284930628,2.0,0.48996083050990485,0.4950298183239455,0.2909170921162511,-0.5971447830520293,0.44054339665553033,-0.09660982887698799,0.6633296048732579
8.200000000000001,-0.14655952996605218,-0.10572418979173709,0.18979460487772726,-0.0063339741046079204,0.03424805931241948,0.24370272302505216,-0.20259225277041124,-0.3892017510548992,0.8985971988354228,-1.8403733046920936,-2.0138910468299223,4.15189714945609,0.6086823338420505,1.352172803929761,-0.271751244480377,2.0,0.4899539325477041,0.49503388431573153,0.29092381336437234,-0.5971476609709425,0.4405341319083775,-0.09660617025997052,0.6633336999492534
8.3,-0.06716803584131634,-0.17361868524962162,-0.20373287960655662,-0.004491758434528382,0.048647306289229496,0.2340600018596037,-0.20328461177064247,-0.3904662559132308,0.8978927788317862,-1.8403731527319953,-2.0138918362059535,4.151863461495299,0.6087218543267084,1.352192365883856,-0.27176497975636177,2.0,0.48996321814472776,0.4950221536969617,0.2909437088337196,-0.5971251526376795,0.4405372796241885,-0.09660784149926419,0.6633516279542854
8.4,-0.14499845585150997,0.038087160688241584,-0.00653851066767322,-0.0008645632220653592,0.04662318955366545,0.231618995639483,-0.20357780525929853,-0.39096265526692764,0.8976102049832271,-1.8403435711716591,-2.0138918362059535,4.1518759240621534,0.6086941905680131,1.3521789059300453,-0.27177268663515264,2.0,0.4899622852452107,0.4950260289029968,0.29093659265537,-0.5971216253377872,0.4405476340742434,-0.09660553576142993,0.6633482623221328
8.5,-0.17078811316836245,-0.15136756022731768,0.05665960840411591,-0.003957699473291939,0.04909826305677889,0.23859042151745985,-0.2035335906656224,-0.39084356364113076,0.8976721108166676,-1.8403667261902714,-2.0138901236217936,4.1518636555738855,0.6086869187958812,1.3521975329224492,-0.27179180041757867,2.0,0.48996942967560175,0.49501940572754083,0.2909446367650533,-0.5971030518989981,0.4405575433809622,-0.09660821827321224,0.6633580093321477
8.6,-0.12639085952345389,-0.06639108148732373,-0.251883044576314,-0.004727584341357367,0.047872132109078175,0.23382955566021443,-0.2039834216723189,-0.39169418766192626,0.8971970147130293,-1.840327262878418,-2.013913248707726,4.15190502427576,0.6086893094640019,1.3522014262532995,-0.2717565548808128,2.0,0.48996325331729595,0.495026468821441,0.2909180812318033,-0.5971375978545387,0.4405432546894569,-0.09661256700296374,0.6633357685766909
8.700000000000001,-0.23834422153717114,-0.371253431907084,-0.21412486192549912,-0.009946582272901103,0.05499410156214579,0.23520153091862922,-0.20509887119180584,-0.39381817294528915,0.8960142785762261,-1.8403621149842542,-2.0139075442153747,4.151885943334838,0.6086959501485218,1.352225109253092,-0.27180048441050236,2.0,0.48997102036354373,0.4950183487618567,0.29094130086021047,-0.5971255522096335,0.44054218626001657,-0.09661631044420332,0.6633467762639196
8.8,-0.02085160587022597,-0.24620463520417102,-0.10735975711595452,-0.008363653070065638,0.05709229170686078,0.23242700906726368,-0.20435647121635647,-0.39244562415212547,0.8967841444665778,-1.8403655640247512,-2.0139113697905833,4.151871050202543,0.6087069814878194,1.3521657760919654,-0.2717826449331993,2.0,0.4899728567139366,0.4950122866856733,0.2909160445519444,-0.5971293087416332,0.4405622091720534,-0.09661238860330429,0.6633306678117207
8.9,-0.09742993471169878,0.18509010596762093,-0.11915168588892965,-0.005401418656448146,0.03997785934096882,0.23618976376710518,-0.20361846008339649,-0.39108126246447755,0.8975494237080519,-1.8403498786734143,-2.0139042339720667,4.151873429511551,0.6086928993812738,1.3522172885286374,-0.27179682358071,2.0,0.4899687432410143,0.4950320443701054,0.29091633328535227,-0.5971354441071303,0.44054868452606755,-0.09660189100457,0.6633356560653685
9.0,-0.016250260384807383,-0.35679359141850764,-0.1356492677386202,-0.009542167669716804,0.05223824022702132,0.2379842600249693,-0.20351799551067545,-0.3909062031891383,0.8976484219831755,-1.840327262878418,-2.013873532982055,4.151874357868293,0.6086928943456499,1.3521821070853537,-0.2717909414329133,2.0,0.4899591249818708,0.49502849448323755,0.2909262282779293,-0.5971388748931704,0.44053896055209946,-0.09660494324489849,0.663338581169258
9.1,-0.1203144599237405,-0.05755480460826711,-0.12156216231584399,-0.012706507131791042,0.051166689070910695,0.23223128361751197,-0.20341753093795442,-0.39073114391379915,0.8977474202582992,-1.840383435484863,-2.0138861950794893,4.151885593918863,0.608706815625894,1.3521880681376146,-0.2717874166227817,2.0,0.48996107521700655,0.4950408902785056,0.2909211978883631,-0.5971536598866645,0.4405332687313243,-0.09661527221772448,0.6633275471433038
9.200000000000001,-0.18914030664531856,-0.0267509311356441,-0.08372622173759384,-0.006502438050290389,0.053314987205846535,0.23824618871689093,-0.20333889365570118,-0.390563288963875,0.8978382892111678,-1.8403565166490934,-2.013930712927509,4.151880097578202,0.6086955377588424,1.3521919193374212,-0.27178274062461266,2.0,0.48998174275877066,0.49501696648233545,0.29093772718552424,-0.5971261960552615,0.4405554048601903,-0.09661695369526385,0.6633373240604619
9.3,-0.10560695753863504,-0.13585436886444258,-0.0962510408164817,-0.012139660734219291,0.049961792842512565,0.23719424215256513,-0.20328207521420422,-0.3904026355504502,0.8979210319887787,-1.8403571627991977,-2.013903383522576,4.1519049941849895,0.6086630560157674,1.3521877983358035,-0.2717976053605268,2.0,0.48997005706519614,0.49502157907476746,0.2909321410694341,-0.5971262870210006,0.4405546982211568,-0.09661057179363795,0.6633386409983103
9.4,-0.16453799042173992,-0.009357539934259418,-0.1251592770048817,-0.009266858441445957,0.05704078432720429,0.23478048633199877,-0.20340133680944344,-0.39065161411100086,0.8977856733196649,-1.8403503090509183,-2.013903589753929,4.15190343833848,0.6087169694483491,1.352188317229769,-0.27177867864000277,2.0,0.4899599956999169,0.49503609267609566,0.2909384685671373,-0.5971377210343742,0.4405344956404676,-0.09660852955131055,0.663342062805161
9.5,-0.18946392875207213,-0.14713513853784618,-0.2263350967057517,-0.017048398110372516,0.0572681757715534,0.2342507786591875,-0.20352179742417845,-0.39090338206626085,0.8976488294856707,-1.8403024673461914,-2.013911657248723,4.151877108048501,0.6086970094634204,1.352189631676228,-0.2718042487007849,2.0,0.48996829901822253,0.49501833897916797,0.29092766269898057,-0.5971337491069448,0.44054530729454766,-0.09660495786242204,0.6633389782114698
9.600000000000001,-0.10496748599153932,-0.19184958422407997,-0.30040553221828503,-0.015168493472812173,0.05552924040537446,0.23779479992282052,-0.2038420924588327,-0.39145832108078027,0.8973342553781828,-1.8403635025024414,-2.013893096834608,4.151885105565194,0.6087034690424883,1.3522021653833232,-0.27175369334898963,2.0,0.48997858934964883,0.4950179891216405,0.290935125538199,-0.5971235153380775,0.44054854840083696,-0.09661109634156752,0.6633451439453617
9.700000000000001,0.5432154194835062,0.4106830438334197,-0.28693428824972034,-0.0775988257950748,0.06972519917145843,0.2356636888335342,-0.2033237652398476,-0.3904889108537758,0.897874037052344,-1.8403562904754127,-2.0139222917822144,4.151886463165283,0.6087030703299657,1.352211768736089,-0.27179063708711787,2.0,0.4899763556652664,0.49502568776464984,0.2909434865581496,-0.5971225375948309,0.44055448620808335,-0.09660132015951048,0.6633435043186007
9.8,0.39163613476280684,1.3289474552837368,-0.617400388896574,-0.11775897614716843,0.07996089063484614,0.23630514092169247,-0.2035666968791754,-0.3909414842097728,0.8976219294015216,-1.8403513075775135,-2.013903601573493,4.15189790725708,0.6086921290638438,1.3522064252031756,-0.27180282879671214,2.0,0.48997329729971456,0.4950320982449611,0.29092415236533026,-0.5971395767086505,0.4405484443770942,-0.09661248228737827,0.6633305528553675
9.9,0.2927964898348103,1.395494756304786,-0.5744907631321909,-0.1254333332293842,0.08579720832133016,0.2341180105741049,-0.2035344108516081,-0.39087688272729176,0.8976573722695287,-1.8403522703638409,-2.0139286586437333,4.151884237886856,0.6086798281623178,1.3521878072884093,-0.2717737462860672,2.0,0.48998275716273615,0.4950154925041352,0.29088601589497104,-0.5971470452668723,0.44057276514403076,-0.0966230893184394,0.6633061310985654
10.0,0.541638686909316,1.6390176765448787,-0.6280564866928495,-0.149955989303253,0.08081297608687503,0.2412710306986828,-0.20330050929709112,-0.39047080507262805,0.8978872150261724,-1.8403636426461139,-2.0139042339720667,4.151892447727499,0.6086744746093349,1.352200293796835,-0.27177159281716384,2.0,0.48996260422067833,0.4950370285655063,0.290910729225692,-0.5971448541235089,0.44055155068175755,-0.09661132894706115,0.6633239069299363
10.100000000000001,0.505959827586783,1.8502202312820268,-0.8793210999160027,-0.18333473155868163,0.08562898823953957,0.24159947599770365,-0.20324174654466415,-0.3904001904546284,0.8979311911442881,-1.8403944807310362,-2.013900379890629,4.151886463165283,0.6086746587218974,1.3521876265036092,-0.2717722329954778,2.0,0.48996556264940533,0.495040240814384,0.2908959411254418,-0.5971613255025855,0.44054498902537315,-0.09661108372569167,0.6633134722512251
10.200000000000001,0.5898154745803711,1.945719159337243,-0.7827696584798819,-0.1899191772886094,0.08522101904261485,0.24030984395797741,-0.20309689465093084,-0.390110020667312,0.8980900885960326,-1.840361526512032,-2.0139084618636756,4.151866917840758,0.6086732340957358,1.3522005031187143,-0.2717903346089676,2.0,0.4899641692377599,0.4950190527805069,0.29092983426496216,-0.5971413096409158,0.4405474087740965,-0.09661391595326606,0.6633294718214592
10.3,0.5752944012947484,1.7687112561161855,-0.970762579815428,-0.20914543409337613,0.08030954304912519,0.24047616025977364,-0.2030663134749824,-0.38999429532538177,0.8981472648711771,-1.8403531524361612,-2.0138975026870534,4.151904120750938,0.6086684900471191,1.3522015875323907,-0.27175974185628105,2.0,0.48997295390844525,0.4950316051264752,0.2909233530877837,-0.59713788280357,0.44054708337996995,-0.09661341838640196,0.6633328452850542
10.4,0.3578169045178889,2.6811773930636535,-0.9829512314353293,-0.2265263877636733,0.09594612170669294,0.2406519127520176,-0.203046467026743,-0.38989495750300057,0.8981948853375002,-1.8403802380424448,-2.0139289729085017,4.151903198705287,0.6086958291961865,1.3521996006828256,-0.27177226639378615,2.0,0.4899875781809972,0.49501386136519226,0.2909082931381012,-0.5971251755744753,0.44057524354299565,-0.09660696712270159,0.6633265209348527
10.5,0.5574012065139802,2.0010249849947184,-1.0455114356209518,-0.2338526320690121,0.08870444432921419,0.24228439698766402,-0.20304997868122865,-0.38996592811370556,0.8981632790582409,-1.8403848773557832,-2.013920265112073,4.151879096683789,0.6086854916007849,1.3521843784730743,-0.2717850844012659,2.0,0.4899671989337298,0.4950335705308631,0.2908853584691984,-0.5971598188461449,0.44056054947696033,-0.09660665992861078,0.6633051381209374
10.600000000000001,0.320864892614675,2.5695497003166703,-1.1297466854157103,-0.23769577972403683,0.09232767120328798,0.24099215778614452,-0.20314709867158096,-0.39018873211098404,0.8980444751468059,-1.8403810864154382,-2.013916154901022,4.151895654874891,0.6086989833779957,1.3521996135052161,-0.2717709459047303,2.0,0.489978221844544,0.4950243698710391,0.29090546498509684,-0.5971531624616032,0.4405579285302423,-0.09661968761745787,0.6633109739299907
10.700000000000001,0.31170009609807076,2.282466934631703,-1.126032943156934,-0.2496110107444467,0.09957628619463658,0.23999833482512356,-0.2033832495904763,-0.39061566621330923,0.897805439835406,-1.840390307513066,-2.0139146733246647,4.15189147405453,0.6086938727444409,1.3521943092346191,-0.2717821212485514,2.0,0.48997759739301283,0.4950233749961585,0.2909177822672494,-0.5971385346390325,0.44055146841641746,-0.09661835922653687,0.6633286265386553
10.8,0.1770266096386615,2.471408732074098,-1.1435419277807923,-0.22322681623838694,0.10674624801360995,0.23653662691642446,-0.20314961252467323,-0.390145120169517,0.8980626301466988,-1.840400513957664,-2.0139297349698957,4.151887234996482,0.6086852702692148,1.3521872475988046,-0.2717829484241889,2.0,0.4899735401863407,0.4950198047359969,0.2908979788149403,-0.5971547746825631,0.44054222796575987,-0.09662653079466062,0.6633189534450002
10.9,0.37196535226153493,2.5496647328462876,-1.2682247555076416,-0.245970361312645,0.10730675770558187,0.24410667958809146,-0.2028550600895686,-0.389558201769849,0.8983841638810841,-1.8403714746910997,-2.0139467918155103,4.151902828094562,0.6086750133014341,1.352188978327347,-0.2717643758768631,2.0,0.4899811793964499,0.4950091421433175,0.2909163785325068,-0.5971288494190489,0.44056077377135316,-0.0966265250457878,0.6633299755499107
11.0,0.6970972917298196,2.256548398305559,-1.0931661328029587,-0.24690199402533428,0.09801446803235345,0.24017809677917298,-0.2029459888793695,-0.389797731053323,0.8982596900916495,-1.840372618700634,-2.013934595884263,4.151886463165283,0.6086945702642641,1.3522255742914462,-0.27177268663515264,2.0,0.4899628834560982,0.4950303103187004,0.29091079449512675,-0.5971448139104265,0.4405472967722952,-0.0966112613084498,0.6633267782284202
11.100000000000001,0.6510748245000129,2.379505453273238,-1.1477597679951768,-0.21912920745882675,0.0967374976017486,0.24157524879710648,-0.2030920531681278,-0.3901554674048155,0.8980714237079827,-1.8403455151604644,-2.0139016874967415,4.151895734968377,0.6086956784682164,1.3522084929643057,-0.27176352513214225,2.0,0.4899566886612582,0.4950364007632132,0.2908752030512334,-0.5971730066092705,0.4405482584955699,-0.09661196400133266,0.6633006562077035
11.200000000000001,0.5804171032097165,1.837360349561036,-0.8937424756404302,-0.2190315494215738,0.09529545237191522,0.24046157322876943,-0.2037546428481508,-0.39136051566880836,0.8973958835043706,-1.8403818053456364,-2.0139256675701858,4.151878461288652,0.6086923319050292,1.352170467376709,-0.27178011694916726,2.0,0.4899682911044859,0.49503928982285644,0.290900415540551,-0.5971450113360423,0.44054644720934766,-0.09661405842288608,0.6633267573396682
11.3,0.35117771227302097,2.0415768492395383,-0.8994178865577956,-0.20478983841702034,0.09775124521572057,0.2452437307462543,-0.20402639082127375,-0.39183223951824564,0.8971289097616624,-1.8403512416908216,-2.013901698459442,4.1518785262953966,0.6086997018556386,1.3521892814191152,-0.2717680455746874,2.0,0.4899574335005345,0.49502751322479266,0.2909218168204374,-0.5971383393456613,0.4405458081760376,-0.09661503259934207,0.6633330461071992
11.4,0.6934161073046952,1.937473367001992,-0.8231061693003349,-0.19604285538539873,0.0890350161085807,0.24521442653852527,-0.20364016504368893,-0.39111526918418144,0.8975296815612379,-1.8403501510620117,-2.013928075829977,4.151880712214315,0.6086976720737854,1.3522008239398717,-0.2717915991065186,2.0,0.4899759162971614,0.4950342286673088,0.2909225203146728,-0.5971429095620969,0.4405523392423377,-0.09661872308126192,0.663324056776146
11.5,0.5446685625178399,1.995538543234805,-0.8516219658675854,-0.19305175971728164,0.09317585997110478,0.24446405255363945,-0.20362712900656574,-0.3911194299640837,0.8975308260271414,-1.8403635025024414,-2.013921060092187,4.151886463165283,0.6086825215226991,1.3521729813917376,-0.2717824970174828,2.0,0.4899700615208665,0.4950239648487134,0.2908997741134298,-0.5971394514158971,0.44056231903949467,-0.09660963056915299,0.6633218659795227
11.600000000000001,0.4610137534281073,1.8032935817757716,-0.8325069638115382,-0.19150556957599066,0.09317010960780535,0.24195972069473176,-0.2037250748509331,-0.3913321952995903,0.8974157161247053,-1.8403481808357622,-2.013928075829977,4.151864069960137,0.6087058139444621,1.3521986817879488,-0.2718012654258365,2.0,0.48995448016496745,0.49504135066680355,0.2909026943394782,-0.5971607047953439,0.44052913264147675,-0.0966059834568182,0.6633253047357813
11.700000000000001,0.4959380707686641,1.1211619021407917,0.06088426308014283,-0.151307765636346,0.10698200862094946,0.24260275041942977,-0.20404076106750985,-0.39195423134642216,0.897072521519674,-1.8403291194452314,-2.013928075829977,4.151886463165283,0.6087073039921639,1.3521793371474846,-0.27180189166185725,2.0,0.48995251664162137,0.4950347736019106,0.29090453219377854,-0.5971614497505728,0.4405328590332458,-0.09660974667286966,0.6633216112049962
11.8,0.2955456902765924,0.9252576119117859,0.6677094367812324,-0.14025758515148787,0.08661752265598786,0.251912315899848,-0.20386417888084304,-0.391545877996958,0.8972909978279343,-1.8403410506711935,-2.013942438114118,4.151891013360692,0.6086897928956357,1.3521773612730967,-0.27178015502290603,2.0,0.4899735094846847,0.495031196153536,0.2909222267007281,-0.5971337317965806,0.4405411947025888,-0.09661690579350406,0.6633399849516042
11.9,0.2060415617540421,1.3619484587040351,1.0628873466418252,-0.16377961663763127,0.08764324913227572,0.24571587163174724,-0.2036452037075369,-0.39112788580049174,0.897522918495986,-1.8403586215713397,-2.0139583276490054,4.151894830475743,0.6086872977743508,1.3521819114685059,-0.27179234483783277,2.260799018173778,0.48998505961853855,0.49502373141699696,0.29091441845346566,-0.5971369185989968,0.4405583096558599,-0.09661824700823711,0.663325553996167
12.0,0.29795588144090224,1.888042960232914,1.5735563961407968,-0.18143463862493267,0.09908314545496387,0.24267338703132454,-0.203439638136053,-0.39075556398891853,0.8977317666427568,-1.8403452378006084,-2.013923285011493,4.151891376426686,0.6086570459553222,1.3521896357548497,-0.2717965284930628,3.0,0.4899634836172389,0.4950411476051935,0.29090224046368274,-0.5971558140205799,0.44055123204962304,-0.09661118430175915,0.6633142730175411
12.100000000000001,0.5443345994608217,2.060330342522159,2.1931423059904525,-0.1938021997139791,0.08561708929932474,0.24290651691270684,-0.2031182738347292,-0.39016104989918965,0.898062882645347,-1.8410316003208924,-2.0134513048412708,4.151927043283539,0.6088906299933446,1.3521388320351537,-0.27175953058908014,3.0,0.48996322904455003,0.4950298060753517,0.29092071992551727,-0.5971350329772763,0.440557646909292,-0.09660299098664771,0.6633299135976067
12.200000000000001,0.42677172973249855,2.2032001735181974,2.831610104976278,-0.215697035686855,0.07481449173888328,0.2477832082894621,-0.20277423314420429,-0.3894991184403619,0.8984279499689222,-1.8424852394257616,-2.0123828215715895,4.152097736643922,0.6092686318997275,1.351940527072003,-0.271742716071083,3.0,0.4898803692773054,0.4949280509347108,0.2909074111464682,-0.5971523517675035,0.4405477365061893,-0.09660698431661094,0.6633203232368681
12.3,0.3307551363692716,2.346442448550992,3.3934370904217004,-0.24190527542561466,0.0683157654831134,0.2446440240864435,-0.20244127498130363,-0.3888019190348604,0.8988049824359525,-1.844026025185445,-2.011330172259606,4.1523863951610815,0.6097993583214164,1.351691337590438,-0.2717444585103384,3.0,0.48944562391653607,0.49439755363379984,0.2910286558681287,-0.5971279382912468,0.44056346323998413,-0.09662863765076479,0.6633287017428039
12.4,0.031194508594468096,2.386757034498657,3.743975406525106,-0.24422177877742637,0.05080945527843052,0.221712581521455,-0.20214561560011374,-0.3882704285789986,0.8991011312620663,-1.8455051513685194,-2.0103217322623452,4.152647699045865,0.6102744775959472,1.351449240672578,-0.271716098509133,3.0,0.48923323289153814,0.49421607563188813,0.29106017011851354,-0.5971244613286097,0.4405594653192192,-0.09662433200946034,0.663335114149995
12.5,-0.2773134521361649,2.197809457849281,4.207433471061295,-0.23165453068743594,0.03251252675834775,0.21342757966925485,-0.20185988026528792,-0.3877830281234997,0.8993757594656361,-1.8470240164408136,-2.00926625258056,4.152838125107874,0.6107607989847234,1.351217542620461,-0.27165283640659665,3.0,0.48872697402550325,0.49376765602907946,0.29112523069964247,-0.597121980148697,0.44053967748750106,-0.09659196503786759,0.6633552032453134
12.600000000000001,-0.34699372135151774,2.421822174439647,4.330007674039553,-0.23716068864067893,0.029317606193736287,0.21861497472617397,-0.2015284440515868,-0.3871688655745376,0.8997144970299673,-1.8485880670145638,-2.0083560064497634,4.153092207459571,0.611209005654285,1.350974157936365,-0.2716498126275115,3.0,0.4885148703196898,0.4935049099479789,0.2911484682577962,-0.5971086920769597,0.44057114912008116,-0.09661286199693453,0.6633432198386557
12.700000000000001,-0.29417017794337,2.346561793913863,4.552183403653343,-0.24276495866892822,0.018542019308882166,0.2114306566763647,-0.2016344678509959,-0.3873623719083546,0.8996065843400181,-1.8498651760776827,-2.0073792464698403,4.153313159942627,0.6116134363361816,1.3507354520344093,-0.2716736367581922,3.0,0.4880083994773711,0.4930356660968712,0.2911069491673138,-0.5971830747754985,0.4405706663458271,-0.09661195722504519,0.66327670913309
12.8,-0.012449102925797595,2.936647445756417,4.4392916935944395,-0.25938124467431245,0.015218339512619545,0.2157527005196536,-0.20257583530205206,-0.38911105291781234,0.8986409654184324,-1.8512748708110849,-2.006311637489623,4.153523393131558,0.6119867182434302,1.350542824530995,-0.27163175525598565,3.0,0.4878349363590639,0.49285487474314355,0.2911793407816658,-0.5971511420284542,0.4405638826627347,-0.09661056396278564,0.6633101671149341
12.9,0.0032507560729587645,2.4715794252153755,4.513166934365387,-0.2652257751232504,0.0071016159788209535,0.19852543067507292,-0.20245424262575018,-0.3888425937791593,0.8987845587471454,-1.852896028824927,-2.005201518219237,4.153758700507796,0.6124202838359752,1.3502614357102085,-0.27158829652680233,3.0,0.48750850659250505,0.4925031052257961,0.2912699269717026,-0.5971392411690465,0.44056113044049716,-0.09662663319063272,0.6633203681173143
13.0,-0.4097118047801144,2.73656888372229,4.741765923752,-0.26522503768617894,0.009661511469821733,0.18300178465514913,-0.20215525713599566,-0.38833228561275374,0.8990723961338368,-1.8543266776050176,-2.0041296739077623,4.153968042039346,0.6128942209431152,1.3500722466031947,-0.2715501321577872,3.0,0.48692654060989315,0.49195361974085644,0.2913597599641734,-0.5971588192905322,0.4405454235394386,-0.09662354940651981,0.6633136241945287
13.100000000000001,-0.25950162133250365,2.5599995166499867,4.921244208869728,-0.2753775398243607,0.009883062516253564,0.1825674810104656,-0.2022663844573065,-0.38850104506008865,0.898974450007958,-1.8556363370101814,-2.0032398843886883,4.154196874489837,0.6133370782866391,1.3498142332893655,-0.271536833930504,3.0,0.48675432171778144,0.49174777225868904,0.29141317794183363,-0.597130443864073,0.44056551292643265,-0.09662466231009988,0.663325663957022
13.200000000000001,-0.4364592509073288,2.6031568363907223,4.774057302835456,-0.2709139826684145,0.0041851334933703434,0.18185696810127183,-0.20249161259460977,-0.3888815228795113,0.8987593069817224,-1.8572125809698115,-2.0023516429805692,4.154478913147475,0.6138135820253048,1.3495995715765385,-0.2715163774420742,3.0,0.486304663094214,0.4913283168347326,0.2914764739976024,-0.5971130203075188,0.44055496645112957,-0.09662090919835684,0.6633488994640451
13.3,-0.291774941088869,2.613465537372879,5.006828575001555,-0.2887685399117893,0.0053874234846039365,0.17336279236903065,-0.20255107717443152,-0.3890839363555463,0.8986582959322387,-1.858807616604213,-2.0012530246803695,4.154683400110367,0.6142462356538944,1.3493697600991719,-0.2714888472023167,3.0,0.48605438617597974,0.4911393000152722,0.29143560056024115,-0.5971551694991325,0.4405524142601201,-0.09660479084288472,0.6633149992396106
13.4,-0.3085869323446454,2.7702792793262923,5.18830304647194,-0.2915473690904831,0.0021596046800949863,0.16443268305895456,-0.20282665519773724,-0.38961982323159755,0.8983637010759652,-1.8601680305591788,-2.0001062799539304,4.154912252613843,0.614650829820324,1.3491790146613187,-0.27146964181771166,3.0,0.485746233825163,0.4907633929459632,0.291411651539485,-0.5971923608976697,0.4405722357985516,-0.09663756480284533,0.6632635752081588
13.5,-0.6689585865062551,3.1918837430052545,5.092617912954061,-0.3047090807123062,0.00607957830401207,0.158906148191906,-0.2030847552973677,-0.39010077462322235,0.8980968485384508,-1.8615342945353675,-1.9989236753321025,4.155148029327393,0.6151009061316276,1.3489440805444493,-0.27146810487071255,3.0,0.48519488159643775,0.49022592205557525,0.2916453538849046,-0.5971231092156749,0.44053525527379955,-0.09660296620226538,0.6633555217395707
13.600000000000001,-0.157160058093201,2.5338662258314404,5.050506386118658,-0.3113041467573072,-0.009974666009014442,0.1488206294830243,-0.20296805346762198,-0.389899586625089,0.898210586389618,-1.863136449596818,-1.9980718098082484,4.155391614068779,0.6155045983880362,1.3487629890441895,-0.27142002028800893,3.0,0.48498292093549855,0.4900264504145402,0.2917794094570368,-0.5970723407865713,0.4404993800122165,-0.09660254102362634,0.6634251013824214
13.700000000000001,-0.12513017568410797,2.7271729504729194,5.33389510097766,-0.3096284921147569,-0.015289036877132445,0.14679108407956304,-0.20258957630495214,-0.3892272330516043,0.8985871824013684,-1.8647350130240519,-1.9971482461960475,4.15561980295978,0.6159892233598947,1.3485430195371408,-0.27140486115268775,3.0,0.48467804583452545,0.48970860232714375,0.2917386627721547,-0.5971158083997044,0.4405213381048337,-0.096599352972057,0.6633718618081973
13.8,-0.15845128946832804,2.7134149689714007,5.377743696809891,-0.3182345485599384,-0.016600835152869014,0.14311292004653545,-0.20199507943490805,-0.38816199878782376,0.8991811889055848,-1.8660183288293875,-1.996193155675362,4.155870667655324,0.6163913951819192,1.3482981570853754,-0.2713736720754177,3.0,0.4843373467633451,0.4893652323840399,0.29165940118960565,-0.59718756436498,0.44055319183262476,-0.09659614562193339,0.6632865766656941
13.9,-0.4096297992120427,2.867797388606086,5.277810503814075,-0.3325754089019692,-0.007695860727689002,0.14042870182417475,-0.2009627702876035,-0.38629186664613135,0.9002168816222025,-1.867479898405331,-1.9950345351978973,4.1560623522795215,0.6168545562268456,1.3480707105341798,-0.2713481398907488,3.0,0.48399098558809234,0.4890290648645483,0.29164149744611734,-0.5972287296971003,0.44056439601481023,-0.0965936837137483,0.6632424275143305
14.0,-0.4868893851094396,3.063087358942509,5.4915829506342195,-0.33271601205501045,-0.020059296561909,0.1325593512709611,-0.2002273820264937,-0.3849421016785886,0.900959554469499,-1.8690188845297449,-1.9938009414351519,4.156314697122215,0.6172928967326256,1.3478627294526064,-0.2713292370411282,3.0,0.48365635963570003,0.488711949876246,0.2917580547065887,-0.5971952469116077,0.4405345673178473,-0.09659264491211123,0.6632925395428052
14.100000000000001,-0.40387425244130537,2.973120807142592,5.270097400093368,-0.3398846937533726,-0.029979274624376957,0.12062595175939031,-0.20134122808432942,-0.38699493110874245,0.8998247122943894,-1.8704777360833382,-1.9928640976595278,4.156513315962664,0.617700105013602,1.3476306305426464,-0.2712530638819007,3.0,0.48325038626369365,0.48826480490460733,0.29197555121326174,-0.597119034336322,0.4404960410676243,-0.09659792933826383,0.6633859635872374
14.200000000000001,-0.30419028220427474,2.997283676738433,5.447718934087866,-0.33919652983248655,-0.03233105698099185,0.12590103888560875,-0.20279339262309706,-0.38966879879138877,0.8983480249137908,-1.8719176691153954,-1.9919609598728154,4.156765824474137,0.6181208480792141,1.3473832040614095,-0.2712934652911585,3.0,0.482790303567094,0.48779129799280835,0.2919867634801541,-0.5971404590206476,0.44052499932402706,-0.09658495572702512,0.6633493374522847
14.3,-0.6096899126337663,2.9709639274812014,5.627729278327007,-0.34399280050248915,-0.03443945754330352,0.11478454567655887,-0.20121416565300543,-0.38672223554888163,0.8999695029682641,-1.8733654214421784,-1.9909815392379457,4.1569847726291025,0.6185042957848838,1.347136378390361,-0.2712613383365786,3.0,0.48261251809150585,0.48758784962658985,0.29198783599238937,-0.5971487159516858,0.44053298833730353,-0.09661299571960398,0.6633325156224005
14.4,-0.5080173484949335,2.9555572467067543,5.689957147901467,-0.35833986682078534,-0.03864201084083875,0.11275574969090034,-0.19976457123127456,-0.38400974715608704,0.901460104797241,-1.8748597070082345,-1.9898997745909632,4.15720689997566,0.6189896350032258,1.346909871296287,-0.2712281339336846,3.0,0.48202648854498503,0.48702625759926044,0.29200339887087184,-0.5971882334703511,0.4405455898368521,-0.09660502476439739,0.6632897302613178
14.5,-0.6747398371268152,2.845388686775922,5.713928969139155,-0.37001358714080673,-0.043826421942336206,0.11177666538707681,-0.19923131680117512,-0.38295577026988464,0.9020264555935275,-1.8762398494801915,-1.988797945117113,4.157410835710687,0.619384835843736,1.3466603622848712,-0.27119111312134536,3.0,0.4816850543897841,0.4866631757547636,0.29209632895411236,-0.5971725584091844,0.4405498585895671,-0.09663084580354034,0.6632972465034316
14.600000000000001,-0.7333893868357251,3.3043060730584752,5.9574995383011204,-0.36724248407287724,-0.04974535518927139,0.09709588642858345,-0.19942319874491884,-0.3832394863085075,0.9018635294180863,-1.8777189254760742,-1.9877254850324282,4.157629489898682,0.6198074735341809,1.3464373867521962,-0.27118687659346563,3.0,0.4815012010871874,0.48644112202886225,0.2921744572651587,-0.5971358624170879,0.4405454653906418,-0.09663245486558741,0.663332965716158
14.700000000000001,-0.7002628039668404,3.2428156463016617,6.03188292347701,-0.36788326170111696,-0.05808048350084468,0.0964040090122868,-0.19917336519981735,-0.3827482633549787,0.9021273344674822,-1.8792661921261664,-1.9867805096896174,4.157844473528754,0.6201847211128309,1.3461987960598276,-0.2711422744471726,3.0,0.4810713353442251,0.48599953357340053,0.29224337442767134,-0.5971321406496993,0.4405529398415196,-0.09662237382057984,0.6633328204433869
14.8,-0.8468079826845972,3.2411679804788975,6.049038244141375,-0.3685505824547591,-0.07332717878246035,0.09087618248140636,-0.1992955111009873,-0.38293411588217885,0.9020214718518675,-1.880549430847168,-1.9857784710326136,4.15811197754312,0.6206918010806871,1.3459506119391835,-0.2710984346664154,3.0,0.4808105886704307,0.48571064045415296,0.2922288909269976,-0.5971481206515112,0.44057712174826236,-0.09662150232591171,0.6633025004345068
14.9,-0.762030110296423,4.785296286448475,6.223856510362155,-0.42038923013508195,-0.07218308169223388,0.05680327469288063,-0.19898338465759924,-0.3823437435098894,0.9023402022470798,-1.8819398492691481,-1.984744639659454,4.158348560333252,0.6210868090480264,1.3456773273792817,-0.2711088324825833,3.0,0.48040390084621964,0.48531073049058293,0.29231734113802904,-0.5971169675281933,0.44056640134869646,-0.09662792337851733,0.6633367301123534
15.0,-1.3655792866954708,2.9488188549604724,6.2273771243175515,-0.3653679464904891,-0.1075384887262085,0.07432266523061061,-0.19847840226888852,-0.3814104747032672,0.9028467970605313,-1.8835382461547852,-1.983678410799099,4.158591764533859,0.621497316951416,1.3455005297770424,-0.27108038847022986,3.0,0.48014154133247744,0.48509262713445234,0.2924201496895103,-0.597091765476491,0.44054106199326415,-0.09661823708880667,0.6633776545527179
15.100000000000001,-1.8608421621097282,2.647041827567966,6.247612948961923,-0.34988066696497516,-0.1739719851437619,0.0610294519046821,-0.1987392335422028,-0.38187474739943966,0.9025931453400619,-1.8851165616999843,-1.9827429459500276,4.1588447566976905,0.6219642505804068,1.3452720642089844,-0.27102977434267217,3.0,0.47980665605578715,0.48472158514717073,0.29242359394613787,-0.5971080461628223,0.44056280677526455,-0.09662422454574462,0.6633476869069879
15.200000000000001,-3.6077114484565853,1.4276307308991032,6.622495936199051,-0.3168707356380322,-0.30415098178837835,0.02348435314855187,-0.198797974382084,-0.38209853204324473,0.9024854832498302,-1.8859978807418432,-1.981982942461875,4.159079074859619,0.6223801788628089,1.3450779664413541,-0.2710178534137171,3.0,0.4792835173965361,0.4842236639009722,0.29239942427367377,-0.5971689916287017,0.44055323140462266,-0.09662710455207621,0.6632987625512252
15.3,-3.1406853531041574,2.3049654154541974,5.995548850535361,-0.33381076301552054,-0.3419884122168621,0.033267882114398746,-0.19891767672144348,-0.3823620359629991,0.9023474702927079,-1.8860139846801758,-1.982009073297018,4.159083273813687,0.622391863460205,1.3450699177323269,-0.2710037455295184,3.0,0.4790714521067266,0.48405147211573174,0.2924482062060802,-0.5971422867938315,0.44053932346818486,-0.09659328609600323,0.6633369663165194
15.4,-3.7633992596924264,2.0118898710835698,5.864737214579739,-0.3083529995577566,-0.38320284596096593,0.024149737245177598,-0.19906066635099726,-0.3826125956292034,0.902209754455013,-1.8861140947940582,-1.9819663771043536,4.159088452849451,0.6223642325943695,1.3450353209822716,-0.27102263462996923,3.0,0.4790421760816956,0.484029517340556,0.2924946057784485,-0.597109881348592,0.44052813941215024,-0.09660161231533874,0.6633723513080845
15.5,-3.7592119311071897,1.66063394214137,5.851467884746343,-0.30364819946521127,-0.43090371393453664,0.017917148622694536,-0.1989415498151834,-0.38233452876787805,0.9023538748030924,-1.8861875314074166,-1.9819180166483532,4.159079074859619,0.6224416206187432,1.3450331687927246,-0.2710215905635265,3.0,0.47904051974060113,0.4840149411947718,0.2924989116141835,-0.597101769819772,0.4405393658978407,-0.09662760839240986,0.663368411117674
15.600000000000001,-3.8445170299856093,1.7830570539750206,5.682788140923012,-0.28319214032092166,-0.447413363961773,0.019991667795976595,-0.19922505686109557,-0.38285756277589666,0.9020689391543728,-1.886232623218372,-1.9819290683097688,4.159093960466852,0.6224114701798895,1.3450078060377044,-0.2710278537243457,3.0,0.4790190232477586,0.4840088834787356,0.2924752040612176,-0.5971208191413181,0.4405387815799009,-0.09661123456373948,0.6633540371688167
15.700000000000001,-3.7618824235929504,1.8401507288982688,5.571069550601857,-0.2797698083408216,-0.44942058652833217,0.024164178282490192,-0.19977526172479063,-0.38391665585699447,0.9014975393165392,-1.886188369149776,-1.9819208487796,4.159122285350763,0.6224055441643405,1.3450433299464992,-0.2710183302508753,3.0,0.47902225107595875,0.48399011937185626,0.292451150805486,-0.5971383881347825,0.4405473554511098,-0.09662069728370525,0.6633311494851105
15.8,-3.730066788817436,1.9225324931166399,5.671449054527211,-0.2797439632270642,-0.4470958892606436,0.025957379194187866,-0.19947600577827979,-0.38338930987709935,0.9017880798032663,-1.8861971930456631,-1.9819333039688187,4.159121032861127,0.6224014994316929,1.3450217247009277,-0.27104021331178396,3.0,0.4790132774821437,0.48400387488030666,0.29245907367121654,-0.5971395601911994,0.44053807997566125,-0.09661443232617561,0.6633371670668767
15.9,-3.70672980366071,1.978858859720972,5.700633189277927,-0.2777284856460196,-0.4460477770347009,0.028929418745427562,-0.19940050091671072,-0.3832513968555353,0.9018635002170122,-1.8862429503473515,-1.981901308099264,4.159082662310322,0.6223595102411096,1.3450351119951887,-0.2710183302508753,3.0,0.47901572747855065,0.4839954825559494,0.29245816987290085,-0.597142480712953,0.44054170541785365,-0.09661639737793712,0.6633318440066165
16.0,-3.6780527497003628,1.9562130948637868,5.6055024303885315,-0.27681820022228537,-0.44657512322409093,0.03106419614256116,-0.19951740344993013,-0.3834485330434953,0.9017538612554987,-1.8861882865276565,-1.9819328240652128,4.159088480477376,0.622391863460205,1.3450391113910447,-0.27105196962728223,3.0,0.47901804946694393,0.48398835572559995,0.29245588475483586,-0.5971413804997118,0.4405479250270141,-0.09661031231239417,0.6633295900260987
16.1,-3.5683900123286523,1.9061629869858552,5.570373260574123,-0.2788904954388354,-0.44526245129666725,0.03245649918880001,-0.19963906122818803,-0.38366355976180927,0.9016354476437048,-1.8861807978125948,-1.9818910994309222,4.159087094430189,0.6224106370267,1.3450147386776257,-0.27104039135774766,3.2253252739546436,0.4790158168997452,0.48399484803699583,0.29245345012584434,-0.5971379395041949,0.44054954802003976,-0.0966013095559991,0.6633329208897214
16.2,-3.781691919652273,1.8303014312152488,5.402652921967174,-0.279864263747855,-0.43962277498411634,0.03123507491130942,-0.19957225045987712,-0.3835459631957715,0.9017001995386582,-1.8862410299206764,-1.981901308099264,4.1591037996386495,0.6223819935930683,1.3450422869241292,-0.271040466698737,4.0,0.4790211422199338,0.48398516725580054,0.2924643788812074,-0.5971348812867336,0.44054712492786097,-0.0966217794451811,0.6633343018458497
16.3,-3.9046236978985083,1.8750752689870254,5.3096371449372,-0.2802500098706275,-0.43698866469768116,0.033844509506820705,-0.19932168106599496,-0.3831040557636596,0.9019435395449156,-1.8862408526885461,-1.9819049042199195,4.159101963043213,0.6224262331014876,1.3450198547181869,-0.27104682887401654,4.0,0.4790107966732092,0.48399839880214973,0.2924754951645699,-0.5971320297217815,0.4405364742037965,-0.09660944304784283,0.6633457390308759
16.400000000000002,-3.9116208005342576,1.954780849522936,5.2663223446756104,-0.27674138749365845,-0.4364750736269723,0.03248666776532785,-0.19910384448461874,-0.3827052659712873,0.9021609255312144,-1.8861850495345764,-1.9819251499571742,4.1590805601710255,0.622391863460205,1.3450331687927246,-0.27104217210878545,4.0,0.4790125737552245,0.4839889382843609,0.2924755060562016,-0.5971322552620584,0.4405335500282445,-0.09661141045502508,0.6633471914428001
16.5,-3.6146298056498734,1.722152210176216,5.2888759148623485,-0.28162672646506026,-0.44027362584555985,0.038567008058960454,-0.19957784866086956,-0.38356031110605104,0.9016925991347022,-1.8862311725177308,-1.9818923468882503,4.159080495524231,0.6223804193684082,1.3450122866527559,-0.2710183302508753,4.0,0.47902202463841326,0.4839860816991853,0.29247326491543324,-0.5971368659116162,0.4405418713667806,-0.09662532607353333,0.6633354877458998
16.6,-3.6605436636344395,1.7998293659790348,5.319393223850721,-0.28204274882123587,-0.43732575628675824,0.03580860842026683,-0.20007156466794598,-0.38444589963372067,0.9012058956039559,-1.8862252092242426,-1.9819027244977643,4.159122452723999,0.6224209644357868,1.3450202516464873,-0.27097872474483886,4.0,0.47901652471010364,0.483977792637714,0.29245321479978054,-0.5971452455559302,0.44054755762423436,-0.09662054196448085,0.663324864641572
16.7,-3.6783275868776415,1.7711604559172085,5.326723336005898,-0.2770669144460377,-0.4361378372138419,0.03803420738141405,-0.20057784814477803,-0.3853486190465752,0.900708000170842,-1.8862166494250834,-1.9818769894041957,4.159091940510219,0.6223695616243318,1.345020184678891,-0.2710183302508753,4.0,0.479027923229801,0.4839741380165065,0.29245919736547293,-0.5971315651839242,0.4405537520329825,-0.09663153751202454,0.6633314641932193
16.8,-3.302590348799976,1.6717466242348489,5.432037177542103,-0.287309509833402,-0.44322439574291905,0.037615752777942685,-0.20018535278174898,-0.3847046108488078,0.9010703380989011,-1.8862204706515022,-1.9818913097424826,4.159080620580785,0.6223894637925894,1.3450237475175357,-0.2710108315478602,4.0,0.4790103320445746,0.4839869264298854,0.29247174185178515,-0.5971388972811748,0.44054443757123385,-0.09661369666292156,0.6633336486987471
16.900000000000002,-3.5111266287975162,1.6654364804023725,5.332779936984747,-0.28135192044319457,-0.43975897976765316,0.03780719431169312,-0.19992871375681423,-0.38426394365539035,0.9013155490012549,-1.8862053779943666,-1.981902423186517,4.159101963043213,0.6224000068937332,1.345053709992366,-0.2710194007346381,4.0,0.47899524356270956,0.4840075015712925,0.29244640078537426,-0.5971577687809826,0.4405302033741815,-0.09660015238000232,0.663328085987456
17.0,-3.613321575041823,1.9652359159852697,5.444096639888073,-0.27826933178865815,-0.43734396068540105,0.039038387181205,-0.19987255638685825,-0.38413191340551467,0.9013842867161628,-1.8862079365658235,-1.9818879683570976,4.159109748370274,0.6223790005551967,1.345027181674818,-0.27101144402839117,4.0,0.47900477161612776,0.4839913502287415,0.29246332118051555,-0.5971425938973146,0.4405443866582589,-0.09660410939873448,0.6633317510754049
17.1,-3.5110420952779746,1.717904035759934,5.234739139911752,-0.2808380688992247,-0.4368121669772236,0.038225419972149365,-0.2002342863554677,-0.3847963865924643,0.9010202773188021,-1.8862142656553003,-1.9818807215533862,4.159082587470622,0.6223734368775911,1.3450253836707224,-0.2710486045830484,4.0,0.4790189433662278,0.483990496939095,0.29244003792189444,-0.5971482955468831,0.44055759371092756,-0.0966044660770711,0.6633177947884815
17.2,-3.8011498025222283,1.6745996089776714,5.346310862676326,-0.2772019036075751,-0.42855624911177087,0.033865815789350606,-0.20034390349450543,-0.3849890300800089,0.9009137113598209,-1.886209255023144,-1.981901308099264,4.159109729705152,0.6224033075520019,1.3450441429878501,-0.2710270367061574,4.0,0.47901347638459335,0.4840007310845658,0.2924080325100998,-0.5971708017821957,0.44056371511717624,-0.0966041369700762,0.6632935150755118
17.3,-3.57898571262909,1.3468136265505022,5.353415280123367,-0.2892453680902306,-0.4336674001220574,0.0433872353651964,-0.2000915031624317,-0.3845030881713939,0.9011772636305723,-1.8862415050842603,-1.9818769894041957,4.159111619168613,0.6223256079006296,1.3450283065361062,-0.27102977434267217,4.0,0.4790202665133135,0.4839902649949194,0.2924380912408767,-0.5971498338669486,0.44056070019043364,-0.09662264148979316,0.6633116993630712
17.400000000000002,-3.7222625923882267,1.8142564444430083,5.202909566764084,-0.27698754876265524,-0.4322002916921415,0.032803680159982106,-0.19976144322006176,-0.38387223802725773,0.9015192601451603,-1.8862159589401155,-1.981911028982624,4.159099850999442,0.6224134172706964,1.3450331687927246,-0.27099660043673635,4.0,0.4790131962447864,0.48398623565071086,0.2924430961481516,-0.5971470780883011,0.440548985000299,-0.09661376331738449,0.6633232542911968
17.5,-3.5510785955296145,1.8747901953355681,5.161627504335971,-0.2768999552184763,-0.43655606496201493,0.041803649388090336,-0.19932557094540088,-0.3830439483349422,0.901968138066486,-1.8862263378447455,-1.9818801666351338,4.159124584680587,0.622369108549721,1.345077758888947,-0.2710287710065864,4.0,0.4790151184173855,0.4839817142983669,0.2924849444877684,-0.5971230785745081,0.4405460001559538,-0.09661951911623157,0.663346002706009
17.6,-3.658675302409634,1.7203044587236593,5.11197844387959,-0.2789293025707624,-0.4347513656228138,0.04392150720779389,-0.19944335414489242,-0.38332369698528185,0.9018231970783745,-1.8862295150756836,-1.981881547562455,4.159106198167124,0.6223818587868059,1.345020165330997,-0.271025336135946,4.0,0.4790212261582069,0.48398704939552933,0.2924883925110971,-0.5971226625057421,0.4405401519485314,-0.0966187132963311,0.6633503785211702
17.7,-3.6455087995069797,1.794889438000943,5.127232798602098,-0.2775578042283475,-0.4323878320141228,0.046786027734171225,-0.1996116935483282,-0.38370462446441395,0.9016240324235731,-1.8862404188126776,-1.9818881633185912,4.1590929666548515,0.6223895098992093,1.3450331687927246,-0.27098331447856966,4.0,0.47899102435673907,0.4840006067659178,0.29247244806725753,-0.5971426513908422,0.440524071119031,-0.09659877780319258,0.6633459676379736
17.8,-3.540911581009809,1.5661175266054843,5.186042012731451,-0.28443996373089553,-0.4298914727566281,0.04359790206484134,-0.1994363993125533,-0.3833361695985129,0.9018194622580745,-1.8862180709838867,-1.981899401390681,4.1590819162292725,0.6223822139176627,1.3450551413284946,-0.27100970851548506,4.0,0.479003369280842,0.4839898274176882,0.2924795638936455,-0.5971149897112414,0.44054979561756163,-0.09660671585498495,0.6633526280155848
17.900000000000002,-3.5863771583911794,1.6894864281851039,5.19953112109826,-0.2767175906999461,-0.4337027502861776,0.04371615597783493,-0.19943824469476373,-0.3833087834601604,0.9018307083855865,-1.8862085841482352,-1.9818904065745513,4.159068715901991,0.6224146451377031,1.3450206645205156,-0.27105307363349807,4.0,0.47900794501549177,0.48399372053475154,0.29247397373340533,-0.5971365388639849,0.4405279812212026,-0.09661115074429909,0.6633470714992075
