xiamingqian9007/apple-picking-rnn/training_data/grasper_20191127_123407_noimg.csv
,/manipulator_wrench.fx,/manipulator_wrench.fy,/manipulator_wrench.fz,/manipulator_wrench.tx,/manipulator_wrench.ty,/manipulator_wrench.tz,/ground_truth.x,/ground_truth.y,/ground_truth.z,/joint_states.elbow_joint,/joint_states.shoulder_lift_joint,/joint_states.shoulder_pan_joint,/joint_states.wrist_1_joint,/joint_states.wrist_2_joint,/joint_states.wrist_3_joint,/mode./mode,/manipulator_pose.x,/manipulator_pose.y,/manipulator_pose.z,/manipulator_pose.rx,/manipulator_pose.ry,/manipulator_pose.rz,/manipulator_pose.rw
0.2,0.26642071350373353,-0.13682664891457028,-0.4657148178040441,-0.011522848411578093,0.014054746168488987,0.024762364637047556,-0.10856308730509794,-0.2283724962676542,0.9675019650145289,-1.8924498977773248,-1.7557750430814651,4.167724851472338,0.21589964251643737,1.3415431852992363,-0.266327624440676,1.0,0.4587496146256104,0.46045298881310665,0.3523161958656449,-0.652211179167517,0.46298528941609496,-0.09931432680052368,0.5919475179822703
0.30000000000000004,-0.030360617229117377,0.03200193633224439,-0.046946685879309794,-0.01025353645332035,0.028105033643329592,0.09223423859902452,-0.10863491342940519,-0.2284590444838692,0.9674734726445665,-1.8896363341394011,-1.7592983470691943,4.166855482438353,0.21621675569903928,1.3423540000204799,-0.26649615545120664,1.0,0.4589015739535804,0.4606019802351656,0.3523569173712965,-0.652150803838054,0.4629798773632464,-0.09931028668795965,0.5920189432510148
0.4,0.06460778716911394,-0.4691629558511198,-0.01796327317173127,0.001386385609988633,0.035390199674037726,0.17539112850769023,-0.10853365930885837,-0.22817909308783055,0.9675508498291734,-1.8861394489763643,-1.7628790554101097,4.166167471218414,0.21669818769689508,1.3430679781368364,-0.2667302997422672,1.0,0.4595548546802608,0.46110510698937807,0.3521908544280643,-0.6520918372204356,0.4630289313913636,-0.0993429420079123,0.5920400530354862
0.5,0.13253932177083186,-0.5829868448373434,0.11291278212087294,-0.004059238515754758,0.02701480113823081,0.2474984569488658,-0.1084297195256895,-0.22789345476714923,0.9676298697772612,-1.883078302410093,-1.7666260300422465,4.165571689605713,0.21710793554272456,1.3436267623290534,-0.2669757744564799,1.0,0.46059980183439037,0.46218277996419527,0.3517387258568332,-0.6520897408443108,0.463005065787193,-0.09929983076778315,0.5920682583541245
0.6000000000000001,0.3020433111386697,-0.47155590903326894,0.08290685575494344,-0.008169233151890127,0.02296103663473434,0.25847756856520676,-0.10869615760693702,-0.22853285378408122,0.9674491517998645,-1.879768918744094,-1.770205259321526,4.164920160581739,0.2174833105013941,1.3442810196670696,-0.2671911335910736,1.0,0.4619332905855742,0.4636292180862611,0.3509492426556504,-0.6522157872439421,0.4630084016664183,-0.09933058363510494,0.5919216350250959
0.7000000000000001,-0.2837456423251582,-0.07246091090292557,0.09913459472763478,0.011848268327660543,0.03548298717196326,0.2399828597462947,-0.1086737883122074,-0.2285578040086118,0.9674457800702427,-1.876661767078047,-1.7737283085890199,4.1643232197320765,0.2177967320268944,1.3448958629319647,-0.2673868167915334,1.0,0.46252617274395874,0.4642442060981426,0.3507867011829132,-0.6521710740337898,0.46298717752980284,-0.09932942834056059,0.5919876926948204
0.8,0.03905563734564607,-0.21658801473972605,0.048701592189985515,0.0005621981079708873,0.029867653814528234,0.24688627401628604,-0.10848716124758327,-0.22829556456537742,0.9675285752204128,-1.873608032125381,-1.776942090030819,4.16364967833078,0.21813010542121547,1.3456089052718185,-0.2675759485364685,1.0,0.46372449458457826,0.4655510838107245,0.3501168977124427,-0.6522739562097584,0.4629933862339255,-0.09930932709631349,0.591872847751771
0.9,-0.07463717877028143,-0.33418423614491516,0.09680568081718896,0.0038840278040853434,0.03183097003404521,0.2388641234692408,-0.10832140944164603,-0.22816146656710157,0.9675787948224536,-1.8706092179237979,-1.780227869079818,4.163000771350902,0.21841888750346902,1.3463554272161165,-0.26774804024325305,1.0,0.46432246210240224,0.4661550934876794,0.35001225897897187,-0.652209244968902,0.46294340462114913,-0.09927326694349868,0.591989293285984
1.0,0.11448800095181269,-0.09038678365791253,0.14725656207093069,0.011044800404993865,0.03322597433304431,0.23349100447952992,-0.10841124788170879,-0.2285829125612439,0.9674692942592876,-1.8677568316013826,-1.7832328765596168,4.1623358726501465,0.218694157791536,1.3468286756698897,-0.2679570773443972,1.0,0.46523550152423837,0.46712081265632294,0.3494621472532669,-0.6523142088993333,0.46294906216499504,-0.0992320165812513,0.5918761235206286
1.1,0.10405388250729322,-0.23059286315977964,0.006244595925427365,0.013573545366572374,0.029953034183227967,0.23311075480797042,-0.10845342065374464,-0.22832458039482526,0.9675255492939534,-1.864959026411468,-1.786222352572351,4.1616486474579455,0.21893899023022456,1.347384349972594,-0.2680746850727723,1.0,0.46643565868592024,0.4681628413378164,0.34911977264341904,-0.6521968940549874,0.4630044541901471,-0.09929087429661035,0.591952201673857
1.2000000000000002,0.4139788305298109,-0.6806803139256928,-0.1495460787501085,-0.0015035751451958814,0.02423479789037503,0.2323229007696847,-0.10849266639183083,-0.22813036617574453,0.967566987258391,-1.8622607294501803,-1.7889808463503707,4.161017894744873,0.21917527807020182,1.3478737994393863,-0.26828553937377514,1.0,0.46703672625869463,0.46874776746079094,0.34882586928650905,-0.6522235394825451,0.4630035360491556,-0.09932409201094904,0.5919179883202064
1.3,0.3650775846517092,-0.6013558011308913,-0.1360268733687603,0.011317600087125745,0.013073219547940584,0.2371903576972938,-0.10853231251058604,-0.22808415792241066,0.967573434378342,-1.8596468244508915,-1.7918689747170045,4.160540131183069,0.21939029689668535,1.3483870499194406,-0.268430206921106,1.0,0.46814193544400934,0.46974589538716305,0.3485233960698435,-0.6521306177765688,0.4630106857785714,-0.09936621797400481,0.5920077000671111
1.4000000000000001,0.4144543567468008,-0.441404223106707,0.0063968300430936875,0.0038855612300025865,0.01800006335594327,0.23378530329556158,-0.10855075096608484,-0.22812939445082966,0.967560695396606,-1.8571957578445608,-1.7945773248875834,4.160051290670723,0.21964783903642818,1.3489703070890116,-0.2685842846062928,1.0,0.4685500906545499,0.4702134487362391,0.3483178361972961,-0.6521604625274058,0.46300230054462405,-0.09935918402179705,0.5919825617000457
1.5,0.22755379626857894,-0.27907406082056957,0.11287904947105133,0.004224717830635119,0.017891715031929357,0.23222321473588028,-0.1085392290175725,-0.2283038164804,0.9675208519031192,-1.854596632893942,-1.7972088757625833,4.15954496281948,0.2198172928077497,1.3495170125191445,-0.26872446228295316,1.0,0.46964405691052596,0.471362775293535,0.34775381851883547,-0.6522105067275096,0.46301088910182736,-0.09929546553046009,0.591931399752091
1.6,0.1624343378208865,-0.15057795956666237,0.005885383714213967,0.0016881998693440573,0.02764499649225548,0.2331580853168971,-0.10843605318312624,-0.2281813467319101,0.9675612934439195,-1.8523874380661385,-1.7997352725139577,4.159113412026233,0.21996378702868377,1.3499607019898705,-0.2688506285296839,1.0,0.4700202335005058,0.4717950326895829,0.3476458324072076,-0.6521961503670515,0.4629724136697567,-0.09924729793208756,0.591985387894311
1.7000000000000002,-0.01801186764240631,-0.29731740712324206,-0.24591110429213361,0.010873027207971267,0.03084083631510499,0.23215945909560975,-0.10832335907478563,-0.22802804471447963,0.9676100726011576,-1.8498514826791916,-1.8022200254451413,4.158706804974385,0.2201378016996892,1.3503687110605187,-0.2690160481698384,1.0,0.4706566942197602,0.4724199137403907,0.34733036924544336,-0.6522153495628752,0.4629805301127714,-0.0992668063454726,0.5919546162410124
1.8,0.19565165916020016,-0.2849365308721465,-0.1382995509529259,0.0035283458304883174,0.02840300356265197,0.22929011828376913,-0.10845096141365478,-0.22833630880892447,0.9675230363108962,-1.8477945789748802,-1.804716168932045,4.158242121149654,0.2202747156076702,1.3507743813998416,-0.269155025256787,1.0,0.47164612180544796,0.4735025289199156,0.34698231568545584,-0.6522011534136444,0.46293997644268386,-0.09926051597348755,0.5920030267370565
1.9000000000000001,0.2314885553577567,-0.06448521313407798,0.005942970057957049,0.015929061694967928,0.021637319872564065,0.22695134214052748,-0.10855418704574901,-0.2285267995173191,0.9674665307187718,-1.8454934903525904,-1.8068502195540002,4.157746401853541,0.22042097162691904,1.3511934137940504,-0.2692816893206995,1.0,0.4720788606976451,0.47391033693493667,0.3466425451780732,-0.6522763237887622,0.46298972122862636,-0.0992857364898228,0.5918770632411177
2.0,0.486383420856718,0.16194018627603485,0.1651827404195418,0.018461517622703885,0.020476651103308232,0.2315981151054957,-0.10863038623029994,-0.22859147774565922,0.9674426645037795,-1.8433517897766143,-1.8093989132242394,4.157351016998291,0.22054619317429366,1.3515705219759182,-0.2694016667841219,1.0,0.4727442882899039,0.47451980090313234,0.34649072796827857,-0.6522064478391081,0.4629755339750104,-0.0993091277814448,0.5919612330862009
2.1,0.2078789375833536,-0.029053553723454972,-0.2691907637569214,0.013609347024265127,0.0268329838628234,0.23144282555388887,-0.10881218694287645,-0.22893104039912812,0.9673419540850724,-1.8413261083571895,-1.811289590051757,4.156881809234619,0.22063460120320966,1.3519994451189121,-0.2695488584497062,1.0,0.47364268413229627,0.475467060523284,0.34595955809106516,-0.6522775157432819,0.46300926668334436,-0.09931196443156617,0.5918560594788803
2.2,-0.004313473476921459,-0.5165609440820033,-0.29911356683602563,0.005786458478313643,0.02916410954262486,0.2265753219841983,-0.1092274039574747,-0.22979737892723526,0.9670896481521948,-1.8392679741508082,-1.813227682249423,4.156455760253103,0.22072779066219553,1.3523881139462455,-0.2696640635738889,1.0,0.4739441771565589,0.4757433600377575,0.3459049430684569,-0.6522503455970934,0.4629955634658971,-0.0993050168835994,0.5918978868868489
2.3000000000000003,0.030014550346800062,0.0038519479939989054,-0.3149148514713854,0.011881958009592335,0.028870247061356467,0.23419750386550317,-0.10913992367147737,-0.2296230974189223,0.9671409454285821,-1.8373764352900486,-1.8155540144835585,4.156035651179278,0.22082413161165007,1.3528129830265676,-0.26978145355278116,1.0,0.47451165924479904,0.47624976956970844,0.34584223582070567,-0.6521688013242795,0.4629733715775115,-0.09930309702988288,0.5920054110476335
2.4000000000000004,0.0073935690029090055,-0.010789271468426415,-0.1632811510552507,0.006081784833618937,0.025418253915130924,0.23276751805395973,-0.1088508368069917,-0.22903366475452613,0.9673129286335413,-1.8353921674305984,-1.8172098563001045,4.15569251859054,0.22092818571466522,1.3531906709841601,-0.26990373390105116,1.0,0.4754081702335009,0.4771673555607007,0.34531696336848583,-0.6522608713125344,0.4629785166466104,-0.09932097274877938,0.5918969447890009
2.5,-0.017560220506516944,0.08538227305111286,-0.031171326343363087,0.014293865821443305,0.030364205205643195,0.2312206479826841,-0.108354220061389,-0.22802124837660445,0.967607594130043,-1.8336481657048884,-1.8191308069128351,4.1553254568137215,0.22100179843045667,1.353510884349103,-0.26998836198915654,1.0,0.47566196115105763,0.4773990507517291,0.34532766771070333,-0.6522041183135276,0.46296307527154723,-0.09929959275168695,0.5919751429488695
2.6,-0.022641041122104782,-0.10820215615364659,-0.013803348630566228,0.00992490021046328,0.03457301429942256,0.22851981964021184,-0.10811453019322002,-0.22752549914089665,0.9677515737195462,-1.8318401458014524,-1.821192257748144,4.154984684320348,0.22107125991694646,1.3538056790880246,-0.27008924132847717,1.0,0.4761845274873525,0.4779053134606958,0.3451488848408667,-0.6521864524048132,0.46296500960750575,-0.09929952833540687,0.5919931037192173
2.7,0.10663061421945558,-0.12949985284713758,-0.09879435703665493,0.018527446651710848,0.027838114676776687,0.22503535089648544,-0.10839139239265969,-0.2280685103620231,0.9675925989525531,-1.82993069484735,-1.822803430517856,4.154663188594162,0.2211673377412731,1.3541203343944186,-0.27016098083690027,1.0,0.4770054351758839,0.47872557749616984,0.34468532410562,-0.652240898568669,0.46300733961415547,-0.09932626053798338,0.5918955209032235
2.8000000000000003,0.19277022114391718,-0.34305806421883983,-0.04879280000601709,0.012994242641493675,0.025856359393295388,0.22780180307681303,-0.10866825459209933,-0.2286115215831496,0.9674336241855601,-1.8284482955932617,-1.8245724620053607,4.154359817925764,0.22121254980053706,1.354402781358412,-0.2702878165338956,1.0,0.4772789355483942,0.4790327838070081,0.34470373336316174,-0.6521790255207254,0.46296768186735127,-0.09931302747533284,0.5919969314032736
2.9000000000000004,0.1196990630746667,-0.06760430652098859,0.04361152270927188,0.009173392542900467,0.029676054870033053,0.2233173643386964,-0.10859968777310684,-0.22837293018231616,0.9674976999306432,-1.8269380694621713,-1.8262844337033703,4.1540303230285645,0.22124244502256685,1.35469158828319,-0.27037755960677456,1.0,0.4779208685761547,0.47960863173234086,0.34435342297397337,-0.652201541302544,0.46301313525712706,-0.0993368006892467,0.5919325857990724
3.0,0.16994335341457886,-0.016495178846081024,0.08465814317011541,0.010931336641965765,0.028529823897771263,0.22746918683685521,-0.10846255974973888,-0.2280196124676151,0.9675964503544051,-1.8250676576545108,-1.8278083119333737,4.153730869293213,0.22132249360056788,1.3549286310126651,-0.27048461384402395,1.0,0.4781928587602631,0.47989850575977755,0.3441658995659913,-0.652242973944843,0.4630214165671598,-0.09934186258023506,0.5918796035333687
3.1,0.38604558574730596,-0.10543509229919465,0.0165303512156637,0.01822139252545598,0.021956162550338453,0.22765967755021227,-0.10834005564657254,-0.22778839172243465,0.9676646186241581,-1.823665901923165,-1.829361378954307,4.15349502871038,0.2213431926569689,1.355213914622126,-0.2705462667267121,1.0,0.4788368494068351,0.4806070752238939,0.34408971499066454,-0.6521463910292289,0.4629854999489075,-0.099322336951177,0.5920173856291465
3.2,0.37912924908986845,-0.3037746723430419,0.1356465083944531,0.00585847179840302,0.02652249295856152,0.22773525120931998,-0.10832911653756407,-0.22781251801540925,0.9676600748406605,-1.8223824710328418,-1.8308916319300679,4.153257540283568,0.22140423833813472,1.3555003784417805,-0.27061780796706675,1.0,0.4790802610218182,0.48083310407483093,0.3440051750094994,-0.6521499310554716,0.46297358244793446,-0.09933211697997481,0.5920211650912035
3.3000000000000003,0.1295525511966505,-0.22412128892000013,0.10705075149184096,0.011724399555068408,0.02710841079084611,0.2235107185046947,-0.1085738935952682,-0.22842192077678958,0.9674888690349813,-1.8208019372581719,-1.8323471048723767,4.1529967424034355,0.2214731052227713,1.3557825088500977,-0.27073190286918675,1.0,0.47964018271115105,0.48143956407373056,0.3435648052260346,-0.6522570544477018,0.4629970773009903,-0.0993084856179577,0.5918887277336988
3.4000000000000004,0.18205651597999528,-0.01240992424736306,0.053247322371698345,0.02057646399146323,0.02643977532331406,0.22556533142182558,-0.1086997669422004,-0.2287499535610278,0.9673974175416847,-1.8192577701114407,-1.8338359664510813,4.152678552922017,0.22147994592506534,1.3560480901945238,-0.2707870981345329,1.0,0.4799406414919206,0.48174241406534585,0.34347507350295686,-0.652252329689268,0.46297429114601807,-0.0993112158403235,0.591911299572057
3.5,0.3217770677244128,-0.29191720103383395,0.13389822456733033,0.011874939100044427,0.026753847226185328,0.22297624008537734,-0.10853994576028805,-0.22840192785618477,0.9674975948087656,-1.8180831622411304,-1.8352431464343815,4.15246492126908,0.2215426952317359,1.3563235403494922,-0.2708682158836243,1.0,0.4802938132077147,0.4820875085352823,0.34342633019323493,-0.6522003910121937,0.4629690438845432,-0.0993009092817217,0.5919743607488394
3.6,-0.01575288322820073,-0.20701376545884737,0.04875542073211442,0.006671402123020163,0.03664085220092312,0.21920982791171997,-0.10853521402144649,-0.2284595858717856,0.9674845252110283,-1.816930831789827,-1.8364617302736006,4.152201974526783,0.22157282293910435,1.3565543533719977,-0.27091470337993845,1.0,0.48083201123957137,0.4826679768103389,0.34310250256750363,-0.6522547264735492,0.4629677068414417,-0.09927116425006949,0.5919205268981034
3.7,0.30039130390503477,-0.10006956812403665,0.009275183538138597,0.011153712152326717,0.02980057603479843,0.22209015513248218,-0.1085756526564306,-0.22859861479351912,0.9674471557018555,-1.8154268451822482,-1.837660928765768,4.151957035064697,0.22156244757672983,1.3567785396808532,-0.2709724625383582,1.0,0.48101260477900915,0.4828375796588058,0.34300721411927826,-0.6522603791871018,0.46297187160657627,-0.09929030034922341,0.5919078307476286
3.8000000000000003,-0.3586565160643256,0.04627130776814605,-0.11484869310448706,0.020379912786787375,0.036308508870241556,0.22424963772653758,-0.10862374200322128,-0.22865442789422813,0.9674285676411315,-1.8141666391301103,-1.8391192375660224,4.1517415046691895,0.22163411258482885,1.3569800897588442,-0.2710608620201457,1.0,0.48157314796744927,0.48337908200539387,0.34292760143846174,-0.6521914651832839,0.46295454543977566,-0.0992947152311093,0.5919965718869538
3.9000000000000004,0.0829167796949215,-0.16148123394973157,0.12007071236452288,0.008180302256431437,0.028517688076274493,0.22662144523463487,-0.10860167867576373,-0.2285576389279076,0.9674538996656583,-1.8129804434666876,-1.8404241477403878,4.151525764845013,0.22165526411201902,1.3571727201423824,-0.2711260954486292,1.0,0.48178628149173996,0.48360883897392426,0.3427814339668053,-0.6522236201094459,0.4629471689064024,-0.09930087105334033,0.5919658817710053
4.0,0.2324177034245324,0.04438566027260163,0.10234312276408487,0.006072928624703987,0.029430234398976265,0.22852222843741918,-0.10855679380512095,-0.22841120659873326,0.9674935194437597,-1.8118487814368653,-1.8414374790587367,4.151267305291898,0.22165600835766597,1.3573652199895965,-0.27118632380032404,1.0,0.48215601405418024,0.48394285482209304,0.34251652746823263,-0.6522574175153022,0.4630084544776987,-0.09931387873963043,0.59187852289818
4.1000000000000005,0.32381250715903404,-0.3011721319349036,-0.04891111443656176,0.0011669291374167556,0.023899059147017697,0.22841813366030653,-0.10851308627227298,-0.2282800212148525,0.9675293989999145,-1.810678231462349,-1.8425313642838392,4.151076752102285,0.22163852393416528,1.3576260367183253,-0.2712624085233215,1.0,0.48262116640828423,0.4843890040864539,0.34242512087908134,-0.6522213780564233,0.46298487201166005,-0.09931349632627981,0.591936746402837
4.2,0.23777947473839728,0.09104623876706194,-0.19176224531947703,0.017284566957850925,0.027456642089619107,0.22970643821415557,-0.1084729629374577,-0.22819525247670125,0.9675538921075908,-1.8093814985502323,-1.8437419021116312,4.150830099298855,0.22167373950424382,1.3578089290573194,-0.271287896883335,1.0,0.4828193094002956,0.4845732733624566,0.34237187300841065,-0.6522047079730815,0.46299074320831857,-0.09931301026315939,0.5919506031702524
4.3,0.20055823130966743,-0.17591599068593355,0.011691155763192105,0.009363426026188145,0.026755146884239085,0.22426944050792513,-0.1084771913047056,-0.22820423210224225,0.9675512853444549,-1.8081781862152164,-1.8452403402266,4.150662578901998,0.22172785404673256,1.3579944812005273,-0.27136610126102745,1.0,0.48325967608796605,0.48502575840891626,0.342260475439814,-0.6521785685158312,0.46297267028372396,-0.09930979162056745,0.5919940765136747
4.4,0.16473659461863985,-0.019676767307684112,0.07584641888942602,0.010474029092112114,0.03138227352460226,0.23072027596339473,-0.1086231851776302,-0.228512868416635,0.9674620567221622,-1.8070459365844727,-1.8464047110253041,4.150434970855713,0.22173993169750972,1.3582262475169264,-0.2713811134078314,1.0,0.4835109371570227,0.48530512567051315,0.3420315688607406,-0.6522285139488632,0.4629940284937014,-0.09931603824769009,0.5919212952057179
4.5,0.2644413589457504,-0.10505840956660506,0.03172255809815984,0.00952451758813892,0.02606801727827572,0.22323897051092198,-0.10874358680433122,-0.22873750109530736,0.9673954403704415,-1.8057805416499493,-1.8474006132553036,4.150175954049493,0.22173665927907615,1.3584016811307917,-0.2715068028047966,1.0,0.4838360230221011,0.4856553991029036,0.34179622324538184,-0.6522781402046987,0.46300072474198084,-0.09930527512187362,0.5918631759388898
4.6000000000000005,0.17564510685094836,-0.2227076455937134,-0.0747838659946182,0.010216388326067853,0.029023400746171615,0.22288531844473974,-0.1088545922614221,-0.22893129191655928,0.9673371260930171,-1.8045325799565608,-1.848462498143221,4.149986997996837,0.22171869679271303,1.3586090236069643,-0.27154215152041805,1.0,0.484311159521512,0.4860953486777125,0.34181414599296583,-0.6521735487502509,0.4629694648292103,-0.09931506004563802,0.5920012295547961
4.7,0.14130416667006931,-0.13070780283741615,-0.04059827289736842,0.01035412399399601,0.032682413862178517,0.22241211125666882,-0.10880572261497867,-0.22878564055912742,0.9673770675372452,-1.8033795804778638,-1.8498701431339262,4.149715259276461,0.22175906952548033,1.3588125608024857,-0.27162182224681014,1.0,0.48453085151876757,0.48625296766875437,0.34181416051657015,-0.6521168955939485,0.462982419314336,-0.09933178134111927,0.592050699773555
4.800000000000001,0.19191112893565965,-0.06367575595479393,-0.08039506195928164,0.010232185438889686,0.028775433784096326,0.22442870467389137,-0.10876097519105501,-0.22865797328582532,0.9674122610843999,-1.802302360534668,-1.8510591336739486,4.149488156760631,0.22177521764721675,1.3590326309204102,-0.2717123732281333,1.0,0.48484760715512243,0.48658833889978087,0.3415775498378679,-0.652174192978331,0.46299551651077214,-0.09932218180529713,0.5919789505594106
4.9,0.3349374818017207,0.05257473007203136,-0.0563016311526383,0.009297595523889144,0.028525857157697464,0.2252156789994489,-0.10897226679090025,-0.2291096147794079,0.9672815366725285,-1.800941275035978,-1.8524234738967615,4.14932543655803,0.22179927832365104,1.3592243194580078,-0.2717434073193239,1.0,0.48532198302256696,0.48710268472916135,0.34124774734449714,-0.6522326313880477,0.4630135935857376,-0.09930395693666214,0.5919034810204837
5.0,0.19071716686166243,-0.04687843090301602,0.08333113318072126,0.011916868661327894,0.031671101939907,0.2224484509099524,-0.1091164949081682,-0.22944292865502916,0.9671863915502814,-1.7995886606479161,-1.8534037098185592,4.149098376681851,0.22180048887924395,1.3594574743463088,-0.27181462982301413,1.0,0.4855612674628274,0.4873288822702189,0.3411419300152106,-0.6522387397617192,0.4630179199959869,-0.09933262013620037,0.5918885559744433
5.1000000000000005,0.25733422332471934,-0.25223736203944597,0.0024651528529025662,0.01057120548227037,0.026428998985228346,0.2206376179873181,-0.10898140245606186,-0.2292834059472897,0.9672394347870925,-1.7985182251003224,-1.8545408049692753,4.148871731767174,0.2217918456323566,1.359681474286753,-0.27187652219191205,1.0,0.4859923400354744,0.4877835767725422,0.3412122630776383,-0.6521290562186871,0.4629510598527603,-0.09929849843536159,0.5920674103723433
5.2,0.3133213937345892,-0.22342437157882042,-0.10090779763575633,0.013648162774104576,0.02600979621898096,0.2234587733126171,-0.10881956853524691,-0.22905640835522378,0.9673114205938859,-1.7974150411087608,-1.8559343288074706,4.148672580718994,0.22178761541333003,1.3598837852478027,-0.27191400349114114,1.0,0.4861693817705096,0.48798719753939296,0.34110963110026504,-0.6521497863941531,0.4629444662453534,-0.09926976897101916,0.5920545500604703
5.300000000000001,0.3055797525047433,-0.35441618407860465,-0.002067243357433579,0.008729483171752934,0.02911271524684281,0.2257883105687766,-0.1085070226839467,-0.2284082713033058,0.9674997928247306,-1.7962186043187667,-1.8571684427022792,4.1484378735459675,0.22180260645084673,1.3600722956238636,-0.27201031123850844,1.0,0.48649706711598917,0.48831697335845303,0.34080974382873624,-0.6522321598525818,0.4629745717219111,-0.09928479068271293,0.5919377382225595
5.4,0.11474609171492448,0.11817036527732272,-0.15085179387755743,0.016272616181129528,0.03224115842601305,0.2179280467514972,-0.10878962067386,-0.22890865013497433,0.9673498064901506,-1.7947788587036044,-1.8582969771937752,4.148254148078554,0.22182503909613238,1.3602705827864372,-0.27206316306783007,1.0,0.4870298826597698,0.48882668137350777,0.340515753525618,-0.6522558046786306,0.46299893217024674,-0.09930119828525694,0.5918898766589571
5.5,0.37000443443634035,-0.1088267822680258,0.17818629251670373,0.011996408064924366,0.027442183493565475,0.21827291896783782,-0.10876737033128335,-0.2288673335671378,0.9673620846065695,-1.7935494711893583,-1.8594717945818786,4.148035491187734,0.22183208636235105,1.3605070114135742,-0.2721225249280649,1.0,0.48719864902913457,0.48899708843888834,0.34053755292577226,-0.6522238579103553,0.4629759412629539,-0.09930814129967916,0.591941897533717
5.6000000000000005,0.023754692364106406,-0.07679325715383634,-0.010745361295290662,0.018446499532041125,0.030152800033268028,0.2195442234847294,-0.10879231880593984,-0.22889980442760074,0.9673515953842079,-1.7924868174961635,-1.8607005787865107,4.1478406497410365,0.22180386372912683,1.3606972515134883,-0.27219470544637137,1.0,0.4875583411503256,0.4893545084697552,0.3404462441010343,-0.6521911980159911,0.4629723189752638,-0.0993104411466082,0.5919803285349934
5.7,0.16790550017008535,-0.2426207587594714,-0.1439189580928062,0.010924425274255528,0.02813864540748257,0.22068489398255578,-0.10881726728059635,-0.22893227528806367,0.9673411061618463,-1.7914094152813684,-1.8618932115763231,4.147613570876494,0.2217990595051269,1.3609068552334467,-0.272248956653369,1.0,0.48804013579390426,0.48984846298431856,0.3401752366575784,-0.6522084902557153,0.4630006262583903,-0.09928515441187165,0.5919433785727399
5.800000000000001,0.14309244383657344,-0.26531244525079656,-0.1520757223709627,0.020048665210694566,0.02763876666797011,0.2247991312562707,-0.10886583985494475,-0.22896839107828623,0.9673270919551049,-1.7899931125543898,-1.86308713241927,4.14742023276313,0.22178304240139093,1.36107815375867,-0.27234985428488234,1.0,0.48820833155555654,0.4899935839862466,0.3400711213789986,-0.6522248491085889,0.46300926780404994,-0.09931888087972825,0.5919129361938583
5.9,0.03145411236372489,-0.02046723121807187,-0.1812156446874469,0.019277790507050915,0.030749268144162,0.222411930385776,-0.10878873274155965,-0.22879757052263036,0.9673761319458173,-1.7886599840509356,-1.864294179326915,4.14719820022583,0.22178666173901362,1.3612785460086771,-0.27237899966588286,1.0,0.48867407922981365,0.4904871100529953,0.34000739138348807,-0.6521757492601029,0.4629741606253231,-0.0993013587171329,0.5919974314363468
6.0,0.20375575744678673,-0.17312552320124078,-0.06170986559230485,0.007839569019133609,0.0325506715585768,0.2264933206773595,-0.10858063569453272,-0.2284110965894787,0.9674908840568148,-1.7874892765933084,-1.865634437882028,4.146994113922119,0.22172871260531046,1.3614673614501953,-0.2723901799100176,1.0,0.488923958418134,0.49073190324752436,0.3399425143221046,-0.6521504730842642,0.46296797729877126,-0.09930181387772696,0.5920300348905012
6.1000000000000005,0.3512732844496171,0.17495371070127635,0.05459078730993693,0.010867732493881305,0.027021862805441516,0.22316257910640688,-0.10865783303169395,-0.22857604834165565,0.9674432410041727,-1.7864970628902384,-1.8667164625762065,4.146778583526611,0.22175385392712121,1.3616538872006791,-0.2724798361407679,1.0,0.4894262560207902,0.4912311904256016,0.33958084540945777,-0.6522239538249684,0.46299987658378094,-0.09933696781265304,0.5919182335138161
6.2,0.4775626394120702,-0.17942760102189903,-0.0616579489877291,0.0015451292269932169,0.024219282150438438,0.22764474622123956,-0.1087405056486784,-0.22875158288163427,0.9673924813147786,-1.7852372084372998,-1.8678590952016045,4.14660358170643,0.22174091827627718,1.3618224701173218,-0.2725314366651376,1.0,0.4895712025405502,0.49141076728027255,0.33948216003517834,-0.6522544465961613,0.4629954849850145,-0.09932435251640183,0.5918901847270523
6.300000000000001,0.2807971562355501,-0.31108969282594545,-0.15191156973445627,0.008085975520135815,0.028629261961936842,0.22844242580023083,-0.10867248553019133,-0.2285866939262419,0.9674390805236356,-1.7837867907581189,-1.869033625104918,4.146355087900603,0.22163973166476275,1.3620510950918037,-0.2725913310758198,1.0,0.4899054709676764,0.49173556974015814,0.3394024515183365,-0.6522141634237609,0.46299590212463015,-0.09931851139737162,0.5919352269793156
6.4,0.12589826349287847,-0.049761438003740534,-0.03427792734154847,0.008269007928910742,0.03399921502859605,0.22315870072972752,-0.10859886389483757,-0.2284091508243496,0.9674892987358173,-1.7825766187972287,-1.8704630715544404,4.1461663246154785,0.2216503152233214,1.362272281492603,-0.27269112283276636,1.0,0.49040695475766644,0.4922148326674218,0.33932676276670876,-0.6521744641261711,0.46297356827591357,-0.0993231399489102,0.5919956564792507
6.5,0.1689306497712818,-0.18411988446663197,-0.09532558923218555,0.00940272278250107,0.0293129375156796,0.22463183759045444,-0.10891200531214591,-0.2290808350324876,0.9672950947105103,-1.781476103230386,-1.8716058848861756,4.145948188192534,0.22160737096752925,1.3624354725622763,-0.2727554480182093,1.0,0.49058154678399957,0.4924139646191851,0.3391589803753683,-0.6522078526163386,0.46299986529881987,-0.0993040830728654,0.5919415011670635
6.6000000000000005,0.12724947119694824,-0.007394327725024107,-0.051132263977770445,0.0007974464705662947,0.03994233785670452,0.228963446107418,-0.10907433860480881,-0.22943503771453133,0.967193023920149,-1.780288568048616,-1.8726426563658656,4.1457600593566895,0.22159497320141597,1.362701536959769,-0.2727804784993059,1.0,0.49108813784500455,0.4929136363159565,0.3388808987622925,-0.6522520581749884,0.46299913316951374,-0.0993185387186412,0.5918909385668651
6.7,0.2900964445316958,-0.23398496384019982,-0.1598947137180592,0.00966825837407749,0.02709736838711039,0.22304668939695124,-0.10902999276556377,-0.22935216294588584,0.9672176789131691,-1.7789295553029836,-1.873692055664456,4.145588645843414,0.2215868215713924,1.3628826141357422,-0.27282208593374324,1.0,0.4912641725657675,0.49307173776980484,0.3388871930905181,-0.6521978363764306,0.46299887703361897,-0.09931538402826219,0.5919514140424275
6.800000000000001,0.299822513584179,-0.047080506634776836,-0.11942168436045754,0.021166329139101478,0.03145223614955665,0.22524475493935894,-0.1089585219633345,-0.22925568080381342,0.9672486036479766,-1.7776504711957044,-1.8748713826266283,4.145343862861311,0.22145192205395503,1.363086223602295,-0.27288924201295167,1.0,0.4915465097019116,0.4934044616304805,0.3388446008484599,-0.6521910615353654,0.4629560444069161,-0.09930385121614446,0.5919943119102722
6.9,0.16506212312563126,-0.041964635234034986,-0.14485434179381887,0.009295873504861794,0.035842714752169366,0.22715140438380602,-0.10885289765516612,-0.22914206538456672,0.9672874227221608,-1.7764931883437562,-1.876364073324508,4.145147800445557,0.2214542512249854,1.3632974045463837,-0.27297836866411057,1.0,0.492089777789763,0.49397066458711364,0.338609662261165,-0.6522145390593486,0.46296035522427426,-0.09928349863164529,0.5919684885445131
7.0,0.15403508794401077,0.20800860703562007,-0.19525809871926897,0.019763069802720815,0.03318977653141772,0.225938833387625,-0.10893435526723562,-0.22927706546031834,0.9672462536005604,-1.7759484775500503,-1.8770215084682946,4.145017147064209,0.22146529695690842,1.3634229175610337,-0.2729957598262812,1.0,0.4922986454735461,0.4941557725673751,0.33844743513971015,-0.6522420124344811,0.4629850052172304,-0.09929139018188879,0.5919176141957321
7.1000000000000005,0.21727112477257104,-0.11287491995857415,-0.17541196698722933,0.012529484577249884,0.03426851142888024,0.22541722685681326,-0.10892958128969214,-0.22926653509202885,0.9672492869342675,-1.775925636291504,-1.8768817387022914,4.145006856145454,0.22145968397246257,1.3634074123481983,-0.27302612551271777,1.0,0.4925625275150335,0.4944185825295796,0.3382053579073481,-0.652295473485712,0.46300733512075887,-0.09929288179973356,0.5918409807696052
7.2,0.18027469026431267,-0.0008915596387999436,-0.052804695602533425,0.0030832473809394344,0.030761443047800728,0.22107472399603664,-0.10876429189365207,-0.2289320336272452,0.9673470522922955,-1.7758684621275278,-1.8769040223519002,4.145010960526012,0.22146838991098744,1.363388956557886,-0.273016231648738,1.0,0.4925406171734112,0.4944107119651034,0.3382968116487556,-0.6522712960040057,0.4629702643784224,-0.09929651347006749,0.5918960154649777
7.300000000000001,0.3025655380685578,-0.15740252186904588,0.07891067802904543,0.005039067454029226,0.031507474825815236,0.22285637585865187,-0.10856125370151311,-0.22845047506957553,0.9674837436513584,-1.775782585144043,-1.8768924323800809,4.14502593189341,0.22148394495996201,1.3633820644007342,-0.2730067412005823,1.0,0.49255891770310756,0.49439787583428696,0.33834175482023504,-0.6522343835683748,0.4629798983646848,-0.0993047865196061,0.591927767532242
7.4,0.3361675019849036,0.016180454608848094,-0.10139827593327827,0.013808657877463108,0.029149816492594998,0.22660680632341457,-0.10887778263676322,-0.2290598656039659,0.9673040559903544,-1.7757940292358398,-1.8768993334062045,4.145018735199699,0.22147471369566793,1.3633984406052868,-0.27301014212538044,1.0,0.49256375273537445,0.4943996935386586,0.3383335750249093,-0.6522340098326276,0.4629844812797789,-0.09931671616279526,0.5919225932521788
7.5,0.4086486993781714,-0.06750488502143978,-0.09882070699980587,0.009689754535201149,0.029307478900611156,0.22435453571202904,-0.1088188322555212,-0.22894277418444395,0.9673384269451906,-1.775815471015851,-1.8768833187474152,4.145029544830322,0.22147777666582857,1.36338472366333,-0.2730316862664581,1.0,0.4925714755937488,0.49439201185524834,0.3383543661782618,-0.6522104594290786,0.4629913057704733,-0.0993099844633284,0.5919443338508747
7.6000000000000005,0.2752831592830385,-0.24424845049063937,-0.22049450767749443,0.007871742318348416,0.028525927521810192,0.22307881556338924,-0.10876026615266099,-0.2288331684748063,0.9673709639972213,-1.7758188247680664,-1.8769131471191116,4.145008821028278,0.22148980630326212,1.3633763976273992,-0.273004551212087,1.0,0.49255930974389245,0.49441700081707474,0.3383548781448061,-0.6522232316393016,0.46297202683684574,-0.09929960043490665,0.5919470819507745
7.7,0.13915286565402485,-0.18833675719610882,0.1022704906907976,0.007274159801541391,0.03397273858971627,0.2227425725800662,-0.10878684708558907,-0.2289010103573246,0.9673519237845972,-1.7758125204291526,-1.8769128870978498,4.145010317363719,0.22147114952055827,1.3633971214294434,-0.2730250149928692,1.0,0.4925572649412968,0.4944041587551706,0.3383650252149188,-0.6522220765777922,0.4629682193800459,-0.09930142822937778,0.5919510258629747
7.800000000000001,0.2570006886330146,0.01545302938686012,-0.0802953720566959,0.010763559612133095,0.031854215587370685,0.22197674604592071,-0.1087901983260081,-0.2289044580120369,0.9673507295245577,-1.7757893737642017,-1.876911797093702,4.145020541374288,0.22150478344296423,1.3633806720805974,-0.27302066122902985,1.0,0.4925724114686289,0.4944058544216626,0.33834706722972224,-0.6522246858700067,0.4629796828335119,-0.0993111039199547,0.5919375617946138
7.9,0.2157814592614368,0.06636244550512893,-0.0017172493702233282,0.013515789281007062,0.0316503326610025,0.2166635305791558,-0.10875465797256714,-0.22880009562347026,0.9673794132984048,-1.77583472103806,-1.8768941364684046,4.145020934350742,0.2214872054565816,1.3633971214294434,-0.273002953914049,1.2008124748645113,0.4925735517495839,0.4944042521127511,0.3383360100859588,-0.6522152511311152,0.4629833122598202,-0.09931199667385825,0.5919449687914862
8.0,0.20181558647331654,0.12601411708921667,-0.03489923023765766,0.01469985199079859,0.03246076975742844,0.2145503751608789,-0.10874204073776919,-0.22876949808743455,0.9673880724483225,-1.7757856068296975,-1.8768941364684046,4.145010851885762,0.22150198480460837,1.3633524593992776,-0.27300976288623696,2.0,0.49256872891479353,0.4944022301431559,0.33834376829963186,-0.6522213168085589,0.4629875931074482,-0.09931700899630297,0.5919340962076011
8.1,0.32622825266604,0.055678576008385786,-0.07189572385238759,0.012666136501886818,0.027396808910307737,0.22103055205342445,-0.10875793195352643,-0.22882918938954191,0.967372169442569,-1.7758073806762695,-1.876903360785308,4.145002348654243,0.2214925025329918,1.3634031722971367,-0.27303327967054425,2.0,0.49256418248377537,0.49440136081361485,0.338373510923739,-0.6522125856956614,0.46298163334347014,-0.09929104159732996,0.5919527340128681
8.200000000000001,0.18170011647481993,0.0908783462544205,-0.056601753046640196,-0.0007595047067052128,0.03326012802696085,0.22398911368186178,-0.10875287320012059,-0.22881883180341178,0.9673751881049426,-1.7758004637641263,-1.8768855409779799,4.145013688608137,0.22149454651995687,1.363406060739485,-0.2730032827445107,2.0,0.49256759056005234,0.49439609089980285,0.3383686687057804,-0.6522095859852888,0.46298966035682193,-0.0993030249947464,0.59194775071662
8.3,0.20038940300741945,0.0004250203870695829,-0.11890589484866015,0.0021382236692791866,0.03095964434561674,0.22545892986373067,-0.10874781444671476,-0.22880847421728162,0.9673782067673163,-1.7757741608044721,-1.8769093287956045,4.145013875665964,0.2214643198200683,1.36338472366333,-0.2730039059831846,2.0,0.49256075157257506,0.49441276809787554,0.33835908301376183,-0.6522177909119906,0.4629871981147245,-0.09929695352723149,0.5919416547430757
8.4,-0.009483551051141709,-0.536651766538299,-0.09144816177891035,0.02206515788907668,-0.005053170895428741,0.22270622634975562,-0.10862686360954128,-0.22853609415948783,0.9674561408888112,-1.7757981278274009,-1.8769098632323806,4.145025738995301,0.22149960576977534,1.3633933155944225,-0.27298702452096724,2.0,0.49256797639410355,0.49439144154429915,0.33840429864342697,-0.6522011937318951,0.4629607394100133,-0.0993287135458811,0.5919753063472708
8.5,-0.8377407205430382,-1.3627512664614851,-0.055084059326364024,0.07308050442464817,-0.07254843191925503,0.21487457395064746,-0.10860699856059232,-0.22849007758427,0.9674692137650585,-1.775762269000108,-1.8768848947474275,4.1450267584540255,0.22146967823602415,1.3634095191955566,-0.2730479610583514,2.0,0.49257005661282555,0.4944034992507093,0.3383734321195199,-0.6522104930187702,0.46297969117282645,-0.0993197559468365,0.5919517416448643
8.6,-1.7666802514989695,-2.2731196519544636,-0.26047860968799896,0.14404769522191663,-0.15792878553217232,0.21132568881986255,-0.10882947783536975,-0.2289876441623898,0.9673265891139429,-1.7757596969604492,-1.8768655599238317,4.145022262771466,0.2215449898880621,1.3633755791690667,-0.27299434343446904,2.0,0.49256871931210766,0.494392940611722,0.3384016651336835,-0.6521958414762179,0.4629670127110271,-0.0993054624976362,0.5919801978281758
8.700000000000001,-2.5084497595757527,-2.733330260130551,-0.5066136328753903,0.2237807577162238,-0.21865321076700783,0.20598407592099893,-0.10912273412945356,-0.22958743712689325,0.967151253741646,-1.7757625096738798,-1.876874444311632,4.145000765585004,0.22150706614848012,1.36338472366333,-0.2730340385971268,2.0,0.4925615941924917,0.49439644258379617,0.33841524372228904,-0.6521929917461453,0.4629671227806795,-0.09929346761582121,0.5919852633556155
8.8,-2.857152896450473,-3.421387891316129,-0.2939157649902179,0.26044679208931387,-0.2499091988338873,0.20094563066501134,-0.10941779645412916,-0.23017725200153719,0.966977756114289,-1.775753114999379,-1.8768464527525843,4.145026253849787,0.22153584539379878,1.3633913056244003,-0.27301185648365783,2.0,0.4925759333107564,0.49439825918334157,0.3384136808533589,-0.6521869734076818,0.462973999969714,-0.09930932165666614,0.5919838559466499
8.9,-2.9006747194290785,-3.9823630323102965,-0.36342244374445715,0.2890162838725726,-0.2550849995561652,0.1965131087811185,-0.10968476150145982,-0.2306994183459022,0.9668229909091314,-1.775750664946407,-1.8768583736815394,4.14502115796014,0.22149963423469093,1.3633931105335122,-0.27303463646081316,2.0,0.49257237137696797,0.4943958408750261,0.338434885749942,-0.6521703217450772,0.4629690475414105,-0.09931232479749548,0.5920055697346424
9.0,-2.6117326750213157,-4.194363581667413,-0.40003881207215847,0.3223602677988884,-0.27054626386472314,0.20833479138532163,-0.10992248796375366,-0.23117633776696175,0.96668218753884,-1.7757744438116645,-1.8768464527525843,4.145003763944457,0.22148720800366206,1.3633883016527,-0.27302860487489516,2.0,0.492580162514965,0.49439002065289883,0.3384173972843693,-0.6521763805455008,0.46298222264645966,-0.0993052725311594,0.591989774421338
9.1,-2.937616677613729,-4.381717043985018,-0.5490436766297967,0.3547826495026643,-0.2765015000371607,0.20655948070153174,-0.11009430632576551,-0.23155126392278919,0.9665728562117863,-1.7757942482501077,-1.8768741311585422,4.145004749298096,0.2214720808257395,1.363349437713623,-0.2730067412005823,2.0,0.49256485666540895,0.4944045422459031,0.3384003157190914,-0.6521903269921485,0.462981034375651,-0.09930298601456548,0.5919757226060183
9.200000000000001,-3.1059984936837526,-4.4079629906490005,-0.48180615022369244,0.3916797409865797,-0.28510635957188274,0.20774842900326673,-0.11189157304856782,-0.23528497375196172,0.9654289867274738,-1.7757860942934556,-1.8769000321290565,4.145000615934242,0.22148816167797847,1.3633971214294434,-0.27304615935141907,2.0,0.4925585089971939,0.49440724800074204,0.3384361118601422,-0.6521744800498971,0.4629739865397306,-0.09929614316718094,0.5919998406345042
9.3,-2.110749591964357,-2.2804795398162145,-0.5383478772855553,0.24953962960429246,-0.21468575698751696,0.21687322490265235,-0.11771377171044975,-0.24733569691075583,0.9617233959533362,-1.7758096619554469,-1.8768822155394496,4.145021899729161,0.2214256088102695,1.3633799709983774,-0.2730015674851971,2.0,0.4925575208646952,0.4944134138392133,0.3384069940699397,-0.6521914315927874,0.4629707127847039,-0.09929154847557706,0.5919844964708924
9.4,-1.3231595087100974,-0.9348395208033914,-0.19831241935884783,0.14714730998524053,-0.15747121141703235,0.21027795876453548,-0.12453691922630543,-0.261385065755415,0.9570806491431278,-1.7758203867027125,-1.8769081612497742,4.145018839160075,0.22144217005802466,1.36338472366333,-0.27302732902798,2.0,0.4925951353974134,0.49437579534988807,0.33835266814077186,-0.6522235992688145,0.46300159810409497,-0.09934039243930784,0.5919167028728713
9.5,-1.2676190595428563,-1.4775226599812339,-0.03890422266552665,0.18848119059361937,-0.15353118793088147,0.21669177983860058,-0.12986884513667432,-0.2723584577573557,0.9533911837481702,-1.7757889288376878,-1.8769162849524892,4.144995308477976,0.22145487899994873,1.3633672254990647,-0.27299851691713006,2.0,0.4925697994837189,0.49438501462186385,0.33834623516929657,-0.6522363584673541,0.46298899463373205,-0.09931674508962285,0.5919164701932988
9.600000000000001,-1.268597211713504,-1.7069854180407311,0.21504469468422738,0.2012003582322914,-0.18154745725692475,0.21870438353280777,-0.13013522017154544,-0.2729383230110383,0.953188897081677,-1.775812439138636,-1.8769101549325657,4.145004749298096,0.221490926609361,1.3633663618063172,-0.2730317547549185,2.0,0.4925643616143242,0.49440884063273854,0.3383562267924001,-0.6522273466937649,0.46297673838848646,-0.09930682304955556,0.5919376511354677
9.700000000000001,-1.2382021447900833,-0.9929995800256488,0.1790886953299901,0.16675637006691377,-0.1425140979995626,0.22072629090812496,-0.13028739341901804,-0.2732643689632785,0.9530748669104266,-1.7757900697312872,-1.8768991590203712,4.145026984313634,0.22150632275383902,1.3633732795715332,-0.27303748143548107,2.0,0.4925636571671914,0.49440398438777816,0.33835935593964395,-0.6522183297694844,0.4629843016735117,-0.09930514857742065,0.5919419517001743
9.8,-0.7825380939511573,-0.4373338229760422,0.3753808270469577,0.09356715886701875,-0.12333153624375073,0.2284811348054393,-0.13010000865281265,-0.27283572989881055,0.9532232511978425,-1.7758161121393672,-1.8769005879930507,4.1450142083831185,0.22147470067236968,1.363377645303082,-0.2730229148348904,2.0,0.4925681953300162,0.49440427103951157,0.33834122910419384,-0.6522226453392052,0.4629921177975547,-0.099313313715101,0.5919297132962587
9.9,-0.8812687610523909,0.32172817695695366,0.7094519853076044,0.04231459631931558,-0.10579768753123457,0.2245289340497534,-0.12978688938811028,-0.2721976030229976,0.9534480396488012,-1.7758144187421019,-1.876911042693991,4.1450270033065495,0.22145943227435133,1.3634186172654095,-0.27301095172471807,2.0,0.49258529390792727,0.4944024076007145,0.3383536147843724,-0.652211210085431,0.46299612313331945,-0.09932109874475077,0.5919378740598958
10.0,-0.6635029665747916,1.1465798043795856,0.6333875485572881,-0.0009825297446855973,-0.09203720345513788,0.22995621243827943,-0.12942390271181817,-0.27147639143267704,0.9537031306652143,-1.77582459785935,-1.876920320624168,4.145033527079339,0.22146625989919122,1.3634191724450861,-0.2730324485191876,2.0,0.49257122800508696,0.49441375327538484,0.33833285929433154,-0.6522442295579847,0.46298189065753226,-0.0993172139737869,0.5919132748468925
10.100000000000001,-0.7704882413343561,1.0285646850602372,0.924774055728092,-0.026598815409917795,-0.11134919828021717,0.2321799390054677,-0.12916864924749996,-0.27097577632011177,0.9538802108917386,-1.7758417129516602,-1.8769202461268444,4.14499758544461,0.22146245721816202,1.3634095191955566,-0.2729979253612119,2.0,0.49257892244511103,0.49440551564126667,0.3383221691264155,-0.6522332814045185,0.4629971023038834,-0.09931001886420894,0.5919146475968406
10.200000000000001,-1.2631835957115034,1.2031792977502989,1.1005910480201677,-0.030854765534457766,-0.1110170690657022,0.22534593193037772,-0.12896745224200856,-0.27058912770785176,0.9540172366650721,-1.7758327658118094,-1.8769378234514578,4.145021620634134,0.2214666460764295,1.3633893761760525,-0.27299666969083025,2.0,0.4925651096487111,0.49441566426505323,0.33832351924214715,-0.6522361542160704,0.4629835956845821,-0.09929607019784457,0.5919243868127675
10.3,-1.134811995995047,1.218599884450974,1.1000411155649732,-0.03934569418727071,-0.1311110101295461,0.22561661655345297,-0.12880430496676532,-0.2702937446935003,0.9541229982199498,-1.7758073806762695,-1.8769190057709784,4.145029544830322,0.22150221036869877,1.3634333610534668,-0.2730257769274566,2.0,0.4925577536238605,0.49441756720726765,0.3383511657272389,-0.6522349916739012,0.4629699546116852,-0.09929836417757322,0.5919359523078981
10.4,-1.6499618071713944,0.922530505079838,0.7701801258402454,-0.016826824041836427,-0.14867540431047935,0.22170073805870882,-0.12882207180019378,-0.270316372250216,0.9541141937348938,-1.775808157389893,-1.8769060573973597,4.144982557956635,0.2214885500347902,1.363419733490783,-0.273007954815619,2.0,0.49255499827602,0.49442829333746785,0.33835015604862545,-0.6522298345392914,0.46297258147215964,-0.099287799722259,0.5919413523045726
10.5,-2.0718870040518578,-0.1254663957880071,0.4994197132836915,0.03578151394673993,-0.19778592045284857,0.20977428349782906,-0.12892229042218836,-0.27048393344732025,0.9540531756609099,-1.7758188247680664,-1.876918388092578,4.145029544830322,0.2215244013020019,1.3633728477424756,-0.2730067853261711,2.0,0.4925535829545501,0.4944140895605313,0.33836321165001887,-0.6522152617742611,0.46297875913246306,-0.09928420477908599,0.5919531802282013
10.600000000000001,-2.4746120009184347,-0.3388425352174696,0.6299618150081491,0.062082917816555526,-0.2314937531200922,0.20850875635627072,-0.1289455002977798,-0.27055165355906347,0.954030848752151,-1.7758073806762695,-1.876918428794003,4.145017164412544,0.2214881783323806,1.3633971124083089,-0.27303060040682803,2.0,0.49256710571866136,0.49440471062414143,0.33837980686158237,-0.6522081514659366,0.46297559687941126,-0.09931916316185056,0.5919576232167031
10.700000000000001,-2.4286557378878277,-1.1479983629887838,0.44652462204026344,0.07330315500655232,-0.25516440273079066,0.20749415812089667,-0.12895323886841562,-0.27060946986349843,0.9540133991811363,-1.7757928794940683,-1.876892938820726,4.144995700501656,0.2215322045448556,1.3634161726966387,-0.2730091364959397,2.0,0.49255991144517564,0.4944261540139029,0.33836016249828743,-0.6522266201554057,0.46296147625769957,-0.09929408088538891,0.5919525259368973
10.8,-2.576118684280426,-1.276850855946775,0.49540663039463206,0.09081463564929682,-0.26713992920022,0.20401391590724938,-0.1290504433446429,-0.27081104674108825,0.9539430590163807,-1.7757940292358398,-1.8768717697483062,4.145028010686998,0.22150031383592492,1.3633769969188183,-0.27299511050613107,2.0,0.49255394645949896,0.4944265007198273,0.3383835369084888,-0.6522063802400352,0.4629643203835687,-0.09928428855858305,0.5919742440946116
10.9,-2.691916040930311,-1.1109461479272635,0.38090871888427835,0.10253189540418801,-0.2691935661839149,0.2088648531217559,-0.12906937617002487,-0.2707941839430735,0.9539452843006767,-1.7757735461775592,-1.8768822155394496,4.144997285735559,0.22147986890868673,1.36338451642012,-0.2730026362037608,2.0,0.492569051950183,0.494410206845372,0.33837566454021706,-0.6522057888088384,0.46297537725241134,-0.09930613985380093,0.5919625830148102
11.0,-2.794582668703269,-1.3320450862148991,0.4733582465299203,0.1026568874297893,-0.2648175894443539,0.20529232507942513,-0.12908264672574932,-0.2707727206734382,0.9539495813104977,-1.775786891874192,-1.8768941364684046,4.145009056028245,0.22148617395637127,1.3633929803427616,-0.27300458783550785,2.0,0.4925802087135453,0.4944101551906325,0.3383511495037376,-0.6522139817132585,0.4629890911219464,-0.09929900503980182,0.591944027048096
11.100000000000001,-2.3710051777190566,-1.305092527048374,0.43442640191512016,0.10463333047574469,-0.27226888849275854,0.2084294949972592,-0.12909700605679064,-0.27079721322665945,0.9539406565961918,-1.7757789815005376,-1.8768755195185856,4.145046004833887,0.22147140941805726,1.3633901575677447,-0.2730067412005823,2.0,0.4925672328359638,0.494402936229603,0.33834284643949286,-0.6522234720223934,0.46298646025673135,-0.0993109445144923,0.5919336250472983
11.200000000000001,-2.711792251131132,-0.8652753863230214,0.3209302578058996,0.11475491101178117,-0.2697948064852062,0.20196844469431696,-0.12931551704461638,-0.27126407292866456,0.9537783689035103,-1.7757885389869934,-1.876909753393007,4.145010703141046,0.22149410991474416,1.3633819757358145,-0.2730363079074833,2.0,0.4925685487271318,0.4944117194238679,0.33837097760434726,-0.6522089880295349,0.4629880997517306,-0.09930345025107379,0.5919495588223747
11.3,-2.79621500670963,-1.1069237876219133,0.32431858597137114,0.11084188099115129,-0.2658523445960974,0.2037383956909559,-0.12931624729841584,-0.2712541021769832,0.9537811202451536,-1.7758052444061998,-1.876906934564169,4.144999103653631,0.22146630349941868,1.363382892574699,-0.2730124633525546,2.0,0.4925524676494355,0.49442977375613356,0.33838907109388267,-0.6521991641382392,0.4629739164063943,-0.09928040260552874,0.5919753412796779
11.4,-2.846251950890616,-1.081853636342775,0.3445010726777331,0.11174272368579065,-0.2624243139709542,0.203209096156227,-0.12918973142489792,-0.27096552630033577,0.9538803015031891,-1.7758106922156198,-1.8769167499508632,4.145027839617713,0.22147330716096203,1.3633988266420531,-0.27304250398744756,2.0,0.4925784347530873,0.49439994553561134,0.3383515350298327,-0.6522163535582722,0.4629934865292082,-0.09931086951468923,0.5919359853725025
11.5,-3.149524334867032,-0.860843058327249,0.37032634550449023,0.11731248240212658,-0.25903782761670796,0.20060129995768958,-0.1292389354619968,-0.27107748449587526,0.9538418127374415,-1.7757687375754596,-1.8768677909888418,4.1449911222165285,0.22149296863155157,1.3633945176629245,-0.27301174844388765,2.0,0.49257257123295367,0.49440307773575415,0.33837069508482737,-0.6522027104093331,0.46298750787712206,-0.09930437372413244,0.5919567834257072
11.600000000000001,-2.8830709695728913,-1.1679936293138078,0.26186098745143677,0.11268743495490899,-0.2612798984095308,0.2048472697011653,-0.1293872457377652,-0.27141285833680434,0.953726371357828,-1.7758074648400775,-1.8769118018505058,4.145029544830322,0.2214811312674305,1.3633776932527821,-0.2730067412005823,2.0,0.49256130811912563,0.4944076743480798,0.33838403477833773,-0.6522070954130356,0.46297120467350994,-0.09931044972772758,0.5919636837770771
11.700000000000001,-2.690448304129774,-1.0115807247332227,0.32331575895096054,0.11558148112297216,-0.26609077039883633,0.20167635413039717,-0.12947602755520207,-0.27159310503046286,0.9536629904071183,-1.7757869907570136,-1.8768822155394496,4.14499557093774,0.22149783302266032,1.3633685068241483,-0.2730122263377815,2.0,0.4925736198021463,0.49440852649188527,0.33837473063292856,-0.6522086917817183,0.4629814152814287,-0.09930300435675084,0.5919551881638575
11.8,-2.813181168771175,-0.8929503609961901,0.35497419073138403,0.1153290226803374,-0.2626730924502332,0.20315595118619495,-0.12954603261850386,-0.27173317039677913,0.9536136016263449,-1.7757978535675565,-1.8769060573973597,4.145015620594511,0.2214643198200683,1.36336088180542,-0.2729872964697705,2.0,0.4925742777362259,0.4944095588950578,0.3383544364655815,-0.6522140371180345,0.46298390015055263,-0.09930324739453383,0.5919473144161378
11.9,-2.6402289858261825,-1.021198580126302,0.4054860582258971,0.11407741630161267,-0.2670122334972656,0.20350386161525752,-0.1294530454433086,-0.27152444041528495,0.9536856723418694,-1.775789996238096,-1.8768735233203628,4.144986241801009,0.22147107457334336,1.3633926014755182,-0.2730260631045674,2.193548819774617,0.49256969997486416,0.4944023756769464,0.3383870965477379,-0.652195701599388,0.46298455841856134,-0.09929637032401083,0.5919681548206193
12.0,-2.56132939777948,-1.0989773057079437,0.5067943351580879,0.10622345080417873,-0.26111892490234195,0.20645470602923952,-0.12947379558786343,-0.2715241173890614,0.9536829516286086,-1.7758197485575604,-1.8768606796176717,4.1449809074401855,0.22148042795056885,1.3633893915036366,-0.27304250398744756,3.0,0.4925751189131118,0.49439909815038313,0.3383516537942447,-0.6522142070386552,0.4629876847464579,-0.0993175805329093,0.5919417624286546
12.100000000000001,-2.339729065834859,-0.7442685454134268,1.560838802245332,0.09370143853605206,-0.2510644834925279,0.20819984320738708,-0.1295702209279771,-0.2716465326028533,0.9536350022961769,-1.776658447282617,-1.8758833409898388,4.145045332282051,0.2214571831926672,1.3632092635190833,-0.2730140089847519,3.0,0.49258481281854033,0.4943837137946983,0.3383835508760753,-0.6521951884958391,0.462991972380498,-0.09932728338201328,0.591957735307211
12.200000000000001,-2.405908361766149,-1.1271968051472432,1.931484464460001,0.1104095587910287,-0.2740554129464063,0.18642389320646408,-0.12964804898671123,-0.2715649230988479,0.9536476655634298,-1.7778005599975586,-1.874641760275733,4.1451497077941895,0.2214767175861816,1.363029828145531,-0.2728911440656172,3.0,0.49244421717602993,0.49413859517100467,0.33854722739839666,-0.6521357557670586,0.4630125623638514,-0.09936404779574057,0.5920009367805374
12.3,-2.713789193248076,-1.565971209166038,2.239504212350825,0.152146768267929,-0.2856046586419736,0.1703043080140762,-0.12959370742937998,-0.2713747343008208,0.9537091632650282,-1.7790933292078444,-1.8736774003688348,4.145479877500526,0.22161343676982717,1.3628364956498593,-0.2728814751161062,3.0,0.49202813320269695,0.49363184770184243,0.3388323393422912,-0.6520703221987534,0.46302130574915545,-0.09936318561586177,0.5920663161118261
12.4,-2.8723108514535203,-1.9361312616920823,2.6265240427285557,0.1774051873129001,-0.3085464280379059,0.141250889838539,-0.1294454297401924,-0.2711163117475247,0.9538028217720687,-1.7803850173950195,-1.8725828084128586,4.145725931645482,0.22158332454543553,1.362661235452398,-0.2727871040457355,3.0,0.49182985406638824,0.49348597241890113,0.3388187714187575,-0.6521233624749211,0.4630147251565039,-0.0993603952497391,0.5920135101992736
12.5,-3.001513203524177,-1.7262752393351277,2.9614221244712384,0.17692635189547204,-0.3178476547970927,0.12522766171740304,-0.12933307126704527,-0.27101041981051877,0.953848144630222,-1.7815975566756144,-1.8714161907434859,4.145909945578685,0.22161074927911795,1.3624861540708566,-0.2727405275506266,3.0,0.49134850530767993,0.4931248359967658,0.33878953540476686,-0.6522335774956527,0.4630213384599941,-0.09932610145248447,0.5918926643304417
12.600000000000001,-3.5998230404086913,-1.4771668021962354,3.2649774271097427,0.17822161248191218,-0.3636860872252306,0.09099972464180364,-0.12922760400988206,-0.2709203386187983,0.953888040620201,-1.7828022051591919,-1.8700532897082822,4.146229267120361,0.2216450444760867,1.3622671582530423,-0.2726622566150872,3.0,0.49112124063320967,0.4928988980615638,0.33887899451258063,-0.6522385322416019,0.463022188476251,-0.09932945760994287,0.5918859762563209
12.700000000000001,-3.6280283169071947,-1.7450380031953374,3.8667330432103935,0.17836120850480866,-0.3995372554571818,0.07717396875154116,-0.12923220647442726,-0.2710827940385581,0.953841256135922,-1.784095966983199,-1.8686729499980075,4.146444797515869,0.22161168169539844,1.3620519267803353,-0.2726228872882288,3.0,0.4907531583638673,0.49257173059241116,0.3391493697552442,-0.652197858122545,0.46297956495171866,-0.09929544490111092,0.5919698395352355
12.8,-3.8046774714392213,-2.0672340278944206,3.575694998045902,0.19664689682403336,-0.4117394603999483,0.06249868681391577,-0.12914857457067908,-0.27098627865622177,0.9538799781364656,-1.7853371138560599,-1.8676433605827565,4.146620258476902,0.22165981549833838,1.3618289550903815,-0.27252305363354246,3.0,0.49019839920062436,0.49204611721575087,0.3394275178344684,-0.6521790544861235,0.46295195087017255,-0.0992846721205518,0.5920139575694155
12.9,-3.3059881793004555,-1.6441426888406572,3.718067197251044,0.18234739177867976,-0.3812552996904489,0.04542869690242332,-0.1290054353697872,-0.27070152479501874,0.9539802282468355,-1.7865390916345243,-1.8665670514999644,4.146827834093175,0.22165569561124737,1.3616444174712303,-0.2724669615374964,3.0,0.4900266550964715,0.49186934448726755,0.33946520976900363,-0.6521984384053124,0.46295554608224143,-0.09929814231736113,0.5919875321539185
13.0,-3.221510970261062,-1.2118057357404282,3.8879600625364605,0.14683365781406787,-0.3506303265172742,0.02999119460540843,-0.12918013598033054,-0.27101858980573384,0.9538665558276571,-1.787642182222142,-1.8653629140187755,4.147038788254625,0.22175790314915692,1.3614153366307191,-0.27243319809261374,3.0,0.4897324626119838,0.49157944778531276,0.3395005462031652,-0.6522340839793019,0.4629800249932125,-0.09930561270100344,0.5919278599956618
13.100000000000001,-3.3742674171095293,-0.8504909320488936,4.026595698349797,0.1322580377521375,-0.34826888316168403,0.01938008453071121,-0.12897178838994455,-0.27050520661333327,0.9540404659006423,-1.7889758995956067,-1.8640234338197448,4.147279434393843,0.2217863970955202,1.361205451582236,-0.2723362395783367,3.0,0.4892937083221013,0.4911198081206484,0.33974195754802533,-0.652183544708621,0.4629781258573724,-0.09931092102585534,0.5919841382620733
13.200000000000001,-3.454665166775983,-1.0591477338077817,4.255558769201365,0.1406354359897672,-0.3531347578522777,0.009092486274479299,-0.1289233628939976,-0.2704243399409473,0.9540699308903207,-1.790276184357527,-1.862818639792984,4.147498124728251,0.22173650807558773,1.3610163714005272,-0.2722593935557342,3.0,0.48903897480409453,0.4908801019528814,0.33985044295646827,-0.6521797534620248,0.4629692155545886,-0.0992976487453714,0.5919975097723149
13.3,-2.2891199930400385,0.9991609800531083,3.50060480663881,-0.056069988563068746,-0.245165610825382,0.005966640757876204,-0.12887640372636885,-0.2703461815186181,0.9540984300511202,-1.7916361985413745,-1.8617523219399388,4.147667407989502,0.22171173880100994,1.3608299717265224,-0.27221566835512334,3.0,0.48856032675276617,0.49038463228279977,0.3399633337319909,-0.6522404319259334,0.4629795060190024,-0.09932734796473176,0.5919176242635167
13.4,-2.3011310087836767,1.5975477746457512,3.529828457044677,-0.1538728238840694,-0.25546920916287913,0.016299890020495235,-0.1289450986358573,-0.2704816315747233,0.954050751151208,-1.7926142296286391,-1.8604903068677852,4.147922670390415,0.22167851165716998,1.3606057925468644,-0.2721716225365751,3.0,0.4883494888383359,0.49017930596463377,0.33999489285058665,-0.6522592490252618,0.46300650331418736,-0.09931375793166673,0.5918780511518072
13.5,-2.3656674818212444,1.6119205752671157,3.619778993430303,-0.16391826743486818,-0.2691514519313268,0.022697465033651467,-0.12901806953487094,-0.27063140716912887,0.9539983977055958,-1.7937794330832977,-1.8592828704975628,4.148143282013228,0.22171608983959956,1.3603854179382324,-0.2721201419026827,3.0,0.4878919096251813,0.48973131989169744,0.34029294940566,-0.652205627765008,0.462981963088005,-0.0993055544796334,0.5919577077936578
13.600000000000001,-2.5471983544094248,1.495804877547545,3.6477992200518314,-0.1647672023028952,-0.2764301311172862,0.018950744550895522,-0.12909526221504705,-0.27079532669147965,0.9539414289752963,-1.7950980134571015,-1.8580734215664305,4.1483421815250665,0.22171608983959956,1.3601695518229338,-0.2720399055178205,3.0,0.48769327721175315,0.4895418603476739,0.3403794604425657,-0.6521944934613382,0.4629888974300188,-0.09930533012999129,0.5919645892813332
13.700000000000001,-2.5259234653802456,1.51348953696918,3.5584752861353635,-0.17290682130313245,-0.28211690120953686,0.02972775236513591,-0.1291724548952232,-0.2709592462138304,0.9538844602449968,-1.7964530973414865,-1.8568950518488787,4.148529529571533,0.22172203970987167,1.3599448015557667,-0.2719653862143955,3.0,0.4873698256540503,0.4892225439478503,0.34048830485091525,-0.6522104925703281,0.4629840565419992,-0.09930241387787496,0.5919512373220552
13.8,-2.1198768424919847,1.6736900883382897,3.826414161648889,-0.19367600470650176,-0.26140279579177517,0.027479698507707928,-0.1290676941729752,-0.27062027357381147,0.9539948616632579,-1.7975366545751448,-1.8556824855881289,4.148734232218215,0.2217513757893066,1.3597644916254155,-0.27191343792965916,3.0,0.48686098608483575,0.4886510082208373,0.3406018545020575,-0.6522557409298003,0.4630127969417853,-0.09934019223329175,0.5918725576501371
13.9,-1.704769333677512,1.7178585222799665,3.8817214305682395,-0.21020606561201266,-0.24250934214764633,0.03228401022833676,-0.12916721097642841,-0.2708411859880725,0.9539186801044028,-1.7986028194821897,-1.8543830914158181,4.14897678300044,0.2217513757893066,1.3595705032348633,-0.2718707859874295,3.0,0.4866807554520028,0.4884723060176003,0.340711701186964,-0.6522408228822159,0.46300981656239065,-0.09933944388231992,0.5918914542565574
14.0,-2.3261322305018357,2.122716728948112,3.7527386100605407,-0.2010127082322209,-0.2348580605173229,0.029776741493106506,-0.1290455329378229,-0.27065076689474726,0.9539891296398861,-1.799805173517913,-1.853252093937393,4.149199977511273,0.22173708556986663,1.3593504176861178,-0.27178697685459263,3.0,0.48633476329739517,0.4881437413794436,0.3409815459975087,-0.6521870358352563,0.46297102127923045,-0.09932626895950347,0.5919832734450128
14.100000000000001,-1.9643269271227146,1.796787680429082,3.715208300915296,-0.18361028294834786,-0.24097603147681715,0.031157117677314498,-0.12883752436484538,-0.2702900272897617,0.9541195900389137,-1.8011522293852618,-1.8521310906646433,4.149419799943716,0.2217367630229398,1.3592076147596537,-0.2717533669932471,3.0,0.4858513118764498,0.48769691873256116,0.3411768491186339,-0.6521963165543029,0.4629491464947167,-0.0993109855279491,0.5919927200450021
14.200000000000001,-1.6450483522785946,1.9697585577721481,3.7530685598294484,-0.20242820064807776,-0.22584950896464176,0.03550988657923434,-0.12880647207440932,-0.2702502004510506,0.9541350647246807,-1.802466711717951,-1.8508367580044105,4.149657140781596,0.2217004462553964,1.3589820861816406,-0.27170380520319654,3.0,0.48565594145850083,0.4875082554723715,0.34117373549062263,-0.6522336621575355,0.4629741700018666,-0.09931122126220301,0.5919319633125606
14.3,-1.6624674918964362,2.194894314642568,3.949531945797478,-0.21635110268131422,-0.19938309921657305,0.034837740432021744,-0.12883578011415395,-0.27033327260645496,0.954107571701213,-1.8035240376037607,-1.849560042517233,4.1498494148254395,0.221691294307373,1.3587986130465086,-0.2715981541003622,3.0,0.4851633911703345,0.48700672062563133,0.34134977718118875,-0.6522483255194625,0.46297657876410137,-0.09929383508787719,0.5919168384887241
14.4,-1.3643940408844957,2.303034027599482,4.128621775436833,-0.21831034502923244,-0.18936721141832977,0.036953885050604776,-0.12886346684655792,-0.27040977754208256,0.9540821547041903,-1.8047353832068702,-1.8483771470643953,4.150076389312744,0.22165505468334956,1.3585891532461885,-0.27153918396589016,3.0,0.4849342155349121,0.4867785322117163,0.34154172270195937,-0.6521948374666285,0.46296705624590784,-0.09929166605011362,0.5919835841185708
14.5,-1.3382463503491566,1.9656294501958214,4.256282781344614,-0.2189891897737665,-0.18562480689690022,0.041150793928819526,-0.1290189267413258,-0.2707116663412941,0.9539754017894239,-1.8059492412592972,-1.8472621254264305,4.150286227801045,0.2216396198644558,1.358378600527748,-0.2714819115182373,3.0,0.484615834957091,0.4864457093270978,0.34167068034792286,-0.6522179211289254,0.4629499258963415,-0.09930305911941495,0.5919696376676434
14.600000000000001,-1.4530801859137121,1.9621128912195263,4.485698214380832,-0.20461387647086357,-0.17460411607525828,0.03940470789036475,-0.12934120013959835,-0.27131456835968176,0.9537605617750181,-1.8072832841054194,-1.8461815649425612,4.150453853623034,0.22154292457636263,1.3581877708355776,-0.27141847000141694,3.0,0.484172292680121,0.4859737370101253,0.341770916072905,-0.652245844602124,0.4629927684713334,-0.09931270583109768,0.5919037430216318
14.700000000000001,-1.0553327671519956,2.389495806384517,4.444524255830432,-0.23999703006694212,-0.15880565735062854,0.04052374778807386,-0.12928624951140041,-0.271179843075095,0.9538063169422416,-1.8083300801668516,-1.8447736997052084,4.15066645843454,0.22152680660313082,1.3579720237443482,-0.27134365452898807,3.0,0.48399226029400644,0.48579792958062423,0.34175390805365674,-0.6523068383728315,0.4630042577339801,-0.09932942073783271,0.5918247309027675
14.8,-0.9795478373398512,2.187336971670267,4.561749378916466,-0.2548590057515746,-0.14663531843319366,0.04438877307563617,-0.1292041626252134,-0.27099205530405807,0.9538708184712639,-1.8094924518375204,-1.8433895197855783,4.150864737340947,0.22152118843388588,1.3577532712181006,-0.27127928516840377,3.0,0.4836840064694162,0.48544495145751604,0.3419924191867569,-0.6522481283475643,0.46299573399208294,-0.09933033784390727,0.5918959480821326
14.9,-0.7469543890872952,2.439965608113804,4.5659218691011905,-0.2582081007804098,-0.13187738425814552,0.050858842672082044,-0.12917639442142856,-0.27093319832583007,0.9538913211971286,-1.8106717572480917,-1.8423565972045686,4.1510932330312915,0.22150650538517394,1.3575500292458902,-0.27122334118211194,3.0,0.48310468509031107,0.48487913520812254,0.34242795320872654,-0.6521453052245448,0.46296291113898563,-0.09929207051104093,0.5920413233186782
15.0,-1.4420410211641448,2.1331294369691243,4.644858709562051,-0.24126073807585766,-0.14823991220730506,0.044836708768292474,-0.12922446835125037,-0.27105436019161294,0.9538503908587135,-1.8106472665301485,-1.8423338920622228,4.1511232617479905,0.2214734205800099,1.3575296810516897,-0.2711998742260667,3.0,0.4829375738680245,0.48470737145650916,0.3424554969150399,-0.6521756532835525,0.4629623117879161,-0.09931184326025809,0.5920050446714202
15.100000000000001,-1.4857425205119001,1.4822919717903036,4.499194729279168,-0.23492173628894292,-0.16032008447247212,0.045765928640242495,-0.1292909166635831,-0.27118248489783936,0.953804956648741,-1.8106451034545898,-1.842355867425436,4.15112348395222,0.22139446423012948,1.3575058757522447,-0.27120529017682937,3.0,0.48284357680707674,0.4846630450394324,0.3424481158298055,-0.6521980326739244,0.46297771350128786,-0.09929979168291572,0.5919703661072167
15.200000000000001,-1.243344319892535,1.8421730230475815,4.506655796256022,-0.21796168107025785,-0.1736734567671162,0.04866115851398683,-0.12935924788883707,-0.2713113231204102,0.9537590609050028,-1.8106479836477014,-1.842352867224278,4.151133476586966,0.221425913661157,1.3575349045766565,-0.27120074123156396,3.0,0.48285417371619715,0.4846641176339307,0.3424376971124117,-0.6522097447489446,0.46299048497908357,-0.09930781274034543,0.5919461276181119
15.3,-1.5291173498638242,1.9717788266531973,4.597243994018303,-0.21440893234958538,-0.16636280284700675,0.047554230624469965,-0.12924560651872644,-0.2711181602079224,0.9538293547751312,-1.8106894968917173,-1.8423504615015447,4.151127588638106,0.22141136727530242,1.357532024383545,-0.2712168735357496,3.0,0.48284434833637296,0.484670554988864,0.34242610058024153,-0.6522169723123615,0.4629936534987681,-0.09929787805432545,0.5919373524803678
15.4,-1.3937476497416998,1.8350468255030377,4.453042386083283,-0.21706958687833458,-0.17133660168836876,0.047565629855541455,-0.12911065052079837,-0.27088728098800485,0.9539132580482075,-1.8106938598003135,-1.8423002552347663,4.151132225736593,0.2214156824299316,1.3574980194051534,-0.27125658518147727,3.0,0.48284097999450515,0.4846643646361486,0.3424327046400855,-0.6522240058461501,0.4629688934592445,-0.09930634212276927,0.5919475486065632
15.5,-1.4756465241202594,1.7664155034252094,4.372918882610917,-0.21673092391337362,-0.1773500508721594,0.04641221907755497,-0.1291620666112314,-0.2709599216192299,0.9538856555046993,-1.8106909448320656,-1.8423157895965279,4.151152198951938,0.22142504213728142,1.3574977806260615,-0.2712119378909152,3.0,0.4828437090413612,0.48465593449506106,0.34243087899286984,-0.6522250572434043,0.46297363687701754,-0.0993096327035927,0.5919421281789151
15.600000000000001,-1.6249208138356213,1.6672812562649209,4.526676727249738,-0.21447564525597057,-0.1807922724562004,0.04518066772085143,-0.12923757235108443,-0.2710717939126117,0.9538436402019982,-1.8107081240918264,-1.8422957859435023,4.151145933909588,0.22141814130106066,1.3575027362409844,-0.2712437995413673,3.0,0.48283745567169833,0.4846559666206486,0.34243598795588104,-0.6522129256968303,0.4629812373631198,-0.09930743508405401,0.5919499191153944
15.700000000000001,-1.7838820744902726,1.7901730582771194,4.628719395379203,-0.2056939418684876,-0.1870002269830124,0.04617828528140005,-0.12931307809093748,-0.27118366620599355,0.9538016248992971,-1.8107071755149147,-1.8422957859435023,4.151149864835602,0.22144151486623306,1.3575150293596623,-0.27122193971742803,3.0,0.48283870725115013,0.48463699523569814,0.3424468837543957,-0.6521985034408607,0.46299288199098365,-0.09930899198345719,0.5919564404974529
15.8,-1.7947753853131418,1.8025989965286107,4.52284289900432,-0.2034534970270819,-0.19147581664100882,0.04608166383361995,-0.12932335810523463,-0.2712989387071721,0.9537674523412448,-1.8106638240356732,-1.8422838650145472,4.1511223935852195,0.22143320147287177,1.3575185375296193,-0.2712152525156305,3.0,0.4828409308395746,0.48465179515579376,0.3424297070111767,-0.6522182793866679,0.4629813867700112,-0.09929995051024788,0.5919451590874566
15.9,-1.5938530568869929,1.3601455819323616,4.4394278342695985,-0.21575431896710892,-0.1942377427952203,0.04669141716283976,-0.12918272630912334,-0.2709473413763749,0.9538864357818813,-1.8107135746149037,-1.8423315487303675,4.151109553984596,0.22144047796215816,1.3575258774409813,-0.2712515555617297,3.1949247203865627,0.48284700850773377,0.4846466960351324,0.3424133073859453,-0.6522214242091292,0.4629866907030815,-0.09932677379938475,0.591933045234873
16.0,-1.6137394863154968,1.3114327160180366,4.293618516319775,-0.21232451618673678,-0.19305417887482793,0.04511371441853408,-0.12915177416409515,-0.27090240209479066,0.9539034057320109,-1.8106750393683797,-1.8423018687796842,4.151121918415391,0.2214256274820994,1.3575283830416107,-0.2712308192282921,4.0,0.4828319194684087,0.48465491246087666,0.3424536131037569,-0.65221086171271,0.46297621047301174,-0.09930548379812958,0.5919564521885318
16.1,-1.6376320031542262,1.3750990269381276,4.351755976515997,-0.2078916348897055,-0.19543746050583158,0.05005618403018274,-0.12898911105293262,-0.27061131889810086,0.9540078882047275,-1.810707688805998,-1.8423315487303675,4.151147792513459,0.22142557632657017,1.3575178160565724,-0.2712284488599534,4.0,0.48282955216526213,0.48464862015063204,0.34245724525127047,-0.6522053986368879,0.46297283512417226,-0.09931101157194165,0.5919641838038361
16.2,-1.7692072104665408,1.727806579335813,4.399259627261564,-0.20098888781080715,-0.19543095725005236,0.051353706629556926,-0.12857066944803497,-0.269759036117734,0.9543057794628959,-1.8107208001820256,-1.8423110584134874,4.151128675902025,0.22143895443181028,1.3575367653932817,-0.27120445816606104,4.0,0.48283021324882375,0.4846611787452023,0.34242893111243206,-0.652224156008641,0.46296279106676724,-0.09929921771802727,0.5919533510058651
16.3,-1.7001508563269485,1.6597875631741756,4.331458628817404,-0.19809428653810648,-0.19498101945010843,0.047849798972650674,-0.12834169034467438,-0.2692217113462955,0.9544883706542433,-1.8107270894525491,-1.8422957859435023,4.151137576194857,0.22143726641807462,1.3575285452107877,-0.27122716992954243,4.0,0.48285813012292506,0.48462930229909756,0.34244473048554713,-0.6521982578183307,0.46298918897560387,-0.09931711716915007,0.5919582363880549
16.400000000000002,-1.6465219774278248,1.39256768831716,4.411911120723682,-0.20503619921278943,-0.20009460481707445,0.048233400057742556,-0.12822164271121586,-0.26897161723363927,0.9545750137483066,-1.8106957417024656,-1.842262747062539,4.151139642666431,0.2214255869162965,1.3575134713423158,-0.27119544573285687,4.0,0.4828472656914134,0.48463275504020686,0.342449660128373,-0.6521998122331498,0.46298735665103397,-0.09930530057950683,0.5919599393380824
16.5,-1.73846319612427,1.3928070272533182,4.361980086989723,-0.2030691291970161,-0.19292574862401254,0.054062331069091474,-0.12831169029551429,-0.2691774417050418,0.9545048646144555,-1.810734993574092,-1.8422929331767635,4.1511311531066895,0.22143451118249982,1.3575052156482263,-0.27123100787964427,4.0,0.48283561711543416,0.4846413613256388,0.3424686357023719,-0.6521930500715333,0.46297099215712073,-0.09930082731490414,0.5919809385056393
16.6,-1.7254220615138331,1.4208375926025496,4.188652197559544,-0.19974499894736775,-0.19367754623542804,0.052249938568325605,-0.12844313479829275,-0.26947354758600617,0.9544036589293664,-1.8107076481054662,-1.8422957859435023,4.1511666338108695,0.22146451457454155,1.3575111112484284,-0.27122499047033805,4.0,0.4828321389434218,0.48464925673328335,0.3424548741813331,-0.6522077188775334,0.462977162590763,-0.09930079665440707,0.5919599565340301
16.7,-1.8405142575204638,1.3109576642522156,4.040470015515583,-0.2016255720442422,-0.1947063167014626,0.05304917480514011,-0.1285421575465424,-0.2697004294531079,0.9543262383709549,-1.8106993263843012,-1.8423014191667928,4.151149136412378,0.22144676566782268,1.3575166085187127,-0.27121630649413747,4.0,0.4828365032893627,0.4846391535260647,0.34246738634190016,-0.6522067723952083,0.46296994231942146,-0.09929898573019824,0.5919669500770551
16.8,-1.7582603174977194,1.3463799716403628,4.302704407754151,-0.19819992834020672,-0.19690504362751576,0.052754592419901915,-0.12855865997344462,-0.26973810947767046,0.9543133775325242,-1.8107290267944336,-1.8423027514969899,4.151152455570133,0.22140767406512554,1.3575303065200495,-0.27123716423002814,4.0,0.48282938048374385,0.4846507108872784,0.34247600611973855,-0.6522009754240192,0.4629722786905102,-0.09929649940374091,0.5919719267213925
16.900000000000002,-1.9267532757085652,1.4415228738296508,4.224847526241907,-0.19546243995761323,-0.1936847536087468,0.04672648117555838,-0.1285482862857,-0.26971223441998005,0.9543220885363877,-1.8107252712612119,-1.842325437275692,4.1511311531066895,0.22144260615475006,1.3575111243885416,-0.27121568825875103,4.0,0.48282788788919373,0.48463839411982623,0.34244854808991065,-0.652217837222023,0.4629660505540341,-0.09931351248599983,0.5919553657848869
17.0,-1.8308487619370752,1.3312889556784495,4.058661026705933,-0.19670548372753724,-0.19698651847455698,0.052496784802109495,-0.12854875606361013,-0.26970377224923825,0.954324416786045,-1.8107242045075274,-1.8422719440855921,4.151145908100932,0.22142903387036128,1.357532024383545,-0.27121001878847295,4.0,0.4828293159008454,0.4846322332218159,0.34243966896066463,-0.6522155672097605,0.4629745382683349,-0.09930638438428671,0.5919524244607779
17.1,-1.749455836477542,1.3125559033473582,4.145995540425025,-0.19932562434684872,-0.19474202033485624,0.05081683379254461,-0.12853416698313389,-0.26966123801276204,0.9543383957144888,-1.8107223660305207,-1.8422813736979409,4.151121346309846,0.22143142553430334,1.3575155568227895,-0.2712338606463831,4.0,0.4828345864182603,0.48463407672503533,0.34247338759776086,-0.6522015426141461,0.46296413845231577,-0.09931426081690732,0.5919746885781725
17.2,-1.6567781198224627,1.3422167840252845,4.431922390119767,-0.19797642222222325,-0.19584562794142346,0.05370558616427032,-0.1284574037932847,-0.2694780290792283,0.9544004772652268,-1.810736776060137,-1.842319925423282,4.151146343735922,0.22144232537520486,1.357530023019411,-0.27119762102235967,4.0,0.48283871849231186,0.4846351996905178,0.34247163640140005,-0.6521899346227106,0.4629814833640998,-0.09929296475508635,0.5919774846976422
17.3,-2.00526623779652,1.6360340909015092,4.199232096816308,-0.18649439249770017,-0.18893798512240845,0.04807025746847865,-0.1285335447008367,-0.26959776390541496,0.9543563898513279,-1.8107175827026367,-1.8422957859435023,4.151142597198486,0.2214106026908443,1.3575081825256348,-0.27122774107647,4.0,0.482838209455458,0.4846368519256269,0.3424615852470682,-0.6521895043634873,0.46298636947560634,-0.09930229935067941,0.5919725715111924
17.400000000000002,-1.8246468546020833,1.350973221599013,4.080329418143705,-0.19768349647880512,-0.19617518586923305,0.0534490265332704,-0.12858819702071836,-0.26969490608610547,0.954321530644606,-1.8107433980568908,-1.8422809077502638,4.151151202316571,0.2214612442652134,1.357514097054202,-0.2712338606463831,4.0,0.4828424493550823,0.48463482328119684,0.3424130170852245,-0.6522223432333754,0.4629907736856911,-0.09931957683456279,0.591930046649512
17.5,-1.8544671993052255,1.4864296140011448,4.241862885588365,-0.18885927211069942,-0.19570441869385247,0.049742166615277805,-0.12821147294519092,-0.26903161587846947,0.9545593511192474,-1.8106988242411421,-1.842292572328103,4.151125116035957,0.22144969153329472,1.3575348107238827,-0.2712248421552799,4.0,0.48282097349802383,0.4846475343587386,0.34245773771066434,-0.6522192296109661,0.46295279227722225,-0.09930833893178577,0.5919650686206158
17.6,-1.7482249050848266,1.6106048753426518,4.173987338979609,-0.1892008977334023,-0.1993384726000746,0.057291470616167156,-0.12813441070708256,-0.268864924343755,0.9546167907773242,-1.810693243473911,-1.8422868401133716,4.1511511851954115,0.2214190145406149,1.3575017349571703,-0.27119167082471085,4.0,0.4828167042415149,0.4846503493346633,0.34245099999963696,-0.6522139758210594,0.46296894352196666,-0.09929568922083554,0.5919603476416304
