xiamingqian9007/apple-picking-rnn/training_data/grasper_20191127_111216.csv
,/manipulator_wrench.fx,/manipulator_wrench.fy,/manipulator_wrench.fz,/manipulator_wrench.tx,/manipulator_wrench.ty,/manipulator_wrench.tz,/ground_truth.x,/ground_truth.y,/ground_truth.z,/joint_states.elbow_joint,/joint_states.shoulder_lift_joint,/joint_states.shoulder_pan_joint,/joint_states.wrist_1_joint,/joint_states.wrist_2_joint,/joint_states.wrist_3_joint,/mode./mode,/manipulator_pose.x,/manipulator_pose.y,/manipulator_pose.z,/manipulator_pose.rx,/manipulator_pose.ry,/manipulator_pose.rz,/manipulator_pose.rw
0.1,-10.426609605892677,-4.129282354839673,-6.813720983627582,-0.13307072745926937,0.12568461763837185,0.3845851715720647,-0.22642150339410583,0.2277519226121987,0.9470279896180896,-1.8455137250073068,-1.8374868990862017,4.1643895305328185,0.4771663385578613,1.3356648289032165,-1.5580247084247034,1.0,0.46836792953488093,0.46985850012476404,0.3791980355045415,0.7288726929524382,0.0014870382329108687,0.4842349428982907,-0.48400300232730353
0.2,-10.458763919760734,-4.222574293870365,-6.708997223195607,-0.12742935219619936,0.10728666424923763,0.3847408814640727,-0.22609213656420682,0.22740257694388244,0.9471907862139224,-1.8442498486021472,-1.8384841903321463,4.164122217883044,0.47688644015703713,1.3359706329587133,-1.5580247084247034,1.0,0.46838944363174123,0.4698734716111499,0.37919075233302196,0.7288728141703131,0.001472611221284165,0.484240031573235,-0.48399777272379235
0.30000000000000004,-10.434410706858252,-4.228752876287478,-6.7999007018249324,-0.14165887109649808,0.11657497350836209,0.3945796735714922,-0.2262263350001941,0.22755381681356887,0.9471223966046367,-1.8403150504634769,-1.841899344819305,4.1634033990745385,0.4760835229390458,1.3366228974285046,-1.558031335759846,1.0,0.46874063126554416,0.4702110741774802,0.3791965266102388,0.7288517456239986,0.0014486509717096447,0.4842353119694656,-0.48403429315808455
0.4,-9.91591221542113,-4.707462229506588,-6.9196429819218555,-0.14215779114929103,0.11882021617880673,0.38879925679324784,-0.22636053343618134,0.2277050566832553,0.9470540069953511,-1.8360035339131775,-1.8450494895451588,4.16274293128529,0.4751976299557151,1.337312381825061,-1.5581210295306605,1.0,0.4695564176737807,0.4710010799671202,0.37905502652636863,0.7288985340166773,0.0014545668722717557,0.4842083678726989,-0.48399077245915534
0.5,-10.122815223453829,-4.57727552920085,-6.752352858043934,-0.15125693698090986,0.11298148014171969,0.3930218366630519,-0.22658947845165248,0.2278990615876634,0.9469525384831178,-1.8320418808887438,-1.848348522776357,4.161944014916717,0.47449943512308745,1.3380397067985228,-1.558210291661357,1.0,0.4707485214440766,0.4722901239083197,0.37900169320528726,0.7288627444885079,0.0014599877600527545,0.48423377871629447,-0.4840192306949793
0.6000000000000001,-10.013315599368703,-4.432487277332565,-6.751333063614554,-0.13837889414720114,0.1163603474156616,0.39092209309686615,-0.2268467580859175,0.2281058556709859,0.946841177496557,-1.8280567388969158,-1.851335176335389,4.161106492784916,0.4737096025405543,1.3388990887539083,-1.558226088779128,1.0,0.4715333875207068,0.4730383103210006,0.3788894797738789,0.7288784306901646,0.0014504658403435883,0.4842421528450133,-0.48398725895576583
0.7000000000000001,-10.152228309902453,-4.525386664995147,-6.772777611486949,-0.12988207290653317,0.1213043267277675,0.38112237876624433,-0.2270435608069263,0.2284016365782232,0.9467226771097838,-1.8240371315621673,-1.8544381922493967,4.160467954434078,0.4728446794171503,1.3396004790734004,-1.5582650343524378,1.0,0.4727123377146823,0.4741325407100353,0.37891821365257633,0.7287952999876047,0.0014233889965259683,0.484274369927249,-0.48408028188649405
0.8,-10.290391411624475,-4.132936772184413,-6.772969044131606,-0.13501769872734373,0.12074794952397538,0.3860361022282373,-0.22712458905324046,0.2285769733087353,0.9466609542754102,-1.820386289261554,-1.8574592918628532,4.15985420057757,0.47199675400886215,1.3401906221153013,-1.5583125065669705,1.0,0.4736910096680351,0.47518938682784545,0.3787709007920685,0.728837583043573,0.0014799679566846213,0.4842241534289252,-0.48406668597837876
0.9,-10.131172842788429,-4.130638978262569,-6.779660413761,-0.12791891110711087,0.11438305080830341,0.3835430980047551,-0.22703714106982048,0.22842204136036331,0.946719310855285,-1.8167500678725084,-1.860251062035818,4.159231883209722,0.47130241564575726,1.3407416343688965,-1.5583847204791468,1.0,0.47431334521035884,0.47581264379674776,0.37880447132137673,0.7287900328262552,0.001454343870153139,0.48427161484474973,-0.48409087575854126
1.0,-10.125943738014836,-4.314893906003653,-6.805740085819197,-0.13670067013038142,0.11911837306401842,0.3855906131158493,-0.22735569767922087,0.22866395780228713,0.9465844505280744,-1.8131290711705588,-1.8630580995697954,4.158715568038758,0.4705468851276855,1.3412711070913996,-1.558420796659097,1.0,0.47516870688493473,0.4766311644655466,0.3787387295179073,0.7287699362700054,0.0014054867343856307,0.4842959178460517,-0.4840969619339725
1.1,-10.243023460095186,-4.641152893193463,-6.711040484870154,-0.1434977737093866,0.11541435895767684,0.3880990906406132,-0.227375819565691,0.2287859713984871,0.9465501613664904,-1.8097290758495037,-1.865889039678256,4.1581875509676465,0.46980370186031467,1.3420748710632324,-1.5584328810321253,1.0,0.47617234345325754,0.47771084233867417,0.378587157156333,0.7288035236660139,0.0014446921513523103,0.4842745203147602,-0.48406768713734505
1.2000000000000002,-10.273401999973853,-4.279630470644504,-6.817194492637838,-0.137037741905016,0.11955316496946947,0.38550775672628484,-0.2273263414916782,0.22888284924521415,0.9465386252615927,-1.8063759657857075,-1.8684644702483424,4.157528400421143,0.46907201320587344,1.3426968219055233,-1.5584813648934248,1.0,0.4773896537470061,0.4790324664789034,0.37837126259231085,0.7288535874585846,0.0015323613281954872,0.4841915263117061,-0.484075062118936
1.3,-9.964561056900628,-4.650987737651493,-6.918344267879734,-0.14301797239350023,0.11490376530752557,0.38132223736962756,-0.22735667924964492,0.22894590613771157,0.9465160538344332,-1.803226391697147,-1.8711055940776353,4.156977613878358,0.4683425205288101,1.3431654442483214,-1.5585402972689215,1.0,0.4780854843792643,0.4797063672562259,0.3783086417933436,0.728858304793908,0.0015250410761058193,0.48418652190559264,-0.484072988078897
1.4000000000000001,-10.152898643847292,-4.443577364496866,-6.996785619368301,-0.14354540104060165,0.11282766558968658,0.38476788104408666,-0.22716530302142926,0.22862913333200485,0.9466384767226328,-1.8000848776278784,-1.8734033952555067,4.15636460581091,0.4677189158376485,1.3436212539672852,-1.558540483758933,1.0,0.4785982202229894,0.4801451998533201,0.37827949777936376,0.7288611839667373,0.0014914908821610047,0.4842138848469514,-0.484041386332799
1.5,-9.885323226924234,-4.30158041714092,-6.858883636973786,-0.13337459435251486,0.117487622603389,0.38698732541792724,-0.22697392679321357,0.22831236052629816,0.9467608996108324,-1.7970452391818232,-1.8756500993836989,4.15580415725708,0.4671062003324061,1.3441600877714146,-1.5586118592894058,1.0,0.4795251873546025,0.4810665163910469,0.3780015087622365,0.728955852068594,0.0014814351990220514,0.48416504583631464,-0.48394770324387365
1.6,-10.1082788782579,-4.60918253635004,-6.868060460740342,-0.14171596421916954,0.11502095023003468,0.3863057297354415,-0.22683470453617594,0.22805075347475862,0.946857342328831,-1.7940771994358053,-1.8781622500682715,4.155337768078935,0.4663891874257184,1.3445814249460069,-1.5586126486407679,1.0,0.4805362301566969,0.4819807076557084,0.3781428694954815,0.7288184205081584,0.001434319592264662,0.48429198645514626,-0.4840278137779159
1.7000000000000002,-10.21913760322308,-4.5064263635763755,-6.873467726365489,-0.1436133511254774,0.11342470608050384,0.3867642098053085,-0.22678282541709346,0.2279212968043143,0.9469009371804312,-1.7912640297285394,-1.8800701333068521,4.154868362752058,0.4656456822200657,1.3451666984945119,-1.5586486574949574,1.0,0.48113221066857087,0.48257862770126503,0.37799884825671504,0.7288763261268467,0.0014291511890706034,0.48425846577625825,-0.48397416983009967
1.8,-9.887083666940018,-4.739217722865911,-6.783024524213653,-0.14298296233080676,0.11102727313027151,0.38692360193129754,-0.22701626858148097,0.22826903424148495,0.9467612089675378,-1.788434478826907,-1.882324958058996,4.154424070638327,0.4650582816514973,1.3456109229366555,-1.5586736045523804,1.0,0.4819083946187421,0.4833898182742922,0.3780739849301921,0.7288139362093634,0.0014456992493723166,0.4842765588899728,-0.4840499673074888
1.9000000000000001,-10.16632440004864,-4.43160881895011,-6.756036281216183,-0.1453429323140319,0.10592958643439304,0.3847906815668269,-0.2274097518627396,0.22873962943622386,0.9465529474807689,-1.7858375510842288,-1.8844002210257353,4.153982442242323,0.46451814888094317,1.3460925052470956,-1.558733001095425,1.0,0.48244447912751626,0.4839327667490006,0.3779845324057743,0.7288377394831496,0.0014594715602160094,0.48425291517452984,-0.4840377398435239
2.0,-9.906434639327003,-4.539315590524099,-6.72753601765475,-0.14130790958527378,0.11360426898195904,0.3840544355680293,-0.22788019348788088,0.22926930312790744,0.9463117304615907,-1.7831649656659685,-1.8863315535570802,4.153573813978504,0.4639553761456469,1.3465105800178108,-1.558721380220794,1.0,0.4830971903564799,0.4845908472762616,0.3779250551048315,0.728821322889501,0.001461580702467262,0.48424662594499024,-0.48406874340773237
2.1,-10.216841217263323,-4.283443669202252,-6.464601313529549,-0.13303007992742277,0.10919480997245272,0.38630567581781455,-0.22770599408599806,0.22912605429169564,0.9463882687583132,-1.7805828898210807,-1.8884304864503605,4.153155077005374,0.4632722574421386,1.346894495142474,-1.5587681014763548,1.0,0.4837835521972792,0.4852838620714998,0.3778691009385239,0.7288168889780637,0.0014646467791838021,0.48423494351704327,-0.48408709611721235
2.2,-10.126024327039612,-4.332655131794532,-6.917679427022225,-0.1371551249234616,0.1137114936520572,0.38493628640339167,-0.2272093189912093,0.22864618220415767,0.9466237612037386,-1.7782120609719674,-1.8901680143169632,4.15286775142317,0.4627151032140951,1.3472606583411972,-1.5587809295439186,1.0,0.4845316732366418,0.48610335142150096,0.377722178528381,0.7288567611775603,0.001489906381027565,0.48421204843632903,-0.48404988793907056
2.3000000000000003,-10.243150613151135,-4.3731398452307575,-6.919812753278574,-0.1421567924076642,0.1123047170559464,0.3789357227037181,-0.2271419497406154,0.22855459747267692,0.9466621860429871,-1.775810300479145,-1.8919934797322826,4.152470663058683,0.4621347327113843,1.3476035298041578,-1.5588162581073206,1.0,0.4850831383257481,0.48666835681770515,0.377675650305657,0.7288628037925697,0.0014937256876053936,0.4842172851033528,-0.4840355388174946
2.4000000000000004,-10.216340028384204,-4.465549486223976,-6.770846574045573,-0.13803071138197615,0.11382380980575757,0.38065378023509594,-0.2272977056900595,0.22866481920426676,0.9465981879834006,-1.7734269872958963,-1.8937206150596086,4.152036540864666,0.46158089167360666,1.3479333432074492,-1.5588425085194073,1.0,0.4856643387398093,0.48723291203197305,0.3776590059659993,0.7288472250274833,0.0014806806771367714,0.4842380258899227,-0.4840382881928866
2.5,-10.286834388886476,-4.504495105805949,-6.629677041528882,-0.1357420640603962,0.11508013848337414,0.38006432211818497,-0.22714370676192566,0.2284817105438606,0.946679303782555,-1.7712371062311316,-1.8954571914544414,4.151692202985732,0.4611026483723144,1.3483102608648156,-1.5588530542332593,1.0,0.48609062442958295,0.4876266019846763,0.37763028344639893,0.728837034236058,0.001458678873496471,0.4842516244672349,-0.4840400954288552
2.6,-10.151878724064646,-4.4638124374666655,-6.653446839933607,-0.13881000778377603,0.11045096019491588,0.37883772861059656,-0.22693560171460694,0.22825869079683456,0.946783012918242,-1.7690171551062819,-1.8972790916401172,4.151284985958171,0.4605768027227378,1.3487052917480469,-1.5589120190468548,1.0,0.48666954567560433,0.4881995904898527,0.37754449466691625,0.7288561408416958,0.00145450390826413,0.4842377650261702,-0.48402520316424713
2.7,-10.08942016805411,-4.315059463997217,-6.804108980504088,-0.13566130432744528,0.11218493104359062,0.3800215871419619,-0.22748630894352648,0.22882731328352063,0.9465134659258607,-1.7668348967775174,-1.8988080142545578,4.150985346061363,0.46007141860958656,1.3490773411793688,-1.558892679546021,1.0,0.48718401050985144,0.488731106652638,0.377415223265158,0.7288984537190398,0.0014771957176898333,0.48420705419203647,-0.48399213911950517
2.8000000000000003,-10.1903218743002,-4.2879881483277265,-6.578433433703092,-0.13569014018296732,0.10652632906066939,0.3772052271343704,-0.22779544283326159,0.22918261341960408,0.9463532733402531,-1.7650518402976882,-1.9001884456105027,4.150676867005363,0.45958843814921146,1.3494175460328854,-1.5589174876548386,1.0,0.4879013772414176,0.48943523370376774,0.3774763077409261,0.7288257953019953,0.001466426976969094,0.4842468064330651,-0.48406181439327833
2.9000000000000004,-9.974762953403687,-4.7079059911752665,-6.700063572167262,-0.14525224120486982,0.10544398044033017,0.3755049200664247,-0.22789234656958887,0.22933474774423773,0.9462930890227266,-1.762839572651334,-1.9019751763661443,4.150383492199011,0.45904962314226455,1.3497317454697786,-1.5589503082420688,1.0,0.48830049706903295,0.48985647555749867,0.377401074691035,0.7288513830349406,0.0014884848080474861,0.4842174053922397,-0.48405263161792356
3.0,-10.152196688804588,-4.250971566625253,-6.769239355688692,-0.13530358981521037,0.1058974289679012,0.3784352551356902,-0.2274037713111928,0.22883595907847487,0.9465311777992949,-1.7610769271850586,-1.9033982265827585,4.150070566566947,0.4585759068685266,1.350015740958688,-1.55896744723889,1.0,0.48882771400045705,0.49041877122885913,0.3773130972608573,0.7288666722880415,0.0014962886830543263,0.4842123930764513,-0.48403459952684147
3.1,-10.216190322461843,-4.191654392001051,-6.785741644357849,-0.13589410691672302,0.10678642743627188,0.3788378031002733,-0.22636973592858006,0.22777191855865425,0.9470351628302169,-1.7592793902932997,-1.90460266689443,4.149784091533889,0.4581093014121326,1.3502769470214844,-1.5589853647776755,1.0,0.48915636281483027,0.49072703997499734,0.37725627559981006,0.7288804560993085,0.001492675629914802,0.48421024382760247,-0.4840160042894671
3.2,-9.893694243177212,-4.497480756566813,-6.76964693655322,-0.14033727610688712,0.10647582574023261,0.38479181169077803,-0.22616645309123684,0.2275469197654456,0.9471382255421109,-1.7572314552638841,-1.9058880778584006,4.1494513417119565,0.4577138093140603,1.3505636681681095,-1.5590322010706306,1.0,0.4896054811868674,0.4911343166552997,0.37724646525103744,0.728887065671317,0.0014817865933334925,0.48421142926591426,-0.4840048982952651
3.3000000000000003,-10.161742914725094,-4.645810020317862,-6.7735761490814514,-0.1419285452861713,0.1085326134351527,0.37509508159505883,-0.22652728388905619,0.2278916632873792,0.9469690462391083,-1.7556188272438131,-1.907494666602543,4.149187785256623,0.45730419888284657,1.3508160202570276,-1.5590327421771448,1.0,0.49016004189083506,0.4916803141225302,0.3773769574677955,0.728775499804972,0.0014563375946013437,0.4842810705158023,-0.4841032892936098
3.4000000000000004,-10.314877895458014,-4.293485025698522,-6.6357925572989265,-0.13266318350059475,0.1089007494911014,0.3707190440160746,-0.2268288686433628,0.22817174522334036,0.9468296018145532,-1.7540926376966437,-1.9087699604040351,4.148947238922119,0.4568807508485545,1.3510589909549893,-1.5590496947307722,1.0,0.49043751715968137,0.491953163133361,0.37727671510047894,0.7288156347272344,0.001453100271005166,0.4842625228800221,-0.4840614299968726
3.5,-10.042037302634222,-4.592569407142562,-6.535532432087043,-0.13817404899648603,0.11021389619530114,0.3776933839205808,-0.22649816273855314,0.22776883316684013,0.9470057656457813,-1.752160972324461,-1.9097937680363373,4.1486838088113185,0.45645443975415034,1.3512837842618795,-1.55906850496401,1.0,0.4908827096464702,0.49241652172790823,0.3769935501093593,0.7289503096384953,0.0014859216662659516,0.4841939293206575,-0.48392714009834775
3.6,-9.982385387462985,-4.557399045904658,-6.501800572095624,-0.14231590608083933,0.1110043339811882,0.37880068409853573,-0.22615916443297618,0.22743947819692972,0.9471659388393772,-1.7505699704929536,-1.9109099292381924,4.148444691515984,0.45605965754576855,1.3515242157751342,-1.5590923468219202,1.0,0.4914761399215187,0.49296220177772265,0.37721151449984996,0.7288103036580355,0.0014341779752391314,0.4842797150359089,-0.4840523133093741
3.7,-10.03208951328483,-4.4891895324549544,-6.62310763647679,-0.13733125299376472,0.10791619430004072,0.37636695635392053,-0.22620201425053246,0.22748330018282678,0.9471451815392818,-1.749131900597789,-1.9122524496308282,4.148227878219886,0.45567560229428183,1.3517522346010966,-1.5590807282551145,1.0,0.4916710182968289,0.49313517759864506,0.3772495531508847,0.728776617013273,0.0014103992702962258,0.48430717190332456,-0.4840756309830018
3.8000000000000003,-9.890392865111986,-4.576434085452917,-6.718614737250276,-0.14160011144055362,0.10582588674171718,0.374853430937521,-0.22608883595338905,0.227379373500986,0.9471971094815324,-1.7475762207234977,-1.913368144223246,4.148012124718589,0.4553273905937655,1.3520274264967171,-1.5591040110641492,1.0,0.49219890506243574,0.4937294588339194,0.37703950081772286,0.7288710930228179,0.0014608108894416112,0.4842339940776489,-0.4840064408320157
3.9000000000000004,-10.226608184340666,-4.509480617713327,-6.736956889076948,-0.14027538882415702,0.1125454325925412,0.3803484238926433,-0.2258521204850414,0.2271584650014987,0.9473065868548262,-1.7460803433707015,-1.9144862270569645,4.147785416753192,0.45490557146871713,1.3522284168886478,-1.559113456446905,1.0,0.49248590594867353,0.49403299354531033,0.3770162184684,0.728864834604121,0.0014613005181448471,0.4842366666843669,-0.4840131900234915
4.0,-10.265356680450438,-4.440931355339836,-6.77605411767717,-0.14078214297580738,0.10991147600665582,0.3709407318362388,-0.22705890221505842,0.22838353705149295,0.9467160699308199,-1.744656202308183,-1.9155152431179863,4.147558486478516,0.4545610357390913,1.3524601817299815,-1.559153554856956,1.0,0.49288200968327534,0.49445886354625324,0.3770058891645979,0.7288502694305334,0.0014655389493377228,0.48423912906726685,-0.4840326464473256
4.1000000000000005,-9.937143880097075,-4.759184400565002,-6.952530422843802,-0.14537261346158797,0.10889886035998064,0.37788835966411904,-0.229447873507004,0.23079283246838075,0.9455522744769937,-1.7431106780589087,-1.9165101435209884,4.147329807281494,0.4541894782906482,1.3526988963171067,-1.559128493076835,1.0,0.49311421978569564,0.4947074829574272,0.3770124265657867,0.7288362123936275,0.0014737797111257513,0.4842373937186528,-0.48405552367640725
4.2,-10.45350058663272,-4.0044741518668845,-6.690691022024758,-0.13167053088946157,0.11358794934810015,0.3709380282957408,-0.23173006412509523,0.23309515200022835,0.9444404587578341,-1.7416550634500005,-1.9176990857349852,4.147113912853511,0.45384117303200805,1.35295037387234,-1.5591424185453948,1.0,0.49343071001735567,0.49499524022645763,0.3770442016717701,0.7288132426093019,0.0014571535645181827,0.4842519740424497,-0.4840755723405128
4.3,-9.94823378545453,-4.671358495151467,-6.671181077174094,-0.14323629809166458,0.10264655464298554,0.3725030830986005,-0.23108443499241427,0.23246429928496715,0.9447538756046719,-1.74030301870759,-1.9188506106472498,4.146913479505126,0.45349752359887596,1.3531362869936165,-1.559161186806991,1.0,0.4939337736824056,0.49547836912583915,0.3769898379291035,0.7288058409092523,0.001453220457603785,0.4842545738403653,-0.48408412711175064
4.4,-10.32848314968006,-4.358837183687433,-6.641888003325057,-0.1376262744616581,0.11241738739648682,0.37647214810805785,-0.230981672337995,0.2323593641161051,0.9448049679340805,-1.7388259223947857,-1.9199988680886109,4.146682397144115,0.45309915442545434,1.3533699305831692,-1.55918832581418,1.0,0.4942123574356203,0.4957715667074456,0.3768686462364902,0.7288570056974475,0.0014742866416832656,0.4842197497917155,-0.484041863516264
4.5,-10.104607204510108,-4.507994949949934,-6.84608589707737,-0.13855123012292472,0.10584981679410138,0.37800904986595885,-0.2313672688921535,0.23272811795079928,0.9446199254771926,-1.7371196654403374,-1.9210122831835037,4.146466216678489,0.45274918662880276,1.3535595835755299,-1.5592154000759562,1.0,0.4946242710061458,0.4961934328720842,0.3768133891385019,0.7288739935994752,0.001484287651241696,0.48421617852585014,-0.4840198247988843
4.6000000000000005,-10.08150679731753,-4.713264241038214,-6.737768880234513,-0.14788359419715644,0.11091035355381824,0.37580089180778137,-0.23170338181201883,0.23308455487386018,0.9444495746350806,-1.7358233936646672,-1.9220751997767562,4.146249515287631,0.4523317056843261,1.353814354375325,-1.5592244307147425,1.0,0.4948697612442223,0.49644778336154766,0.376864165843266,0.728832426037731,0.0014787947844949244,0.4842390083371802,-0.4840595941891508
4.7,-10.056517350610292,-4.359696209270599,-6.68684690382821,-0.13678118394300198,0.10210577323165401,0.3766239032108303,-0.2323086862575987,0.23366969966631917,0.9441556808211184,-1.7345010581579787,-1.9232007465758265,4.146022976642509,0.4519549850981792,1.353988331404263,-1.559242466704794,1.0,0.49524227422289024,0.4968121721422422,0.3768530997966069,0.7288280758294822,0.0014650647195225497,0.4842409394760546,-0.4840642540029267
4.800000000000001,-10.550529945571347,-4.330560206332278,-7.004488732043484,-0.13862586750394562,0.11550219248646902,0.37660792911401647,-0.23317329946068804,0.23447515582738027,0.9437427796407675,-1.7328531986227949,-1.9242430339093575,4.145840220462135,0.45156483154488963,1.3541979789733887,-1.559269305870481,1.0,0.4957020979480055,0.49721102837512854,0.37668367897770244,0.7289085586568901,0.0014547214800866165,0.48421916250060704,-0.4839648743135819
4.9,-10.191827387769408,-4.841496127500871,-7.054824004879477,-0.14484776795829357,0.11036978967009795,0.37801167655388496,-0.23331689772552414,0.23461298753170892,0.943673474085979,-1.7312699469183193,-1.9253207093349287,4.145637416937656,0.45117104401815283,1.354408720985761,-1.5592569308993227,1.0,0.495947120428481,0.49751410901615734,0.37672040866000983,0.7288730745530216,0.0014652116208007525,0.48421850650959286,-0.4840189379560997
5.0,-10.07136746473214,-4.649859629224478,-6.708787288884913,-0.14484215424681762,0.10111861617305773,0.37317580895435015,-0.2327429273658788,0.2340863858967669,0.9439461218352512,-1.7298994064331055,-1.9264995952610942,4.145400159169544,0.450821860791818,1.3546178008000167,-1.559260375986538,1.0,0.4963771491299012,0.4979581469674111,0.3768162675988228,0.7287935625204668,0.0014469689927400595,0.48426763440923615,-0.4840895658585742
5.1000000000000005,-10.17652701714947,-4.3509961288893875,-6.845224998424126,-0.1368125784086549,0.10647934650280867,0.3760858617768364,-0.23250340581810452,0.2338248583404211,0.9440698935405886,-1.7285217595281175,-1.9276520662562282,4.145230254835422,0.4504505767251432,1.3548107210917513,-1.559296674729246,1.0,0.4966385046312551,0.49823205181434194,0.37672063247903514,0.7288254680926582,0.001466633957368495,0.4842460451680385,-0.48406306798129806
5.2,-10.067159249596525,-4.161336351006085,-6.786140077015548,-0.13678788777434975,0.10296101222845609,0.38054081779408067,-0.2322681146269369,0.23356668363760577,0.9441917821513127,-1.7268639460258284,-1.9287525243535908,4.144985684753014,0.45007343321702414,1.3550322148954637,-1.5593142865776677,1.0,0.49696986664634524,0.49855389205247225,0.3765567072707924,0.7288975962174055,0.001463529744026911,0.484207782686476,-0.48399274322558067
5.300000000000001,-10.01035549017174,-4.552529220265964,-6.7671725082244585,-0.13915462571019682,0.10552715734481642,0.37433165637795257,-0.23328973160702218,0.2345791930669632,0.9436868307042957,-1.7253389358520508,-1.9297839603819789,4.144778092956248,0.4496401193800252,1.3552567044182036,-1.559334421406586,1.0,0.49744930910541424,0.4990446725975482,0.37661721382285634,0.7288369500697618,0.0014565433324381732,0.48424789237507104,-0.4840439622852767
5.4,-10.196450245033652,-4.533638717642876,-6.877910839350677,-0.1417696271618465,0.10697698786544861,0.37452856540999774,-0.2343384416829197,0.23561909253779498,0.9431683675003087,-1.7240820513822026,-1.9307792984564032,4.144536079079057,0.44925223303747513,1.3554816246032715,-1.559314405580275,1.0,0.49770893068597083,0.49925648915845494,0.37666796582122886,0.728805759671487,0.0014330404131207182,0.484278662839122,-0.4840602109072726
5.5,-10.457242227739675,-4.553138826837821,-6.996333381701403,-0.14393516659260538,0.11337199404551634,0.3726177418113222,-0.23507160376021816,0.23634156180925908,0.9428063710427382,-1.7225738597133813,-1.9319635576946936,4.14429695851151,0.44887550773976354,1.3556983622691845,-1.5593506799847405,1.0,0.4980324120688763,0.4996021024296927,0.37659682101251657,0.7288341682327547,0.0014618526364336103,0.48424835580075415,-0.48404767131720045
5.6000000000000005,-10.348810897706588,-4.360081706640128,-6.948876467609115,-0.13916424288038334,0.11097695827002164,0.3751353404659743,-0.23544924731646485,0.23670639194018872,0.9426206610028495,-1.720904939012314,-1.933334026210972,4.144104480743408,0.44848419217683755,1.3559255731837294,-1.559344910146709,1.0,0.49839917855427546,0.4999629799526763,0.3765068947993436,0.728866264144383,0.0014585304019815203,0.4842354185891806,-0.4840122943325279
5.7,-10.068367033391343,-4.32746028013977,-6.822697936909705,-0.13755749976970905,0.10172417667722988,0.37548124320241,-0.23531791255351764,0.23661127269306434,0.9426773367036229,-1.7194655986056575,-1.9342499867267553,4.143919608881248,0.4480722720515885,1.3561715163809689,-1.55939227739443,1.0,0.49889652380837995,0.5004915197291627,0.37639046760287365,0.7288896243595193,0.0014748508595615398,0.4842102673228941,-0.48400222864680376
5.800000000000001,-10.239083274708337,-4.193444510043704,-6.7720561373936,-0.13201487807231496,0.10619089361906872,0.36948687752587417,-0.2348874608916675,0.23621461003535532,0.9428836797791214,-1.7180614261839284,-1.9352281296576181,4.143637428764472,0.44763497433884214,1.3563576891257074,-1.5593681918780342,1.0,0.4991217703222357,0.5007220435538008,0.3763824567176296,0.7288934605433877,0.0014802218244356286,0.48420497676891827,-0.48400172788188167
5.9,-10.44195203216147,-4.349037690809837,-6.740648247548496,-0.1349357139924197,0.11039164083686243,0.37045029286240244,-0.23410817684287874,0.23546222044110188,0.9432655057414313,-1.7164586442944374,-1.9362418531418835,4.143442468929441,0.44727455308235786,1.3565760114558312,-1.5593980905892955,1.0,0.49961264533430816,0.5011640801529862,0.37646847339664763,0.7288404094949756,0.0014643817320470127,0.4842536806741885,-0.48403293878293074
6.0,-10.15049884051488,-4.492889992764172,-6.877828154704167,-0.1434603615945283,0.10625194045052568,0.38168197396641773,-0.2337918356675979,0.23515557516880506,0.9434209754181562,-1.7150203192651072,-1.9374086615493022,4.143229007720947,0.44693570410447964,1.356790416695443,-1.5594404379474085,1.0,0.49990232815630714,0.5014855927304507,0.37648618666789063,0.7288133852394929,0.0014704269389225555,0.48425148413832664,-0.4840758075448471
6.1000000000000005,-9.985438988118291,-4.4950645786222845,-7.000309563628179,-0.138775119747501,0.10063310657690008,0.3755526944387543,-0.2341033460382944,0.2354534564540303,0.943269456582952,-1.7135503098846525,-1.9387301868159443,4.143040949519265,0.4465202721424471,1.3569582971015515,-1.559439072849993,1.0,0.5001183280272693,0.5017012099342338,0.3764534150491435,0.728816156145061,0.001467407602774641,0.4842525333036495,-0.48407059531215435
6.2,-10.102773515335068,-4.377721646605594,-6.746666388025255,-0.13396606411494102,0.10078873734701146,0.3737977204023208,-0.23418756981319402,0.23551208136048146,0.9432339242238598,-1.7119525254649275,-1.9397732376115684,4.142810013101381,0.446123892361782,1.3571966215091593,-1.559405805282139,1.0,0.5005200790869857,0.5021055954505803,0.3762748056673793,0.7288822816023831,0.0014703064420839445,0.4842144709521319,-0.48400909483770826
6.300000000000001,-10.174966317767666,-4.2253864853296985,-6.633181631679105,-0.13059159402441445,0.09980584656413552,0.37116285576728447,-0.23425047547129513,0.23554826545642377,0.9432092706992019,-1.7104781371638547,-1.9406965225737165,4.142654895782471,0.4456928808493819,1.357341768504768,-1.5594413689425344,1.0,0.5009065644161118,0.5025066100521468,0.3762471108327207,0.7288779498571107,0.0014668229569646581,0.48422080666422695,-0.4840092902372366
6.4,-10.189010861963652,-4.687292179216539,-6.813739267102541,-0.14049354557549773,0.10707323099660399,0.3785204554416404,-0.23488399549756378,0.23618018299304597,0.9428935943192027,-1.7090727667724916,-1.941632547768151,4.1424151843710355,0.44528470622146626,1.3576040586943012,-1.5594991208177351,1.0,0.5012248051741373,0.5028249690793869,0.37626778351076107,0.7288683314375258,0.0014617953138243741,0.48422559790191755,-0.4840189964438052
6.5,-10.09702436588639,-4.746028374400449,-6.75040692377872,-0.14167566747913563,0.10437819218257452,0.3735394231774152,-0.2346459604572109,0.2359502593071156,0.9430103933017406,-1.7075262580627264,-1.9428235129619795,4.142200997900373,0.44484250127758784,1.3578076483770603,-1.5594690252588606,1.0,0.5016344069743888,0.5032259487590716,0.37633194108287343,0.7288299843030496,0.001465105529308218,0.4842476731158194,-0.4840546441555118
6.6000000000000005,-10.162511138363463,-4.54766343605379,-6.962133964613825,-0.14211927611945432,0.10254989690618874,0.3688512519969186,-0.23438144570943015,0.23567871379487967,0.9431441311538764,-1.705893461761739,-1.944041635528486,4.142009759740091,0.44444185402056974,1.3579867709662794,-1.5595034598637494,1.0,0.5020270031321491,0.5036397675000193,0.37623031551908354,0.7288686737750908,0.0014769115203421435,0.4842342335921029,-0.48400979549919254
6.7,-10.232960567626645,-4.5621816001961255,-6.901004867817795,-0.13906728167726148,0.10320310005613358,0.37494757858850436,-0.2342518840409714,0.23551485889298696,0.943217240712097,-1.7045621871948242,-1.9451209509924832,4.1417798714283665,0.4441115380828643,1.3581809995018004,-1.5595248286501235,1.0,0.5023276214186544,0.5039101288840023,0.37626551874840886,0.7288211636987877,0.0014438071673234366,0.4842683110915086,-0.48404734235215735
6.800000000000001,-10.10469564941312,-4.343799108356892,-6.729525908281616,-0.13277863268190374,0.10213693760189012,0.3725112036390405,-0.2340623292240512,0.23530289746861546,0.9433171928022613,-1.703181266784668,-1.9462120786088684,4.141563525884432,0.4437510419952049,1.3583849616070949,-1.5595000425921839,1.0,0.5027775092888483,0.5043508681806163,0.3761348203040781,0.7288689004216218,0.0014375314038198935,0.4842348772931617,-0.4840089287549512
6.9,-9.988205986757569,-4.467548372979833,-6.659799900290274,-0.13564917577262883,0.09859377849113428,0.37243827095438686,-0.23383260055094357,0.23506830584837854,0.9434326684264275,-1.7014044893563511,-1.9471605992310765,4.141371525362313,0.4433322614811217,1.3585889707358487,-1.5595122501979366,1.0,0.5029677569514048,0.5045654123395852,0.37604240806200295,0.7289057402564469,0.0014747656774973005,0.48421829983512293,-0.48396992157796426
7.0,-9.63025597726381,-4.379979449004122,-7.213324173155064,-0.14500968799462505,0.1360167089848485,0.3787593621955103,-0.23375222621722688,0.2349994334178841,0.9434697464242896,-1.70080062866499,-1.947621882166341,4.141300967531262,0.44310599069178364,1.3587074168524353,-1.5595719544101336,1.0,0.503420545369371,0.5050055574892229,0.37621808211318913,0.7287840677950604,0.0014441595101523526,0.4842997835205535,-0.48407170606568095
7.1000000000000005,-9.872838280833747,-4.418529894678131,-6.877360792447546,-0.14796920819296955,0.1102948358672191,0.3761479405981855,-0.23372363297698567,0.23502627191064962,0.9434701450286983,-1.7008063042578485,-1.9476175067405854,4.141298082141047,0.44309796604205826,1.3587043550292308,-1.5595482031451624,1.0,0.5035710600212254,0.5051526305271488,0.37626528582191165,0.7287542863259489,0.0014316394827152891,0.48429924231158317,-0.48411711854299827
7.2,-9.777996247453132,-4.564658280040027,-6.84057988726428,-0.14402655237267564,0.09302106996129789,0.38118983988740124,-0.23365637043835413,0.2349642554580565,0.943502250810812,-1.7008480759399307,-1.9477679105025951,4.1413364144103895,0.44315224220625105,1.3587064476745498,-1.5595122152545426,1.0,0.5035752186646609,0.5051678966362809,0.37622289272566045,0.7287809414726852,0.0014566437252455746,0.4842888553024241,-0.4840873084115224
7.300000000000001,-10.045829743543832,-4.647510084171687,-6.919324625552863,-0.14375886795026532,0.10233959103645777,0.3682213993861426,-0.23369097561919835,0.23499693491949097,0.9434855401302588,-1.7008364449645117,-1.9478142586698988,4.141277845368968,0.4430842444614099,1.358684118257152,-1.5595607878726074,1.0,0.5035733980425652,0.5051793918916164,0.37617481657101676,0.7288072589593505,0.001466955243531451,0.48427210281569194,-0.4840644148922124
7.4,-10.07125731408356,-4.708109808531304,-6.782059945498197,-0.14564640906803136,0.10186149857947426,0.3751153017615276,-0.23386277295547478,0.23517579933853142,0.9433982856620861,-1.7008716343801258,-1.9478009262563247,4.14126617918799,0.4430604271928862,1.3586959165928167,-1.5595596974665589,1.0,0.5035842673516708,0.5052009332731447,0.37609271560921703,0.7288496932576701,0.001456635962355603,0.48424082887121966,-0.484031840382415
7.5,-9.871637007028138,-4.65252344328606,-6.7937264006605975,-0.14290269695419233,0.09725674339068148,0.3720545608918925,-0.2342768207840789,0.23561476399204825,0.9431859218316353,-1.7008250764569335,-1.9477667691653133,4.141312085364825,0.44307152807202144,1.358673307592469,-1.5595478772719842,1.0,0.5035977070798138,0.5051960192901054,0.3760786561145403,0.7288525849424012,0.0014408314855695365,0.48423936745496887,-0.4840289954478156
7.6000000000000005,-10.171818602020311,-4.332663916684893,-6.905051498406462,-0.13619495798183648,0.10588842482443148,0.37772439413882736,-0.2344510568430057,0.23579802747803674,0.9430969622736415,-1.7008247375488281,-1.9478138523260757,4.141300678253174,0.44310707112034664,1.3586833663820654,-1.5595365294264172,1.0,0.5035606323556435,0.5052361558536268,0.3760818455499929,0.7288532036190435,0.0014912923185973067,0.4842203339498868,-0.48404695207276927
7.7,-9.809994313593236,-4.740058411491143,-6.887137618831196,-0.14440655330280952,0.09693221931687464,0.37289659308979917,-0.23410005576109597,0.23542125277106307,0.9432782834750927,-1.700837482371852,-1.9478022060790003,4.141301777266724,0.44310681402172847,1.358672012248561,-1.5595590250605675,1.0,0.5035804923935112,0.5052212239670454,0.376088049959104,0.7288550413327256,0.0014798682183438498,0.48423480671338315,-0.4840297415254353
7.800000000000001,-10.036205857211163,-4.6207927480914615,-6.746227385723257,-0.14318697906421776,0.10127986676415966,0.3681055008097408,-0.23393420306855506,0.23522751032403377,0.943367788186796,-1.700859520852748,-1.9477677627373267,4.141313076019287,0.4431065626988348,1.3587180294622792,-1.5595598622794367,1.0,0.5035879775371024,0.5051909994336128,0.37611101141080133,0.7288396999919066,0.001451907239665478,0.4842492816634705,-0.48403844567295273
7.9,-10.14070187705933,-4.2211459539486835,-6.555019456313273,-0.13533335650403855,0.10237066946373602,0.36909310203922385,-0.23388271263816662,0.23515761819394757,0.9433979861663475,-1.7008371353149414,-1.9478140230739687,4.141312506635812,0.4430948005464562,1.3587055390703386,-1.5595235997583563,1.316593854615864,0.5035894494669504,0.5052030421836942,0.3760771881309273,0.7288624678788896,0.001471204204607038,0.4842389743270433,-0.48401441530018113
8.0,-10.220802136169961,-4.408713882547636,-6.6385804565307485,-0.13599998165115398,0.10475452731856595,0.3705092923168203,-0.23399725199828256,0.23527797973655096,0.9433395728156004,-1.70085928038978,-1.9478142248596484,4.141289234161377,0.4430842825303372,1.3587071443496337,-1.5595599382969287,2.0,0.5035834411764458,0.505214156776968,0.3760899655855304,0.7288565618212719,0.0014669203485381112,0.4842358841414934,-0.48402641347809927
8.1,-10.066247616206333,-4.428057956210959,-6.7360943140429015,-0.13887340568779774,0.09855903544020675,0.3706063108965092,-0.2338843643941973,0.23516146676461408,0.9433965866340464,-1.7008468882387828,-1.947792046783332,4.141282191760456,0.4430936787619762,1.3587008624147525,-1.559534450117589,2.0,0.5035961092015843,0.5051970008791942,0.37608809338618615,0.728850448949506,0.0014548014519566767,0.4842523752314493,-0.4840191563373691
8.200000000000001,-9.949342162091465,-4.301387621007875,-6.800107212708799,-0.13585661858456427,0.09498306880430521,0.37104215240628036,-0.23370873271585904,0.23497960326495437,0.9434854452730926,-1.7008367693414121,-1.9478032758477783,4.141312372224038,0.44307293566251876,1.3587066133196382,-1.5595594202788687,2.0,0.5035922125887133,0.5051956610701996,0.376094586303345,0.7288537925161881,0.0014539837232129698,0.48424730195532745,-0.4840191996347747
8.3,-10.187242491699749,-4.397926705220961,-6.689992976555944,-0.14111888846481632,0.10410306120768031,0.3648654829705423,-0.23375243762890488,0.23506426128746366,0.9434535406329208,-1.7008594109080344,-1.9477667623496875,4.141313076019287,0.44309633986489105,1.358707282961212,-1.5595362822162073,2.0,0.5035877876883796,0.5052046598647592,0.3760818755713511,0.7288558315831271,0.0014472935399829031,0.4842268667726108,-0.48403659324916515
8.4,-10.19071046447886,-4.569032625731637,-6.726273831282606,-0.14630169042934277,0.0986139819086789,0.3735554892073177,-0.23371786733416972,0.23502570924862448,0.9434717082892875,-1.7008373930857832,-1.9477902851500453,4.141312667882121,0.44311907216196916,1.358695775560854,-1.5595361425903347,2.0,0.5035882472709982,0.5052045732038106,0.3760778481422471,0.7288559366243965,0.001457476661786665,0.48422839267206597,-0.4840348780195302
8.5,-10.172710778808936,-4.454789965538315,-6.6441882312241844,-0.14268423646732398,0.09767317125482332,0.3692100579573813,-0.23369283018091858,0.23498524332318943,0.9434879887683056,-1.7008476221162834,-1.9477923193922617,4.141290191451832,0.4431181747231824,1.3586955070495605,-1.5595342479739909,2.0,0.5035859318150433,0.5052021645406249,0.37607258409409816,0.7288589219312034,0.0014596226535358047,0.484235286762129,-0.4840234792625169
8.6,-10.062061014179182,-4.454885503240619,-6.746974625645675,-0.14221143898766045,0.10030541985379189,0.3763161119872351,-0.23381756200143503,0.23511261000401235,0.943425353237383,-1.7008371353149414,-1.9478075048502703,4.141315504622786,0.4430839258381347,1.3586877796747916,-1.5595386174118795,2.0,0.5035869180160505,0.5052053039101309,0.37607872222811706,0.7288522439756335,0.001462463091162945,0.48424115426691183,-0.48402765640781253
8.700000000000001,-10.022215537979521,-4.429524203697193,-6.764315487149971,-0.14202331533162915,0.09501046809438946,0.37394924081861564,-0.23386306009826102,0.23513868658273926,0.9434075826200897,-1.7008128526525677,-1.9477892988618666,4.141324960915547,0.4431167263416315,1.3586821229952686,-1.5595035143265727,2.0,0.503575723915398,0.5052044444575974,0.37608337648628026,0.7288491057708404,0.0014723261722314807,0.48424045920950315,-0.48403304736067215
8.8,-10.011054998785092,-4.244812843437518,-6.695822481421607,-0.1408147980513227,0.09351423565217085,0.37795178882343383,-0.23383506268620965,0.23509253695143004,0.9434260087337213,-1.700848251484707,-1.9477906267354945,4.141277874815029,0.4430718833208886,1.3586837924543456,-1.5595252644553086,2.0,0.503602668932894,0.5051912414050058,0.3761117180568301,0.7288321740816422,0.0014361627188226541,0.48425942865265836,-0.4840396731891639
8.9,-9.978832671294672,-4.487257394137632,-6.6412303270105015,-0.14920716659137329,0.09204694113348144,0.3753329095196117,-0.23365783418197192,0.23492420302768438,0.9435118288995485,-1.7008477305367296,-1.9478133135627005,4.141325032372996,0.44308562357815207,1.3586725140616591,-1.5595477787101582,2.0,0.5036105120985463,0.5051979709858546,0.37607066035614495,0.7288603935163563,0.001429553012902113,0.4842425436168844,-0.4840140928659161
9.0,-10.387217202788127,-4.102758042552206,-6.918784695605664,-0.13995286269183588,0.0977129044655976,0.3728991209468192,-0.2335637492784808,0.2348417391274324,0.943555667572871,-1.7008596190894456,-1.947801784819532,4.14132375504677,0.443094965520842,1.358684389912231,-1.5595350015874236,2.0,0.5035914896128673,0.505198762920821,0.376089397347455,0.7288558082815562,0.0014467709966673624,0.4842370589429552,-0.48402643350771646
9.1,-10.532285759923399,-4.289774696717059,-6.954068260911804,-0.1325599672040862,0.09127328836771281,0.3806176326291879,-0.23374756181077466,0.23504628540144992,0.943459188181872,-1.7008375060624754,-1.9478142022019518,4.141278412072284,0.4430938251485395,1.3587065803938234,-1.5595374408022513,2.0,0.5035771607312329,0.5052090703392731,0.37608480285818185,0.7288489579540718,0.0014711175138348224,0.4842432697856843,-0.4840304618201145
9.200000000000001,-10.335136596424995,-4.044466353144903,-6.769142641834062,-0.14918143267406944,0.09575110392026305,0.3705898883992762,-0.23386233544627527,0.23517898266158144,0.943397712757768,-1.7008480022101782,-1.9477897079534852,4.141325173643189,0.44305913030590816,1.3587066740870086,-1.5595365708144875,2.0,0.5035728524801074,0.5052156899557079,0.37609591978848733,0.7288418067684568,0.0014733300489479931,0.48424541485239103,-0.48403907714098293
9.3,-10.085322625047109,-4.233615596557391,-6.813456390669201,-0.15516503754128516,0.08714765113822114,0.3757157346304499,-0.23373508930210624,0.23505980911673396,0.9434589457306543,-1.7008600234985352,-1.9478138425159266,4.141325081813938,0.44311901580211044,1.3587071471270886,-1.559571856555254,2.0,0.5035808676627512,0.5052135869118566,0.3760892709425522,0.7288507382355942,0.001465549703798267,0.48423471071468704,-0.48403636069675443
9.4,-10.501992897060424,-3.9510105751981084,-6.9297644605220095,-0.16469075419480975,0.08643285389749934,0.38147817351886215,-0.23376210710474637,0.23508378555227755,0.9434462792699078,-1.7008379782782255,-1.9478019287884463,4.141277390976372,0.4431062816238648,1.3587309037103,-1.5595354392529233,2.0,0.5035755262470353,0.505205679121816,0.3761197087656955,0.7288334896038067,0.0014491336598244447,0.48423888948020904,-0.4840582014164702
9.5,-10.191445285134979,-3.6009154362929015,-6.801078360485723,-0.19465082215403967,0.0769687868235477,0.38140890779517533,-0.2338239772657841,0.23513668727092724,0.943417767463674,-1.7008487259362821,-1.9477904377849866,4.141312770749404,0.4430955164594753,1.3586715064513113,-1.5595717397331899,2.0,0.5035801133240068,0.5052085337748986,0.3760741740356828,0.7288668351594376,0.0014662804439348337,0.48422720005007813,-0.48401963323607716
9.600000000000001,-10.488599444464025,-3.5327327437373395,-6.613773908534897,-0.19622825855751075,0.07590785459924272,0.37415386654794736,-0.2337829861045054,0.2350809365427352,0.9434418177552897,-1.700859629895378,-1.9477668532954238,4.141300678253174,0.443142430440753,1.3587071643430675,-1.5595477849418078,2.0,0.5035922080353045,0.5052008131206296,0.3760807633313778,0.7288558038987024,0.0014483727221259804,0.48423941516973146,-0.4840240780536753
9.700000000000001,-10.512474819693516,-3.523312812069879,-6.532803658408764,-0.19987696887706885,0.07259484078463237,0.37557682886509036,-0.23381963528779207,0.23510493270883598,0.943426706317359,-1.7008593737187083,-1.947801529225014,4.141300678253174,0.4430953699299316,1.3586961568293874,-1.5595140211572573,2.0,0.5035820915568568,0.5052179297483088,0.3760758333587944,0.7288533722498359,0.0014627506122360462,0.48424102324483964,-0.4840260876517702
9.8,-10.51445305529993,-3.4208971675282425,-6.600337228293814,-0.19984131629594018,0.06676213242735364,0.3766710494627096,-0.23417194355569826,0.23545315247021611,0.9432523766821123,-1.700872900179117,-1.9478146038451136,4.141312843293871,0.4430956026553472,1.3587069511413574,-1.5595719286403649,2.0,0.5035933792904966,0.5052081372044331,0.3760714972990791,0.7288654570710456,0.0014709646034500921,0.4842368472324828,-0.484012042757302
9.9,-10.466987391137792,-3.624218385389636,-6.826096394667028,-0.2067496745980191,0.06162846144398919,0.3706889843640031,-0.23446414880865468,0.23574326205256163,0.9431074573992567,-1.7008628158983703,-1.9477783642210902,4.141328056121697,0.4430953699299316,1.3586919710389478,-1.5595273959650848,2.0,0.5035872430454371,0.5052151976604619,0.3760642740268408,0.7288653162194272,0.0014774856054148306,0.4842400097784415,-0.4840090709670791
10.0,-10.30694926647204,-3.301605079375418,-6.5257765309259135,-0.20346286946872008,0.0622362781215386,0.3728891950047901,-0.23449881735757655,0.23578437407643263,0.9430885591691837,-1.7008733749389648,-1.9477940012531616,4.141313076019287,0.4430871651040929,1.3586716651916504,-1.5595403846291267,2.0,0.5035874782357168,0.5052090322301718,0.3760754922963744,0.7288610436815075,0.0014626508969206205,0.48424099841683527,-0.48401456084308453
10.100000000000001,-10.469701490050408,-3.1174747776536362,-6.6366883320239936,-0.21023577490484488,0.07454689941961234,0.36739096950491795,-0.23453119282414572,0.2358189437605261,0.9430718663872671,-1.7008367983780244,-1.9478265247740687,4.141336269921587,0.44310681402172847,1.3586961550051704,-1.5595478791673576,2.0,0.5035853232140391,0.5052219222448378,0.37604293640799286,0.7288771505123663,0.0014687578643256417,0.48422595197024804,-0.4840053405178671
10.200000000000001,-10.330534422999861,-3.0388252669161298,-6.5373065829101735,-0.24401912353207417,0.09320057818183716,0.36320108017936703,-0.2345532139834683,0.23582397181211387,0.9430651322044401,-1.700864160387882,-1.9477814250047734,4.141319197586654,0.4430903180172653,1.3586908997740192,-1.5595362822162073,2.0,0.5035955013284649,0.5052046077545302,0.3760482376444686,0.7288795738548445,0.0014556623137392992,0.4842344639085126,-0.4839932146504164
10.3,-9.799423245843482,-2.0982846600034675,-5.9768229686376335,-0.28585481109437294,0.1119528663795822,0.35354532979427145,-0.2345339991743981,0.23578811957307766,0.9430788609410438,-1.700848059480166,-1.9477908154751489,4.141301218976809,0.4430953699299316,1.3586595377873547,-1.5595715250765003,2.0,0.503592365845316,0.5052062910302453,0.3760716412183451,0.7288625681599306,0.0014608030134358693,0.48424141942728727,-0.4840118495459717
10.4,-9.670411813448364,-1.6621244185332023,-5.374335877923105,-0.3154939979659522,0.13018546583940618,0.3498237226709699,-0.2343037659689448,0.2355430690610926,0.9431973053569896,-1.7008370728902629,-1.9478022685036789,4.141313013594608,0.4430953699299316,1.358659864310154,-1.559548323192621,2.0,0.5035931121096999,0.505202274670833,0.37606828482162463,0.7288718859352469,0.0014564576272703912,0.4842367645407012,-0.484002488104689
10.5,-9.671998976505805,-1.3674822142473297,-5.010578371235027,-0.34995636483328096,0.13246447242639453,0.3483947291183428,-0.23434889429388356,0.23558831940146704,0.9431748087351448,-1.7008734378113932,-1.9478384457030238,4.141264375756722,0.44308385772633735,1.3586953760653349,-1.5595717804149367,2.0,0.5036029969730497,0.505202322904381,0.3760656094009366,0.7288693255385411,0.0014495910794671777,0.4842429800747767,-0.4840001458915012
10.600000000000001,-9.30270644256498,-0.3686698283571064,-4.9771266173062045,-0.39234968058558345,0.14463528560140987,0.34005004510041825,-0.23409794091520283,0.23536715336859254,0.943292201924852,-1.7008485794067383,-1.9478016409304724,4.141289234161377,0.44305913030590816,1.3586713826173864,-1.5595598414998535,2.0,0.503591307918736,0.5052115302160629,0.3760486697455795,0.7288803201825313,0.001470816686293091,0.484225610517305,-0.48400090254877537
10.700000000000001,-9.426117831914294,-1.2291654542896628,-4.6984564425347,-0.3580510491575885,0.1460751712109841,0.34006159264754143,-0.23366622016226324,0.23496862104882493,0.9434987240904413,-1.7008600234985352,-1.9478030296908286,4.14131226855671,0.4430711081914815,1.3586720689229388,-1.5595708338092074,2.0,0.5035928376376017,0.5052139885564343,0.3760623286256978,0.7288661776518867,0.0014635528847372925,0.4842286595392053,-0.48401917148904994
10.8,-9.4737541776502,-0.6277429780959012,-4.538258326389971,-0.39932562437731933,0.16371582062066822,0.33613526885594125,-0.23361379778011795,0.23489625128628588,0.9435297217061008,-1.7008723414881564,-1.9478261848231448,4.141289914063225,0.4431188582388809,1.3586958470004844,-1.5595488830470101,2.0,0.5035977041329573,0.5052040149421975,0.3760602062703028,0.728874129020414,0.0014552682902095031,0.48422909414091947,-0.48400678778959416
10.9,-9.687963770704426,-1.384517193555499,-4.489903063641517,-0.3694179327897093,0.12887028096522715,0.35231756191158786,-0.2335601664508247,0.23482527844261614,0.9435606688152117,-1.7008600234985352,-1.9478261774596448,4.141358314641563,0.44307291732971704,1.358718293071622,-1.5595723923174964,2.0,0.5035987605991022,0.5052039261836897,0.37605054640078833,0.728880019094863,0.001451595118703821,0.48422469398980755,-0.4840023309513714
11.0,-9.959627400060114,-1.314413323138517,-4.504105499502874,-0.3814208600265917,0.10558431289108786,0.3546262300225915,-0.2334983372799109,0.23476377807230198,0.9435912734406277,-1.7008824783752845,-1.9477912325582145,4.141301161245574,0.443093958105993,1.3586735228547275,-1.559571116171534,2.0,0.5036025613630357,0.5052134938735944,0.3760185650404144,0.7288914964593823,0.0014744919654674077,0.48422644408605653,-0.48398322606307254
11.100000000000001,-10.044848269799903,-0.6247734756174599,-4.227339499653902,-0.3916155078208915,0.11502603689954748,0.350555715004461,-0.23365783959043673,0.23492456939947687,0.943511679752652,-1.7008129694732,-1.947814496134899,4.1413254737854,0.44310681402172847,1.358707058851572,-1.5595240957278227,2.0,0.503589553241286,0.5051998575006996,0.3760630239646491,0.728869719700816,0.001466001596846815,0.48423156687819,-0.48401092155163733
11.200000000000001,-9.698160342017882,-0.440643538887709,-3.8382395485967367,-0.4101115200452151,0.12214395392250621,0.34807381290097417,-0.23395397877914342,0.2352225903850487,0.9433640561873872,-1.7008600234985352,-1.9478270122735608,4.141313583018759,0.4430848618371595,1.3586831092834473,-1.5595263414475342,2.0,0.5035889563646847,0.5052035405877929,0.3760549126633872,0.7288718134389149,0.001457799333885019,0.48422585142282626,-0.4840135113911685
11.3,-9.431358767230304,-0.4230459807236568,-3.9877177545839926,-0.43502729464215795,0.12969175579774128,0.3429894990108366,-0.23382785066595768,0.23510322204071252,0.9434249903883851,-1.7008621863871642,-1.9478374058527212,4.141322312640481,0.44305913030590816,1.3586841907277618,-1.5595440021499405,2.0,0.5036043735068049,0.5052020547023687,0.37606222935973327,0.7288653234217899,0.0014637316148707839,0.4842441145853237,-0.48400499511108924
11.4,-9.43215736380844,-0.14818980509597013,-3.774477400838993,-0.4510229940617109,0.14490212944406938,0.3399192969441172,-0.23342776360148254,0.23471305948003868,0.9436212328802986,-1.7008376582378566,-1.9478146038451136,4.141279058817653,0.4431057681758981,1.3586721881145656,-1.559525540372659,2.0,0.5035924197168637,0.5052056880587327,0.37607568409330105,0.7288589710891963,0.0014604712947742635,0.48423912284460985,-0.48401956488666664
11.5,-9.354788843138005,-0.06664848823599949,-3.552870910035454,-0.46357750549156584,0.15226770961989783,0.3375476788441515,-0.2333499940919266,0.23464116047941092,0.9436584486851246,-1.700848705896086,-1.947814735604851,4.141312812499812,0.4430953699299316,1.3586595309450116,-1.5595479343552985,2.0,0.5035807101863508,0.5052189330505302,0.3760588770758132,0.7288687802159345,0.0014687297664653862,0.48422909096656264,-0.48401480506396205
11.600000000000001,-8.893326118068533,-0.1912271512063361,-3.5444052074165526,-0.4730535328030973,0.15096488587213305,0.3411537764450381,-0.23349080894950602,0.23478509656996316,0.9435878182146726,-1.7008700667700358,-1.9478022060790003,4.141278490479729,0.4430810708670092,1.3587129870441454,-1.5595552890579905,2.0,0.5035919367535288,0.5052098826773811,0.376056979723149,0.7288700718738361,0.0014594162164252697,0.4842291737540573,-0.4840128053227507
11.700000000000001,-9.278177120809499,0.23216265380941775,-3.391330554008785,-0.47253989306826155,0.15949156699584602,0.33151054644968725,-0.23363375957189972,0.23493307196656388,0.9435155869171468,-1.700839881742421,-1.9478123668356342,4.141300146686564,0.44309483836332264,1.3587057668328626,-1.5595136468154007,2.0,0.5035880124963701,0.5052066404279608,0.3760597508148162,0.7288620127890958,0.0014663374338765417,0.48423577571900145,-0.48401831544000007
11.8,-9.223019290325412,0.3063866285162561,-3.2819930274789253,-0.48344575483730046,0.1623171185036059,0.3319966436149126,-0.23377820175947514,0.23508386831433867,0.9434422376416912,-1.7008728919593534,-1.9478146038451136,4.1413249908057885,0.4431061267045891,1.3586595089153428,-1.55956058847759,2.0,0.5035865651656102,0.50520506481887,0.3760778226677034,0.7288577053296292,0.0014649062076802877,0.48424188025072157,-0.48401869885643445
11.9,-9.292762837677872,0.4546891396332774,-3.1686696323794084,-0.48854940874915953,0.16348813631199888,0.3347023316947765,-0.23394628555117655,0.2352575127286988,0.943357296675074,-1.7008390071643116,-1.9478384457030238,4.141312435649766,0.4430947788196042,1.358671024822129,-1.5595494346250112,2.2191185991306264,0.5035844379052005,0.5052133244416175,0.37607754006284655,0.728860042494279,0.001452828897782044,0.4842254205371544,-0.4840316826913783
12.0,-9.234583652834843,0.34878699873513985,-3.0907106199751504,-0.4959453022108207,0.16106747398576426,0.3347358032252731,-0.23438046107311403,0.23568831742447793,0.9431418885395995,-1.7008375235966273,-1.9477906734317312,4.1413250855037145,0.44308379300492634,1.3586953742163521,-1.5595362822162073,3.0,0.5036082395463676,0.5052023648525076,0.3760370687343251,0.7288805736403209,0.0014609211980549208,0.48423174286596515,-0.483994415546295
12.100000000000001,-9.624436027812367,0.6608998046157254,-2.498054792137785,-0.4880800140283173,0.14499127388621924,0.33126961786396014,-0.23442210966176258,0.23573530044559834,0.9431197976564997,-1.7014923802445734,-1.9473539656720187,4.141373831414758,0.44323997799098575,1.3586594645019165,-1.5595242348851337,3.0,0.5035726848485194,0.5051984025456845,0.37606079233588224,0.7288734130259155,0.0014700198633266878,0.48421942339023594,-0.4840174964163817
12.200000000000001,-9.289834595181977,0.07405460322168214,-2.6733200273547686,-0.46864523321915347,0.16374407547445924,0.3308388088185672,-0.2341702643484459,0.2354952985202068,0.9432422508286096,-1.703038419832299,-1.9463231075254805,4.141542100649548,0.44357697545971675,1.3585137817810589,-1.5595709907063038,3.0,0.5035239652379647,0.505126620348703,0.37607781948998525,0.7288611722742635,0.001469545028513007,0.4842352720352451,-0.48402007531232427
12.3,-9.360622258046746,-0.21173135060901066,-2.345798801946213,-0.4652960370944753,0.16161978101757107,0.32851695607270925,-0.23391841903512922,0.2352552965948153,0.9433647040007196,-1.7043720804002858,-1.9453619163061036,4.141758769510967,0.4440092913980453,1.3582738453216718,-1.5595482031451624,3.0,0.5032227208974291,0.5048466556272369,0.37607401717833283,0.7289031553588917,0.0014950692224693632,0.4841767169218437,-0.4840153527179239
12.4,-9.585148786071292,-0.3275699487949721,-2.558322789638881,-0.45883084106503685,0.14482027504402148,0.3232283815356082,-0.23372870010151472,0.23506558211881015,0.9434590831109906,-1.705766340644369,-1.9441499392565096,4.141997268739655,0.444416479890352,1.358069195932739,-1.5595485956793016,3.0,0.5027547205810055,0.5043683095407504,0.3760691445949525,0.7289017347884534,0.0014785122584594758,0.4842078046503008,-0.48398644292957316
12.5,-9.478460275172564,-0.4860507634876589,-2.5803210736531708,-0.4499083383858385,0.14813146382832887,0.32155861391017865,-0.23365018804876067,0.2349757296922493,0.9435008588460662,-1.7072921255180056,-1.9429637151369306,4.142212390899658,0.44483545502983884,1.3578286778131028,-1.5595220378186168,3.0,0.5025698355119872,0.5042212773192302,0.3761502632988571,0.7288689856225845,0.0014902652020773537,0.48422661667716843,-0.4840169052920723
12.600000000000001,-9.49287983208568,-0.8819040189651011,-2.5847414341760473,-0.4434510459820429,0.1607111588626517,0.30595401469462996,-0.23466235984209974,0.23594143728458522,0.9430085095350378,-1.7089702086386351,-1.9418131067135356,4.142417038878432,0.44525448858227534,1.3575906954138275,-1.5593938019410287,3.0,0.5020581401739334,0.5036511387436133,0.37629334167531225,0.7288116199894026,0.001459573246463678,0.48427216554972,-0.4840578084156328
12.700000000000001,-9.296628473619423,-1.1542934309106383,-2.8912942338841767,-0.432975375419055,0.16497144399150668,0.3104611030893147,-0.23347578192619864,0.2347973385780711,0.9435877136894838,-1.7103602223950225,-1.9409004752329504,4.142621811643166,0.4456022750642119,1.3573757690265391,-1.5594404379474085,3.0,0.5018039549518122,0.503411842255313,0.3762747701480998,0.728848032786139,0.0014525636345881898,0.48422305487341105,-0.4840521338572163
12.8,-9.408199676961365,-1.1612555438542889,-2.6756371313319285,-0.4183514051497234,0.17497299240691275,0.3066440910208419,-0.23289799455222232,0.23423605406474343,0.9438707500741355,-1.711742918343935,-1.93993018803388,4.142837234596828,0.44602199318940294,1.3571709720551302,-1.5594288772376872,3.0,0.5013815962913448,0.5030007562239673,0.3762240702571703,0.7288882112056363,0.001465905524995427,0.4842062412995989,-0.4840084116758245
12.9,-9.636410248967412,-0.7874230502835909,-2.5187734381883726,-0.40167053176967527,0.16849145558969664,0.31404061909355435,-0.23286559149792038,0.23419688298839955,0.9438884648965826,-1.7133624489348698,-1.9386205665241671,4.143076419830322,0.4463927907906811,1.356931778313142,-1.5594312513883242,3.0,0.5011182233514074,0.5027696051589593,0.37621725837591435,0.7289003461013578,0.001483667355593735,0.48419980260440976,-0.48399652410151606
13.0,-9.796484486315435,-1.0107182128233247,-2.7439274956227897,-0.4062359460795025,0.1668738927237925,0.3179147223250136,-0.23305386347287374,0.2343694776728577,0.943799021448535,-1.7149323716493203,-1.9374109707274378,4.1432795764283314,0.44675278099545496,1.3567270310735173,-1.5594642327899584,3.0,0.5008013693599608,0.5024403208214094,0.37626875490090295,0.7288934232474857,0.001486203957037782,0.48421195245834214,-0.4839947869975871
13.100000000000001,-9.29690099161948,-1.3528979315978575,-2.8526106747936377,-0.4062746615391084,0.16721115218175886,0.3144403203872595,-0.23344678479943617,0.23473845944192342,0.9436102016884037,-1.7163148948260594,-1.9362740354786427,4.143471883744353,0.4471716953317713,1.356500265240994,-1.5594277311682958,3.0,0.5002678342442123,0.5018304384563509,0.3764481617658311,0.7288462063132901,0.0014371870407614384,0.48425085511388627,-0.4840271184113603
13.200000000000001,-8.962175355441827,-1.5393557698978642,-2.60820896738223,-0.4030149877047975,0.1876818980278877,0.30358816921396675,-0.2331260569374687,0.23439802029244,0.943773620104263,-1.7178491147426633,-1.9353975250178694,4.143689494168392,0.4476030514519167,1.3562723340142022,-1.5594273381569883,3.0,0.49998604478775016,0.5015933169756288,0.3765125396377757,0.7288188654051623,0.0014595621849920275,0.48426434625798986,-0.4840547221658745
13.3,-9.051551281510278,-1.3211949910556267,-2.504015739493514,-0.4127563690317978,0.20133302082935414,0.3031541112604745,-0.23212800770961606,0.2333844228935798,0.9442713035659536,-1.719304950516386,-1.9343670303069445,4.143904585131914,0.4480092776874225,1.3560890013941693,-1.5594140981550544,3.0,0.4995980429713948,0.5012129086453398,0.37639248888298,0.7288885834684848,0.001466140739367787,0.48422692040163157,-0.48398716189480695
13.4,-9.07064280151626,-1.1326235267029037,-2.235596897390068,-0.4315115787230365,0.20198884250645735,0.2990212479824058,-0.23161689742248612,0.2328928298230112,0.9445178529844828,-1.7207413712917448,-1.9332252444931866,4.1441191919759,0.448406382197998,1.3558632266692947,-1.5593920036161448,3.0,0.4993524403963626,0.5009818756832113,0.3763988059271506,0.7288838967439596,0.001480640939234367,0.4842283108622528,-0.48399278479047514
13.5,-9.013187429552337,-0.8275004828043164,-1.896584392825309,-0.4387579378345018,0.20989631248678603,0.2916757562354022,-0.2311057871353562,0.23240123675244262,0.944764402403012,-1.7223261054740568,-1.9319783812436515,4.1443352699279785,0.44876591741528316,1.3556834133274247,-1.5593317894219496,3.0,0.4990515484973896,0.5006626753371811,0.37642077278864866,0.7288926037508721,0.0014730107623413347,0.4842170193699831,-0.48399099226020487
13.600000000000001,-8.932532115460734,-0.663621571770956,-1.8708347516253592,-0.43230490415335776,0.22431106914109483,0.28226185427962164,-0.2315051176755938,0.2327939695897842,0.9445699256937997,-1.7238440338346372,-1.930780527681678,4.14452600479126,0.4491154279717975,1.3554801957032965,-1.559308832503244,3.0,0.49849142980728417,0.5000479596737931,0.3766085651535146,0.728827956147255,0.0014412359608342335,0.48425709657107263,-0.48404834221147275
13.700000000000001,-8.8011666395132,-0.8997929302713097,-2.0132759144648573,-0.4241062681291711,0.22835218235097446,0.2775998091976447,-0.23178458730829155,0.23311837318265907,0.9444212103039034,-1.7251600241728084,-1.9298929091824444,4.144730220784422,0.44953248201955276,1.3552880262230131,-1.5593202126328436,3.0,0.498261210865335,0.4998198184823132,0.3766507480580514,0.7288183064359753,0.0014399353206159039,0.48425349765500175,-0.4840664755991336
13.8,-9.038672096870997,-0.8944066667254422,-1.8672689499373565,-0.4098136321205358,0.24392647657815147,0.271690952174681,-0.23206276720841024,0.2334420270698941,0.9442729910168665,-1.7266234032563876,-1.9288375203762318,4.144959352211425,0.44989125310864253,1.355060084752065,-1.5592951661207288,3.0,0.4978823665096645,0.4994835583344296,0.3766104704111965,0.7288475536643816,0.0014592832981363572,0.4842311920564525,-0.48404469488807483
13.9,-8.826765203732656,-1.6145028086142361,-1.9828892880328859,-0.4067246400211074,0.24228083492584795,0.2723379194448053,-0.23217819429262235,0.23356846372622395,0.9442134572230011,-1.7282762087186367,-1.9276852557789892,4.14519901805013,0.4502994257160644,1.3548653213558108,-1.559318308145038,3.0,0.49746501571234025,0.49912723283098115,0.37664341667853823,0.728844273224238,0.001488000691238228,0.4842265759136791,-0.48405416475957463
14.0,-8.96795548514932,-1.8394615906290148,-1.7516629446192788,-0.3953080733725709,0.2377699817514487,0.26625272287956436,-0.23211845223914665,0.23348263755882073,0.9442493746892431,-1.729864149080327,-1.9265334720382146,4.145412061004958,0.45070490123409285,1.3546731156119076,-1.5593074467671482,3.0,0.4972362032699339,0.4988788993133529,0.37662373385611897,0.7288682991748223,0.0014870831472231013,0.48421915951636285,-0.48402540904272984
14.100000000000001,-9.118578082137118,-1.2833825408176553,-1.9125288369659448,-0.40598958241191263,0.22921210615210338,0.2638760503379817,-0.23154398966348072,0.23288415840582166,0.9445377350011337,-1.7311091232839366,-1.9253832300803093,4.1456165503916,0.45104424558199485,1.35439966195937,-1.5592606703949703,3.0,0.49692396362009933,0.49852226758997037,0.37661571837437663,0.728898478603822,0.0014756515632602914,0.4842067443338473,-0.4839924163487623
14.200000000000001,-8.727632532543023,-1.5953758865711254,-1.7255240380062478,-0.40032646446753944,0.23726671402884547,0.2611805736865254,-0.23095528627112966,0.23227149563884916,0.9448330796708134,-1.7325723793558343,-1.9243531816690063,4.145798797220346,0.451438703740854,1.3541960716247559,-1.5592360769534606,3.0,0.4963628136277278,0.4979413618204538,0.3768534522829266,0.7287825062463168,0.0014477942923436906,0.48428727557254436,-0.48408655961464847
14.3,-9.106067176378701,-1.5456456561926462,-1.974534394076561,-0.4017755079379695,0.22651202693320788,0.2542746910183859,-0.22492511490284836,0.22625530587895817,0.9476972311328188,-1.7343559353861082,-1.9233094409586213,4.146036143635071,0.45186965491424547,1.353967642136701,-1.5592487738990863,3.0,0.49619149133588447,0.4977699746196614,0.3768224147832494,0.7288090202330542,0.00144852445172442,0.4842585334800237,-0.4840753934622428
14.4,-10.214941562692044,-0.012054817896185233,-2.3401934337767156,-0.49928572967027346,0.14924073790952092,0.24378030582096025,-0.21868386856696784,0.22002951288516104,0.950661026810844,-1.735692138398334,-1.9222065389054466,4.1462532187545955,0.4522639377241728,1.3537041425375027,-1.5592481057126402,3.0,0.49570104534445414,0.4972717181435841,0.37669579204534087,0.7288988613576206,0.0014670347148288707,0.4842169572393209,-0.4839816484564303
14.5,-9.947351192586865,-0.08121456240565957,-1.7495048375039077,-0.5022210084716774,0.1493767272362561,0.24880626625225993,-0.21475288800123557,0.21613760296720652,0.9524351441831298,-1.7370226158155049,-1.9211270738792365,4.146503186636658,0.45255434362637115,1.3535016125135415,-1.559212433070661,3.0,0.49554265850204304,0.49710722831411924,0.3766766551929805,0.7289253772595107,0.0014750844766750445,0.484202897872947,-0.48395575438701793
14.600000000000001,-9.700477949275017,-0.31297809602817517,-1.5276425880939448,-0.504186699021449,0.1578093609692011,0.2412782100144368,-0.2109360279878513,0.21236098022926927,0.9541504948338022,-1.7385328407076062,-1.92003593555607,4.146708011627197,0.45298253541553224,1.3532260279558503,-1.5592115234996875,3.0,0.4951770970652783,0.49676450472374284,0.37680426929754846,0.7288700711693605,0.0014682762608647679,0.4842302409168368,-0.4840117119450884
14.700000000000001,-9.742339849400285,-0.2834412379193735,-1.536672487628191,-0.4914041147890094,0.15926162450579726,0.23571407624034132,-0.21046869035228868,0.21186803043614302,0.9543661871181129,-1.7402045630143685,-1.918895407241891,4.146912420437278,0.4532707523796165,1.3530682083782064,-1.559164026726439,3.0,0.49465807545025703,0.4962198305335778,0.37690420868024754,0.7288453211575422,0.0014363406071534325,0.484254013957144,-0.48402529347009715
14.8,-10.13340774166712,-0.6270538072447415,-1.7463800391666446,-0.4975408025880898,0.15907390244453998,0.2260562567130001,-0.21033619444916446,0.21170333960461732,0.9544319630415768,-1.7415195327992525,-1.9176833336301398,4.14714874878514,0.4535878306932081,1.352836271673324,-1.559188191090719,3.0,0.49429670558344346,0.49587764936916356,0.3768610263025799,0.7289002089723134,0.0014712587675931661,0.4842230462367412,-0.4839735139973755
14.9,-9.861386877733507,-0.6194694543176037,-1.6030349276326945,-0.495798242182226,0.157131132716587,0.22320072951729647,-0.2106453579289704,0.21194779249274215,0.9543095117398716,-1.74288479204702,-1.9165702497091475,4.147391551578494,0.453976595431479,1.3526124192404987,-1.5591625980059032,3.0,0.49407449059456415,0.4956284893137794,0.37695680128802467,0.7288609890734855,0.0014519760051207617,0.48426929854622824,-0.483986360198348
15.0,-9.663615784895823,-0.787705928697781,-1.4462961092675506,-0.49018103801486823,0.16851165132677343,0.22147847115126895,-0.210704457541123,0.21207143393333527,0.9542690010571492,-1.7444578934083457,-1.9155967789365436,4.147645025766839,0.4543377887326596,1.3524092915057848,-1.5591638011084668,3.0,0.4937491593886977,0.49530806204745914,0.37705796691272453,0.7288279912591875,0.0014382298070199752,0.4842707472240274,-0.4840346413586555
15.100000000000001,-10.07882051467333,-0.6442133305473258,-1.7176129501859145,-0.4940724674285741,0.1484998454816265,0.20967662978833426,-0.21072802568010068,0.2121753579940427,0.9542407002561424,-1.7453439952958123,-1.9150059298616482,4.147808685224432,0.4545871454426269,1.35220813410376,-1.5591054347985929,3.0,0.4933002207307028,0.4949216016667864,0.37700337712827076,0.7288766860672786,0.0014872163320403086,0.4842253472134025,-0.4840065886031134
15.200000000000001,-9.580541306018551,-0.5682743158207086,-1.8034778367424884,-0.4801447266682953,0.16711165861085722,0.21552103202203704,-0.21069075663466758,0.21213405021935933,0.9542581130789847,-1.7453681189789731,-1.9149920812476784,4.147798527346717,0.45459815940285386,1.3522415628188695,-1.5591267654476295,3.0,0.4930159535585345,0.4946598208834124,0.37699296242317654,0.7288782274923673,0.0014789506893799014,0.4842144924475571,-0.48401515213492874
15.3,-9.681470303237875,-0.6536742041943084,-1.8094657054256307,-0.4892510909525246,0.1703675192033803,0.21689553123213678,-0.21078305170789324,0.21221221524234865,0.9542203250171388,-1.7453336715698242,-1.9149760916675882,4.147784593411623,0.45463037002047263,1.352251001771692,-1.559117303464324,3.0,0.49302802702798565,0.4946633711400061,0.37697728307132317,0.7288933403944817,0.0014758899705399607,0.4842137520572719,-0.48399314292248785
15.4,-9.611954355757897,-0.36178808219682734,-1.448226891325299,-0.49827349110256947,0.1624338947572094,0.21918214714593384,-0.21083753685515977,0.2122765050219321,0.9541939425723385,-1.7453694674881772,-1.9148493339257933,4.1477857537324505,0.4545755210954014,1.3522543907165527,-1.5591520781923482,3.0,0.4930160784365344,0.4946568031363683,0.37699555499627235,0.7288864087971547,0.0014740392068303917,0.48421642315820607,-0.4840009151056194
15.5,-9.876146552098598,-0.3426052605610961,-1.6343536409999233,-0.49438669537457225,0.16565073754466328,0.21879035338170144,-0.2104253416831403,0.21191348727614565,0.9543656446575559,-1.7453455039051518,-1.9148480340030194,4.147784998044398,0.45461098730053706,1.3522188443845482,-1.5591161886798304,3.0,0.4929838392241425,0.4946394939201866,0.37708166017257,0.7288397052786165,0.0014864583992387904,0.48423622119133547,-0.48405139865219127
15.600000000000001,-9.689662098338804,-0.5094063590890751,-1.8614293025231161,-0.4973262123297362,0.16559575565334067,0.22317302152909965,-0.2104751556656125,0.2119541037946537,0.9543456654755079,-1.7452986365448042,-1.9148255787291468,4.147763536220513,0.4546089902021894,1.352231341357987,-1.5590824229913127,3.0,0.4930058988652885,0.49462713069067227,0.3770833929553978,0.7288426730998834,0.0014559157353044258,0.48423965401429225,-0.48404358859312113
15.700000000000001,-9.80653286957941,-0.3034785187011594,-1.815156864073776,-0.4904310774975283,0.16313717799534605,0.21913527331279284,-0.21062478707956456,0.21209636953217362,0.9542810355136516,-1.7453584671020508,-1.914837793571158,4.147809565641273,0.45457657133347584,1.3522779269048846,-1.5591164825928865,3.0,0.49299952169236033,0.49463714290048055,0.3770618255855195,0.7288551812888033,0.0014864504609716643,0.48423378952404517,-0.48403052822799864
15.8,-9.647243765789659,-0.5762216271984524,-1.772588279055215,-0.4963719225051253,0.16432378094383773,0.22002895308750825,-0.2108147433639229,0.21230143842904953,0.9541934941143586,-1.745358623979637,-1.914826068971604,4.147786003506173,0.4545871454426269,1.3522307057362288,-1.5591403374241803,3.0,0.4929996537222145,0.49464035253824296,0.37707197440353185,0.7288507645289776,0.0014813355379057146,0.4842295863939825,-0.4840413994187497
15.9,-9.438437603769152,-0.44256996841902957,-1.7070321502572654,-0.4958272403201359,0.16009392582290455,0.2205746894370627,-0.21051452247592387,0.21199545931438515,0.9543277010689344,-1.7453584671020508,-1.914837015710604,4.147799029265846,0.4545871454426269,1.3522410250554435,-1.5591152207848344,3.0,0.4929954191251018,0.4946229139880232,0.3771163122368281,0.7288220245716598,0.001465964926987921,0.4842517617560722,-0.4840625359209699
16.0,-9.49514015921582,-0.5499150189784878,-1.7155023634172746,-0.4942290013269149,0.16329651327218217,0.21869215241739018,-0.21018933880327606,0.21165850156010818,0.9544742490047494,-1.745357379682109,-1.9148504870950769,4.147787252910805,0.4545643491808148,1.3522419929504395,-1.5591275868107364,3.3341707102958402,0.4930035611404488,0.4946278463981587,0.377086560502616,0.7288437314067873,0.00146742723473001,0.48423675839781327,-0.4840448570770273
16.1,-9.576430873340042,-0.790907677309145,-1.940232128593498,-0.5008679355670077,0.16308319995522635,0.22343141611950032,-0.21001332697241323,0.21146678004065722,0.9545554910547007,-1.745357830689685,-1.9148147942508447,4.147785118108423,0.4545871454426269,1.3522419929504395,-1.5591167569051567,4.0,0.49300093513113324,0.4946367624778316,0.37707320719062176,0.7288494278933879,0.0014724424646746829,0.48423889054801195,-0.4840341312898291
16.2,-9.682012826000836,-0.615054535676212,-2.0194090329706444,-0.48867535549951785,0.15923302876632214,0.22327790958600238,-0.21012312706108818,0.21159530796074064,0.9545028306571404,-1.7453790976341734,-1.9148482447269157,4.147784534779001,0.45460750675451916,1.3522658348083496,-1.5590743842647161,4.0,0.49300666345624183,0.4946350342071766,0.37706138543947176,0.728858691640498,0.0014751655114632282,0.4842372680745252,-0.4840217967349561
16.3,-10.469792502136324,-1.6829255012861883,-2.1823198223728264,-0.43712360293370495,0.13890241712093612,0.22390874663779267,-0.21025927986000129,0.21176060398969007,0.9544362092585934,-1.7453698503717772,-1.91487367962971,4.147785724426807,0.45458720392538704,1.3522420233614747,-1.5590924649570956,4.0,0.49297920483412966,0.49464595851420606,0.37709720003187064,0.7288358437284147,0.0014877854512377346,0.4842384983802918,-0.4840549308472551
16.400000000000002,-10.621010573370135,-3.0529514273286558,-3.7934428827692463,-0.353820368494329,0.08151612722827993,0.25347522194185534,-0.21031219580963165,0.21184880968725833,0.9544049764674449,-1.7453337742432156,-1.9147776320790668,4.147821689325862,0.45459870076393094,1.352278232574463,-1.5591524283038538,4.0,0.4929753793704427,0.49465435938010305,0.3770800333130408,0.7288485605553217,0.0014858462542430406,0.48421612884780285,-0.48405816654715406
16.5,-10.215836207254009,-4.079566690684425,-5.080769812948494,-0.3065243953334295,0.0894859089846952,0.25973622284823206,-0.21047782522978292,0.2120110679314882,0.9543324098425089,-1.7453336715698242,-1.9148021845985181,4.1477865881691764,0.45462306876828934,1.3522422970834789,-1.5591508954733353,4.0,0.4929873929332272,0.49464343762970614,0.37707825766233877,0.728851558897414,0.0014868022548206541,0.48423210815769185,-0.4840376637628746
16.6,-10.3658622875222,-4.5072530060283915,-5.912037880156288,-0.24113657481141,0.09627240866769075,0.2559182066524176,-0.21058649403597526,0.21211705774130502,0.9542849031614529,-1.7453571285846414,-1.9147654972472132,4.14782190322876,0.4545744130471613,1.3522771122193193,-1.5591045895098679,4.0,0.49298209089274225,0.49462527717347865,0.37711075492131924,0.7288210894759395,0.0014769431828817819,0.48423928310175834,-0.48407639363537913
16.7,-10.284602461077553,-4.951130401320215,-6.713558625744008,-0.21117415949014118,0.08900284935407746,0.2608805818243971,-0.2104886358379966,0.21204162156615367,0.9543232577167821,-1.7453584671020508,-1.9147769885702115,4.147775937936767,0.45456546879873944,1.352276466919434,-1.559092776427877,4.0,0.49297088751061147,0.4946291018387952,0.37713421263177355,0.7288147724974019,0.001479762079456061,0.4842383073798894,-0.48408687170755693
16.8,-10.413331765118818,-4.777252141113572,-6.8798791742896634,-0.20543500811007565,0.0882278956914841,0.26334911437126135,-0.2108545494831677,0.2123755134186812,0.9541680781661227,-1.7453695955076767,-1.9148010660381234,4.147809143777917,0.45459761616872996,1.3522416772642685,-1.559115202160546,4.0,0.49297825972331444,0.49463685201322316,0.3771230752551899,0.7288279443266328,0.0014721022766069074,0.48422881751513397,-0.4840765567256873
16.900000000000002,-10.2889586130471,-4.384110623603316,-6.697818031761276,-0.19288953718378357,0.08702384431137787,0.26435236617111174,-0.21120045592340195,0.21268395826298464,0.9540230067919107,-1.7453222274780273,-1.914812662923331,4.147787693153532,0.4546099924236764,1.3522429878273001,-1.5590933416987809,4.0,0.4929810790642823,0.4946255321682892,0.37712287869865635,0.7288210925594514,0.0014685805016960212,0.4842483465883435,-0.4840673477298516
17.0,-10.38342176524867,-4.6962470846789905,-6.72785220566647,-0.19922318913225362,0.08832643073152525,0.26663415690736414,-0.21114555418740935,0.21261760856069506,0.9540499461909625,-1.7453229039239984,-1.9148259310447566,4.147811163768183,0.45454120921223146,1.3522647919541444,-1.5591158363642206,4.0,0.49298654654307944,0.49462620054964657,0.37711645893272217,0.7288244999057283,0.00146340144103291,0.48424350305536507,-0.48406707855632547
17.1,-10.283956713121617,-4.786101975772457,-6.800015917890371,-0.19670182582225676,0.08854960472439416,0.2644545518593824,-0.21113607722021047,0.21259514488150089,0.9540570469796302,-1.74533279359191,-1.9148356705374472,4.147775097490854,0.4545765793287443,1.3522323779792973,-1.5591161886798304,4.0,0.4929842436390828,0.4946151816022962,0.3771221327441341,0.7288278386518401,0.0014646284278221095,0.48425184752489514,-0.4840537001597878
17.2,-10.225411143284186,-4.954495516561261,-6.822942797794545,-0.20126717580606684,0.09065870712011687,0.2687731614841024,-0.21125567252269611,0.21269738120098078,0.954007777322445,-1.7453336118316387,-1.9147900648513883,4.147785852775657,0.4545871454426269,1.3522307330513816,-1.5591405073748987,4.0,0.49300911838054456,0.4946152765345399,0.37709178941752985,0.7288377501497201,0.0014501785497494308,0.4842501115352005,-0.48404055658282813
17.3,-10.349561226495814,-4.669816560336061,-6.789249030497681,-0.19041498316183017,0.0893306938143491,0.265565231429186,-0.21124510195153637,0.21268376414682202,0.9540131356666104,-1.7453342535836356,-1.914837499658102,4.147809198107038,0.4545967949918387,1.3522426234654017,-1.5590941656150807,4.0,0.49299680417547054,0.4946300933371615,0.3770914909174256,0.7288368155300702,0.0014693435810885325,0.4842491008986478,-0.4840429171429725
17.400000000000002,-10.288220436653116,-4.791450834285225,-6.811995852300107,-0.1881279272986778,0.08949532755169576,0.2618433870948418,-0.21090731085618278,0.2123710830257659,0.9541575410434346,-1.745344699530817,-1.914836632718927,4.1477967783008705,0.454574383603284,1.3522424437588105,-1.5591042677508753,4.0,0.4929944122846734,0.49463138714970833,0.37709040687368117,0.7288432308684691,0.001470084144402054,0.48424160119829024,-0.4840407579313295
17.5,-10.40383500111381,-4.679765962182527,-6.736372646021319,-0.1822002257069578,0.09405811938248626,0.26064555619744634,-0.21076274392025018,0.21220581489102247,0.9542262522048199,-1.7453232158040173,-1.914847876327698,4.147797526027605,0.454586651279632,1.3522533612103134,-1.5591265653494264,4.0,0.4930054770436719,0.49461862595978323,0.37709329834360716,0.7288382672927045,0.0014569463786596889,0.48424906089622044,-0.48404080867024696
17.6,-10.229241251409503,-4.58285739283369,-6.8253707797056435,-0.1841662495565089,0.08996759855846766,0.26636791863890197,-0.21081378114398283,0.2122547758922177,0.954204087467888,-1.7453783037985058,-1.9148362692197396,4.147796240322073,0.45456330358471675,1.3522311394690565,-1.5591411225940799,4.0,0.49300160356906647,0.4946177472272264,0.37707945604067716,0.7288472126160405,0.0014550728193037656,0.4842323683990141,-0.4840440442972114
