xiamingqian9007/apple-picking-rnn/training_data/grasper_20191127_134111_noimg.csv
,/manipulator_wrench.fx,/manipulator_wrench.fy,/manipulator_wrench.fz,/manipulator_wrench.tx,/manipulator_wrench.ty,/manipulator_wrench.tz,/ground_truth.x,/ground_truth.y,/ground_truth.z,/joint_states.elbow_joint,/joint_states.shoulder_lift_joint,/joint_states.shoulder_pan_joint,/joint_states.wrist_1_joint,/joint_states.wrist_2_joint,/joint_states.wrist_3_joint,/mode./mode,/manipulator_pose.x,/manipulator_pose.y,/manipulator_pose.z,/manipulator_pose.rx,/manipulator_pose.ry,/manipulator_pose.rz,/manipulator_pose.rw
0.30000000000000004,-0.6253413672057636,0.2611176610638113,0.13568989507358997,0.002216693293113756,-0.013171726687317115,-0.006206029354891035,-0.015765638698152014,-0.09266953654050827,0.9955719750061156,-1.680657347845085,-1.6986506234595709,4.179630770976428,-2.8720585308470667,-1.3267387836116704,2.6064677092481814,1.0,0.45408792082790217,0.4618331240901009,0.3295147686353815,-0.6051082069783,0.3443882146236729,-0.18421029908938197,0.6937632025303924
0.4,-0.5686554166653217,0.38931699699436273,0.2769953487968213,0.027840935042098572,0.004900219516265708,0.0026681435662652183,-0.01567978596543501,-0.09229441785171492,0.995608297159397,-1.676733105826927,-1.7023517508629467,4.178744248217517,-2.8726924636341096,-1.3275126341268644,2.6065004328605417,1.0,0.45444882678093834,0.46224041871220384,0.32969120554562176,-0.6050135302770098,0.3443619327297177,-0.18421295607931665,0.6938581081755282
0.5,-1.0727585759886389,0.25924085058609536,0.13158983560784432,0.020941220981557023,0.009098011418524855,-0.005841119185732556,-0.015733546553063308,-0.09239768229591357,0.995597869931873,-1.6725375718953677,-1.7058772522437986,4.1778950691223145,-2.87336674708391,-1.3285525279279906,2.606538567815099,1.0,0.4557295104103817,0.4634810362967812,0.32956765791724885,-0.6051207860778802,0.3444004632514341,-0.1842480522594401,0.6937361244791053
0.6000000000000001,-0.8127854947884752,0.2806823113373969,0.01708125864610304,0.014286900847927825,0.008361582084749419,0.004178382145306962,-0.015720570657235897,-0.0924860207296963,0.9955898742321784,-1.668457742232905,-1.7092717449080856,4.177149208475472,-2.873925314307139,-1.3293561360883221,2.606569036712559,1.0,0.45637787968635385,0.46414745817054326,0.3296649673589734,-0.6050744800291431,0.34437171222657287,-0.18421956406732776,0.6937983494146152
0.7000000000000001,-0.6140733346112373,-0.09870398760723997,-0.012611860980519076,0.019913360811311957,0.0013430413447595704,0.0075567152971532,-0.015894205698923854,-0.09316805832988265,0.9955232267819409,-1.664576178615533,-1.7127524527973237,4.176385202068341,-2.8745211981703056,-1.3299935459652157,2.606621169118048,1.0,0.45738179015965197,0.465205014385739,0.32966706267121904,-0.6050985720401453,0.3443752012712432,-0.18417044118018844,0.693788647543229
0.8,-0.5324133766771327,0.27232078553715033,0.002762188584772618,0.014683133600082346,0.008567026626925659,0.0053073157927598265,-0.016093832609299086,-0.09383143703892281,0.9954578867172978,-1.6607663424894772,-1.7161303043225709,4.175576365440287,-2.875195165673727,-1.3307056832600839,2.606589490972101,1.0,0.45891035344941883,0.4667438719082075,0.3297081296857186,-0.6050758454642129,0.34439566659149345,-0.18421869801323099,0.6937854980979916
0.9,-0.372969288928111,0.32109691066441676,0.09366481646752338,0.015238645183968244,0.010148304379693166,0.0003096801022432179,-0.015849604105322473,-0.0927904251512962,0.9955592688416586,-1.6570454534715222,-1.7188833740999256,4.174900620860438,-2.875775827324354,-1.3314858474883848,2.6066575847748785,1.0,0.45938629382561497,0.46721414743475764,0.3296577391335438,-0.605114634578156,0.3444220554786725,-0.18422181363305912,0.6937377387031336
1.0,-0.7718745515945826,0.23896384669406234,0.14337842621172453,0.017923331073363857,0.015402603139213735,0.0006240491824054772,-0.015771518247120093,-0.09279317440327606,0.9955603970278721,-1.6534533061338275,-1.722150457684302,4.1742232065522265,-2.8763997571944437,-1.3322840834772092,2.6066618721136887,1.0,0.46021642870505375,0.4680631731276181,0.3297807954536853,-0.6050808496141742,0.34438873237573137,-0.18420505546508797,0.6937881982160911
1.1,-0.6824118512752697,-0.1346376602668656,0.23272099135061258,0.02060105409597666,0.009781676071180573,0.005224922501119477,-0.015805218954476657,-0.09332267860545387,0.9955104434932497,-1.649871219576454,-1.7247086689622444,4.173557238241386,-2.8770116230529528,-1.332884444834064,2.6067011367457944,1.0,0.46162453426731315,0.4695645039114176,0.32970319871203657,-0.6051916424354428,0.34435634276470994,-0.18414161836789256,0.6937244766539942
1.2000000000000002,-0.5807780932576706,0.06602185650119219,0.16797659631325063,0.021218431454322943,0.007872933007407717,0.005120705550950937,-0.015973286312806822,-0.09361334367319607,0.9954804285372469,-1.6465864221503037,-1.7277541552754272,4.172904111980714,-2.8775539817020457,-1.3333881537066858,2.6067250237908732,1.0,0.46213636143971903,0.4700187163516203,0.3298725268762155,-0.6050950792080517,0.3443605356290602,-0.1841744292851643,0.6937979145377653
1.3,-0.5436895084563587,0.1241166042554947,0.07976785525674937,0.018772249452758287,0.008161027692169717,0.009324141255844201,-0.016126294095608625,-0.09385607745222377,0.9954551611522877,-1.643167663417845,-1.730324936530829,4.172193944966009,-2.878099413114036,-1.3339276227414836,2.606729818074577,1.0,0.4633815412350119,0.47124574667901425,0.3298215173153593,-0.6051251337014384,0.3444111632133934,-0.18422758179251095,0.6937324565880548
1.4000000000000001,-0.42961832441580194,0.09514656180456256,0.1594205953265637,0.012260306775877907,0.012008647989677339,0.005536806516481286,-0.016180144591179415,-0.0937832155789394,0.9954611533645688,-1.6402559531002638,-1.7330178770578966,4.171663462724118,-2.878663763674793,-1.3345769087420862,2.6067375489828764,1.0,0.46383109466197864,0.47165202336673284,0.3299668126102189,-0.6050309054474833,0.3444222710421642,-0.18425282970883453,0.6938024195747976
1.5,-0.5965485971710952,0.11454469563155384,0.09054075554202512,0.016771893989374967,0.012987894311174638,0.00521136996068529,-0.016137261750037712,-0.09362244219074765,0.9954769777787424,-1.6369256713724496,-1.735508236593183,4.1711476211881715,-2.879244855562667,-1.3352012026320639,2.6067774658536984,1.0,0.4645398351334044,0.4723508394119819,0.32990653533746,-0.6050911505080011,0.34442709652231596,-0.18425035621834793,0.6937481394508549
1.6,-0.548969005066964,0.1792744069027768,-0.08244393823502039,0.018480551106186655,0.007065300985103222,0.008551321127520179,-0.01610990611048418,-0.09391615460084557,0.9954496518008539,-1.6341144065334372,-1.7380494321670148,4.170674382823787,-2.8798175388627385,-1.335776990292998,2.6067592581657513,1.0,0.46572615611175716,0.4736380901920334,0.3299923109966181,-0.6051012458540284,0.3443891116955529,-0.1841762884239565,0.6937778583911616
1.7000000000000002,-0.5363791110685775,0.144913542741673,0.006256433375410625,0.025343733997244895,0.005543129017829065,0.00882912797063196,-0.016120480667383637,-0.09446242219065452,0.995397896993287,-1.6310234994430568,-1.7404336544035208,4.170198985926949,-2.8803492985167445,-1.3362802922990862,2.606825351715088,1.0,0.4660166290122306,0.4739844549518924,0.3299565757876431,-0.6051519684512744,0.34436457673801685,-0.1841606762573962,0.6937499395949618
1.8,-0.6145763234004811,0.03292363145513835,0.0817172578122697,0.020467340132293427,0.010573269345682949,0.011276466206084306,-0.01601287748193759,-0.09412662195602557,0.9954314241904513,-1.628298566825148,-1.742896009499879,4.169589248321195,-2.8808063141719233,-1.3367463384040892,2.6067893832706024,1.0,0.4666340672558718,0.4746468393459599,0.3299961511748281,-0.6051418450607977,0.34434884623417994,-0.18416331230471816,0.6937658782720275
1.9000000000000001,-0.6129175459465934,0.02150844076062816,0.0594244646937848,0.022446303055524298,0.01033476351832294,0.011405057739612099,-0.01589100230383475,-0.09342969637298593,0.9954990168053294,-1.6254449521991567,-1.7450460455431758,4.169156872020335,-2.8813099428369893,-1.3371814155241002,2.6068488770654654,1.0,0.4673839359786893,0.475388813663794,0.33002665441335394,-0.605122851224369,0.3443648878033768,-0.18418803674611106,0.6937679194758657
2.0,-0.764074808361422,0.24765925020426577,0.08996837594814315,0.022397765379069477,0.011579578086935261,0.010125308710489172,-0.016245941895887014,-0.09438928833855359,0.995402771209272,-1.622758431702607,-1.7475429600766683,4.168665573173371,-2.8818037668909935,-1.3376483633827476,2.6068379018460632,1.0,0.46837756745932696,0.4763453794484472,0.3300154515807021,-0.6051256145515626,0.3444198160841715,-0.18420057505334572,0.6937349126663268
2.1,-0.48186341894589463,0.01485491006181577,0.06249667105343623,0.028634038540182774,0.01163913953683511,0.008327482292503442,-0.016077310877871117,-0.09373826326899609,0.9954667023639702,-1.6201657567951235,-1.7492619325726397,4.168165421991344,-2.882320066491598,-1.3381532555236229,2.6069053761529988,1.0,0.46916889767677833,0.47716945604494865,0.32994037697023343,-0.6051849068378766,0.34443180109149074,-0.18420112677156392,0.6936770919012595
2.2,-0.5561600883030141,0.20009602473750132,0.23577215487187306,0.03037986416436484,0.006040461820410306,0.0037326891029038326,-0.015908679859855224,-0.09308723819943858,0.9955306335186684,-1.6176333242946495,-1.7513306646910074,4.167717307074028,-2.882823883529901,-1.3386092435897698,2.6069005376634395,1.0,0.46954122410998633,0.4775048096226763,0.33015214259478176,-0.6050913108413125,0.34439734326228644,-0.18421149202755002,0.6937730909333432
2.3000000000000003,-0.6179074083649153,0.09166632175779205,0.06333333550267553,0.01950411365103704,0.012558287002189437,0.009679353089853123,-0.015372650187658161,-0.09110348176419844,0.9957199457046451,-1.615261408216291,-1.7535261921996823,4.167274606986455,-2.8832844702575002,-1.3391021339588158,2.606909950338723,1.0,0.47010593038045845,0.4780480877292416,0.33021244436971325,-0.605059027254238,0.3444098824931445,-0.18420160618208084,0.6937976467668042
2.4000000000000004,-0.5922769081011724,0.01568770539327491,0.16707872994490142,0.023413977606779136,0.008639043960303502,-0.00014499373975955998,-0.014507178135187884,-0.08791990197890703,0.9960215807006542,-1.6127038950981187,-1.7551447927823842,4.166831533210316,-2.8837739429869593,-1.3394958858857222,2.606919915433187,1.0,0.47096911194828656,0.4789122316996084,0.33012944177308984,-0.6051479028005555,0.3443973849126766,-0.18421214438609312,0.693723534891297
2.5,-0.6703763162061529,0.3218202463682057,0.1246509735842467,0.025869781339867746,0.010411016497223667,0.0031977128502357066,-0.013347838558037095,-0.08343516169096116,0.9964183348124921,-1.6105485836627715,-1.7569772004189588,4.166449429442091,-2.8842060598464454,-1.339831104949613,2.606898190428419,1.0,0.47136372104814994,0.479292242648394,0.3303529446854195,-0.6050355006463431,0.34436961183831516,-0.18421316296335313,0.6938350841453568
2.6,-0.7176310747652529,0.08443946298069842,0.031635959014898775,0.014333197114866658,0.010879477919503545,0.008669528318242362,-0.0107001191104478,-0.07335098799969386,0.9971824449636723,-1.6083496799483368,-1.759039617175569,4.166089613813157,-2.884638924010867,-1.3402030708449069,2.60689786890888,1.0,0.47209600490527703,0.4800214736654505,0.33027669641929847,-0.6050751476577456,0.34441615326932495,-0.18421935290801925,0.6937757628140873
2.7,-0.3698092479339926,0.22717195589583186,0.16467313136628897,0.029743422452650624,0.004724662249510238,0.010619495622225378,-0.006593785506812193,-0.05777936248907559,0.9983065644981667,-1.606078439593104,-1.760577465942711,4.16576951251175,-2.8850248116763533,-1.3405080060140224,2.6069422413334644,1.0,0.47240641174142767,0.4803738114288632,0.330121865574977,-0.6051689742695846,0.34443815460397154,-0.1842221964949711,0.6936822417743428
2.8000000000000003,-0.8306743934094478,0.2724277739474238,0.2608910302700426,0.018397505956268306,0.01162179754245946,-0.000139614935322439,-0.005952444348880137,-0.05527271582558472,0.9984519300152908,-1.6041749637965133,-1.7624037907025127,4.165419379010905,-2.8854336135933236,-1.3408617974091417,2.606981114198509,1.0,0.4728998706260551,0.4808578748193155,0.3303363791883762,-0.6050438774483657,0.3444197781809898,-0.1842379542973433,0.6937962950004382
2.9000000000000004,-0.8123723764166613,-0.005529298280518902,0.15819953377900794,0.024300713251679446,0.016515238228082547,0.0058078152463974745,-0.005558760312442921,-0.0537809102997938,0.9985372197006626,-1.6019298986366046,-1.764048238793844,4.165119391264116,-2.8858315618396664,-1.3412005903064992,2.6069565185276766,1.0,0.47363159880195743,0.48167254692975353,0.33023337405313535,-0.6051400911662923,0.3444124212195763,-0.18421703403574965,0.6937215857561246
3.0,-0.5903976436646763,-0.014267635989386865,0.11386315648063927,0.01816338007985814,0.008873743943555784,0.011813703408612477,-0.005406478606748345,-0.05328465060240456,0.9985647232321172,-1.6000161886162545,-1.765572847819648,4.164830323900375,-2.886273594890567,-1.3415708597221967,2.60701650632568,1.0,0.4739624660229586,0.48200321743150326,0.3303031944570326,-0.6051017903138366,0.34440976108644483,-0.18423086968745087,0.6937526407024145
3.1,-0.6322932086606413,0.05421811499105755,0.14670398428978362,0.024574270637653564,0.00885378261909878,0.013067099542613937,-0.005315224765242064,-0.05317849649141743,0.9985708721744458,-1.5982159679673282,-1.7670741955030662,4.164478976468006,-2.8866925359799946,-1.3418834091616416,2.6069731243164185,1.0,0.4743718271138996,0.4824413748283831,0.3303665843493634,-0.6050940367501397,0.34439667175181654,-0.18418951017005214,0.6937768830964377
3.2,-0.7773964075373583,0.04582695402226514,0.3344069725048217,0.025074357222992415,0.011114793450646428,0.009338239543599584,-0.003546101981556651,-0.04660904491121267,0.9988551402994157,-1.5961732940335231,-1.768580339068222,4.164124748851807,-2.8870675618488595,-1.3422334014880613,2.606994733516441,1.0,0.47501324195550493,0.4831116093521619,0.3303243333665236,-0.6051574963619671,0.34440022165243195,-0.18418913520091265,0.6937198673791978
3.3000000000000003,-0.842712587756881,-0.0358282655996499,0.24343988244859865,0.022246535449622754,0.012658832695247516,0.008670552808784973,0.00016968283966625232,-0.03253652304751016,0.9994623980250087,-1.5944884485194093,-1.7699778539100224,4.1639084815979,-2.8874296594748037,-1.3425393912580963,2.6070139580409126,1.0,0.4752976225687863,0.48338807744541823,0.33037770594194743,-0.6051257820912436,0.3443915749579926,-0.18419527345613676,0.6937501943659788
3.4000000000000004,-0.6977682457782074,0.10126650019992597,0.1634661539167674,0.020625655128850777,0.01102061818858456,0.007662057043204352,0.0007051091607635674,-0.03071166073638806,0.9995276520432012,-1.5927050082242833,-1.7714496944691518,4.163596489190525,-2.8877748055290926,-1.3427947203265589,2.607041279680214,1.0,0.47567554815859586,0.4838065932912575,0.33041253119018954,-0.6051225705285009,0.3443730595127057,-0.1841736609942652,0.6937679245358688
3.5,-0.6358491048564563,0.013933301530945491,-0.029373344358421566,0.020011006504703,0.008393236060135423,0.0096379719588973,0.0003700024435829341,-0.03207407916254711,0.9994826265410954,-1.5909914533153768,-1.7729254566065027,4.163320271116731,-2.88811183390116,-1.3430951277362269,2.6070292314467447,1.0,0.4763229882985574,0.48450536351332646,0.33039536707704026,-0.6051459654143527,0.34437285182566846,-0.1841621056588801,0.6937506888699104
3.6,-0.9014719297828273,0.12661051543831486,-0.16395190642433216,0.02561798871009589,0.01630945386249367,0.004611467020997003,-0.0007874633004126303,-0.03641288186494015,0.9993286962394125,-1.5893750832917706,-1.7741028188593377,4.162997722625732,-2.888436869338743,-1.3433347145514594,2.607042248403786,1.0,0.47656113407682676,0.484723114844422,0.3303735810172249,-0.6051538733157815,0.34437992315606936,-0.18417641616362526,0.693736481574272
3.7,-0.6908147755293034,0.16537474100332464,0.05261911702170455,0.020324546324498594,0.013802249828059615,0.007423178074630881,-0.0018601064214273742,-0.040451753389360454,0.9991662695496066,-1.587718231957744,-1.7752711214555839,4.162769163316175,-2.8887869996123405,-1.3436093506832927,2.60704057348904,1.0,0.47708254481348106,0.48520932213361195,0.33047982109290813,-0.6051172103563198,0.344375282328551,-0.184200614136546,0.6937643406830852
3.8000000000000003,-0.7129524234608442,0.06804815916041132,-0.036911460104994354,0.02286548486987782,0.01208411521249157,0.008751265979079595,-0.002932749542442118,-0.044490624913780766,0.9990038428598007,-1.5861891114669457,-1.7766130131554074,4.162495497855233,-2.889132537450015,-1.3438142204153352,2.6070524984770582,1.0,0.47731335141399295,0.4854621547160388,0.330533791898224,-0.6050844784575168,0.34436335793992356,-0.18417279326552918,0.6938061932981773
3.9000000000000004,-0.7835018745192964,0.23633806625607212,0.09537411527102063,0.02322009374512431,0.014133329293522363,0.008375439035477708,-0.0032519828945399036,-0.04538512537204944,0.9989641451671802,-1.5847474993525112,-1.7779875330876487,4.162238727233876,-2.8894669573541294,-1.3440453717428327,2.607017920098382,1.0,0.4776418836562056,0.48575087512803533,0.3305100051452204,-0.6050969173152451,0.3443905079881901,-0.18420791480881266,0.6937725439832664
4.0,-0.7623720267893055,0.31114498875674196,0.1522149950422289,0.024036341746998084,0.014229659377374962,0.006229806983785341,-0.0033079024456782943,-0.045360689203276794,0.9989648725166712,-1.5831823348999023,-1.7789350842687093,4.161930561065674,-2.88974759683685,-1.344307352715406,2.6070656776428223,1.0,0.47804242812381936,0.48612755979346534,0.3304331140939017,-0.6051373379123755,0.3444260041764506,-0.18422502337029412,0.6937151221326967
4.1000000000000005,-0.8642551996505362,0.3216928524741348,-0.07621089690510321,0.032299466499194567,0.016064763734573665,0.007569801603377414,-0.0030760725062143153,-0.04439458527304586,0.999008918741691,-1.5815778601819601,-1.779991001919162,4.161702632904053,-2.890070234106896,-1.3445342276110048,2.607065816257166,1.0,0.4784814261009086,0.48655268070551577,0.33044278330094,-0.6051350130355602,0.3444353255162621,-0.18423176442236783,0.6937107318708429
4.2,-0.7698747351473986,0.19348291464444153,-0.07375707345627047,0.02435305475818654,0.014267540658426895,0.006385678863188667,-0.002942044182054383,-0.0438620813401921,0.9990332589286758,-1.5802133651888026,-1.7811089954771937,4.161522388458252,-2.8904062710204066,-1.3447989768690722,2.6070548049125657,1.0,0.4788962361690228,0.4869523589058325,0.33065762363945234,-0.6050285711497381,0.3444082397381898,-0.18423985864086898,0.6938148650619564
4.3,-0.6469889739763625,0.1615033734822604,0.02470862460417062,0.019807555229759487,0.009827437026519323,0.008689566428553246,-0.0029557064999383687,-0.043984358637727976,0.9990278409424395,-1.5789174859049853,-1.7825895669790393,4.1612597821786865,-2.890776574393131,-1.3450137641399085,2.607102525098608,1.0,0.47919148871609646,0.487265515613512,0.3306851418641813,-0.6050270225874461,0.3444059899618689,-0.18422784819952148,0.6938205214355718
4.4,-0.5621390641950228,-0.1147359686410518,0.03358659189845114,0.016036596553746355,0.008134892284030108,0.010844591043291787,-0.002958368532761508,-0.0440498783513374,0.999024952518544,-1.5772033270658952,-1.7838112581377072,4.161021126342326,-2.891020622567424,-1.3452216089365037,2.6070793996577555,1.0,0.4795556197844549,0.48765684382408975,0.330518225925441,-0.6051360222861903,0.3444253439855358,-0.18422110442083972,0.6937176382636229
4.5,-0.43139657129354747,-0.23356895117980664,-0.022318834298528465,0.015273583788320782,0.005305047693363499,0.012901583370395535,-0.002943557055122791,-0.04402524092528701,0.9990260822027051,-1.5756006240844727,-1.784809630267039,4.160803681328183,-2.8913311383173825,-1.3454364133206917,2.607088762616354,1.0,0.4799070599206468,0.488034475612179,0.33048429257613043,-0.6051641656412133,0.3444269030684006,-0.18422254057316922,0.6936919320644084
4.6000000000000005,-0.6983962975239119,0.1263545758989476,0.1102197923735593,0.022801836832420593,0.01339467500527465,0.011470433986836066,-0.0029729465701970508,-0.04417005469489817,0.9990195629041183,-1.5743913432551921,-1.7857952613222818,4.160576715144146,-2.8916319283208733,-1.3457228798275236,2.6070899065921584,1.0,0.4802748894129265,0.48840528273605077,0.3306630476719392,-0.6050772880485661,0.34439623537156583,-0.1842259479501501,0.6937820325228624
4.7,-0.5543183561540769,-0.34627099740967116,-0.03662471012748913,0.015689927962799805,0.007835287095985643,0.010221893426419512,-0.0030746282902706043,-0.04459201157425094,0.9990005334378882,-1.5729024384343644,-1.7869537023855766,4.1603474617004395,-2.8919473680597605,-1.3459648633813035,2.607123867542846,1.0,0.4805697768807533,0.4886893777672137,0.3307235627451333,-0.6050527818818925,0.34438503050072944,-0.18421995811196878,0.6938105569514055
4.800000000000001,-0.6343341851436914,-0.2667311405239126,-0.05434174993230283,0.01699718812723224,0.011179161063071829,0.011293547032711883,-0.003163210969243471,-0.045011760870447615,0.9989813579922443,-1.571246098147348,-1.7883354446587545,4.160132918458959,-2.8923265077197464,-1.346237451129075,2.6071153356666965,1.0,0.4809049139541467,0.4890327347201032,0.3307163784436204,-0.6050645337522658,0.3443888840431374,-0.18421722842394145,0.6937991202750814
4.9,-0.6653238586275346,-0.05079608630324635,-0.11183316001095776,0.018789565681541793,0.012355239461220843,0.01070831624370325,-0.0032498689591695753,-0.04543118579854072,0.998962161097322,-1.5697302603251857,-1.7896190230793818,4.15989479757637,-2.8925942793234816,-1.3464536892573706,2.6071365838734026,1.0,0.4812575576932708,0.4894290006030335,0.33070665912516345,-0.605081535587398,0.3443802781060874,-0.1842052799579405,0.6937917368911131
5.0,-0.5795205892405407,-0.017395329461756842,-0.037315731406081194,0.031096934825309338,0.010727525145578313,0.0028051882912191054,-0.0033636355199946305,-0.04585238335401971,0.998942510052572,-1.568475154796519,-1.7906260798973035,4.1596954494906,-2.892915907074855,-1.3466796631657314,2.6071524199147897,1.0,0.4815695729952665,0.48977469332122536,0.33065844809674577,-0.6051160171211196,0.3443803226497255,-0.18419873416394633,0.69376337862959
5.1000000000000005,-0.7783504325194159,-0.2917746549988587,0.15101889802115626,0.0500961638437209,0.011983428231566494,0.007973302673675492,-0.0034258706899344873,-0.04606500582036443,0.9989325615279491,-1.5669631023934976,-1.7916225173580433,4.1594945424353975,-2.8932186565794886,-1.346853246293055,2.6071181251301083,1.0,0.4819125973300906,0.4901105241715379,0.3306116944033436,-0.6051486841172395,0.3444002177513353,-0.1842034317480255,0.6937237604812575
5.2,-0.7044087836968065,-0.09516125767688616,0.08929632030050144,0.01694925667331889,0.004718633689384767,0.009002188212091507,-0.0033883892416155417,-0.045904120902918004,0.9989400914991262,-1.5653922538271094,-1.7929045969186312,4.159270883584492,-2.8936268291869105,-1.3470457415493067,2.6071608353987217,1.0,0.4822230321851135,0.4904157630140294,0.330665203233086,-0.6051321889978085,0.3443999662701468,-0.18419681950884118,0.6937400296614502
5.300000000000001,-0.8594224077564583,-0.0076918788183271535,0.08690926636718585,0.01972085179729027,0.019491566939555748,0.010978927699313135,-0.00332583074633561,-0.045618792017609454,0.998953328147398,-1.5638627297722711,-1.794138699361795,4.159007339722724,-2.8939617784351346,-1.3472911322360042,2.607171745055109,1.0,0.4825988160554117,0.4908115178406145,0.3307885233944376,-0.6050742560021937,0.34438732944923994,-0.1842070841160629,0.6937941064895768
5.4,-0.8641047873367248,0.49654898245732654,0.15898462547072462,0.029579032628804576,0.00931194989922885,0.006513251892467756,-0.003216979923538023,-0.04510373907719854,0.9989770993440766,-1.5624822471462874,-1.7952933540294875,4.158836345922964,-2.8942307555947204,-1.3475244253062917,2.607161197745806,1.0,0.4831550411221732,0.4913693985509764,0.33072887061708756,-0.6051139636083656,0.34440663281164324,-0.184214516378019,0.6937479183948101
5.5,-0.8011714357302051,0.23555055594800067,-0.05531418980704329,0.02872520405684119,0.012588820129632305,0.011651759138836145,-0.0031656475078972895,-0.044875775836216346,0.9989875501384338,-1.560888691833525,-1.7964099558418605,4.158584795440689,-2.8945737996740935,-1.3477409329777106,2.6071949197035846,1.0,0.4834695698624527,0.4916871723855071,0.3307045349053986,-0.6051363522896701,0.34442506865638467,-0.18421086283572083,0.6937202067346145
5.6000000000000005,-0.6305187892503745,0.030545608795007173,0.040550097850274386,0.024929944482061657,0.005598030022928626,0.010605198135929333,-0.003139974975641242,-0.04477717669314853,0.998992063974486,-1.5594343502116652,-1.7975678712052972,4.158358097076416,-2.8948807226972613,-1.3479808770133057,2.607153190756744,1.0,0.4836863758671031,0.4918910983541018,0.330817478279141,-0.6050755043787949,0.34440861652065824,-0.1842182494668772,0.693779486170089
5.7,-0.44269134486847556,-0.10108108368146462,0.17709402364521404,0.018136113189619083,0.006177476722823536,0.010975062718917905,-0.003144097727477692,-0.04482985643319532,0.9989896885786363,-1.5579376106064555,-1.798750658806165,4.158106327056885,-2.895226260002454,-1.3482001627571243,2.6071652159419085,1.0,0.48399374131734413,0.4922223611402897,0.33084896087103033,-0.6050612144378558,0.3443935149468345,-0.1842188080134944,0.6937992969293345
5.800000000000001,-0.43765749492585604,-0.41174397674097657,0.10172932272526003,0.013256418728799539,0.006815973904320452,0.006438499053499913,-0.0031834370066896526,-0.045048371323500536,0.9989797007320139,-1.5563294001274708,-1.7999270061036488,4.1579261163974515,-2.8955844468584044,-1.3484576384173792,2.6071866852658787,1.0,0.48452594984220027,0.4928020428600922,0.33079828319399784,-0.6051109647320583,0.34439644256866486,-0.18420751896559148,0.6937574508887289
5.9,-0.4078944523526703,-0.2959281690929081,0.04435034966532267,0.017470964260422335,0.007551558719055915,0.008060485306994734,-0.00323141041207177,-0.0453075444421288,0.998967846521348,-1.5549028759286176,-1.8010563099182293,4.157651269941069,-2.8959104795709902,-1.3486746611884333,2.607150769055058,1.0,0.48471898909437744,0.493006771803155,0.3308726980744288,-0.605078064377185,0.3443813633495673,-0.184206488773406,0.6937939046149264
6.0,-0.639077302458704,-0.07071819673148981,0.05957204590401389,0.01823091439145695,0.010612106870907126,0.004567382994759221,-0.003342987723580579,-0.0457336033293894,0.9989480099741225,-1.5534617392225778,-1.8022987056023045,4.15743417084224,-2.896292773187215,-1.3489134947406214,2.607164371361122,1.0,0.4851919152830048,0.4934696263770637,0.3308821351627135,-0.6050916722212843,0.3443816861803369,-0.1842084419978086,0.6937813577264654
6.1000000000000005,-0.9581115794554276,0.13451613783162097,-0.04310200555000249,0.024791020370702122,0.013153221719767173,0.011955605530808315,-0.0034415614567837103,-0.046117767322314485,0.9989300763893364,-1.5518784012597073,-1.8035927753648222,4.157217028552436,-2.896629044526523,-1.3491753727280054,2.6071676774484653,1.0,0.4854113124851164,0.49368217937199577,0.33087767235604204,-0.6050977066448241,0.3443965331789257,-0.18420176787089973,0.6937704966779333
6.2,-0.9365140161651316,-0.18193876252108593,-0.06193563149576142,0.018160961411725497,0.013280096344984602,0.009388849038992828,-0.0034644165239662446,-0.04628339224198247,0.9989223379413921,-1.5502260757301969,-1.8046512298100075,4.156988207963006,-2.8969444922916967,-1.3494164521426424,2.607186593085722,1.0,0.4857231442069296,0.4940197735733259,0.33079775256270777,-0.6051471521085483,0.34439271578299807,-0.18420214346767022,0.693729163256411
6.300000000000001,-0.5711034666895978,-0.29630181553646184,0.21420774142055918,0.015688281774356584,0.009663877599263786,0.007932339150093842,-0.00334834805797472,-0.0457998688304743,0.9989448867231948,-1.5488844579565826,-1.8057433567442835,4.156708082137125,-2.897283859092815,-1.3496097230915947,2.607242418488871,1.0,0.4860986738534288,0.49439385976921946,0.33087480315213746,-0.6051114823122171,0.3443825996968966,-0.1842084958032486,0.6937636118115619
6.4,-0.6350745819365704,-0.09369945842959818,0.18544727467173153,0.018517756658486963,0.010547425710709492,0.009187871432248713,-0.003247914213860299,-0.045345853833539854,0.9989660607483689,-1.547521775449937,-1.8068993102367867,4.156452086823371,-2.897664493889849,-1.349838289731321,2.607221526650066,1.0,0.4865231892919346,0.49479791244132776,0.3309662557995526,-0.6050845685009887,0.34437122144397536,-0.18421922068251517,0.693789885724982
6.5,-0.4466789691666557,0.08509071860313867,0.2046127254364398,0.02532801515456832,0.008016382126911557,0.010897684559043705,-0.003305946798012512,-0.04551049984725222,0.998958375619099,-1.545715138072463,-1.808295569513967,4.156216227881354,-2.897966755752393,-1.3500753153064866,2.607239459586999,1.0,0.4869675011375397,0.4952219493493497,0.3308363470214445,-0.6051726963360775,0.34440563000401603,-0.18421852977947079,0.6936961171267636
6.6000000000000005,-0.539890808359573,-0.10482339286408823,0.11638707749789681,0.023747522680908125,0.008658997296647993,0.012850767530419898,-0.0033632168510285944,-0.04568748491237164,0.9989501093337378,-1.5441953463024563,-1.809461651576725,4.1560666200849745,-2.8983262315721983,-1.3502603061941227,2.6072224558724297,1.0,0.48721991406556386,0.49548767905268526,0.33087800977730003,-0.605132917407369,0.3444102214019434,-0.18422340212977334,0.6937272445072649
6.7,-0.57919206517124,0.07468710951170177,0.09145566278299869,0.027457431281998925,0.013915565422168274,0.014100233968143928,-0.003418209654129546,-0.04590131975638934,0.9989401074633018,-1.5428413444866649,-1.8104226119632911,4.155849829880269,-2.8987210742840874,-1.3505153701120929,2.6072445815692435,1.0,0.48767481525665374,0.4959812530704382,0.33092169100403623,-0.6051218266856069,0.3444014727922889,-0.1842126685090613,0.6937441121681306
6.800000000000001,-0.738878845847041,0.32357875364731187,0.09313019636145313,0.029882851363318863,0.01684752193726163,0.009512026354658181,-0.0033734779497213404,-0.045716422695766784,0.9989484232046989,-1.5412862744680265,-1.8114888544943566,4.155578223274976,-2.89910239708601,-1.3506675154896903,2.607259367151958,1.0,0.48787784397173084,0.4961616622120621,0.330949493458622,-0.6051178735611563,0.344401241431372,-0.18422345371759682,0.6937448112221917
6.9,-0.6134900418528668,0.05578695833375146,-0.005551466278712475,0.025433941619122814,0.008781015147601188,0.010033714415933708,-0.003014366708017887,-0.04427453119298919,0.9990144848550639,-1.5395430639595347,-1.8126837699235496,4.155392336956956,-2.8994853818072883,-1.3509024654805615,2.6072903074986504,1.0,0.48817770078500783,0.4964494852002257,0.33104591462384014,-0.6050771536751711,0.34440394943995045,-0.18422323294090856,0.693779041305888
7.0,-0.764406333093413,-0.19439496723446748,0.0577370025549823,0.014428843125812624,0.01793094533271957,0.012419989674758696,-0.003075784821769491,-0.04445151513260856,0.9990066243564577,-1.5381551968716365,-1.8141356188272364,4.155190961884395,-2.899790139341805,-1.3510978310736925,2.60727847360546,1.0,0.48875659364582613,0.4970451289957586,0.33116966189086616,-0.6050211276956157,0.3443917860977542,-0.18424180767213025,0.6938290056029871
7.1000000000000005,-0.37264264731828556,0.19015932809424507,0.21400467371771328,0.0033472864126881455,0.017898730065534746,0.017250524542252146,-0.0033098335923211976,-0.045311014658389825,0.9989672386037026,-1.5380390574438019,-1.8142220585718727,4.15514612197876,-2.8998741947776705,-1.3511763316094274,2.607255918558516,1.0,0.4889632473288076,0.49727601013381134,0.33101683885550076,-0.6051119242678996,0.3444215326388092,-0.18423018239070998,0.6937381399777724
7.2,-0.760800487114404,0.10279534395275836,0.11420978748833695,0.021835099511723636,0.012686445844705326,0.012504724116166046,-0.0036064029299459075,-0.046474056218892924,0.9989127326413945,-1.5380430221557617,-1.8141412412995288,4.155162970505297,-2.8998859652005127,-1.351177689042798,2.6072604704795173,1.0,0.4890753002571421,0.4973734474526899,0.33091652137037547,-0.6051821526712141,0.3444349648178449,-0.1842262497206901,0.6936712521166027
7.300000000000001,-0.6343415055984931,0.2249591742518396,0.026935113066165257,0.0268649209068893,0.012595491189374098,0.008381121651718686,-0.0034911776042816918,-0.04605857851172903,0.9989322988705746,-1.5380067825317383,-1.8141276926334033,4.155155442449056,-2.8998710290280756,-1.3511497085847386,2.6072920056106184,1.0,0.4890697871487177,0.4973605339871077,0.3309527988831632,-0.6051472331643537,0.34444844033992617,-0.18421136008808459,0.6936989786322435
7.4,-0.5992509206747012,0.28716205817510776,-0.018686951964462704,0.02842040756719493,0.01160600931103185,0.009479554346076429,-0.0032622217279589436,-0.04521306823217173,0.9989720397936706,-1.537980804076131,-1.8141202353156427,4.155139194438368,-2.8998995668068486,-1.351174853168774,2.6072782366229323,1.0,0.48906322869891905,0.49736509497734793,0.33096583619050185,-0.605152022989945,0.34442499772201474,-0.18422377977446985,0.6937031418272337
7.5,-0.3629813127037703,-0.16465949274868288,-0.07230373824544188,0.021225899951618867,0.006040169695861384,0.014751093626049632,-0.003247272286377495,-0.04521182365196704,0.9989721447598837,-1.5379560793482039,-1.814156040146203,4.155170917510986,-2.8998979072356783,-1.3511581722778208,2.60728120803833,1.0,0.48906022107890834,0.49739169505618774,0.3310471844342112,-0.6051085339929677,0.344403482168025,-0.18422098187254254,0.6937525015431196
7.6000000000000005,-0.793610563418849,0.12069171677662166,0.06305110679952237,0.0246231870849936,0.011365536543846855,0.011911526303634835,-0.0032701636402690105,-0.04534489696940556,0.9989659716024802,-1.5379770074460026,-1.8141313880311223,4.155156729150316,-2.8998719766110095,-1.3511565367328089,2.607269763946533,1.0,0.4890583883657522,0.4973924138853226,0.3310411815961438,-0.6051066979425961,0.34439921735307943,-0.18421773945093334,0.6937570811625509
7.7,-0.6696564183065253,0.24328220827168226,0.1707853215080397,0.029428208046322988,0.010344213614236349,0.010310354517450786,-0.0034548280902998757,-0.04605219241661388,0.9989329588535013,-1.53797315354723,-1.8141504726805628,4.1551396131430485,-2.899882351548393,-1.3511654327526097,2.6072611391282203,1.0,0.48905556110004944,0.49738830120675787,0.3310379143803716,-0.6051122850015562,0.3444005019029899,-0.1842171290030547,0.6937517324021872
7.800000000000001,-0.47618078978208084,-0.14934654380019852,0.1234068701767077,0.020595125696426603,0.00982250496071286,0.01153135081417447,-0.00347810259510507,-0.046147656068693574,0.998928549676742,-1.537947654724121,-1.814117707692588,4.155165636064193,-2.8998666197012692,-1.3511654598628735,2.607291798993698,1.0,0.4890549108239078,0.49739173102577844,0.33105106545856483,-0.6051044479564666,0.3444019996727668,-0.1842050024658507,0.6937610444174963
7.9,-0.5628257742255754,-0.14799515185687984,0.04916832936193791,0.018779348019456653,0.011254012249188027,0.012864060041343004,-0.0034256346908463323,-0.04595597906873232,0.9989375645299909,-1.5379714965820312,-1.8141380749144496,4.155158519744873,-2.899889131585592,-1.3511371141967823,2.6072756951416927,1.0,0.4890669062573461,0.49738462059201527,0.3310218798145096,-0.6051153838193699,0.3444151411650244,-0.18421362508205477,0.693742692311451
8.0,-0.7091205770462023,-0.003848278414542404,-0.06962679461144469,0.024369642007828565,0.01341585899243483,0.01434056077469852,-0.0033893756694606736,-0.045827706583802134,0.9989436047968803,-1.5379714965820312,-1.8141276863840161,4.155169323816524,-2.899890663984114,-1.351135759671942,2.6072473931912037,1.6918979547150588,0.4890527307075179,0.49739669746291926,0.3310278395232053,-0.6051217196467091,0.34439757817127553,-0.18421147469575844,0.6937464559563412
8.1,-0.7420874652433267,-0.011464633415474546,0.10002813959445454,0.023529200000875515,0.014367863370616876,0.013261153562747499,-0.003432119493214494,-0.04600847063898189,0.9989351467922127,-1.5379378719973618,-1.814134613737288,4.155147921790884,-2.899877210656637,-1.3511344946870227,2.607269763946533,2.0,0.48904246099355664,0.4974077932151691,0.3310571274264391,-0.6050994828120867,0.34439808522699356,-0.18419853433095493,0.6937690355895494
8.200000000000001,-0.6482724461225077,0.1708445777898311,0.21849999745777648,0.024706086364182242,0.010483136754357247,0.012963307270139094,-0.003391176529832617,-0.04588368170511488,0.9989410088798648,-1.5379341873804426,-1.814134461964661,4.155178748652995,-2.899879017131531,-1.3511790489529831,2.607269763946533,2.0,0.48906809748426516,0.4973801692435841,0.33102496187918035,-0.6051186872968729,0.3444101080778291,-0.18422028692942907,0.6937405405636651
8.3,-0.5014016140576314,0.014488829956717658,0.1841962869106184,0.024128158352851748,0.00992398437108357,0.016045594991215714,-0.003288114397978421,-0.04550973940761254,0.9989584281674356,-1.537980205440499,-1.8141177800831216,4.155170917510986,-2.8998838110457186,-1.3511670900450994,2.607230065063384,2.0,0.4890518204140141,0.4974069397959973,0.33106090102304775,-0.6051028796104122,0.34437998832521444,-0.18420974270839915,0.6937720803114072
8.4,-0.5302241728234256,-0.036792956092563014,0.17370422190485826,0.01891909882018738,0.01038204907735657,0.01868307521439154,-0.0031445508275814143,-0.04488486407040296,0.9989871422177986,-1.5379823059221593,-1.8141504726805628,4.1551601081708585,-2.899918785041745,-1.351167346072937,2.607268175520548,2.0,0.4890582890562423,0.4973926637851396,0.33105649502069306,-0.6050971026093298,0.34439690735627526,-0.18421984808304515,0.6937660370683238
8.5,-0.706429204599571,0.04372091428565485,0.08330385164265286,0.01616284362227517,0.014348465165083757,0.01787137815587528,-0.003384673954044197,-0.04578798107862018,0.998945439706956,-1.53794931870186,-1.8141159663666842,4.1551513912416,-2.899864812890524,-1.351146756618751,2.6072936058044434,2.0,0.4890546127720526,0.49739651072099944,0.3310361826481571,-0.6051148102897427,0.34439649397607264,-0.1842183112149442,0.6937512054894835
8.6,-0.6346911770146434,0.18574799659687005,0.07330446150274467,0.021750195835594018,0.017649031413915932,0.017002813947603168,-0.0033373941653278205,-0.0455187541962479,0.9989578931073402,-1.5379330435226768,-1.8141473664768701,4.155166288658425,-2.899856414096465,-1.3511326948748987,2.6072712256894475,2.0,0.4890769665870906,0.49738227257844075,0.3310264958240213,-0.6051039207555401,0.34441440445760035,-0.18422764725012808,0.6937493330282
8.700000000000001,-0.875693997613199,0.10669570905236891,0.11021453668355763,0.02180216897386137,0.017481017904424873,0.014049025782340355,-0.0033021570633334,-0.0454397409590058,0.998961623069353,-1.537967699472792,-1.8141142330565394,4.155144299366325,-2.8998734135473976,-1.351146915253447,2.6072831825351344,2.0,0.48905044381940266,0.49739014199056564,0.331036731481604,-0.6051172842117389,0.3444010630908869,-0.1842139221677966,0.6937479448399348
8.8,-0.7463209085409706,0.08349397811988238,0.19340937755833443,0.01724531398776708,0.011046803072874567,0.012796536070210628,-0.003295024136745022,-0.045547602960476594,0.9989566848145172,-1.537941373021979,-1.8141434267163041,4.155182361602783,-2.8998824428083143,-1.351126006097621,2.6072626680941196,2.0,0.48904669506115345,0.4974026345282211,0.3310400916777924,-0.6051131336337755,0.34439258834801834,-0.18420960879904633,0.6937569175301729
8.9,-0.6811355939160564,0.05307272460649734,0.13908463428856885,0.01970178231617385,0.011163973335573174,0.014454970422114676,-0.0034669860978451305,-0.046241515859279284,0.9989240154398192,-1.53793224910554,-1.8141142330565394,4.155176346054812,-2.8998446389676316,-1.351158444059018,2.6072899378694254,2.0,0.48906610605407164,0.4973885992709093,0.3310790325855823,-0.605083781290418,0.3443899303335557,-0.18422391676153976,0.6937800386269233
9.0,-0.5655793595920516,-0.0366562500527611,0.16123089563482795,0.011255471699229356,0.008454848686746305,0.01700368997130761,-0.003603888332820493,-0.04679368877923916,0.9988980225069892,-1.537947654724121,-1.81416866927868,4.155174482938224,-2.8998872745922393,-1.3511468753546307,2.607279425324711,2.0,0.4890468303212599,0.4974126344978842,0.3310374106436487,-0.6051169542289054,0.3443886648575307,-0.18419897167562888,0.6937583571071566
9.1,-0.5522586842654285,0.0916955380595933,0.15907328479579885,0.018644673554154494,0.02221260488917793,0.021253674951590702,-0.0033892195174471205,-0.045924525061802876,0.9989389794320035,-1.537976828871322,-1.8141451029181777,4.155188577241732,-2.899889131585592,-1.3511583737567827,2.6072917687804695,2.0,0.48904176934194055,0.49739711951358623,0.33104933096010913,-0.6051168201825372,0.3443890009141467,-0.18421274252287864,0.6937546507762886
9.200000000000001,-0.5483858398958895,0.8931799555583024,-0.13138105203575512,-0.03948615771807226,0.02311824663266872,0.019566339677876268,-0.003226666144117446,-0.045267204811987614,0.9989696699429578,-1.5379832234117565,-1.8141255088543522,4.1551925670427865,-2.8999216429115005,-1.3511463829032966,2.6072580371168077,2.0,0.4890524616328447,0.4973954015390061,0.3310549039301067,-0.6051045484722893,0.3443886168022046,-0.18421008215052664,0.6937662514632051
9.3,-0.5423790135290982,1.11796359187435,-0.40565640689422255,-0.062377045384932814,0.01990288255953124,0.019942475674614296,-0.0031961632721083186,-0.04508256405391075,0.9989781501618479,-1.5379769451532783,-1.8141380749144496,4.155196926163705,-2.8998667272533942,-1.3511565367328089,2.6072880099745137,2.0,0.4890518351648368,0.4973974044478007,0.33104513269742974,-0.6051065046676397,0.3444053225583137,-0.1842116285237463,0.6937558415747179
9.4,-0.2532028904197339,1.5592012685899648,-0.4140338015116377,-0.09721577338842433,0.018736157179322185,0.026764567823708486,-0.003234587888402684,-0.045138124250884815,0.9989755184501452,-1.5380036142273341,-1.8141380749144496,4.155146945737905,-2.8999129734435023,-1.351155776339752,2.6072796238861278,2.0,0.48906122913468103,0.4973890455670939,0.3310468618447687,-0.6051167743442937,0.3444063207094705,-0.1842289805158533,0.693741780780581
9.5,0.13827197599177,1.7045048621575918,0.3334757705226721,-0.09995883363046054,0.03850348281373815,0.03003916190439293,-0.0032448154854379913,-0.045221534576528215,0.9989717097374634,-1.5379235610926374,-1.8141583183093895,4.155170917510986,-2.8998613595832925,-1.351158614336796,2.6073121685247087,2.0,0.48904370719151713,0.4973957559190772,0.33105170672921735,-0.6051203276955348,0.34439193432518356,-0.1842147937699217,0.6937495905135458
9.600000000000001,-0.1811558279400568,1.620832588216249,0.9040958741558098,-0.10228332804754313,0.027675694229831446,0.023208233731929956,-0.003254761741497187,-0.045304085370423526,0.9989679404892163,-1.5379484785781077,-1.814151330861799,4.155182361602783,-2.899855943342435,-1.3511791047381558,2.6072556498179478,2.0,0.48905780997843623,0.497392553042553,0.33103011274180116,-0.6051134268706984,0.344403688362672,-0.18421302987078583,0.6937502430189215
9.700000000000001,-0.547561754280836,1.8163814758632857,1.5424275025165506,-0.1126443441195645,4.884541193719144e-05,0.024644666393278607,-0.003258357127130624,-0.04536723346360146,0.99896506209418,-1.5379582560623328,-1.814162393609518,4.155181518849198,-2.899853368798727,-1.351178221822924,2.607271519683169,2.0,0.4890560214872983,0.49739360025247914,0.3310748371372972,-0.6050923445313408,0.34438984305811843,-0.18421381656265687,0.6937752953048916
9.8,-0.8038563541064705,1.9834848720925782,2.00886878908127,-0.11441666198924386,-0.02118451221040416,0.016292017899289756,-0.0032769097785756104,-0.04547916653569303,0.9989599027945284,-1.5379634628763519,-1.8141504726805628,4.155206203460693,-2.8998669949207407,-1.3511689344989222,2.6072655677345775,2.0,0.48905050327325167,0.49740950736074424,0.3310445630945761,-0.6051108191779808,0.34439879264643963,-0.18419645859714517,0.6937593478849116
9.9,-1.0975808311386028,2.0427918766285336,2.0757187984216054,-0.11093789982976175,-0.0323937254479669,0.014833554519929456,-0.0033085712428887076,-0.04563385562799653,0.9989527444696441,-1.5379898021546867,-1.81412797513196,4.1551499099634075,-2.8998171291747035,-1.3511547884322022,2.6072610084733507,2.0,0.48905260161012226,0.497411874824195,0.33104052559146874,-0.6051110701493954,0.34439676063232294,-0.18419516516620427,0.6937604811302032
10.0,-1.218188133568525,1.7343378225239356,2.3149698434288797,-0.09814415644829266,-0.053908097994612006,0.009309510883796958,-0.003335673291946759,-0.04576939242333105,0.9989464594197834,-1.537947654724121,-1.8141622524219652,4.155206065041524,-2.899841109451783,-1.3511688625209541,2.6072810696191606,2.0,0.4890413008509504,0.4974220867224093,0.3310354607239074,-0.6051134377817647,0.3443862451867575,-0.1841935748849487,0.6937640582454554
10.100000000000001,-1.2057343080491478,1.2944104409417392,2.27246386532583,-0.08056166011962679,-0.05814840118409719,0.009595294757959944,-0.0033583356392311273,-0.0458862797905993,0.9989410247159548,-1.5379288364991996,-1.8141464615927658,4.155186294041799,-2.8998349487621833,-1.351150638074284,2.6072554786096918,2.0,0.4890363580257047,0.4974203250918238,0.3310682160271752,-0.6050978995947685,0.34437898651530685,-0.1841988669110704,0.6937798087155372
10.200000000000001,-1.0882408263073253,1.1412505666374573,2.176461517674515,-0.056133529518351516,-0.06356486370571587,0.011441929105878589,-0.0035931186873656286,-0.04676127147368618,0.998899626932303,-1.5379532235485354,-1.8141465300669244,4.155166897591198,-2.8998429809925077,-1.3511727998064107,2.6072373896299985,2.0,0.48903830266441056,0.49742198838427304,0.3310548640247049,-0.6051079629969327,0.3443822300006287,-0.18420109428427378,0.6937688301170448
10.3,-1.171319846432752,0.8476904932140134,1.8536023291146078,-0.03286540237287476,-0.07170386138900517,0.003550980638473562,-0.003801420812451795,-0.047586833773604245,0.9988598647215848,-1.5379868881754106,-1.8141546978128282,4.155182361602783,-2.8998353878020566,-1.3511493177732774,2.6072956338679307,2.0,0.4890349061833471,0.4974297309046727,0.3310459848842359,-0.6051156319727957,0.34438794455531746,-0.18419032779236075,0.6937621629455374
10.4,-1.2565744950045936,1.0501878045457829,1.9521342666121617,-0.04954333620573424,-0.06588773616189866,0.005282018713803164,-0.0036431898732774736,-0.04696498986181375,0.9988898862312142,-1.5379913883611758,-1.8141285750015121,4.155203017913301,-2.8998763824143152,-1.3511681062566003,2.607259787196438,2.0,0.4890402538010791,0.4974211871557508,0.33103333787405226,-0.6051210774001634,0.3443872660489997,-0.18419719210039603,0.6937559276083275
10.5,-0.9578836850612558,1.4482770711056974,2.2508413683787287,-0.10780877062654472,-0.0322836536939468,0.021177092520581788,-0.0033089666692679917,-0.045600887811530294,0.9989542225775752,-1.5379621510631527,-1.8141523269501816,4.155174477708655,-2.899877210656637,-1.3511565367328089,2.6073126160154594,2.0,0.48904523071575706,0.4974133364190391,0.3310265382262456,-0.6051228216020013,0.34439504766983337,-0.1842081619425128,0.6937476306198725
10.600000000000001,-0.7751661383050509,2.221916766387498,2.73050462047276,-0.15243137416618946,-0.009876705775196795,0.027236125661711765,-0.0035213553799498514,-0.04639959766397485,0.9989165336747688,-1.5379417032116691,-1.8141466872542575,4.155206203460693,-2.899937602623587,-1.3511413072147067,2.607279426661245,2.0,0.4890520137949935,0.49740568703098254,0.3310376216157179,-0.6051105864465373,0.3443946579498289,-0.18420537513281104,0.6937592359876215
10.700000000000001,-0.4104896956829749,2.73928096375321,3.3140700824340255,-0.1825243260916349,-0.002264904036109493,0.036246545981915755,-0.0037036287452698598,-0.04704736309762157,0.9988857571188184,-1.537952022396879,-1.8141425299406626,4.155182361602783,-2.8998869477492133,-1.351147801387293,2.6072936058044434,2.0,0.4890465341535336,0.4974126040961251,0.3310146781275792,-0.6051304427530882,0.34440688979155937,-0.18420038392244165,0.6937371693086518
10.8,-0.5726230637204867,2.8520922705718497,3.567561984857642,-0.2153836855301736,-0.014307878047691716,0.03582794879551775,-0.0038252934370021138,-0.04741719696395632,0.9988678412217451,-1.537984594818365,-1.814157974861934,4.155196058389427,-2.8998692316381076,-1.3511471720516397,2.6072913531095967,2.0,0.4890597915441001,0.4973921100128925,0.33103142077766123,-0.6051212444536325,0.3444155994729937,-0.18421178463692905,0.6937378415161043
10.9,-0.46242274392261407,2.942730657049944,3.3799221387260374,-0.23685573131174048,-0.009824034706720363,0.03470096691930723,-0.003856791572319919,-0.047575039926534494,0.9988602149844549,-1.5379654754392973,-1.814162393609518,4.155180408799734,-2.899881278996322,-1.3511470454440608,2.607279255235281,2.0,0.48904801579004514,0.4974068001967601,0.33103721974795797,-0.6051193882007129,0.3443992732480348,-0.1842094456824326,0.6937481868309219
11.0,-0.3951766655193204,2.8552649859307193,3.1715272197156286,-0.24072989385666838,-0.004728856266374858,0.037678853792163305,-0.0038395932361667113,-0.047569757608489256,0.9988605279504824,-1.5379443341183179,-1.8141281848569928,4.155206253528096,-2.8998792415281356,-1.3511565367328089,2.6072730845523364,2.0,0.4890611250841988,0.4973896705488841,0.33106150715746985,-0.6050948084341232,0.34441180314997105,-0.1842170701414455,0.6937613809701138
11.100000000000001,-0.22759479808453864,3.2137427400269223,3.419545377918672,-0.26381665668317067,0.015946999682334918,0.031562026418403506,-0.0037660702881275572,-0.047368883839860126,0.9988703623619221,-1.5379277961412505,-1.8141357430602052,4.155206203460693,-2.899886758052248,-1.351123147479288,2.60730082134581,2.0,0.4890467747904002,0.4974167902583306,0.3310764144910717,-0.6051040343181209,0.34437061256703827,-0.18422237222508703,0.6937723736384281
11.200000000000001,-0.24242895873723733,3.0743883041937234,3.4231704112520953,-0.26801914278309036,0.026535915187432736,0.02797871681350001,-0.0037646241223673383,-0.04741696333896371,0.9988680877480142,-1.5379384896763704,-1.814162393609518,4.155177944563462,-2.899874741692254,-1.3511760124592793,2.6072745119549627,2.0,0.4890336792471483,0.497422783616853,0.33102973790511725,-0.605121770648686,0.3443895018916341,-0.18419308751245977,0.6937553028168205
11.3,-0.09533581747394992,3.0768269178147936,3.4206402123946567,-0.2737385601382384,0.027686111142756813,0.033195094974928195,-0.0037787457350088294,-0.0474570980730563,0.9988661294508244,-1.5379953384399414,-1.814142107156422,4.155162661093458,-2.8998875640280986,-1.3511470804883325,2.6072615075290044,2.0,0.4890303557264984,0.4974227187191199,0.33101458855745486,-0.6051334067012133,0.3443956216148172,-0.1841906404986212,0.6937427649060098
11.4,-0.014908543047165074,3.243439530797521,3.4904570338583847,-0.28503187450975914,0.02756391305921841,0.03916137919608442,-0.003806715804813691,-0.04745921666477558,0.9988659227176737,-1.537949858781492,-1.8141427585363628,4.155180157545412,-2.899877210656637,-1.3511665467701037,2.607255162123049,2.0,0.4890437349111169,0.49740752249938486,0.33106149189427503,-0.6050991308741706,0.34439304022589107,-0.18420618940056246,0.6937698144527588
11.5,-0.091176860341879,3.4350262510181633,3.4998998873252543,-0.2807047439018034,0.029879495306452182,0.03661414740868884,-0.0035057104486300246,-0.04635767937992635,0.9989183182556162,-1.537949434333508,-1.8141380749144496,4.15520871622612,-2.899859980649319,-1.3511257028319728,2.6072647111870513,2.0,0.48904635258653084,0.4974060913663521,0.33105797077905197,-0.6051062396913975,0.34438643829057913,-0.18420939805466788,0.6937660394372178
11.600000000000001,-0.03721919049481991,3.2830651886383317,3.333843236679476,-0.28027345064074927,0.023632097460474243,0.03562020169906564,-0.0033086864812612287,-0.045621048278980336,0.9989533384295691,-1.537939677810335,-1.8141587097328815,4.15519033851657,-2.899836345624056,-1.351143214586256,2.6072426256647883,2.0,0.48903667689322083,0.4974151698885555,0.331042967154582,-0.6051083900030683,0.3443865901994129,-0.1842048401342072,0.693765298721295
11.700000000000001,-0.09204325275236869,3.292343515159634,3.3861055182295052,-0.28958528403237294,0.020072492150278166,0.04245841568486643,-0.0033201460718172314,-0.04560829790244541,0.9989538825895761,-1.537959098815918,-1.8141403218238246,4.155191731624388,-2.8998576897782944,-1.351151574110363,2.6072791339681376,2.0,0.48904418450926723,0.4974145226850891,0.33106165220990924,-0.6050983559799656,0.3443902522298118,-0.18420537630242775,0.6937720901713406
11.8,-0.09187292204552772,3.3652071480029697,3.5023649012419598,-0.29707451078072417,0.01996381077281995,0.03146604781568257,-0.0033927487269721215,-0.045808314823651664,0.9989444486044948,-1.537956877529404,-1.814142795148292,4.155184582889297,-2.899860185210286,-1.351145092641012,2.6072651362662955,2.0,0.48906112551146497,0.49739659046847934,0.33104629730561924,-0.6051029552699074,0.34440215960113246,-0.18421905641362202,0.693758535255441
11.9,-0.19692258004872715,3.366125881766903,3.291607351519417,-0.2948215394702804,0.02471468982873192,0.03609159143290249,-0.003403713070189281,-0.04581371864771774,0.9989441048971204,-1.5379384324381957,-1.8141404818708105,4.155186990365015,-2.899879525037753,-1.3511254952834206,2.607269763946533,2.0,0.4890682920617752,0.4973827007628751,0.3310428683322955,-0.6051044251928043,0.3444103867834848,-0.18421336766378119,0.6937546794521134
12.0,-0.09380964866447625,3.425688205518119,3.3587289036275276,-0.29086036598410453,0.02029824890415362,0.03462567591562374,-0.0031859342245721192,-0.04506115111421594,0.9989791089731384,-1.5379429581719193,-1.8141307602193846,4.155213904674605,-2.8998726947410582,-1.3511543690933312,2.6072912575283427,2.0,0.4890529120234472,0.4973999865934215,0.3310467131455508,-0.6051060439948065,0.34439414535105517,-0.18421653040708336,0.6937604904386294
12.100000000000001,-0.24261360534403956,3.438182235418922,3.9846400800631145,-0.3071027985903334,0.020672503535854616,0.0420768754570569,-0.0030789742267101163,-0.04470793661249987,0.9989953553452915,-1.5379724502563477,-1.8140030508445113,4.155180287678884,-2.8998626525531286,-1.3511471665649115,2.60730072922145,2.7407026149956755,0.4890438192930881,0.4973990742986127,0.3310378747836413,-0.6051172785336822,0.3443965219492512,-0.18420793041396927,0.6937517951413538
12.200000000000001,-0.19224052471007647,3.2456607612021022,3.776735338123152,-0.3294895162064407,0.008968750938940246,0.04074500872335962,-0.003079428420422959,-0.04473572587866262,0.9989941099882605,-1.5388086661181752,-1.8129876337981112,4.155245525308843,-2.8996381482939717,-1.3510477291711631,2.6072618006591903,3.0,0.4889984932653517,0.49735318676115414,0.33111882561303463,-0.6050762028065515,0.3443769225537645,-0.1842061460211892,0.6937978234166086
12.3,-0.06011391568421427,3.02188105764889,3.3621562633410322,-0.3099305004331393,0.003274374739071318,0.0395205497931257,-0.003065384330495106,-0.044552740295967175,0.9990023169934291,-1.5403634815295209,-1.8118554623631522,4.155477189028412,-2.899326705620002,-1.3508376747358297,2.6072319586741974,3.0,0.4888847046236683,0.4971773730885848,0.3313031320180322,-0.6049667589175222,0.3443623752632424,-0.1842272157466061,0.6938948825911171
12.4,-0.29151618998510165,3.1509461066377558,3.2433599127374384,-0.2880049270443522,0.020958779930640863,0.04495655063384779,-0.0031227226560083406,-0.04471324751758917,0.9989948850453005,-1.5422409274823337,-1.8109622971872545,4.155744688543156,-2.8988888117348064,-1.3505575870085436,2.60725736618042,3.0,0.488598032994124,0.49687597770154973,0.3312588626031402,-0.6049865582479544,0.34436127400840116,-0.1842338779353917,0.6938763978717627
12.5,-0.08021205442389671,2.88289891659716,3.515880673407543,-0.2824884587158802,0.025041959536966585,0.048123202295919654,-0.003246046139607598,-0.0452826373019928,0.9989689392127702,-1.543625661810357,-1.8099379201298065,4.155992354648639,-2.8985684450000027,-1.3503320857579246,2.60725736618042,3.0,0.48807412621100815,0.49638034279802723,0.3309229186074194,-0.6051527991552416,0.34440944525390993,-0.1842127658199445,0.6937131111658739
12.600000000000001,0.08197610000249368,3.0374032763522627,3.486638705103188,-0.2959242228497349,0.027813369409218015,0.042506727485623695,-0.0032115971291315224,-0.04518131641688742,0.9989736390397833,-1.5450004433673046,-1.8086828879928145,4.156197997339979,-2.8981859790202895,-1.3500830939356712,2.607237898210956,3.0,0.487842554079139,0.49616999585437105,0.3308703767867904,-0.6051711261697102,0.34441897581839337,-0.18420665279258114,0.6936940148319337
12.700000000000001,-0.20035070988799514,3.1684854605382986,3.21242035393633,-0.2958860904513525,0.039313885413088015,0.045290946203637814,-0.003269779898652593,-0.045377538710629224,0.9989645362879905,-1.5467248983855386,-1.8073564775506137,4.156405519881761,-2.8978144551286307,-1.3498403821394074,2.607248170569337,3.0,0.4874004177534037,0.4957152429076833,0.33101257282447627,-0.6050735722161488,0.3443926765590541,-0.18422095896168,0.6937883645733176
12.8,-0.006183661102257099,3.238570753474724,3.266868790374717,-0.2884799526536144,0.04235855908302155,0.04611880311550962,-0.0033101738467998763,-0.04550807597481918,0.9989584831926365,-1.5483299717097214,-1.8060835991973079,4.156692543751757,-2.897452275016893,-1.3496077696429651,2.6072311790056633,3.0,0.4871364596079689,0.49545383919340985,0.3310180144238582,-0.605065136950039,0.3443948708114079,-0.1842022573156677,0.6937995974387972
12.9,0.03451506884614364,3.1649956511572626,3.282107126575217,-0.2901166656159547,0.04609614364173507,0.04870220104133752,-0.0032976633954197162,-0.04545235622858212,0.9989610592681346,-1.549620484886108,-1.8051200422924107,4.156892333675587,-2.897103006093698,-1.3493973621466093,2.6072185110747332,3.0,0.48681971896126947,0.4951156853844593,0.33099169770414505,-0.6050730702388147,0.3444035269404648,-0.18421142893805098,0.6937859466372495
13.0,0.10612127961125276,3.058323973430042,3.3053838912658806,-0.2880563819927459,0.047550262480397155,0.05080863351115053,-0.0033429075535910025,-0.04562826006706165,0.998952894594605,-1.551091732246149,-1.8039977820237232,4.157155835658537,-2.896790158486722,-1.3491877577814666,2.6072253736500777,3.0,0.486319183144027,0.49465149749289483,0.33093285687718305,-0.605093601709736,0.34439570084490456,-0.18419788246615185,0.6937755216959389
13.100000000000001,-0.06112789072494722,2.925664000679493,3.456836706644217,-0.28190483552503215,0.04797669406385235,0.04720225192761892,-0.003346757205623852,-0.045690099066195436,0.9989500554343463,-1.552867248428725,-1.802791878553687,4.157365322113037,-2.8964383392463624,-1.3489838696511973,2.607226038746659,3.0,0.48606447361174077,0.4943940080462646,0.3309250241554891,-0.6050796408455418,0.3443999829904814,-0.18419516713571,0.6937862929996775
13.200000000000001,-0.20732694463426987,3.3807463193370184,3.523129805803725,-0.2843162952195089,0.05877616988669508,0.05078650244989553,-0.0033742918965804945,-0.0456256503079546,0.9989528923144713,-1.5542854293229493,-1.8014612622670574,4.157562956121253,-2.8961215145704715,-1.348721776371428,2.6072257013348543,3.0,0.4856003226875148,0.49382040273004635,0.33076424798188736,-0.605160017185731,0.34443694383375933,-0.18422799099154358,0.693689118162773
13.3,0.16952404584580744,3.2143401484721927,3.4586539453496092,-0.2879445663583201,0.053959230256362956,0.05508558117369575,-0.003318639199966087,-0.045315274616982884,0.9989672078406231,-1.5557944419007936,-1.8003713725453125,4.1577647852009205,-2.8957988224425257,-1.3485295776029225,2.607229836075935,3.0,0.48540155038596516,0.49360511726634015,0.33083650464188413,-0.6051142044756337,0.34442812551323976,-0.18423228082879367,0.6937323205659929
13.4,0.31161626753078786,3.0174918185343773,3.6152781559920353,-0.28000454918457046,0.05814595572671994,0.06097355634879004,-0.003396016867475068,-0.04570155669009045,0.9989493294704476,-1.5572476559239916,-1.7992865122473511,4.158018712629677,-2.895438333550924,-1.3482895915886717,2.6071601851608635,3.0,0.4849199437949876,0.49316567618128654,0.3308865153859076,-0.6050856459835704,0.3443918842518115,-0.18422397393963427,0.6937774272142476
13.5,0.20177735030251204,2.8597240466273766,3.524792579404113,-0.28316577439329543,0.06932865193967604,0.10225664693061814,-0.0036530445365629133,-0.04659617154714293,0.9989070252622791,-1.5588477110030843,-1.7980794728405682,4.158257342618575,-2.8951544736243333,-1.3480789991545368,2.607104220753635,3.0,0.48473992102541524,0.49294702712461447,0.33082989279731834,-0.605096574146739,0.3444298434602966,-0.18423161352734047,0.6937470226724638
13.600000000000001,0.15797964779893353,2.7596537155712344,3.690296307129463,-0.28799147613194875,0.07402022114319017,0.08544938723484599,-0.003719555183420051,-0.04692350583986962,0.9988915575794316,-1.5602401285605767,-1.7969133623395939,4.158449032826934,-2.894784253116568,-1.3478695016575541,2.6071240581668107,3.0,0.4843797273013984,0.49261725193299444,0.3307662204323556,-0.6051608413343309,0.3443998830506614,-0.18423546901181329,0.6937048137559753
13.700000000000001,0.355815026983196,2.6474321175493443,3.839390130606221,-0.29057226492519156,0.07234572722265589,0.07101836088582751,-0.003638937626530935,-0.04673461502901433,0.9989005106277233,-1.5618022698091134,-1.7957356158963518,4.158662984834208,-2.8944412670531214,-1.3476446404202214,2.607192336622543,3.0,0.4838496171861743,0.49205856222755856,0.33074184577550075,-0.6051335662118328,0.34442978440082495,-0.18420460881932527,0.6937219563709008
13.8,0.19426115297642918,2.873448765095557,3.759673632378751,-0.28421643450179135,0.08070953891527904,0.0774063292764836,-0.0033451199533289615,-0.045613304729388134,0.9989533449816355,-1.5633055438944226,-1.7945894414515078,4.1589051952310925,-2.8941201805070698,-1.347409998289333,2.607178645862651,3.0,0.48366724254928867,0.49187153961712965,0.3307714162656463,-0.6051112740367153,0.34441349614491457,-0.18420865360633437,0.6937484137952616
13.9,0.39642810902076614,2.5983037950955215,3.7997566107514174,-0.29286822048909117,0.07893129934703116,0.09162996685390574,-0.003221572210267371,-0.045195995137594466,0.9989729363796034,-1.5646779032243634,-1.7933683092559165,4.1591877937316895,-2.8937536495068223,-1.3471596876727503,2.6071009635925293,3.0,0.48335067050228736,0.4915571514000079,0.33074184935503076,-0.6051169788556512,0.34441838771312105,-0.18421486977294163,0.6937393587365804
14.0,0.3007960741107385,2.8838947321428985,3.933812684132061,-0.2914228340684053,0.0798491798671584,0.09482452640647442,-0.0031927369233743703,-0.045133317286943385,0.9989758636203498,-1.5662586991691116,-1.7921488797843104,4.15936324462342,-2.893470066961611,-1.3468933952833018,2.6070943130548025,3.0,0.48276947338647197,0.49102934616735094,0.33081273619412144,-0.6050976919372706,0.34436535053459305,-0.18421306899046702,0.6937829875231076
14.100000000000001,0.4097461055671941,2.7038647348445313,3.8730776654093835,-0.28267713544400014,0.08016507967208206,0.09106507084950784,-0.003292163231538453,-0.04545053505138291,0.998961128705177,-1.5678027660973122,-1.7910225397811732,4.159656764382205,-2.8931194744505824,-1.3466261986798806,2.6071133613586426,3.0,0.48256703463070605,0.4907969909875018,0.33078438079350847,-0.6050886093208586,0.34438945787041986,-0.18422399203001907,0.6937760423496845
14.200000000000001,0.616674896588476,2.639361834383393,3.8347204849387055,-0.2791716500387929,0.07925390628458572,0.09362873484058547,-0.003453412699904879,-0.0459532524044616,0.9989375684676857,-1.5692365570525209,-1.789999430861613,4.159911240788991,-2.8928133217413525,-1.3463840462371157,2.6071040180457565,3.0,0.4820739024871455,0.49028361099264384,0.3307150779809799,-0.6051122370315981,0.3444082490186471,-0.18423073189871392,0.6937443160319143
14.3,0.13977035268741989,2.39265575759171,3.7861371901737306,-0.2949414483611988,0.09461771824558365,0.08667407832560955,-0.003225611872631311,-0.045042597310033364,0.9989795647130185,-1.5705725131608101,-1.788787188226726,4.160090811522743,-2.8924893866134442,-1.346168529171998,2.6071063947524213,3.0,0.48189195046409433,0.4901139284859493,0.3306476172013768,-0.6051384175547269,0.3444255254662319,-0.18422810623154193,0.6937135993196406
14.4,0.3301892777811189,2.6938301629473655,3.8482811845822504,-0.28418513324940886,0.08890326542002569,0.08917762698057434,-0.0032149551708572253,-0.04502380748767009,0.9989805786429256,-1.572194045084173,-1.7874126245460884,4.160337924957275,-2.892183249556492,-1.345970649352729,2.6071171217138116,3.0,0.4816070496388343,0.48982274968615036,0.33073667306280014,-0.6050872921536192,0.34440357419202833,-0.18423088152218753,0.6937683541727124
14.5,0.4814024886039307,2.5109594778905997,3.8666676085645277,-0.2760536336566821,0.09034988138885358,0.08330121850130187,-0.0034232013199701904,-0.04585393923038355,0.9989421626603567,-1.5738666293977455,-1.7862565046004135,4.160590648651123,-2.89188547188557,-1.3456801173601791,2.6070895195007324,3.0,0.48102034325667203,0.4892133846525854,0.3307357970185211,-0.6050918084130867,0.34439728457941876,-0.1842282090117136,0.6937682471618599
14.600000000000001,0.36972303459640715,2.8444281723031635,3.9876526090607616,-0.2710881379688309,0.09488255407133395,0.08532750334091267,-0.0037211777970315033,-0.04703407963738499,0.9988863285811787,-1.5751303738882159,-1.7852645350242702,4.1608612995836545,-2.891532456573023,-1.3454797903644007,2.6071042985204023,3.0,0.4808105226299881,0.4889923044032928,0.3306754624769018,-0.6051129836516301,0.34440863610069844,-0.184216026787981,0.6937473775589559
14.700000000000001,0.4115709431592004,2.7311969146600386,3.81619728043762,-0.2667660866476251,0.09466382905946122,0.09026228852229774,-0.0038181784363037663,-0.047515290194783635,0.9988631637001422,-1.5765520954444467,-1.784251970549678,4.1610835369766415,-2.8912393797426867,-1.3452501833060782,2.6070879077598987,3.0,0.4804808274615307,0.4887054301809568,0.33063637183136835,-0.6051188135283583,0.34440345209539264,-0.1842018694850724,0.693748625207296
14.8,0.22377001771480268,2.7636278847304174,3.8471746507274194,-0.27192637358807276,0.09986788472520508,0.09247224482097173,-0.0036542868398017785,-0.0470029780829523,0.9988877253479246,-1.5782330484849982,-1.7829163027122374,4.161323740933447,-2.8908836841602277,-1.3450288912641528,2.607125759124756,3.0,0.48000946805916506,0.4882811538976978,0.3305786434839582,-0.6051334361269305,0.3444003353443895,-0.1841785623725871,0.6937436058503551
14.9,0.45059721185720697,2.9349320224679265,4.060885431613429,-0.2769534291423758,0.09958080229148106,0.09134144417034497,-0.003401596947341418,-0.046121169349126925,0.998930057157647,-1.57973690313086,-1.7815106507491132,4.161525031298409,-2.8906171667823863,-1.3448625537206358,2.607099080890555,3.0,0.47977222194181457,0.4879956089305208,0.330545520730622,-0.6051577267414153,0.3444011940554939,-0.1841770823038628,0.6937223837042803
15.0,0.42186986246604286,3.454248856060467,3.0567607921340842,-0.2994317798656277,0.09664426314482498,0.09877152462237325,-0.0034447647764631593,-0.046187411285652506,0.9989267354334883,-1.5809862022815813,-1.780326416034401,4.161779592306783,-2.890389114170609,-1.3446465765166573,2.6070920923067837,3.0,0.4793970626709726,0.48758055234632225,0.3306483493411729,-0.6051014804328227,0.34439298779297284,-0.18419482007373483,0.6937708098464798
15.100000000000001,0.6507832928524179,2.694367469037343,3.741886857023774,-0.2813855676008247,0.10364824923101347,0.09758138124003896,-0.003141991534612961,-0.04507659021686824,0.9989783064761499,-1.581477165222168,-1.780054262332719,4.1618774430327745,-2.8902421777390437,-1.3445303250169496,2.6070474965318695,3.0,0.4789144543107646,0.4870704199837213,0.33068676705576505,-0.6050894881627856,0.3443861601183599,-0.18418984275510233,0.6937859798667596
15.200000000000001,0.6744065766000437,2.4756242488174123,3.9615830617663232,-0.27957447827183535,0.0779882520312641,0.1014808119874407,-0.0030597275082522067,-0.04479894987833346,0.9989913300501146,-1.5814837239864732,-1.7800451717772425,4.161877272259865,-2.8902185141359844,-1.3445089499102991,2.6070448720658526,3.0,0.47887092138855886,0.4870686642607897,0.33069550362581557,-0.6050752930917797,0.34436855446106396,-0.18419000096892718,0.6938070567033465
15.3,0.41598461973213735,2.569960844666074,3.823981202864779,-0.2783147083205311,0.08461479846262374,0.10426649766216935,-0.0031797814717190883,-0.04517799529264548,0.9989738237697148,-1.5815803670955184,-1.780039126142304,4.16185382498946,-2.890284677545065,-1.344497028981344,2.6070384472002757,3.0,0.4788582470072033,0.4870566022248744,0.3307000207171969,-0.605059536673681,0.34437867095616803,-0.1841940549183369,0.693814700192663
15.4,0.46054126254804684,2.543939867452902,3.926578100353061,-0.2794567760140385,0.07885173195886724,0.11180024712772027,-0.0033367791291356295,-0.04564084600410857,0.9989523317333309,-1.581608772277832,-1.7800325436402429,4.161838203084625,-2.890269747165518,-1.3444941352788518,2.6070506326404885,3.0,0.4788654554558798,0.487018561473553,0.3306724467183461,-0.6050864440904309,0.3443867305402823,-0.1842203012478335,0.6937802646471939
15.5,0.31946549645829414,2.834724767015224,3.9842651137201135,-0.27292048952028175,0.0797260687486948,0.10260073120056347,-0.003425784283217715,-0.04600307327930646,0.998935392255776,-1.5816594483105104,-1.7799846134581507,4.161827071631133,-2.8902365169920863,-1.3445304900254278,2.6070869546577113,3.0,0.4788575874059305,0.48701424385824416,0.33061698732453193,-0.6051190371342356,0.34439677440001093,-0.18421429257909508,0.693748446549747
15.600000000000001,0.2957325767986725,2.560007189598079,3.771769823448363,-0.27978709630649573,0.07871364367356337,0.10134105368794484,-0.00341341866710555,-0.04596389822754695,0.99893723893921,-1.5816636519059828,-1.7800118915417282,4.161841349162132,-2.890254881909514,-1.344517911450745,2.607066001103818,3.0,0.47885362114012675,0.4870044870153169,0.3306483927598008,-0.6051075327268667,0.34438881060666354,-0.18420941906921767,0.6937637284352023
15.700000000000001,0.24282550683275983,2.680645796448893,3.8606142691719247,-0.2716964123491527,0.07893565437727279,0.09436458538889733,-0.0033444459021988574,-0.04570107975888137,0.9989495458314903,-1.58166366488476,-1.7800298208624168,4.161817258073548,-2.8902727468242664,-1.3445239421139152,2.607023531721374,3.0,0.47885677982065344,0.48699611233503876,0.3306211424908782,-0.6051139960933631,0.34440500819409803,-0.1842021418857572,0.6937519823304608
15.8,0.24214295451050208,2.7014012427979828,3.914602870215799,-0.2711443340443945,0.08000281334211869,0.09551555618145946,-0.0034723002058422298,-0.04622398409050877,0.9989249972603624,-1.5816637415917207,-1.780014764693951,4.1618207166210555,-2.8902727566161097,-1.344506033639933,2.607080887340449,3.0,0.4788506224415372,0.4870056027885749,0.33064360506298757,-0.6051166314065883,0.3443932210234526,-0.1842039320908399,0.6937550598810127
15.9,0.2404482001025222,2.6395385337039565,3.8265913933930302,-0.2733626422889507,0.08346298894989425,0.09730372049946504,-0.0035702469630992367,-0.04661950167474235,0.9989063145903002,-1.5816448318270793,-1.7800121349572442,4.161807788376605,-2.8902785686993964,-1.344536355167727,2.607072263325649,3.0,0.47886654883557583,0.48699294658807496,0.33065180247158305,-0.6050979575794899,0.34439782430611093,-0.18422094793499935,0.6937645441273843
16.0,0.4169590517914534,2.5591560339721675,3.9533270395098885,-0.27338894876867564,0.07720417036098304,0.10081867979417519,-0.003631047501533417,-0.04686260625386111,0.9988947154121582,-1.5816450119018555,-1.7800208530821742,4.161837054866886,-2.8902742443111507,-1.344499611464986,2.607037288769071,3.0,0.4788428091822723,0.48701638599147773,0.33065162909564105,-0.6051037652955733,0.3443859083383083,-0.1842008805206089,0.6937707221975791
16.1,0.40717536591846376,2.526544238018922,4.002332158634102,-0.2737318081650705,0.07609611985316395,0.10136448036141286,-0.0034366127698377083,-0.046124913762609986,0.9989294738386755,-1.581648078581103,-1.780008932153219,4.161835070370006,-2.890270413302075,-1.3445152104253695,2.607072414995051,3.7384360948390887,0.47886255748429035,0.4870029383601275,0.3306383664686313,-0.6051002086553086,0.3443981733651639,-0.18421260151973248,0.6937646237084829
16.2,0.2987874458322003,2.723614763247914,4.058762686730618,-0.2729541185947288,0.07784566111294887,0.09788649279546363,-0.00325014199389137,-0.045415234505522616,0.9989629086638926,-1.5816594452592507,-1.7799823145486817,4.161866095283774,-2.8902884847531096,-1.3445208708392542,2.607042889713992,4.0,0.47884795234418065,0.48702063734290435,0.3306404565141752,-0.6051151386389154,0.34438271641156687,-0.18420932070309198,0.6937601457226424
16.3,0.39528710503902464,2.5152331215616552,4.003768958877393,-0.2751395131607967,0.07757822762472763,0.1016050765801578,-0.0032505147566283636,-0.045362777860644375,0.9989652902840813,-1.5816419205073697,-1.7799889223502452,4.161832102239548,-2.8902365169920863,-1.3445112102314867,2.607041835784912,4.0,0.4788494339598402,0.48700659172334454,0.33064031379731196,-0.6051151587263492,0.3443898827666327,-0.18421611855230835,0.6937547657444176
16.400000000000002,0.3830571358901635,2.562025837959818,4.07576855051303,-0.2745859042055782,0.07667584020031108,0.10082417667493992,-0.0034434687534108913,-0.04606649229532089,0.9989321852248522,-1.5816545850662345,-1.779985090295309,4.161819695866164,-2.8902603588499964,-1.344498977864071,2.60704963131582,4.0,0.4788567394966075,0.4869944595392932,0.33065209049016336,-0.6051093601625301,0.34439350842601685,-0.1842136569520038,0.6937586771998472
16.5,0.3474128113235641,2.4891248927721965,4.168670753572287,-0.27480339384303004,0.07576692713696193,0.1004190996750735,-0.003585169391743489,-0.04657591038236646,0.9989082992349739,-1.5816335678100586,-1.780018768256034,4.161789376752005,-2.890234302743541,-1.3445155504529775,2.6070702819293023,4.0,0.4788604174711988,0.48698981592902996,0.3306471367133604,-0.6051070233620961,0.3443889786826299,-0.1842175452859045,0.6937619315360528
16.6,0.32548890586350204,2.4304081204818493,4.174738143874515,-0.27342232076741885,0.07847516630897866,0.09981240765482051,-0.003522989203731989,-0.046293580721278677,0.9989216571523656,-1.5816600416466393,-1.7800144501304118,4.16184426186523,-2.8902494509546464,-1.3445057484344178,2.6070656776428223,4.0,0.47886874697646215,0.48699512999121464,0.33064967811508733,-0.6050925423446473,0.3443943446540917,-0.18422140405783732,0.6937708734561642
16.7,0.3034084292023183,2.656824284109401,4.1648077642421715,-0.2699438863517878,0.07896954147919391,0.09315510520479812,-0.003274911831336682,-0.045457212799268835,0.9989607269214967,-1.5816426905141037,-1.7799945931120227,4.16182353906182,-2.8902654055548958,-1.3445208708392542,2.607041625304496,4.0,0.4788584524108903,0.4870052897993959,0.3306412966653389,-0.6051016402789198,0.34439063238173245,-0.1842209183864202,0.6937649101016388
16.8,0.31636065500293353,2.58434538257076,4.133054155379278,-0.2717189276882633,0.07841914202703917,0.09097547794714093,-0.0032873697745680673,-0.04552539554912958,0.9989575223455603,-1.5816724464435066,-1.779987986703984,4.161801966275032,-2.8903118926488083,-1.3444909008697392,2.6070542335510254,4.0,0.4788416405343769,0.48702699871105115,0.3306299374256514,-0.605127368785239,0.3443803997020732,-0.18419633182309325,0.693754076882443
16.900000000000002,0.319879073445752,1.6380159787248285,3.0439126381670025,-0.20785853412311775,0.06844450954506501,0.10057424174044753,-0.0035553577835174444,-0.04648075128002116,0.9989128555741925,-1.5816537890958058,-1.7799579935816503,4.161816907813304,-2.890268804026511,-1.3445054741578584,2.6070656776428223,4.0,0.47884954769945826,0.48699134367684843,0.33062451332491105,-0.6051188945866328,0.3444022655222875,-0.1842088326768913,0.6937472946838673
17.0,-0.20784809535506768,0.9983069300455869,2.742719011758893,-0.15807420985495307,0.03521897424563714,0.09687127065329829,-0.0035255372390034494,-0.04628098594206996,0.9989222286392218,-1.5816450119018555,-1.7799607716002406,4.161841072186107,-2.8902464261974274,-1.344505690303279,2.6070681662035944,4.0,0.47886484629334247,0.4869985524061522,0.3306578196317036,-0.6050791231288432,0.34440547437281793,-0.18420995043777605,0.6937800934989248
17.1,-0.4491206376230547,-0.15205030186048152,2.052104147579863,-0.04498105876850128,0.02813704968215711,0.09900595743368697,-0.003530500154289847,-0.0463144519593578,0.9989206395338293,-1.5816322539478234,-1.7799726925291957,4.161814668844172,-2.8902365169920863,-1.3445089499102991,2.6070592986658063,4.0,0.4788675543188765,0.4869857899585828,0.33064799817667784,-0.6050866019041807,0.34440493322195964,-0.1842268618812201,0.6937693489408613
17.2,-0.9106494018172603,-0.5224799358363512,1.2201523057339754,0.02981484310514987,0.030601512836685697,0.09641808553911799,-0.0035738999703605326,-0.04660190426528875,0.9989071138715127,-1.5816303272446537,-1.7799576779513526,4.161808134381279,-2.8902365169920863,-1.344488201701277,2.6070780754089355,4.0,0.4788504503300003,0.48700756542912965,0.33067019772665274,-0.605097194054802,0.3443750042171297,-0.1842044204038382,0.6937809263169052
17.3,-0.4278520103165606,-0.4886535313812344,0.6698050496252141,0.0019867813035207016,0.004000355918116757,0.0942868984719485,-0.003531409469529262,-0.046470986017054725,0.9989133456731963,-1.5816419830130966,-1.7799576165077833,4.16180854549108,-2.890249263565613,-1.3444994846329275,2.607068958938978,4.0,0.47885112830796966,0.48700521730918017,0.33069238581866905,-0.6050724513129657,0.34438439441171387,-0.18419506135510494,0.6938003292880343
17.400000000000002,-0.2907672184505463,-0.4786961377026263,0.23673147756330365,-0.01736491416685364,0.00546540892914852,0.0948175516813195,-0.003486366419438696,-0.046259458765066534,0.9989233504142698,-1.5816367740068518,-1.7799402695306565,4.161830429118889,-2.8902932586856935,-1.344492250968668,2.6070691510226816,4.0,0.47885365293183496,0.48698189995184626,0.3306958105093101,-0.6050636502306794,0.3443904825225261,-0.1842067181953571,0.6938018879255978
17.5,-0.6890002417596366,-0.09974633615913009,0.09953054399811141,-0.01332305850115335,0.031137132418029075,0.08506866854838942,-0.00356567461704619,-0.046566675092053936,0.9989088144724848,-1.5816418874788656,-1.7799455960640043,4.161822175204908,-2.8902715289316485,-1.3444937743740628,2.607044079176308,4.0,0.4788494213853915,0.48699745239123043,0.33066082946013386,-0.6051050042547214,0.3443920363273595,-0.18420541138462648,0.6937653966268487
17.6,-0.5197245232358487,-0.3043183670098555,0.08786196893632625,-0.02202519524666107,0.0166437294907232,0.08816430472633578,-0.003389334898280715,-0.045858176236885456,0.9989420300829183,-1.5816306910246154,-1.7799904494673158,4.161820404332811,-2.890284677545065,-1.3445267068484192,2.6070799985200623,4.0,0.47885723282272236,0.4869845533634577,0.33067560253406975,-0.60509154777114,0.3443951383471365,-0.18421273355756201,0.6937736491781981
17.7,-0.33530690049708506,-0.35551182253660013,0.11262068937758482,-0.01638806888712755,0.018509302330190516,0.08583175370232206,-0.0034565573461583727,-0.046043551015123266,0.9989331268044588,-1.581655564891827,-1.7799717642981276,4.161810386415812,-2.8902603588499964,-1.344496100750276,2.607088628398907,4.0,0.47885680505660116,0.4869795563779982,0.33066256503114083,-0.605093873089876,0.344394749219679,-0.18421122033709647,0.6937722160485568
