xiamingqian9007/apple-picking-rnn/training_data/grasper_20191127_123851_noimg.csv
,/manipulator_wrench.fx,/manipulator_wrench.fy,/manipulator_wrench.fz,/manipulator_wrench.tx,/manipulator_wrench.ty,/manipulator_wrench.tz,/ground_truth.x,/ground_truth.y,/ground_truth.z,/joint_states.elbow_joint,/joint_states.shoulder_lift_joint,/joint_states.shoulder_pan_joint,/joint_states.wrist_1_joint,/joint_states.wrist_2_joint,/joint_states.wrist_3_joint,/mode./mode,/manipulator_pose.x,/manipulator_pose.y,/manipulator_pose.z,/manipulator_pose.rx,/manipulator_pose.ry,/manipulator_pose.rz,/manipulator_pose.rw
0.1,-0.11051770018958833,-0.1117983983585264,0.01382755347706554,-0.004392299795442203,0.010922432851257605,0.009025147899450858,-0.021182811325953177,-0.0532191097865125,0.9983580148382664,-1.942036271864368,-1.8472476167766911,4.173248890907534,0.5514080013524051,1.3274866380999166,-0.35086695198844775,1.0,0.4567091196183028,0.4584162413048678,0.3372934608951614,-0.6113014950130419,0.41588856331243795,-0.12462124005120888,0.6616772110544802
0.2,0.13589205621572042,-0.07292362799173535,-0.05704747372287214,-0.005585328280347284,0.01787140503285879,0.019468442725094535,-0.021359073253718653,-0.05368471435942438,0.9983293215564234,-1.9401150830258875,-1.8485682645642911,4.172921289058565,0.5509425293667317,1.3278368332587587,-0.3509174299105454,1.0,0.45669990449965375,0.4584264231889866,0.3372995528478409,-0.6112975355082724,0.4158846735305167,-0.12459178203016125,0.6616888613649745
0.30000000000000004,0.13385721788609234,0.008975346195691764,0.16454673947767928,-0.0012739373555609003,0.01749711769024142,0.04116682266121127,-0.02074982085037335,-0.05237557548946305,0.9984113935565183,-1.936020851135254,-1.8519849360465521,4.172001385643137,0.5503169733234863,1.3288617824853874,-0.35098828881914884,1.0,0.45717104637612177,0.4589274872818916,0.337349826472205,-0.6112533379277967,0.4158596830299756,-0.12458098412189944,0.6617474286293481
0.4,0.00096092243073428,-0.11067977116332367,0.09770782421609443,-0.0053407288183743105,0.004993576883650626,0.07981459195815706,-0.020750935641359266,-0.05238232244397196,0.9984112141069182,-1.9318524549993423,-1.855287040280466,4.171170565430974,0.5495142345768479,1.3295281205733667,-0.3510835261768961,1.0,0.45828142076348893,0.46001480571847014,0.33714409102500975,-0.6112867415031817,0.41584077391535423,-0.12455008335662086,0.661734272308576
0.5,-0.06176004143215386,-0.0909443421717031,0.10743164334087466,-0.015874461788853544,0.017603180397649337,0.10502198198073934,-0.02110490307897637,-0.053145522199434324,0.9983637019666286,-1.9279462354302628,-1.8585820707918588,4.170523748415521,0.5486765399076328,1.330282227935508,-0.3511441389666956,1.0,0.45891401214247013,0.46061293139126985,0.33708159909436386,-0.6112504255993725,0.4158734262526336,-0.12457938131202634,0.6617417836991966
0.6000000000000001,0.048579426647825504,-0.08268610865732963,0.03254914972061917,-0.009852883957329086,0.013430768348982108,0.14053434338170712,-0.020813088163361824,-0.052477346253876164,0.9984051507553602,-1.9240447270056702,-1.8616785199317878,4.169779374399601,0.5479670460979574,1.330955982208252,-0.351203743611471,1.0,0.46044683357895444,0.46225032228862883,0.3368034309898537,-0.6112994779277809,0.4158749814741158,-0.12459078867117186,0.6616933454761517
0.7000000000000001,0.09447728423242996,0.06285528927562067,0.32905118988942916,-0.010854927669274287,0.02149542883409756,0.16201777971929845,-0.021193603306835066,-0.053387532911565325,0.9983487089308349,-1.9203710977797066,-1.8647485555398804,4.168965330709561,0.5473409604030384,1.3318681627408113,-0.351298602573444,1.0,0.46101856694712023,0.46281447655860625,0.33669729857831776,-0.6113241760128677,0.41587961704252324,-0.12460830694833937,0.6616643150346109
0.8,-0.21383517047210823,-0.12004154089698435,0.24691214439467113,-0.013011323044378156,0.01799479698163754,0.18268018988974696,-0.021162960687685323,-0.05340042207003136,0.9983487399429135,-1.916584572443205,-1.867744993031001,4.1682708634529835,0.5465850121700186,1.332620911905052,-0.35134774843324834,1.0,0.46233163744361755,0.4641054224436589,0.33649019018562204,-0.6113276848001424,0.41585271392690976,-0.12456474843615585,0.6616861835972991
0.9,0.2939977610586262,-0.38243192483892546,0.3676969465333112,-0.0028709664413118993,0.017415736838197953,0.20466541064073818,-0.020845338387832306,-0.05277165292197075,0.9983890026251131,-1.913131184121427,-1.870559279423089,4.167528060467763,0.5458535655584271,1.3332100193407743,-0.3514547886029012,1.0,0.46294367130949243,0.4647134982052599,0.3363936907795022,-0.6113498564207406,0.41585077830447464,-0.12456704329741831,0.6616664831786797
1.0,0.0828650095828584,-0.15572816025991632,0.3832061306324219,-0.011887483403030186,0.019539648119432203,0.2202336390079559,-0.021117374604539264,-0.05316135358790991,0.9983625090485264,-1.909791492689476,-1.8733069767763855,4.166806697845459,0.5451093253541057,1.333763939367215,-0.35145503679384404,1.0,0.4642283103873607,0.4659234268126437,0.3361892436364908,-0.6113337038155907,0.41590573510538953,-0.12461551156908979,0.6616377380122233
1.1,-0.01760799302392548,-0.3335162311657011,0.32164689114078965,-0.010450415441490906,0.025245981718755084,0.22626155582521704,-0.02136243559876209,-0.05349692177021329,0.9983394614301592,-1.9063212993609608,-1.875660707230443,4.1661601329266835,0.5443819610718703,1.3343732811306814,-0.3515629504819079,1.0,0.46476794859133835,0.4664576385710712,0.3360656995754555,-0.6113474155283232,0.41593495430477695,-0.12462322490799163,0.6616052472039918
1.2000000000000002,0.1574550374696522,-0.329613523870416,0.3793278151540903,-0.01997097070269261,0.021640518903102843,0.24243092378307024,-0.021066271681049853,-0.05274638774498779,0.9983855527571693,-1.9031566873688521,-1.878461838976424,4.165632724761963,0.5437461186139133,1.3350577681218574,-0.35162206650497574,1.0,0.46555629455162795,0.46715730580450693,0.33614203443241597,-0.6112434084841721,0.415937160837052,-0.12465680605898441,0.6616936258742688
1.3,0.1323820208119565,-0.42413973273773176,0.2849258327218607,-0.014485546982975533,0.01927469552403,0.25688011750028406,-0.021040623837718167,-0.05284375072713471,0.9983809094023335,-1.9000002700037222,-1.880670248124811,4.165116938057221,0.5431449411771699,1.3357622968787712,-0.35168180739698063,1.0,0.4667687381307148,0.46849986178286873,0.3358500040150893,-0.6113403191139674,0.41588711617716,-0.12458121858520017,0.6616497871225417
1.4000000000000001,0.07169883783971419,-0.2481625219964431,0.27052452482065603,-0.009836140276399712,0.018956727754151186,0.2607554551404608,-0.021234831617198517,-0.05363576623481767,0.9983347319216724,-1.8969767152918047,-1.883130823637748,4.164601802825928,0.5424509020577508,1.3362309203563116,-0.3517187277423304,1.0,0.4670320267942339,0.46877382723202765,0.335928036423809,-0.6112926019732944,0.4158417083929925,-0.1245640888818774,0.6617256350592325
1.5,0.08902428728847686,-0.24816575199451657,0.2684340990494109,-0.00846946505889576,0.017801528847200595,0.2599332821594775,-0.020757237939774815,-0.052551622579970786,0.9984021008860335,-1.8940512690634053,-1.8853830621654617,4.164062041624128,0.541754885310791,1.3367118835449219,-0.35180218955001774,1.0,0.46767293655930153,0.46944959599719177,0.33586040209880014,-0.6112948270858971,0.4158330871492316,-0.12455722575453144,0.6617302891075014
1.6,0.24710414614244305,-0.37899205300316047,0.35806082074710477,-0.012176461670419662,0.016356147700767938,0.24782895372669056,-0.020582020674274733,-0.05205476095342554,0.9984321047069883,-1.8910518592316623,-1.8877346086446152,4.163511106431249,0.5411788660236816,1.3371924673701818,-0.35183901610703244,1.0,0.46889212781751743,0.47068544808377494,0.33567534006363736,-0.61130593798869,0.41585774904240336,-0.12458004490035793,0.6617002305831381
1.7000000000000002,0.11630607070048493,0.20072810475163702,0.44045499481519784,-0.001700000042335097,0.02053918515885964,0.24870580679475476,-0.020699581416396686,-0.05212653912607802,0.9984259294749163,-1.8884375189899085,-1.8898668809442327,4.162983417510986,0.5406165312728619,1.337705640915681,-0.35191089311708623,1.0,0.4695770405592464,0.47131945665872466,0.3355991820642989,-0.6112863720920106,0.41586787980174167,-0.12462041862513598,0.6617043366228514
1.8,0.11589042509827166,0.08977934399104617,0.3913676875670945,0.0029949464452279848,0.023098652569307983,0.2455509872019031,-0.020891167884551285,-0.05249329870342653,0.9984025990079148,-1.8856180914558855,-1.891930543680985,4.16250467300415,0.5400408445126749,1.338210426116029,-0.35195840716435417,1.0,0.47006342767812176,0.4717898405383125,0.33548257751067434,-0.6113061341064169,0.4158868178002833,-0.1246394851424531,0.6616705856596966
1.9000000000000001,0.2634580307378928,-0.18015879583803812,0.15047609003319026,-0.006274383512569275,0.02036539328621645,0.24317197234151106,-0.021159572318945247,-0.05316616634349348,0.9983614662128814,-1.883164182219906,-1.8939904490525667,4.161942849418477,0.5394425413928688,1.3387822112220122,-0.35201728251002073,1.0,0.47085065116294494,0.47259008926799234,0.33543194693109635,-0.6112650257357387,0.41587231854025813,-0.12460841592350805,0.6617235266070497
2.0,-0.010164603260927246,-0.3808090734491029,0.36774471316991053,-0.006836555411725733,0.020298268986108706,0.24011636644670137,-0.02119128258952382,-0.053217452945953335,0.9983580669602613,-1.8804485695625806,-1.8959824277490145,4.161436780864076,0.5388425921414378,1.339219767704307,-0.3520432026535346,1.0,0.4715898109882414,0.47327418952816364,0.3352474396321771,-0.6113202593859273,0.4158943059530901,-0.12460990503433847,0.6616584000127659
2.1,0.03134576905470042,0.07108826710454892,0.25550507348119184,-0.0041577601546643785,0.02307659005295425,0.24402399452653808,-0.02121868256002533,-0.053257420296805504,0.9983553548512875,-1.878228771635341,-1.897925118673098,4.161055704566091,0.5383256833847156,1.339613306079011,-0.3520667557499604,1.0,0.4725067930521374,0.47416520561025405,0.3351468211638512,-0.6112980417213751,0.4159024477159218,-0.1246071519783978,0.6616743276320681
2.2,0.16966484456360276,-0.15090235697062127,0.40291817331315705,-0.0069525195820570535,0.020193852868591235,0.24074756995235222,-0.021137680040113915,-0.05306121141493901,0.9983674961302856,-1.8757092921980327,-1.8995802321795574,4.160659131056943,0.5377849509507593,1.3399866804007743,-0.3520909257437195,1.0,0.4730641600510335,0.47482610956469457,0.3349801824566254,-0.6113725962397014,0.415892156517533,-0.12458751272133478,0.6616156092386531
2.3000000000000003,0.2890927149692968,-0.3472661678042658,0.1611746962053926,-0.009506404947023765,0.016294351864123317,0.24069855107326515,-0.021053486507242904,-0.052858050281177904,0.9983800746441973,-1.873493720766028,-1.901450617057824,4.160264346034907,0.5372288457027105,1.3403799287100036,-0.35217241362396473,1.0,0.47357403359190275,0.4752770200277464,0.33506309129780365,-0.611280171040091,0.4158842892470596,-0.12462174455365008,0.661699502217638
2.4000000000000004,0.2766423627136494,-0.11029592978826441,0.22980843879040322,-0.007670633228461779,0.017722656529209718,0.23980486467829115,-0.020989650919946843,-0.05273169454158491,0.9983880972444251,-1.8712475514565745,-1.90329467488216,4.159891605377197,0.5367690262704998,1.3407248896937216,-0.3522103468524378,1.0,0.47392016589772795,0.47562033007090004,0.3349988552358942,-0.6112906187400796,0.4158885032587354,-0.12461998898771418,0.6616875324821239
2.5,0.44764792274944887,-0.2805125939293441,0.25428463310089106,-0.017910294900489506,0.015763059005672056,0.24250192016234698,-0.02117289942626057,-0.05311877538605564,0.9983635514938808,-1.8690777971426478,-1.9047088571764739,4.159565154113464,0.5363120264736593,1.34108820790244,-0.3522550548977783,1.0,0.4745065180697715,0.4762546962848319,0.3347327947379283,-0.6113788641449237,0.4159170232199797,-0.1246147189501085,0.6615890613467544
2.6,-0.12804218739239567,0.05167180294743458,0.42910447031193505,0.007309206916094951,0.02216353747827775,0.2294143230573062,-0.02136329338885292,-0.05350171801877621,0.9983391544170221,-1.8668342896621593,-1.9062927237525678,4.159157189085938,0.5358044049626548,1.3414595462578458,-0.35229258653676815,1.0,0.4752550091477017,0.47694728917136003,0.33487075708534586,-0.6112572684769472,0.4158889176839567,-0.12464916727292435,0.6617125848734742
2.7,0.17129373272941864,0.14099430435535193,0.4105646468250005,-0.002084923873180969,0.020795357196031546,0.23606051834142547,-0.021168421293497174,-0.05306190082869495,0.998366820914704,-1.8649285561941773,-1.908117716025511,4.1589193057136375,0.5353147226520996,1.3418423407174438,-0.35230647307299673,1.0,0.4755315885531637,0.4772625579935277,0.3349111569077824,-0.6112101157287354,0.4158778296928063,-0.12461988534139738,0.6617686222376852
2.8000000000000003,0.1926907512733554,-0.19315530723426627,0.17134745073143068,-0.010470844267628069,0.022327048293369192,0.23661277317307855,-0.02101115895764272,-0.05294084747371296,0.9983765722090129,-1.8629855786837064,-1.9095087937970836,4.158542123941275,0.5348391370080378,1.3421999168395997,-0.35232509954854846,1.0,0.47603467561435525,0.47784509428906374,0.33463175605541423,-0.61133707668643,0.4158951029686184,-0.12457716908431064,0.661648525229333
2.9000000000000004,0.11207503168145022,0.05126410903667769,0.2877832138503271,0.008870614667834155,0.01639148440449347,0.23541768373950264,-0.020713495718976405,-0.0524245631783692,0.9984097116191337,-1.860848098649999,-1.9108091100069917,4.1582032129306254,0.5343725042043169,1.34259803757958,-0.3523789527531754,1.0,0.4767259567263757,0.4785603678777757,0.3345943457851887,-0.6113260019045297,0.4158544054942852,-0.12455910871743978,0.6616877369741221
3.0,0.30697583575099496,-0.24249071822461266,0.19359388402699954,-0.009030667335270682,0.02015185421982378,0.23045116417117995,-0.02021853074533455,-0.05133063694014912,0.9984769344675175,-1.8592522374580465,-1.9123274397508565,4.157877854218467,0.5340087553024924,1.3428865845656144,-0.3524012074813034,1.0,0.4770177084837375,0.4788456587025297,0.33473142735593714,-0.611233456104731,0.4158149805432583,-0.12455064463297019,0.6617995927889256
3.1,0.15553271767953902,-0.060018347393160386,0.30500521454949187,-0.011231658161159822,0.019569730483539962,0.23137259237702565,-0.02062847343596066,-0.052140384383716196,0.998426628448798,-1.8574030426817436,-1.9137897889030202,4.1576039504169895,0.5335997750631295,1.3431634745737997,-0.35244860806036665,1.0,0.47765301312704084,0.479441709987486,0.3344547649944727,-0.6113322862252404,0.4158758367330182,-0.12458614962811797,0.6616633702730363
3.2,-0.04688198031370916,-0.2750926196369413,0.28400453614470433,-0.006977218772183596,0.022734689997117696,0.23282631645868057,-0.020724971122700126,-0.0523114149761064,0.9984157363143502,-1.8554511046866258,-1.9151402710096508,4.157278537750244,0.5331694548597744,1.3434495598859462,-0.35246164003481084,1.0,0.4779175437969663,0.4797466816405197,0.3343560103484896,-0.6113702733420735,0.4158713671288865,-0.12457183955439179,0.6616337745807903
3.3000000000000003,0.02380984530698496,-0.21389181945375751,0.38262510298358343,-0.0028807827175270405,0.024392311415072164,0.23376632593630609,-0.020776637461851072,-0.052390424658557255,0.9984105232361238,-1.8539898402973305,-1.916266783074509,4.15694601146848,0.5327286639606678,1.3437037467956543,-0.3524628769705957,1.0,0.47837894502725425,0.4801886811447499,0.3344017046974607,-0.6112860878373934,0.41586329952174744,-0.12459332808947958,0.6617125792388469
3.4000000000000004,0.24592676910339198,0.0784707001530403,0.19248621257902693,-0.0040389600419107885,0.017830833628130073,0.23572481661150516,-0.0207026721836883,-0.05218321842315767,0.9984229085175995,-1.8523668404906202,-1.9175529741024295,4.15668956095652,0.5323520504848407,1.3439781251285288,-0.3525113140026068,1.0,0.47888450052236764,0.48064254243182786,0.3343167957953683,-0.6113032421129329,0.41588955336561206,-0.12458858983721322,0.6616811232504244
3.5,0.05570008656749767,0.2524158083944902,0.2679472523389652,-0.002551749338362716,0.02640951736089293,0.2340253047527673,-0.02085428385620061,-0.05244062511729106,0.9984062010981678,-1.8505011507784324,-1.918859628721773,4.156412556324651,0.5319768628742126,1.3442320747327157,-0.3525465094147433,1.0,0.47926691571237795,0.4810016784810454,0.33422874716135637,-0.6113258926322618,0.41590264600258603,-0.12460916203363946,0.6616480928580466
3.6,0.053156894931803186,0.009170269994223768,0.31141869560540963,0.0025880650574066663,0.018275330777327587,0.22917050851817478,-0.021037135595321502,-0.052762806371446654,0.9983854427598288,-1.8490800857543945,-1.9200458596844299,4.156128406524658,0.5315396579160797,1.344458957485221,-0.35258180299867803,1.0,0.4797443263063634,0.4814815143717939,0.3342398226918733,-0.6112750911614832,0.4158855205311527,-0.1246372419154171,0.6617005022408328
3.7,0.14861542224422922,-0.2552232232064242,0.3126474683859279,0.000616141999462591,0.022620017173906565,0.2301288334695281,-0.02094688671969395,-0.05259177799844217,0.9983963426716714,-1.847783088684082,-1.9210892221962976,4.15589827293889,0.5312377649494628,1.3447351753718766,-0.35256049440954096,1.0,0.4799585822277189,0.48168484669825234,0.3342052926600443,-0.6112604202468681,0.41589479017060355,-0.12462945551538662,0.6617096953850006
3.8000000000000003,0.14189428847864993,-0.23399076049725887,0.3632201024306505,-0.013898673456285218,0.023753053918830508,0.23404273920962115,-0.02081702463042069,-0.05234920962414252,0.9984118346091646,-1.8461265805385096,-1.9221927794498002,4.155624866485596,0.5308456715525899,1.3449644376155283,-0.3526189842260053,1.0,0.4804931472837156,0.4822351292932511,0.334033710608921,-0.6113440670276612,0.41590715317289195,-0.12460955866539189,0.6616283923313113
3.9000000000000004,0.1145524588757803,-0.3097738100897912,0.3417550115515916,-0.008710512324987138,0.02256666871758091,0.22948097475750767,-0.020746149491529683,-0.05216320298940124,0.998423038035983,-1.8445979894860693,-1.9233083042793515,4.1553882863042375,0.5305526665483361,1.3452361557765904,-0.3526414076434534,1.0,0.4809163373307469,0.48264078638883556,0.33406719936012563,-0.611286653559397,0.4159020915379663,-0.12461784801711598,0.661683058110212
4.0,0.19897785926539213,0.06685929446390959,0.42358362880230116,-0.0003971796943090227,0.019905210688312233,0.2322001172564616,-0.02068506364812933,-0.051986583169513316,0.9984335297545687,-1.8432919922898647,-1.9243500611320428,4.155158985342669,0.5301608226079798,1.3454897164232162,-0.35265406777663355,1.0,0.4811282510381048,0.48286115557658954,0.33405762755394536,-0.6112678352070404,0.4159052612154384,-0.12461038587946063,0.6616998557243219
4.1000000000000005,0.26791093203738114,-0.058762145839510366,0.32099980601763056,-0.0017033474018474477,0.015944769928941047,0.2311437846995756,-0.020845995687080024,-0.05242244152041933,0.9984073021395308,-1.8418451833458078,-1.9254533807008367,4.154918833529649,0.5298365034168566,1.3457530913103672,-0.3526872394002996,1.0,0.4814520951986673,0.4832097924835417,0.3340084807092843,-0.611282893987652,0.4158819513155239,-0.12460828400235442,0.661700991117636
4.2,0.28873077901244637,-0.1388522348987913,0.37649187261761496,-0.0031097946246008883,0.02085503984893361,0.2328278876753923,-0.020960491132052745,-0.052733053978618334,0.9983886378443082,-1.8403301843636328,-1.9265242954257935,4.154725551605225,0.5295315524691716,1.3459807031231819,-0.35272401212332893,1.0,0.4819531181441366,0.48369329949620743,0.33389881741282634,-0.6113082737386553,0.4158830786806174,-0.12460791777189696,0.661676904655398
4.3,0.19679725107415139,0.34344711511147286,0.42254952833632825,0.007746991683935084,0.0202315843349968,0.22892710354418988,-0.02090453660258658,-0.052579072565991675,0.9983979342971738,-1.8389436090247049,-1.9277515532460148,4.154472610227509,0.5291519891150066,1.3461899717440198,-0.3527242046773506,1.0,0.4821700578551976,0.48390665137677213,0.33390328943403175,-0.611286542903318,0.41587862353164934,-0.12461557364500599,0.6616983389429485
4.4,0.0585581766282022,0.23146119074116636,0.377625519062184,0.001666180705760494,0.0265341895880933,0.22751222451149314,-0.020781500846243296,-0.05232047207081704,0.9984140431780673,-1.8375534585321676,-1.9287624807379928,4.15421190200753,0.5287801462360839,1.346415423736046,-0.3527820494416547,1.0,0.48250639523607297,0.48427782904679395,0.33381404393333625,-0.6113143215133525,0.415881868898348,-0.12460904570270445,0.6616718651743838
4.5,0.08280415972187427,-0.05589169431653332,0.1978944281309019,-0.0018043406390578338,0.024021181326873406,0.23114952551863877,-0.0206443217729405,-0.05203981382694916,0.9984315883822562,-1.8359872780314979,-1.9297467047612908,4.154042720794678,0.5284299384508777,1.3466202921663097,-0.3527502735042607,1.0,0.48302038307955275,0.4847837777626328,0.3337398855998635,-0.611312796524774,0.4158913279667864,-0.12459943639647585,0.6616691382985639
4.6000000000000005,0.15382750761591102,-0.3147434718639667,0.3820760703281879,-0.005505101661911578,0.02441333138244003,0.22941027867093083,-0.02083679001229832,-0.05245400054055733,0.9984058187402448,-1.8346235767170775,-1.930765547962243,4.153793106440663,0.5280238825031738,1.3468801876267198,-0.3528425912330468,1.0,0.48321564619486457,0.4850207119434716,0.3337846913672115,-0.6112881311849327,0.4158592702987481,-0.12458236883863982,0.6617152872297709
4.7,-0.06791841270005318,0.02995946525060427,0.3458190656668923,-0.0035337417961602093,0.026850630497729882,0.22427989886983615,-0.02100207509041818,-0.05282831925617103,0.9983827309225941,-1.833243002697965,-1.931943111117457,4.153574466705322,0.5276882533100673,1.3470854759216309,-0.35281005640149793,1.0,0.4836864573484892,0.48546863453627037,0.33375994660749014,-0.6112639297432452,0.4158695686468031,-0.12460059926042383,0.6617277391286466
4.800000000000001,-0.1078391147822642,0.18409249031289704,0.3720660067822201,0.0014795642031281654,0.030680576587050406,0.22779910068785109,-0.02093271024093047,-0.05274811646749025,0.9983884288299003,-1.8317575647030577,-1.9332844123444148,4.153384651985033,0.5273200469422744,1.34730244163658,-0.35282504752051935,1.0,0.48389141380218537,0.48570771075350866,0.33366842176214273,-0.6113053303389383,0.4158798702736706,-0.12458050962778149,0.661686801456126
4.9,0.21918249617706886,-0.22430161258799766,0.34123753293594467,-0.006146246193473388,0.02158230288648421,0.22897865235032785,-0.020930420022615588,-0.05276561527855672,0.9983875531012455,-1.83019025833697,-1.9341721922267965,4.153131008148193,0.5269717122918881,1.347517490386963,-0.3528591211805008,1.0,0.48424127943664036,0.4860695242238847,0.3334774132311728,-0.6113794166835524,0.4159053918283304,-0.12460473480363252,0.6615977433216642
5.0,0.020329223345262215,-0.1285367011917938,0.4092926297771204,0.0059517955604112376,0.020635590725306217,0.2242321862365977,-0.021075287438336577,-0.053085766015767824,0.9983673166812485,-1.8289388130451072,-1.935143610040182,4.152926165482094,0.5266556229417009,1.3477326754865975,-0.3528701579381059,1.0,0.48475265928996014,0.48660005487678476,0.3335643190646477,-0.6112877195417137,0.415866124695605,-0.12458558224777498,0.6617107547593086
5.1000000000000005,0.39061371180356136,-0.07086243326391847,0.29420006211892047,-0.004319948587657756,0.017477737009858368,0.22974705952320681,-0.02154303686436148,-0.054095989903269456,0.9983031453919708,-1.8275775080863104,-1.936146634156877,4.152699877496329,0.5262871619657314,1.3479715189688388,-0.3528950054043509,1.0,0.4849396260756372,0.48674616938750465,0.3335115262019552,-0.6113043755307783,0.41587723048299724,-0.12460831686282037,0.6616841066485823
5.2,0.26468512760087964,-0.049293233193986874,0.4704123971993609,-0.0023458724594502094,0.020253996739453384,0.22659583995883004,-0.021559496605386117,-0.05416090724379661,0.9982994311567782,-1.825932502746582,-1.9372596511534732,4.152461591316653,0.5259278314328677,1.3482273185243396,-0.35294239677106093,1.0,0.4853686364644582,0.48718598665432755,0.33344187801492653,-0.6113052161148229,0.4158829581427388,-0.12459388723521601,0.661682447357396
5.300000000000001,0.17161119086687687,-0.15521877728858938,0.3438625271078718,0.0020078951146952906,0.021058410665642287,0.23066682789342113,-0.021630645868553556,-0.0543627313626655,0.9982867419178709,-1.8243797842461802,-1.9385378064758254,4.1522088050842285,0.5255653101154785,1.348431890790966,-0.35294399060825143,1.0,0.4855609021227005,0.48741085148146845,0.3334795633519004,-0.6112863980639764,0.4158495773282689,-0.12460161489536269,0.6617193560289271
5.4,0.07045562266979574,-0.12191974711142557,0.3970527692193132,-0.005789024659869139,0.02196930159688338,0.232646684017681,-0.02203964858743162,-0.05529011493540542,0.998227056633954,-1.823156381536826,-1.939604462421823,4.152002680447978,0.5252047149652728,1.3486696352197858,-0.35298843883602116,1.0,0.485986724024713,0.4878407439991416,0.3334076520012808,-0.611281261152784,0.4158620912984034,-0.12459392820827367,0.6617176843926811
5.5,-0.037415315460782014,0.35213896954614576,0.2314680279927945,-0.003239251862438307,0.031388555667813164,0.22419424900194884,-0.022042866905273118,-0.05525198941901357,0.998229096566103,-1.8218186474136306,-1.940534987791446,4.151740475323387,0.5248128540619138,1.3489317533169303,-0.35299698383842043,1.0,0.486527975206272,0.48836152222515866,0.3331900463787284,-0.6113777241244724,0.4158944223159895,-0.12461401116259714,0.6616044559650408
5.6000000000000005,0.12964218512043507,-0.14732954971161422,0.24166049199379128,-0.0030285151569761437,0.024642547271889415,0.2356362848975903,-0.02177830445221128,-0.05465307816086561,0.9982676633722,-1.8201256423872292,-1.941448431129927,4.151503959580421,0.5244448141623151,1.3491911174436417,-0.35302478471864873,1.0,0.48670092825654343,0.48849724669227185,0.333169582467849,-0.6113641121143275,0.415910922966999,-0.12461326032617948,0.6616068031136612
5.7,0.18551548167968424,-0.47255639726246146,0.2409039583984911,-0.0077024932152831805,0.022757483407772314,0.229078469388436,-0.021533592770954322,-0.05411283841188512,0.9983026048760882,-1.8186182605891452,-1.9426124943869854,4.151274986653495,0.5240291120667204,1.3494223614218528,-0.35307294527162725,1.0,0.4870195694177741,0.4888369494178666,0.33332596038864853,-0.6112700961605504,0.41586386988570206,-0.12458130165936959,0.6617292577334151
5.800000000000001,0.05933943841953544,-0.22908438822103577,0.24795036216503785,-0.008446264719760593,0.024153146384990172,0.2288816025480775,-0.021615894107646656,-0.05431012025654911,0.9982901125888664,-1.8173964512183927,-1.9438091973734353,4.151066969649527,0.5236971026556103,1.3496361854890708,-0.3530719096463272,1.0,0.48742106857855483,0.48923214146016064,0.333294522057276,-0.6112566742676939,0.41586361156883755,-0.12457725160999385,0.6617425807044776
5.9,0.17649221637964618,-0.09568408386995028,0.18837508222392663,-0.006474883916254843,0.023307298592746765,0.23337153658055243,-0.02176177105310744,-0.054613187315468034,0.9982703754400939,-1.8160028457641602,-1.9448583375434683,4.150808022767738,0.5233160469909109,1.3498346073929823,-0.35311082211349454,1.0,0.4879222517786377,0.48969444810816165,0.3330632472100121,-0.6113380673089218,0.41589913309305304,-0.12460260564494624,0.6616402868764334
6.0,-0.11841554925357711,-0.1065567008363094,0.28995191227251293,-0.0024836444697998307,0.027974780591909953,0.22379170580087698,-0.021823453453626126,-0.05474660602771882,0.9982617246828063,-1.8143897554203572,-1.945939831315965,4.1505942735205865,0.5229538241769062,1.3500957996086211,-0.3531125618097922,1.0,0.4882629152602371,0.4900712808493316,0.333001808520315,-0.6113556195971668,0.4158936447805931,-0.12460921563427474,0.6616262736599032
6.1000000000000005,0.13189344998734154,-0.09974663377067404,0.3180060547275669,-0.004005876968195486,0.01814557404582498,0.22266054700620333,-0.021563108116224135,-0.05423956618610832,0.9982950859744707,-1.8128876746355194,-1.9468931115814425,4.1503638308930615,0.5225682973500925,1.350267124804208,-0.353156868611471,1.0,0.4884661552167396,0.49032344670269806,0.3330400163869603,-0.611309962845558,0.4158655479013678,-0.12458235742171281,0.6616911754086692
6.2,0.01126684013617954,-0.25187054091364836,0.22390674713930886,-0.011339804343480501,0.024843808385544355,0.22997723654273497,-0.02145577983278635,-0.05397214522430349,0.9983118888472655,-1.8115243911743164,-1.9479191328951373,4.150122165679932,0.5221750996330315,1.3504891517958661,-0.35318118730653936,1.0,0.488824957301485,0.49066073750435535,0.3330925278546852,-0.6112599674037535,0.4158459900854428,-0.12458606263061105,0.6617489537412367
6.300000000000001,0.34711188420360534,-0.3605582028366204,0.35011924632541835,-0.011762324315694551,0.018183642613981425,0.23391250357401516,-0.021509055317303245,-0.0540228245717532,0.9983079940560056,-1.8100522543051438,-1.949106549530373,4.149912154524661,0.5218181209206572,1.3507295668874497,-0.3531385459937981,1.0,0.48930000703600063,0.49109098102016735,0.3329913544430016,-0.6112873031813872,0.4158790724149001,-0.12461768804978501,0.6616969562584338
6.4,0.3158841913017858,0.043151383043599945,0.3811214382966325,0.000963281444443017,0.01843285929943509,0.23055779518317424,-0.021628826637110084,-0.054205209084276236,0.9982955296746457,-1.8086308925004204,-1.9502604748116166,4.149670334956994,0.5214351321552027,1.350941949353098,-0.35317765086539316,1.0,0.4895365095958284,0.49131208920093594,0.3329147218891132,-0.6112987679588038,0.41588855682972103,-0.12462725185034605,0.6616786022582045
6.5,0.18001933435102033,-0.012097562935132769,0.3965028091852293,0.0016887936806466216,0.02092943619358589,0.22917413757164123,-0.021687162859813192,-0.054330492429759285,0.9982874627329473,-1.807191478285633,-1.9512743268823483,4.149461953598507,0.5210402264989097,1.351142788006904,-0.3532122827366015,1.0,0.49002142759091244,0.49183000983366965,0.3328073784884282,-0.6113150514667884,0.41590279728210905,-0.12461147060280192,0.6616575794603141
6.6000000000000005,0.33087922123456004,-0.30607182306562897,0.41210732406575373,-0.006106946392877911,0.020201905923812033,0.228322828978234,-0.02168489173527322,-0.054343303698619325,0.9982867845742884,-1.8056693498398915,-1.9522793969621033,4.14921236038208,0.520627905666515,1.351332187652588,-0.353232662142582,1.0,0.4901933352555671,0.4919972986035387,0.33276809817485853,-0.6113378593027967,0.4159064455834005,-0.1246106230100357,0.6616343725489983
6.7,0.008800917697050905,-0.29087222667411256,0.20522031896282708,-0.006875039169351755,0.02630144196669149,0.22421532266452998,-0.02153864526431061,-0.05398505488701148,0.9983093033796974,-1.8041648205675493,-1.9534027332893538,4.149014883891524,0.5202398127718815,1.3515721325945875,-0.3532505385996268,1.0,0.49070539884425196,0.49252513738294096,0.33278707625386356,-0.6113012666550965,0.41588734905829106,-0.12462043384540425,0.6616783370697011
6.800000000000001,0.2033490502338086,-0.14845828852022613,0.12644257527972377,-0.006107976506187542,0.021897395713840948,0.22834146816950276,-0.021392398793348002,-0.053626806075403634,0.9983318221851064,-1.8027915861223127,-1.954486377210178,4.148820507013056,0.5198898968201974,1.3517913471217713,-0.35328470502070736,1.0,0.49093708070821096,0.4927502692928896,0.33280045089332283,-0.6112731498551714,0.41588143626971363,-0.12462200885322199,0.6617077316623744
6.9,0.24588902229102974,-0.08150891549458308,0.27350046733506095,-0.003455158290603833,0.025014666126316053,0.22714330945928943,-0.021572520256554616,-0.05403480332868148,0.9983058018805002,-1.8013686473953285,-1.9554820897035632,4.148613508556833,0.5195485568587456,1.3519901504599863,-0.3532923964862535,1.0,0.4912535030768513,0.4930513979157323,0.33271984084269385,-0.6112945406311104,0.41589667944865966,-0.12462858155122084,0.6616771518487766
7.0,-0.07028696708012405,-0.3649648122829197,0.12697535805030186,0.0076585794212721235,0.030388497208155757,0.23174302563871413,-0.021802984371822674,-0.054565523634577076,0.998272076126331,-1.800203214289325,-1.956280370751852,4.14845429837547,0.5193052716485193,1.352152358743833,-0.35331197771065936,1.0,0.49173779666173006,0.49357069092499994,0.33265331726162983,-0.6112756975750375,0.4158909428594204,-0.12461261952292273,0.6617011714190091
7.1000000000000005,0.056373403286731794,-0.21364040301614132,0.2057951296926021,0.0033354592868064716,0.020779155126568506,0.22382082374716794,-0.02154497626404612,-0.05397156483310482,0.9983099308241892,-1.800202828568348,-1.9562960382069527,4.148455867209966,0.5192977625080566,1.3521580696105957,-0.3532852309039915,1.0,0.49194604363968064,0.4937979334445086,0.33264509979388035,-0.611259067459127,0.41588049570822616,-0.1246216910941429,0.6617213914082836
7.2,0.19408945200797162,-0.16700084371834337,0.2679301908119548,0.0005273174750492448,0.017519676971725066,0.22434478922778994,-0.021550972689274864,-0.054027404069215426,0.9983067882059933,-1.8002233505249023,-1.95631548112141,4.148447777874892,0.5192998472855308,1.3521899659482146,-0.3533344645769113,1.0,0.49198275411011877,0.4938341401107059,0.33264936177421184,-0.611254036599625,0.41588221520418195,-0.12460243536372433,0.6617285840274361
7.300000000000001,0.11806431188356384,0.10812084157825733,0.2855367068816628,0.0007079071340414817,0.025484455198943323,0.2224419100226163,-0.021691567911967077,-0.05441453320196964,0.9982827437139649,-1.8002623871022512,-1.9563702065039552,4.148454975010253,0.5192686434065943,1.3521841597245086,-0.35331486967543657,1.0,0.4919793031839344,0.4938375745985596,0.3326192620707533,-0.6112819857500914,0.41587212571125537,-0.12459937298181938,0.661709683476345
7.4,0.2693209340105978,-0.012761294292195025,0.2520509108442383,-0.0006428348966193209,0.02075189327994008,0.22389527000989998,-0.021614679905127773,-0.05424484512114206,0.9982935828799429,-1.8002583839445245,-1.9563868794866879,4.148457050323486,0.5192742736972646,1.3521716735811102,-0.3533127943622034,1.0,0.4919835023912595,0.4938409362978434,0.3326041216657882,-0.6112933248428392,0.41587245475002876,-0.1246093567978036,0.6616971214847546
7.5,0.022816669199650932,-0.14062206339946318,0.27832521794882653,-0.004227315228891363,0.028746618536909546,0.22475273324516987,-0.021422444543453423,-0.05377983591209859,0.9983229234158272,-1.8002259205678572,-1.9563642940916957,4.1484792758127575,0.5192639940791821,1.3521667111600826,-0.35330538841029113,1.0,0.49199880885263164,0.4938304881486986,0.3325636164966681,-0.6113129471204324,0.4158815355020803,-0.12461805420651238,0.6616716479320737
7.6000000000000005,0.13731539197953996,-0.23863117008219972,0.24688310654471474,-0.004436792778873363,0.02663161465591937,0.22266153122271234,-0.021571610140128185,-0.054135582196850246,0.9983003419966041,-1.8002573943217137,-1.9563982006493064,4.148458239729893,0.51927296697583,1.3521931198282127,-0.3533535703715857,1.0,0.49199018921872834,0.49384515686614444,0.3325813301542278,-0.6113123380658981,0.41588823326423147,-0.12461235690833958,0.6616690738326146
7.7,0.1476369873425149,0.03391375806610118,0.1022446570790478,0.002717780540257757,0.02386562508526012,0.22793419926275044,-0.02188075718673756,-0.05487140974653136,0.9982536486417528,-1.8002016680502708,-1.9563645955189362,4.148433208465576,0.5192850512576132,1.3521710702311902,-0.35330071008042035,1.0,0.4919849001049328,0.49384578547979274,0.3325749440104668,-0.6113047286533786,0.4158837898727677,-0.12459926209147089,0.661681362842678
7.800000000000001,0.035581557953323684,-0.22139748763761147,0.232143999532934,-0.002270301419026383,0.026683925631437948,0.22672476111993214,-0.022002259259833738,-0.055124785741299684,0.9982370081411404,-1.8002582294250202,-1.9563723806872755,4.148474909913874,0.5192923006837821,1.3521609044520655,-0.3533328018867383,1.0,0.49198610903197676,0.4938441454590719,0.33255826982891923,-0.6113106788779334,0.415891839037837,-0.12460134514764755,0.6616704141027641
7.9,0.042866496490333326,-0.15433448470625544,0.18131835054744233,-0.004364063688799815,0.028214471473344004,0.22799644798707658,-0.021921900461759406,-0.0549121503129824,0.9982504767796817,-1.8002172952207458,-1.9563837008362819,4.148468567556786,0.5192809296286193,1.3521687740443742,-0.353330877603464,1.225142173882153,0.4919890323981209,0.49384487432017515,0.33255093654492557,-0.611318547306187,0.41588647207413915,-0.12461591977103684,0.6616637730787427
8.0,0.2072406009083825,0.0354437953392087,0.15310646200923228,-0.0005555798042645476,0.021263981348187758,0.22337172369727196,-0.02183567724747004,-0.05471021375053771,0.9982634900652946,-1.8002119064331055,-1.9564022101496479,4.148424297682035,0.5192836212506573,1.3521720767532808,-0.3533366362201136,2.0,0.4919987236981937,0.49384832528942596,0.3325478603578867,-0.6113132955846424,0.41590000331553256,-0.12460817612936917,0.6616615783958563
8.1,0.10036147998685362,-0.02624576216742415,0.14208556526505828,-0.001382532655565771,0.027147268795401046,0.22756578561431134,-0.02182688182953026,-0.05470275092675877,0.9982640914032729,-1.8002394778927115,-1.9563762150206507,4.148446994195379,0.5192685717574791,1.352170467376709,-0.35332285049031054,2.0,0.4919903949718797,0.4938493904670019,0.33256270587911485,-0.6113176944946142,0.41588823297223987,-0.12460774761054409,0.6616649932620322
8.200000000000001,0.17613383723024967,-0.42401191291476537,0.1961320483115065,-0.0039306185497147254,0.023776804686881238,0.22773342421121692,-0.021719310065479377,-0.054477312576172,0.9982787191878152,-1.8002352327224729,-1.9563855123016431,4.148455790972465,0.5193016455070413,1.352162057555499,-0.3533114300652629,2.0,0.4919982433437276,0.49384662304755544,0.3325525694663744,-0.6113187357847376,0.41589628259655537,-0.1246171706192166,0.6616571968835353
8.3,0.28880513764360694,-0.2607839577137767,0.1949854997845928,-0.010544763408269599,0.022795495712925325,0.22640348411047756,-0.02157603260479556,-0.054169610357908154,0.9982986040037253,-1.800237299741613,-1.9563661870499185,4.148422703657686,0.5192971149170856,1.352145977927828,-0.35330291223793886,2.0,0.49198145520231956,0.4938405435004381,0.3325860979659372,-0.6113004534522514,0.4158717182935795,-0.12460676467518322,0.6616914868198026
8.4,0.16847771647300325,0.09959989601232166,0.18878670630570488,-0.004953966653331423,0.026412989462076,0.22359971060595607,-0.021784758789057317,-0.05459767444247461,0.9982707112029616,-1.8002394378280437,-1.9563881359496058,4.148484581718424,0.5192788946783718,1.3521618038114556,-0.353318494076186,2.0,0.4919953529043132,0.4938364114688663,0.3325880342787732,-0.6112820645076542,0.41589807327867256,-0.12460757649442426,0.6616917576443992
8.5,0.2315141647643166,-0.5082466412065045,0.038550375128618655,-0.014216561027691439,0.02417843716274198,0.23000458604548213,-0.021763759249207707,-0.05454364896432131,0.99827408804015,-1.8002385456789614,-1.9563842948795447,4.148443608875257,0.5193073628862241,1.3521335068395581,-0.3533307977936206,2.0,0.4919878360655258,0.4938359107608183,0.3325638460750892,-0.611307100980884,0.41588458724235833,-0.12461115110168605,0.6616764310489783
8.6,-0.0266769257545999,-0.26037595351897586,0.03930162927647117,-0.010558959197156142,0.029933004392631815,0.2306963928280575,-0.02156977228907412,-0.05412660175613183,0.9983010114523834,-1.8002306977090514,-1.956383420912797,4.1484489972397585,0.5193045445241943,1.352154678602527,-0.35331985896234686,2.0,0.49198431256545805,0.49384175543684394,0.3325345787535857,-0.6113292953862377,0.41588614183334055,-0.12461212184279837,0.6616547655109727
8.700000000000001,0.3702640383009236,-0.3351438941466686,-0.05524473485502654,-0.01435688325720787,0.021732001525410424,0.2293649083585324,-0.021648620066120384,-0.05428704908030098,0.9982906068895129,-1.8002448584941306,-1.9563677186364856,4.148424372226044,0.5192800900289931,1.3521534746083788,-0.3533432183722824,2.0,0.49198772033264304,0.49384714371762173,0.33253730483689853,-0.6113357031238729,0.41588868466421164,-0.12461237501556344,0.6616471990776448
8.8,-0.3931277788089847,-0.8826692083072638,0.26252779733731124,0.03236898065680345,-0.028720976534113825,0.2163251677041246,-0.021783155587985274,-0.054548481850474416,0.9982734879540609,-1.800234474076165,-1.9563881359496058,4.148440526591407,0.5192675667950135,1.3521653877364266,-0.3533242384540003,2.0,0.49200020586655085,0.49381925196300525,0.33257232640219486,-0.6113038048558534,0.41589026118885575,-0.12463143185059189,0.6616720902470447
8.9,-1.4616103101119835,-1.4638539397459098,0.08760790169494859,0.1105179003369566,-0.10343604520810507,0.21035711369759405,-0.02179834628931838,-0.054547991079528055,0.9982731289490433,-1.8002338464977672,-1.9563830898088055,4.148471349882848,0.5193192988814543,1.3521871594549384,-0.3533157368641234,2.0,0.4919925579512757,0.4938264209029631,0.33259125466183626,-0.6112897798718518,0.4158875340713382,-0.12462805066495378,0.6616873982597358
9.0,-2.156934106549299,-2.450916555634021,0.3633213758184082,0.17215118834648382,-0.17064981546454136,0.20387331209374723,-0.022647521613205133,-0.05664172283303609,0.9981363613426771,-1.8002400895250847,-1.9563832607936456,4.1484604267058085,0.5192802945797447,1.3521721611565853,-0.35333418377215925,2.0,0.49197189005292513,0.49385565671845677,0.33260797602662673,-0.611292045977221,0.4158526810962974,-0.12460609706693396,0.6617113439587916
9.1,-2.147540255977547,-2.677467468184927,0.443343732105183,0.16611738041447097,-0.21052097936498243,0.2029672278801591,-0.024896200295883193,-0.06186993753719096,0.9977524039336353,-1.8002475008982335,-1.956387515604514,4.148492669602418,0.5192961884886483,1.352193522224915,-0.3533251813785399,2.0,0.49196578694135557,0.49385232665222595,0.332624619768088,-0.6112888242800283,0.41585178552721846,-0.12459395004733269,0.6617171702440308
9.200000000000001,-2.5868367095731704,-2.8531538071022076,0.479955048955985,0.20287678179573543,-0.22493594531015537,0.19914866772776454,-0.028556497299808477,-0.0702597692056606,0.9971191168948426,-1.800217784508436,-1.9563581710965599,4.1484694480896,0.519275981901416,1.3521610845361818,-0.3533127943622034,2.0,0.4919729129246253,0.4938597405237277,0.3325566330787844,-0.611329906685536,0.4158638522760581,-0.12460622981338763,0.6616693200184395
9.3,-2.720567546790489,-3.002498750414941,0.5857996712423009,0.22366707134184075,-0.23458927586078085,0.1950572495899905,-0.02855273257601306,-0.070197405653803,0.9971243903349125,-1.8002337495781415,-1.9563762150206507,4.148480369662118,0.5193206506916503,1.352177709994427,-0.3532984683622414,2.0,0.49197794783606036,0.4938437946712847,0.3325949247618337,-0.6112972331514547,0.4158814631058039,-0.12460277262598045,0.6616890889536187
9.4,-2.7938560413070364,-2.617443943327321,0.38335886703746014,0.22205245498384668,-0.24149496412375332,0.19481778991273457,-0.02858656490053964,-0.07024545449696523,0.9971200097300144,-1.8002107249909531,-1.956386895194481,4.148472958996057,0.5192764778822874,1.352178670631776,-0.35333312531365624,2.0,0.49197217451585984,0.49383800069792894,0.33259929823935075,-0.6112964158347016,0.41587761601048856,-0.1245991386354401,0.6616929462676678
9.5,-2.169353106988313,-2.030441211731857,-0.2842900872713817,0.16718484381023535,-0.23220697040181007,0.2006923063652121,-0.02871119953123905,-0.07052874031826897,0.9970964287220834,-1.8002394132568065,-1.9563537265049167,4.148478185497044,0.5192853647419433,1.3521516979604526,-0.35332336194898245,2.0,0.49198569201071807,0.49384285192533445,0.33258136023207285,-0.6113032955636445,0.41588421030670786,-0.12460962875392771,0.6616804703725223
9.600000000000001,-1.9495279554415028,-1.777846267574919,0.040081472833089646,0.14537876957751358,-0.21715957541443343,0.19865988466244855,-0.028706819534139727,-0.07053218940082932,0.9970963190560319,-1.800236701965332,-1.9563782324920858,4.1484694480896,0.5192531600607898,1.3521819114685059,-0.35330443153896013,2.0,0.49196073131766266,0.4938520899190941,0.3325628538654781,-0.6113173559544204,0.4158875394943374,-0.1245908328138653,0.6616689271690109
9.700000000000001,-1.533529086036891,-2.3697898027806295,0.9560202556935984,0.18585857393540672,-0.1870714733279663,0.20135275494998,-0.02855642495582582,-0.07021892831716099,0.9971227734952571,-1.8002133757911147,-1.9563866053683463,4.148458642127996,0.5192945788990367,1.3521434419097789,-0.35334396540528995,2.0,0.4919742675677761,0.4938462953437389,0.33256677804915225,-0.6113220234640309,0.41587470582249114,-0.12460313215794908,0.6616703651678288
9.8,-1.5629990390189736,-2.0083158480898495,1.3095575073520753,0.17130899825530016,-0.17796551818231515,0.20034094460176904,-0.028322307489764286,-0.06957892869882219,0.9971741887124713,-1.8002146895090476,-1.9563946196793423,4.148484628931655,0.5192829194363656,1.352149408594741,-0.3533127943622034,2.0,0.49199161678139003,0.4938400716380693,0.332535696680716,-0.6113269938502041,0.4159036660364667,-0.12462358527249572,0.6616437176920286
9.9,-1.4935532979464223,-1.296857135494564,1.5054109778484612,0.14734171085656747,-0.17850327109532954,0.2091977571809148,-0.028135250067973266,-0.06912392196265514,0.9972112356407397,-1.800236701965332,-1.9563821212613624,4.148498799546906,0.5192771847659322,1.352152560011199,-0.35333262642795127,2.0,0.4919910036641716,0.4938385233290264,0.33258316994182396,-0.6112914062004691,0.41589135074428746,-0.12461678517588905,0.661685618654336
10.0,-1.9791733884765714,-1.1534964733729824,1.4951815211012818,0.13316000292035352,-0.17862183477866128,0.20221190598575028,-0.028010122772300097,-0.06891223876309936,0.9972294054542834,-1.8002149234027982,-1.956409311967911,4.148475309088045,0.5192645398537259,1.3521868972658362,-0.3533270824827531,2.0,0.49199252665923693,0.4938357949099487,0.3325857800365152,-0.611301035255446,0.4158838832129991,-0.12461947045812508,0.6616809106828098
10.100000000000001,-1.9411330043344532,-0.7492546631978281,1.7144376464644593,0.11521867009721704,-0.18651919903626343,0.20571003256399134,-0.02826810715566725,-0.06952484751168882,0.9971788434793551,-1.8002293222110923,-1.956378179391108,4.1484694480896,0.5192710811801912,1.3521779827275915,-0.3532964117237822,2.0,0.4919811014959101,0.4938561406472532,0.3325549889058776,-0.6113291816943501,0.41587508873245277,-0.12460268660050601,0.6616635947916638
10.200000000000001,-1.9890713681113525,-0.5547016477071852,1.9067208627928243,0.09166812796196026,-0.18663057368683791,0.20367208085586191,-0.029011664074477146,-0.07118220000760685,0.9970411678229085,-1.8002421859795836,-1.956420454469981,4.148467409115702,0.5192814436382951,1.3521541485069475,-0.3533366362201136,2.0,0.49198732137987344,0.4938422583700675,0.33257062551067884,-0.6113140577483765,0.41587974024079355,-0.12461983463910938,0.6616714148812731
10.3,-2.072570926653427,-0.07118144480904637,2.0425499397726967,0.0815929356026318,-0.19229447264817667,0.20179731664458933,-0.028829678922238564,-0.07078331967199249,0.997074908871156,-1.800257556621845,-1.956400533715719,4.148475718131432,0.5192615228840332,1.3521602725982667,-0.35331482788928426,2.0,0.4919890378244267,0.4938486798627075,0.3325541906255361,-0.6113127367427883,0.4158999941422838,-0.12459550650348136,0.6616644863732912
10.4,-1.942110421564219,-0.2634696387934652,1.9866971611632591,0.07091228175552278,-0.1962528727716158,0.20249310123650627,-0.02861850787467926,-0.07033384767096595,0.9971128693557462,-1.800241850551548,-1.9563973370731471,4.148490804844425,0.5192373900015115,1.3521907409669538,-0.35332133283603984,2.0,0.49198050231759227,0.49386391134539803,0.3325195387002516,-0.6113348207164413,0.4158963713390619,-0.12459660564686133,0.6616461525225386
10.5,-1.6757326286780678,0.0317628510951517,2.1002119169447906,0.07761771529491096,-0.203320762966759,0.20622242423288345,-0.028460329164139885,-0.07002154836272653,0.9971393970944398,-1.8002302595223663,-1.9564062858969387,4.148475430358068,0.5192790095149404,1.352170467376709,-0.35333065395164526,2.0,0.49197057608399786,0.49386594472778844,0.3325455914994406,-0.6113312657134555,0.4158822676668487,-0.12459227283675103,0.6616591180893954
10.600000000000001,-1.9034673368313066,-0.22659691643309207,2.156069707453678,0.07333148397550393,-0.19533793973360497,0.20345643697632032,-0.028471520064404128,-0.07003637178539422,0.9971380434097719,-1.800236701965332,-1.9563881359496058,4.148462260356426,0.5192563128510936,1.3521647699129833,-0.3533292293537196,2.0,0.49197584397010685,0.49385992613875634,0.3325499577804128,-0.6113251057312769,0.4158764580065582,-0.1246022164192872,0.6616665885791453
10.700000000000001,-2.085611194406624,-0.26033489262377807,1.852071283459303,0.0756403755775043,-0.1913863509645299,0.20208355301826236,-0.028383851297573287,-0.06979459413842863,0.9971573810833749,-1.8002368794269794,-1.9564306631875097,4.1484694480896,0.5192615228840332,1.3521493295100346,-0.3533184276772781,2.0,0.49197553517680864,0.4938570875594271,0.3325202053414732,-0.6113350094167124,0.4158884654236854,-0.12459739216355845,0.6616507994819024
10.8,-1.8133913305744165,-0.6144991940031924,1.9236009099567517,0.06796818554478788,-0.1973706144289935,0.20318205162761835,-0.02812659377197866,-0.06912837269893347,0.9972111547221696,-1.8002682855196088,-1.9563961934815153,4.148477498170371,0.51927296697583,1.3521542055718252,-0.3533086083202021,2.0,0.4919885219368723,0.4938348477232624,0.3325588726469998,-0.6113114775015862,0.4158868852040041,-0.12461726199544898,0.6616697924213383
10.9,-1.727037895953131,-0.7419851775152484,2.0529415596998555,0.06772323300328072,-0.19674724537244462,0.20488452733561546,-0.02818288544665663,-0.06929897471453336,0.9971977397831199,-1.800236701965332,-1.956392552991587,4.148460953778097,0.5192977625080566,1.3521539923410746,-0.3533041301644709,2.0,0.49198494876532445,0.4938439415686371,0.33258257195149504,-0.6113089470768684,0.4158746332525098,-0.12461855819344639,0.6616795868051604
11.0,-1.9047241603029348,-0.47498704814934145,1.9610279911074469,0.07365082411839383,-0.19351797890580386,0.19920343213557143,-0.02831295894442671,-0.0696440489595634,0.9971699815026217,-1.800263642104514,-1.9563978643331992,4.148462389088526,0.5192783057408696,1.3521767780405831,-0.35335021122217825,2.0,0.4919743983061273,0.4938577257010193,0.3325652195426534,-0.6113112676655397,0.4158833212942975,-0.1245913566217935,0.6616771047493755
11.100000000000001,-1.7957477378614055,-0.6164177973790946,1.9171120488765787,0.07298827862819883,-0.1980755563096051,0.20431131389609353,-0.02850211788368226,-0.07011092236825053,0.9971319082503007,-1.8002639376327472,-1.9564050623446998,4.148477136081573,0.519304859116032,1.3521479947847868,-0.3533141636281914,2.0,0.4919677997059039,0.4938606760379285,0.33258154716973887,-0.6113019474073854,0.415866903817528,-0.12459606220324648,0.6616951478502815
11.200000000000001,-1.8449789187545231,-0.4440575681310146,1.8889371133406276,0.0786966580805172,-0.19660791368923553,0.20243164716855153,-0.02822399140659522,-0.06943289369581265,0.997187049466608,-1.8002713944120026,-1.956408181200875,4.1484900508678075,0.5192586073840588,1.3521619204891104,-0.3533286828355515,2.0,0.4919725936236903,0.4938627954576453,0.33255660876989873,-0.6113126872283218,0.41588844369576927,-0.1245904701976425,0.6616727405371402
11.3,-2.215595283095301,-0.41376457419264157,1.8037485769967194,0.07540670576825673,-0.18371735933852668,0.20288920420720102,-0.028022641752087966,-0.06896110007262246,0.9972256927111921,-1.8002595901489258,-1.9563935455406887,4.14848933751084,0.5193027559767485,1.3521516189874907,-0.3533262331603389,2.0,0.49197679305082526,0.4938500962539197,0.3325558556649701,-0.6113125267033176,0.41588749946292886,-0.12461077969191472,0.6616696578132106
11.4,-1.9833767532300526,-0.5407756872824043,1.8183452674834812,0.07262589096128332,-0.19311800100538654,0.20487671584231507,-0.028077494365863064,-0.06914891170546039,0.9972111484203764,-1.8002595570543123,-1.9564124546446742,4.1484694480896,0.5192789092989649,1.3521466420661057,-0.35331281090951017,2.0,0.49196297721481336,0.493866755604122,0.3325595181080166,-0.6113225595278209,0.41588701468682565,-0.12457589593600467,0.6616672618310319
11.5,-1.822096992385034,-0.4350401370084749,1.9118918117666457,0.07515577999283098,-0.19865736210379045,0.20464816296532254,-0.028059907496680702,-0.06909310918173217,0.9972155122514663,-1.800263453607185,-1.9563901069143257,4.148460992252926,0.5192909744107612,1.352170467376709,-0.3533346652553938,2.0,0.4919786906826886,0.4938519572587502,0.33255682753803784,-0.6113095788956501,0.41589921075347397,-0.12460065709780542,0.6616669264031987
11.600000000000001,-1.8574187478806188,-0.6068935188356868,2.0038361168467036,0.07531895161817623,-0.196611579089238,0.21487569276526033,-0.02800965987935951,-0.06894237080719333,0.9972273460908319,-1.8002442508127647,-1.9563800208571802,4.148469385263973,0.51927296697583,1.352169901131716,-0.35332090945462896,2.0,0.4919746981510128,0.49384890567614353,0.3325641901718478,-0.6113116928592194,0.41587999603380554,-0.12460062426310778,0.661677056807746
11.700000000000001,-1.7797391916858198,-0.5571021447863881,1.9279283076394285,0.07479252640270337,-0.19755565279661022,0.21076566437402797,-0.02792041845651849,-0.06868950610019596,0.9972473041706573,-1.800251765931086,-1.956400533715719,4.148465526559479,0.51927296697583,1.3521586878546352,-0.35332094458911995,2.0,0.49198982892950305,0.4938452280343415,0.33258103410201134,-0.6112980271568362,0.41587820986534424,-0.1246143066960305,0.6616882280349441
11.8,-1.7096637654644173,-0.5691150169383665,1.882419496573212,0.07322881826461039,-0.197220713631959,0.20874303335427616,-0.028021203421510384,-0.06892138984503171,0.997228422857818,-1.8002459421738617,-1.9563978243145022,4.1484768407427595,0.5192927573951029,1.3521580696105957,-0.3533100218133086,2.0,0.4919921845607728,0.4938440332002092,0.3325701358994805,-0.611309998514348,0.4158836714353383,-0.1246074103270158,0.6616750341681681
11.9,-1.902760834926921,-0.3605683124051937,1.8670420999889668,0.08111815175749625,-0.1929511801305022,0.204439230812238,-0.028160472968408116,-0.06925144596324703,0.997201675701686,-1.8002631908820164,-1.9564048030868568,4.148457050323486,0.5192863601866031,1.3521783107354153,-0.35329972795804304,2.2480162986746564,0.4919744285009151,0.4938460111150747,0.332584356008463,-0.6112995222394528,0.41588237507407166,-0.12460385654685435,0.6616861968835506
12.0,-2.011956425819049,-0.441056313803441,1.8612472191013254,0.07996769235312808,-0.19114649544957263,0.20675089635633045,-0.028227399550335326,-0.069358036116837,0.997192392991796,-1.8002461244308319,-1.9564026395764451,4.1484694480896,0.5192679247006402,1.3521819114685059,-0.3532969833444682,3.0,0.4919774917618443,0.49384374560300087,0.33259847293693356,-0.6113023006917881,0.4158708266419999,-0.12461484436660195,0.6616888190686873
12.100000000000001,-2.1064807251470175,-0.46452071858354754,2.6497974937655777,0.09418609815183332,-0.19866775108000112,0.21199100496246456,-0.02827825137940089,-0.06941497168195654,0.997186990917118,-1.8009826459696712,-1.9560151379801702,4.14849328994751,0.5193871852703573,1.3520498637560945,-0.3533242384540003,3.0,0.4919764231168437,0.49385065708051784,0.3325772834073272,-0.6113091951833584,0.41587639289908734,-0.12461232512216333,0.6616794255084307
12.200000000000001,-2.0141204503492918,-0.48334529926438,3.4235359789370543,0.07469605625336023,-0.20361408500846268,0.21212476123863988,-0.028185026702800705,-0.06916015206304282,0.9972070541492883,-1.8024046237041622,-1.954961957983679,4.148674488067627,0.5196881717870494,1.3519239005916592,-0.3533176886565618,3.0,0.49182762695884324,0.493602094285902,0.3324274514159094,-0.611403009577979,0.4159469187940539,-0.12464065440790592,0.6615430657889867
12.3,-2.0198770534255868,0.11050828043874834,4.2893668525426385,0.051521689815968295,-0.19175606577878035,0.20632550482454465,-0.027770641067765764,-0.06821039892087025,0.9972838821004286,-1.8037256784577667,-1.9538547995205893,4.148951053619385,0.5201519356492942,1.3517118528875052,-0.35331994518734106,3.0,0.4916662939985671,0.4934010649450926,0.3324567923924021,-0.6114044016140116,0.4159591940296092,-0.12465098460008103,0.6615321145851355
12.4,-1.9748965542877195,-0.04958176105792763,4.708562297457795,0.03755393156553456,-0.21676176969686514,0.18610164623020115,-0.0275736092090177,-0.06778693054551506,0.9973185816846899,-1.8051326817743085,-1.952744205053278,4.149230413395959,0.5205515590323009,1.3514680119406683,-0.3532641569720667,3.0,0.4912890163600015,0.4930735605608596,0.3326047389777724,-0.6113581682679656,0.41590982431113777,-0.12462800782644032,0.6616102083543823
12.5,-2.140815884965652,0.12945373056004691,4.841410801966836,0.0482409912722843,-0.2263542267903846,0.17834306867102345,-0.02788661220805042,-0.06859842381095328,0.9972544242995588,-1.8066973240012525,-1.9516642956398607,4.149463257767905,0.5209621443987467,1.3511824493282782,-0.35318071046938115,3.0,0.49075159772630617,0.4925881857372694,0.3327813683477797,-0.6112908589034276,0.41587929206178287,-0.12461045139213611,0.6616948962015257
12.600000000000001,-2.1075202001369675,-0.133901794467547,5.063649855554751,0.041776979481731716,-0.2333253118794043,0.18038116440922206,-0.02782919307602934,-0.06851613085087545,0.9972617530084823,-1.8081428019763026,-1.9506428160555762,4.149673076102064,0.521315630035478,1.3509531639253307,-0.3531856945032523,3.0,0.490545269762618,0.49241912733943055,0.3327575713047824,-0.6113230535660354,0.41588016722734483,-0.12459725554463685,0.6616670874362713
12.700000000000001,-2.1460013447157915,0.04106517686189676,4.804343348157626,0.02779176478777296,-0.2313499189881868,0.1794994312230771,-0.027658208870035728,-0.0681706297777049,0.9972901852119556,-1.8096005789790186,-1.949488523164968,4.149933338165283,0.5216891866265901,1.3507499152846598,-0.35320233968179,3.0,0.49006232956440343,0.4919382430058891,0.33276557401600193,-0.6113598824231383,0.41589376375624315,-0.12460070804971446,0.6616238621647063
12.8,-1.890646257850782,0.2008281394997737,5.008537444402144,0.01913459420248002,-0.23515651913123445,0.18562037461256617,-0.027446637498999248,-0.06775500905374676,0.9973243589101511,-1.811009774273963,-1.9483875023444874,4.1501332695755435,0.5220496324404614,1.3505047008031483,-0.35317443115492625,3.0,0.48986657562448843,0.4917684809801351,0.3328337124194557,-0.6113378777869284,0.41586780056439404,-0.12459163606849963,0.6616622218764512
12.9,-2.215846515839422,-0.09218094112917688,4.911887080457475,0.0030030412916369734,-0.2300708012746352,0.1804420739413614,-0.02725906784550264,-0.06726983099492025,0.9973623516205906,-1.8124774125145462,-1.9473132371695625,4.15038028493159,0.5223878527145029,1.3502741916041543,-0.3531498567319373,3.0,0.48935274779379107,0.4912207106680602,0.33293981369528935,-0.6113228545214376,0.41587557943681996,-0.12460559413970981,0.6616685846229517
13.0,-2.1993840077425224,0.005526768387370054,5.153210355843498,0.010181279919963076,-0.23979487908789934,0.16974951009224276,-0.0275972239712971,-0.06798917045433843,0.9973038849694278,-1.813892903006994,-1.946328636839439,4.150579929351807,0.522795455450676,1.3500658005475998,-0.3531147645208354,3.0,0.48911417956679965,0.4910012930649714,0.33297142512454575,-0.611324133561246,0.4158764706825541,-0.12459564262201624,0.6616687167290147
13.100000000000001,-2.214049052832056,0.41087067404804006,4.968111172177954,0.02488756830387969,-0.24210924841954398,0.14145764548916773,-0.028018196549525597,-0.06890747143613976,0.997229499036432,-1.815405636541127,-1.945318567242887,4.150752361672285,0.5231490848694674,1.3498085133813333,-0.3530433195525899,3.0,0.48878021947917505,0.49064989358313293,0.3330176766532852,-0.6113121595390396,0.41588480736599437,-0.1246173978651898,0.6616704427063178
13.200000000000001,-2.3381093512732174,0.11524966913947732,4.994432461558871,-0.0015044919865307253,-0.2343609065345911,0.13587018136983733,-0.02821842641986268,-0.06931387296056137,0.9971956874114907,-1.8169226744849203,-1.9440975733949766,4.150985167200294,0.5235342271614054,1.3495903015136719,-0.3530425124954458,3.0,0.48830506545454744,0.4901406297361738,0.33298176915251976,-0.6113568651154039,0.4159227893489259,-0.12461472016939823,0.6616057650093277
13.3,-1.9177403002103814,0.3069040741233958,5.308411974919679,-0.024507988060382017,-0.24240004990599587,0.14116674094590342,-0.02818819043440321,-0.06923206559700427,0.9972022226621584,-1.818227842937402,-1.943009626275339,4.1512251275233885,0.523902102107666,1.3493917892858882,-0.35306407083212554,3.0,0.48808386748303706,0.4899213609568006,0.3330637341525999,-0.6113329986948951,0.415908424039299,-0.1246115645052645,0.6616374426462008
13.4,-2.0562401832586317,0.49153198221886296,5.11006049759812,-0.017664383454971917,-0.25045949908737186,0.14522629276096238,-0.02807547633657622,-0.06897554017214323,0.9972231970761838,-1.8195409774780273,-1.9418763162897603,4.151456763966637,0.5242740350910644,1.3491773544416235,-0.35303528732221845,3.0,0.4877363866129154,0.4895557043787613,0.3331546493175425,-0.6113086774775056,0.4158909784645941,-0.1246244521525592,0.6616684523219616
13.5,-2.150558425098312,-0.35030369878901546,4.9640613261255435,0.0018242179212161098,-0.2661039618190584,0.1389388176385105,-0.028066544662900563,-0.06900514704100379,0.9972214170480559,-1.821161938261894,-1.9409583947281126,4.151663656715498,0.5246298233973137,1.34895056271749,-0.35302478471864873,3.0,0.48723476647668595,0.48906694564117903,0.33333448167005314,-0.6112562879360526,0.4158546566324833,-0.12461966859220734,0.6617405784865285
13.600000000000001,-2.3574876564078378,-0.284282458670929,4.968224594275712,0.026132975993690324,-0.2686728611613729,0.12370938322741291,-0.028089705447418307,-0.06908753176497931,0.9972150601400115,-1.8227262496948242,-1.9399787388243617,4.151914969901868,0.5249900387285635,1.3487551027349294,-0.35298064463705775,3.0,0.48703498092646236,0.48886317650988015,0.33326214844020835,-0.6113077732509622,0.41587555956490696,-0.12460932558154973,0.6616818278429876
13.700000000000001,-2.4933372537250587,0.17681495286250704,5.114534198686675,-0.004872744260270824,-0.2566550850508033,0.1174705167381502,-0.028109990219550487,-0.06914786795750022,0.9972103064383883,-1.8239676532899614,-1.938826882921194,4.152139186859131,0.5253580184025943,1.3485272730962083,-0.35296931155479644,3.0,0.48657101753599497,0.48839814667943926,0.33317227085144424,-0.6113765957591809,0.41590855287711986,-0.12462550979206805,0.6615944498789592
13.8,-2.585695415671598,0.5519775400663871,5.191855457858504,-0.021140989003965206,-0.25542882885313456,0.10634058408716869,-0.0281059619786681,-0.06915006795079139,0.9972102563577979,-1.8253488540649414,-1.9376326169361837,4.152353586620614,0.5257142602685465,1.3483185768127441,-0.35292733635264023,3.0,0.4863730411528865,0.4882042551525484,0.33322264956281583,-0.6113729551479797,0.41590030788839427,-0.12460476297224642,0.6616069049341881
13.9,-2.306911833372546,0.37645305194950035,5.205402804176189,-0.016507917331068062,-0.2659559835335355,0.10144576158203718,-0.028009331369464974,-0.06893084126485464,0.9972281212286398,-1.8270155185932646,-1.9363813653553261,4.152593976399608,0.5260608625832547,1.3480794402019283,-0.35291690169959383,3.0,0.48600618876768487,0.48780673885228404,0.3334310922204132,-0.6112900378970394,0.41588804689224873,-0.12459897568758624,0.6616923131468215
14.0,-2.4299932010195864,0.36756515345921276,5.12546196416098,0.007882193495417345,-0.26529962439280275,0.09510283277514264,-0.027912700760261845,-0.06871161457891792,0.9972459860994818,-1.8284480109006764,-1.9354960204931504,4.152798175811768,0.526364267421229,1.3477985988713674,-0.35287528145613956,3.0,0.48545750746197297,0.48726485310822276,0.333517120927811,-0.6112990733517064,0.41587239109908003,-0.12459868789646415,0.6616938598894192
14.100000000000001,-2.459077310850851,0.5390054318055586,5.292386939544863,-0.003452258975388825,-0.26545249243348584,0.09152422764760301,-0.027800043013154405,-0.06843099066878434,0.99726839779269,-1.8297158043937287,-1.9345087027389976,4.153045931907399,0.526761533135757,1.3476059644362506,-0.3529215102819533,3.0,0.4852727265492128,0.4870677730603604,0.3334244874449505,-0.6113565961762254,0.4159041260305172,-0.12461266849664798,0.6616181323941748
14.200000000000001,-2.5275801357639978,0.39795868919207356,5.298590123602081,-0.01155658921968562,-0.27824648925937967,0.09147305166140626,-0.027680481590488953,-0.06812391995832073,0.9972927680256343,-1.831166053957759,-1.9334362056087837,4.153218091375241,0.527134673749035,1.3473562447114267,-0.35286592322890353,3.0,0.4848282916468752,0.48666096890538785,0.3335384515102567,-0.6113217759013467,0.41587445922281263,-0.1246118043798522,0.6616691157097742
14.3,-2.668469782276553,0.43874889794530597,5.507796243237376,0.0025887607607297178,-0.30078875308651726,0.07520941906804286,-0.027613520193928612,-0.06788058400924325,0.9973112398488373,-1.8327881565340423,-1.932203068612609,4.15348936303703,0.5275009475772171,1.3471114279379832,-0.3528050522714607,3.0,0.4846176591394585,0.4864029636602706,0.3335524904416191,-0.6113020725619898,0.41590901938822633,-0.12462290965893796,0.6616635051603494
14.4,-2.597635342890242,0.2836661450956044,5.322189365840872,-0.011207734320402818,-0.3006380557934558,0.07216940273733397,-0.027683663550543917,-0.06802891588018359,0.9972991600134464,-1.8341913757333033,-1.9309287083655662,4.153778873845475,0.5278390034006905,1.3468702040217664,-0.3528217323975107,3.0,0.4842518510071925,0.48602467747962036,0.33364060234574805,-0.6112824589343876,0.415900764744183,-0.12462371135986387,0.6616866628935677
14.5,-2.871189566303819,0.10691010932853139,5.39564570866028,0.004704931772458303,-0.3023528128756539,0.059150690897063894,-0.027694413751878977,-0.06807867518390566,0.9972953583084625,-1.8355640379850529,-1.930097376382219,4.153985500335693,0.5282187552095634,1.3466456842816565,-0.35278158594555625,3.0,0.4837316491273382,0.4855116561404297,0.3337993533588465,-0.611256044415462,0.4158845065983235,-0.1246138773913763,0.6617231346254406
14.600000000000001,-2.912542271893613,0.21016218872300452,5.492304654862233,0.01262190699105898,-0.3045729180039499,0.056877727516380906,-0.02722067628364765,-0.06697505751565112,0.9973832639474176,-1.8369497633614205,-1.9291293349506915,4.154250311649577,0.5285844567060325,1.34637105955038,-0.35276990545553527,3.0,0.483502871188219,0.48530542643820346,0.3337844579029374,-0.6112774732390542,0.4158921540710437,-0.12462241213900392,0.6616969255522354
14.700000000000001,-2.6034655354832683,0.2567388058178788,5.379581799258244,0.02729378898118339,-0.3125314101097086,0.05325914328861897,-0.027178989360144564,-0.0669241913114008,0.997387813671882,-1.838568416993354,-1.9280379691176022,4.154504203906181,0.5289149247254763,1.3461536961493337,-0.3527244925492021,3.0,0.48317134111158583,0.48499543420856095,0.3337408962806887,-0.6113151643051561,0.41590895513837506,-0.12462274717370952,0.6616514806249156
14.8,-2.583824131305774,0.2129723200304376,5.548398578344184,0.005147605549525199,-0.30997329028312126,0.059952484198635886,-0.027185149208470864,-0.06697977205160724,0.9973838620705114,-1.8399210771981156,-1.9268897023925986,4.154743122799622,0.529284234892761,1.3459411385223996,-0.3527038015307217,3.0,0.48267804331874686,0.48451631290345076,0.3337436583836356,-0.6113550261431322,0.4158993565232334,-0.12461971269991251,0.6616212545404522
14.9,-2.921882522295587,0.3361098487062446,5.595409152235454,-0.01490230625646613,-0.3073571448267117,0.04992653289412676,-0.02747400095050413,-0.06766427063009757,0.997329682296844,-1.8412655577646289,-1.9257073637785986,4.154973740051578,0.5295663341479168,1.3457036018371582,-0.35271901228325,3.0,0.48248425957178076,0.4843263060221039,0.3338048491756725,-0.611343785708546,0.4158875118682555,-0.12461377136295242,0.6616402051978683
15.0,-2.8307169102214957,-0.02202284850317321,5.541411422453478,0.0061952800434276235,-0.33783789870480235,0.0444438329234091,-0.027465498548588745,-0.06770529913229693,0.9973272090756006,-1.842758231051507,-1.9246620878787248,4.155192794636171,0.5298713167628089,1.3454997400262967,-0.35266244334074576,3.0,0.482076645564497,0.4838847823566864,0.33393831195202417,-0.6113169925240803,0.41588866500131544,-0.12461800820840094,0.6616634378631692
15.100000000000001,-3.0038037415495062,0.14201488515612776,5.370862949128887,0.003675405107864899,-0.32633153340497323,0.04150419974747692,-0.027322000135497754,-0.06744763386885283,0.997348643133218,-1.8441441562586112,-1.9236059966347598,4.155464126626072,0.5302468973347167,1.3452755921892687,-0.3526533285724085,3.0,0.4816123119998979,0.4834787205266874,0.3339730184870094,-0.6113444634697608,0.41587571564477893,-0.12459348577455032,0.6616508138167448
15.200000000000001,-2.6755996410742697,0.1674344612002983,5.1557554047788265,0.018522888164107472,-0.33012775517662807,0.036486225393462746,-0.027413469462543694,-0.06765362518710899,0.9973321746270405,-1.8441101947659113,-1.923594926018504,4.155455131352028,0.5302471914604069,1.345257593136641,-0.3526615996912545,3.0,0.48137923511061514,0.4832324881587566,0.334004085939134,-0.6113435731562521,0.41585814427139073,-0.1246081430420113,0.661659920269713
15.3,-2.925738037634694,-0.2564993401134265,5.044484489202949,0.011450435699305785,-0.3378892808662609,0.036689339574981716,-0.027363560059323926,-0.06751966929169506,0.9973425955117938,-1.8441091225229402,-1.9235912762083949,4.155453900394756,0.5303007808420686,1.345254486285419,-0.3526700829242338,3.0,0.4812880773623238,0.48314659338737576,0.33406925097137774,-0.6112992280550685,0.4158570119483077,-0.12460309803391154,0.6617025520224733
15.4,-3.0355466666815927,0.01813800342445332,4.9682672595829205,0.03617536723672802,-0.3430796967553405,0.03796640878747781,-0.027258499432640016,-0.06725258217729332,0.9973635419861675,-1.8441995913124491,-1.9235864469207813,4.1554655419587245,0.530280275935791,1.3452610969543457,-0.35265840673585325,3.0,0.48128771964963074,0.4831337660193021,0.3340738971463742,-0.6113017021773571,0.4158616816510872,-0.1246038873453767,0.6616971829377969
15.5,-3.0003626796526213,-0.09458598086992243,5.043179495349799,0.031614170359680796,-0.34151341447965183,0.04249847913754031,-0.02743672264177326,-0.06766221912363979,0.9973309184225336,-1.8442340734707383,-1.9235363362701137,4.155418852923327,0.5302831552002363,1.3452399286991348,-0.35264818702875605,3.0,0.48127032688273264,0.4831493809162569,0.3340491238421823,-0.6113109687605573,0.4158646910177659,-0.12459151751191841,0.6616890599079028
15.600000000000001,-2.889770041355694,-0.1258026863109844,4.788450678082257,0.028659284682651706,-0.34599051148891735,0.04857794271900769,-0.027574310815029725,-0.06795457907612665,0.9973072664898172,-1.8442564010620117,-1.9235501205561147,4.1554341316223145,0.5302713696630129,1.3452283488236574,-0.3526519259515148,3.0,0.4812836921737689,0.483113529192002,0.33402049018729235,-0.6113160490962791,0.4158841919054238,-0.12460032538371688,0.6616704511724548
15.700000000000001,-2.8243570515279477,0.1607595283947149,4.797196360413553,0.037213411837282245,-0.3491332803274749,0.04721762009595572,-0.027684373215331546,-0.06816749674842033,0.9972896918514927,-1.8442341203569868,-1.9235339191225962,4.155416273093124,0.5302961422034222,1.3452521676897504,-0.3526387880317851,3.0,0.4812714431795822,0.4831141255070365,0.33402523365068865,-0.6113262766594129,0.4158858692144086,-0.12460506728760753,0.6616590545437777
15.8,-2.797422645142507,-0.2739630694071925,4.7687981526809295,0.024671011894960355,-0.34880230248791655,0.04360312342866435,-0.027696074911404772,-0.06822904227244901,0.9972851759636724,-1.8442459507234665,-1.9235487730316538,4.155458927154541,0.5302907262743362,1.3452424356355148,-0.35267873028111496,3.0,0.4812852546077056,0.48309834640098687,0.334020297404906,-0.6113188584973293,0.41590233417652456,-0.1246086272874812,0.6616548886523628
15.9,-3.0679491364977918,-0.1351436396847327,5.007049862350306,0.03159367934287527,-0.34240433531645803,0.04528344577869275,-0.02763048923067022,-0.06815701250382437,0.9972919092722407,-1.8442334466279993,-1.9235285162607332,4.155453355945827,0.530271403171093,1.3452346837693367,-0.35262948671449834,3.0,0.48127113728966253,0.4831287193068854,0.33403317456244047,-0.6113242988952539,0.4158694356317352,-0.12459175130460445,0.6616737183797012
16.0,-3.040501391702407,-0.3280670031541961,4.931983065996278,0.027145656141034043,-0.3419078136342477,0.04859389837385491,-0.02747665335591695,-0.06776696626595534,0.9973226631708557,-1.8442648993980137,-1.9235282935475113,4.155419902398726,0.5302991976398045,1.345246635636441,-0.3526414076434534,3.0,0.4812711235980297,0.483117919559632,0.33402167825815743,-0.6113274212147,0.41586849542409926,-0.1245953206753468,0.6616707524520697
16.1,-3.0542679190370117,0.07345572447656373,5.015523990225291,0.03668745984891407,-0.3408202686440262,0.04921523338251689,-0.02731884428869596,-0.06736878755968106,0.997354043086919,-1.844234557332683,-1.9235311947264613,4.155425639333416,0.5302717836468919,1.3452496528625488,-0.3526206405802285,3.2578995796447465,0.48128360596811,0.483109279361628,0.3340624405307317,-0.6113031896712878,0.4158740635549013,-0.12460137851821114,0.6616884992437189
16.2,-2.86940814124129,-0.2865069426257568,4.767718129934351,0.026655326775452327,-0.34382587361904177,0.05396148944167296,-0.02710493221525026,-0.06685577527077331,0.997394262610196,-1.844239063863772,-1.9235311947264613,4.155446305588143,0.5302814534103927,1.3452488075344313,-0.3526219414168808,4.0,0.4812819004395163,0.48310519802233876,0.3340430495448316,-0.6113131679103261,0.4158882959084575,-0.12459700958999706,0.6616711579531263
16.3,-3.207341492476544,-0.06684998959222627,4.79998034013403,0.032565926408523155,-0.3363354842508791,0.05464233432312726,-0.026927228744542606,-0.06643023743665366,0.997427610847981,-1.8442131040446808,-1.9235221912545653,4.1554313308635376,0.5302952133159332,1.3452438179484307,-0.35263849018639437,4.0,0.48127698261832624,0.4831112872011301,0.3340217090853817,-0.611331436627581,0.4158906287721416,-0.12460874790528809,0.6616506022334196
16.400000000000002,-3.0771590503627775,-0.08059674770091471,4.948248917087867,0.03423818724752212,-0.33889554038075986,0.050505944596609516,-0.027371240560759583,-0.06750666879340866,0.9973429765371967,-1.844229187250968,-1.9235132909034063,4.155440591353573,0.5303024156678062,1.3452437148276937,-0.3526414076434534,4.0,0.48127122206243367,0.4831136462772471,0.3340470666007107,-0.611313041325904,0.4158764570324486,-0.1245934493960279,0.6616793863787893
16.5,-2.874171728597472,-0.19810416514225887,5.088165556217888,0.027779204655364008,-0.34385239223081715,0.04847242461427845,-0.0275927811808788,-0.06802401833135555,0.9973020450763648,-1.8442411924197584,-1.9235046501030317,4.155438925067301,0.530285438107315,1.3452404346991131,-0.35265984397032485,4.0,0.4812704702174637,0.4831129739903053,0.33403008614817264,-0.611324216485844,0.41587498078144325,-0.12459595409006263,0.6616695179033036
16.6,-2.141966652908769,-1.5053485572373746,3.5086536201705956,0.1535479737308439,-0.27964502594469887,0.04352094191524615,-0.027648854299819,-0.0681185106885012,0.9972939983633347,-1.8442754095084823,-1.9235073528685511,4.1554028373416205,0.5303249216569147,1.3451773849940392,-0.35263756950017167,4.0,0.48128213733589625,0.4831059920273828,0.33402099974332183,-0.611331020722015,0.4158776263098891,-0.12460981454243525,0.6616589583445021
16.7,-0.06913214474929961,-0.6977184201021511,2.227591511653792,0.06988545682949347,-0.10123901779701097,0.05626134998226459,-0.02820061843198559,-0.06927605279881383,0.9971984478599774,-1.8442316055297852,-1.9234776352485987,4.1553841924684045,0.530299430736457,1.345198946563272,-0.3526414076434534,4.0,0.4812859937940772,0.48308012111355786,0.3340621581608283,-0.6112815381601314,0.41589184064828616,-0.12461598866177889,0.661694577094759
16.8,0.2985630043661317,0.4308761984431073,0.91778253549552,0.008916023708917989,-0.03380750021906066,0.05841452606743688,-0.028419524780128037,-0.06968111033528443,0.9971643960324192,-1.8442564010620117,-1.923477735933424,4.155392347924163,0.5302936273762207,1.3452200359274218,-0.3526436691345632,4.0,0.48128863814706013,0.4830776286411134,0.3340535809897322,-0.6112948438633176,0.41588886013143117,-0.12463575105403767,0.6616804360443924
16.900000000000002,0.2907684907706856,0.33207517538586984,0.40105270700407236,0.0059601549933306535,-0.00022842731546983018,0.044681607393508634,-0.02833766102947268,-0.06940841871391137,0.9971857584858536,-1.8442619415384893,-1.923495431939596,4.155389490699568,0.5302849990153694,1.3452405702101895,-0.35262664843790253,4.0,0.4813096893320769,0.48304564685370704,0.3340656097566793,-0.6112828325983725,0.415905911563297,-0.12464642672700031,0.6616788039535525
17.0,0.502000678304308,0.3263859681838476,0.5062017969914773,0.002996681042912585,0.00014450413653423292,0.05307646703857743,-0.027977343541541036,-0.06869049559820899,0.9972454845484124,-1.8442741986837496,-1.9234862681944889,4.155359494210846,0.5302773435373567,1.3452520553925065,-0.3526297841123529,4.0,0.4813037993218065,0.48306810410925966,0.33406096233414223,-0.6112943904487868,0.4159024040478661,-0.1246147589233826,0.6616762957606379
17.1,0.3424782378703185,0.387192094261894,0.34586281523076023,0.004999437777001604,-0.002700630055728659,0.055613530261358554,-0.027687240239333933,-0.06810850208471067,0.9972935678549968,-1.8442678451538086,-1.923483511010641,4.155397891998291,0.5302773598419885,1.345210497144723,-0.3526563661701193,4.0,0.4812866413410813,0.4830744443393973,0.33405315621834497,-0.6112997328385407,0.4158887412139096,-0.12461523862558097,0.6616798575333301
17.2,0.16324886142256942,0.46858027113166884,0.4614188230671564,0.006738718341209933,0.005630759825055006,0.05380559848149138,-0.027467088990212163,-0.06766193070352264,0.9973300518718422,-1.8442617706896147,-1.9235105125510727,4.155419883931659,0.5302961934049649,1.345270457488362,-0.35265040815693066,4.0,0.4812879995527254,0.48307591449238685,0.33405591360864506,-0.6113015806751533,0.41588635161884696,-0.12460439511471903,0.661681694411534
17.3,-0.03437783294692673,0.23264000155143078,0.44262847068626376,-0.0006898468865308652,0.015630119700725177,0.054031505929685336,-0.027640703588526414,-0.06806712414068522,0.9972970327415075,-1.844285071757463,-1.9235200745113503,4.155389116758121,0.5302992889561599,1.3452313711121942,-0.3526596893938081,4.0,0.4812621066931828,0.48308933112627467,0.3340487818015026,-0.6113186207874852,0.41588284148936516,-0.12458728298002443,0.6616713798804312
17.400000000000002,0.19413735474390245,0.048126642179568635,0.4143097701391164,-0.0066016383371242035,0.009351873865442785,0.052766014604885836,-0.028219857397990777,-0.06934954965566391,0.9971924323613934,-1.8442522070489211,-1.9234984442512209,4.155386447906494,0.5302836497248107,1.3452403879005252,-0.3526562125664895,4.0,0.48130186772362055,0.48307773521288006,0.33402618997653216,-0.6113201299938359,0.41590040437339,-0.12461822249921986,0.6616531197897467
17.5,0.12925111006570994,0.03326958325559045,0.5054743964611846,-0.003290506735427138,-0.0007717708318285518,0.06005866751428766,-0.028597535177742297,-0.07019951221217448,0.9971228996393762,-1.8442926406860352,-1.9235075196029732,4.155386367873971,0.5303048980642185,1.345237175063913,-0.3526055048229626,4.0,0.4812850984129246,0.483080528268282,0.33404398031373617,-0.6113095437529171,0.4158846780984347,-0.1246192272938452,0.6616725960988913
17.6,0.3363675320148371,0.21644257436727973,0.3488314214816289,-0.0003502223925498256,0.004272618629130324,0.0653235668975172,-0.02876070448484203,-0.07058903801682091,0.9970907029209941,-1.844295629306505,-1.923492850449609,4.155413223565697,0.5302698403374877,1.3452434265699036,-0.35261690960335496,4.0,0.4812891010278834,0.48307548319966165,0.33404845857442467,-0.611299262875762,0.41588932877816503,-0.12460614551070855,0.6616816348645029
17.7,0.050113685413282094,0.310897121853855,0.22354106980654082,0.008762036839761959,0.012747797132941104,0.05698109111173769,-0.02874358696091405,-0.07056842881915674,0.9970926256884624,-1.8442862349798888,-1.9235281150600447,4.1554341316223145,0.5303021149882576,1.3452434935297157,-0.35262948671449834,4.0,0.4812817643340579,0.48309128301421694,0.3340605269037574,-0.6112941915681885,0.4158898455634318,-0.12460339691988774,0.6616865127749276
17.8,0.08448004999117548,0.07823762921788185,0.28025204509896245,0.000136388188992489,0.005560721360125237,0.05170018831936296,-0.028527377111238175,-0.07009490394808943,0.9971322269028393,-1.8443060193363177,-1.9235168624018624,4.155402213711721,0.5302772729252716,1.345232067276554,-0.35263827950749577,4.0,0.48127548753719673,0.4830988477863104,0.33404091708318495,-0.6113102174293742,0.4158880735217251,-0.12460207913204863,0.6616730690037265
17.900000000000002,0.35120847470374095,-0.09003490007725282,0.46081895223404845,-0.003128976410746604,-0.0005105073897764215,0.05943464636581314,-0.02805680609161082,-0.0690328432613628,0.9972188942816781,-1.8442607550697245,-1.923515815702166,4.155412174920683,0.5302993634069264,1.3452460564433948,-0.3526448657387937,4.0,0.4812779541843599,0.483106266483763,0.3340408438589338,-0.6113109830306295,0.4158928653536592,-0.12459204369335969,0.6616712395309019
