xiamingqian9007/apple-picking-rnn/training_data/grasper_20191127_133007_noimg.csv
,/manipulator_wrench.fx,/manipulator_wrench.fy,/manipulator_wrench.fz,/manipulator_wrench.tx,/manipulator_wrench.ty,/manipulator_wrench.tz,/ground_truth.x,/ground_truth.y,/ground_truth.z,/joint_states.elbow_joint,/joint_states.shoulder_lift_joint,/joint_states.shoulder_pan_joint,/joint_states.wrist_1_joint,/joint_states.wrist_2_joint,/joint_states.wrist_3_joint,/mode./mode,/manipulator_pose.x,/manipulator_pose.y,/manipulator_pose.z,/manipulator_pose.rx,/manipulator_pose.ry,/manipulator_pose.rz,/manipulator_pose.rw
0.30000000000000004,-0.3467015241433152,-0.08487433605177541,-0.3175869796799131,-0.02023534337128995,0.003281436316573962,0.09193762274350592,0.0011372153281198367,-0.05483575627665473,0.998494739756915,-0.9065636797304507,-1.9515116033664945,4.1497606746213265,-3.8822682977568497,-1.3745258324295824,2.510840828985581,1.0,0.4791811350497343,0.4837502756619375,0.42393963645543276,0.7729313638376627,-0.34497808735517105,0.18803037410465073,-0.4982085953241711
0.4,-0.28586405869260584,0.19523154869704856,-0.471965649545143,-0.005204966486129434,0.011715832059582255,0.1848967474420174,0.0011196547617342218,-0.054752924690877156,0.998499304216929,-0.9036696911218653,-1.9546860836919993,4.14917495039295,-3.881860605544149,-1.3749435716052345,2.510531195549821,1.0,0.4796953533268361,0.4842587471774627,0.42362463930913946,0.7729062614341695,-0.34499840541968885,0.18800737640906132,-0.49824214766467617
0.5,0.08452167960353468,-0.4748931940519776,-0.5289093204260765,-0.005605408633206655,0.010928431159657349,0.25790776659993087,0.0010582532442170505,-0.055325660821880646,0.9984673862975703,-0.9005918897807215,-1.9580253938459076,4.148670928076998,-3.881560877321293,-1.3754474570298771,2.510290199675693,1.0,0.4805638311238991,0.48501564134179403,0.4230271929188708,0.7729037276384414,-0.3450386686644952,0.18805928995873422,-0.4981986033591941
0.6000000000000001,0.22536707322095034,-0.3022393152259044,-0.24071729230106936,-0.0015792534556444268,-0.0007117854102551956,0.27056629357949724,0.0009698054119015078,-0.05630282911920518,0.9984129617059874,-0.8975196522057074,-1.9613969878809316,4.148104978473318,-3.8812462852047207,-1.3759681713748833,2.5100150108337402,1.0,0.4818518109240248,0.48640552832002987,0.42211145389088334,0.7729142847364685,-0.3450117323895764,0.18806821633424292,-0.4981975099985077
0.7000000000000001,0.36826415589146283,-0.28288102690901873,-0.25473280454575603,-0.009470321258816129,-0.001379613579755606,0.26244046963451473,0.0009562140589471353,-0.056741373855977585,0.9983884481763705,-0.8946791804194776,-1.9645799612106047,4.14755943079663,-3.88099803547048,-1.376502367632812,2.509764670457918,1.0,0.482413818241333,0.48697670985653774,0.42166924584438215,0.7729475619543413,-0.3449934340197572,0.1880629580858101,-0.4981605371244394
0.8,0.34380632757256224,-0.28160434037838794,-0.1312405177717089,-0.0032251201295318585,-0.003516525600380403,0.2630017188138586,0.000990391060080847,-0.056836205380744666,0.9983830218682118,-0.8916436644498714,-1.9676326304011553,4.1470649533854695,-3.8806990903932834,-1.3769950456063298,2.5095355802165242,1.0,0.48366714750595713,0.48825026700240065,0.4207238511384951,0.7729831394560185,-0.34501868092740773,0.18800430872826412,-0.49810998366569287
0.9,0.36097197713454315,-0.09413176838112369,-0.08239421994736348,-0.012650710272749954,-0.004211862211122507,0.25788452219579266,0.0011017527120960882,-0.05561668762288553,0.9984497229464573,-0.8889908040639558,-1.9707727938024695,4.146584987640381,-3.8805261923334555,-1.377470266460376,2.5092930844838137,1.0,0.48413635234431024,0.48877076490063825,0.4204153918755098,0.7729759196150118,-0.34500459129225985,0.1879946678344736,-0.4981345847744299
1.0,0.5669980485636354,-0.6466016334280078,-0.1385697096506506,-0.008815407343715992,-0.00841750774786288,0.2534168445587675,0.001264105093271421,-0.05352886732654603,0.9985640737579483,-0.8860712668770802,-1.9734899564280848,4.146093829745705,-3.880328235293225,-1.3778443618855687,2.509080597464383,1.0,0.48524270437988676,0.4899220227236067,0.419639131857365,0.7730010205512443,-0.34497217334628827,0.18797249995594942,-0.49812645091762
1.1,0.32051337792719553,-0.25446995831362396,-0.10064336428693342,-0.0033371413862053837,-0.004323553141958556,0.2475806698044433,0.001315147312347663,-0.05262957758244089,0.9986132336802934,-0.8835510677761502,-1.9763447829748202,4.14568501578437,-3.8801838095318946,-1.3782505618148673,2.5088522063361274,1.0,0.485719503527354,0.490370695162141,0.41934220552259127,0.7729911606987382,-0.34497706867720607,0.18799001545576455,-0.4981317513042521
1.2000000000000002,0.19175301570740597,-0.1663785606647735,-0.1453227154728602,0.009448519533717788,-0.005247683568304812,0.24894847226862465,0.0012904712387193527,-0.05253878099426407,0.9986180477609569,-0.8807638574597212,-1.9790621596008287,4.145218201676154,-3.8800043068327845,-1.3786591876724135,2.508623422226086,1.0,0.4864767512713929,0.4911347649386789,0.41890299961131716,0.7729488285078364,-0.3449653055585088,0.18801690518174521,-0.4981954333744609
1.3,0.46626771539726586,-0.3471444749369393,-0.3221030803276122,-0.0031838575672832143,-0.005596249187192463,0.2541545974325489,0.0012669602458616387,-0.05260030666813226,0.998614834049488,-0.8782568634210927,-1.9817581653609853,4.144751071929932,-3.879834897761635,-1.3789936669826448,2.5084452629089355,1.0,0.4876115024772187,0.4922343284588908,0.4182084313668477,0.7729071489390551,-0.3449731954559452,0.18806254407385226,-0.4982374063157902
1.4000000000000001,0.5611368237845148,-0.45887525644915317,-0.08884433474956399,-0.005603678487286995,-0.007407478872675876,0.24874812735463853,0.001224122193871503,-0.053144242009411646,0.9985847170087684,-0.8757840555291847,-1.9843889393376255,4.144307613372803,-3.8796934278345905,-1.3794385276144887,2.5082873621890207,1.0,0.48804107727368207,0.49268245831788665,0.4179236771388407,0.7729118579835648,-0.34495795749823055,0.1880582103146251,-0.49824228732646053
1.5,0.3179975686824824,-0.2570098025681818,-0.06840147603690322,-0.0037509314531508327,-0.011593449649728478,0.2454937546069414,0.0009452058228730688,-0.05807927080627702,0.998305849146404,-0.873399551859857,-1.9868509490959392,4.1439491194076785,-3.8795278469414516,-1.379810162147155,2.508073722925613,1.0,0.4890048293312043,0.49364597001975413,0.4171714987620099,0.7729552749650452,-0.3449804057074786,0.1880288763982346,-0.4981704569944227
1.6,0.4017942071624241,-0.31075594950764546,-0.2912385556298682,0.002450274841186885,-0.0013679892371909143,0.2490298131409269,0.0008271813203030771,-0.06050344017420184,0.9981675672607351,-0.8710090746824769,-1.9892376626882375,4.143517017364502,-3.8794300899427308,-1.3801807943453188,2.5078931343040693,1.0,0.4893729848290627,0.494018444537091,0.41692803687157304,0.7729542274198546,-0.34496905400647787,0.18803404552565534,-0.49817799210212743
1.7000000000000002,0.43454206172444465,-0.2912003782730577,-0.018955148816299616,-0.003354381875345748,-0.007643296177259315,0.24795983727567694,0.0008281395468386751,-0.06106188134752977,0.9981336067633421,-0.8688024216489829,-1.9917268810008277,4.143133190686524,-3.8793216921774216,-1.3805871781728725,2.5077385902404785,1.0,0.48996400061821843,0.4946456263250496,0.4165889165621469,0.7729177253799624,-0.34494922683469265,0.18803201375691295,-0.49824911691054014
1.8,0.24464592695890536,-0.33211267252348864,-0.09880563720079798,-0.00986279434062921,-0.005554372757409137,0.2429840019848794,0.0007995095101216016,-0.061935740845475935,0.9980796349997727,-0.8663000598513307,-1.9939306845217253,4.1427724964188615,-3.879249936803115,-1.380888015816403,2.5075821330710175,1.0,0.49103106147629355,0.4957172214340362,0.41573723241471255,0.7729765078561796,-0.3449617832204092,0.18798351310919223,-0.49816752726265434
1.9000000000000001,-0.0960274890944933,0.5356023229406577,0.11658118116656813,-0.06809639150648156,-0.05886444518646563,0.22715575512515102,0.0007834260443479974,-0.06227435243884464,0.9980587600552296,-0.8643121918988924,-1.9965063342228124,4.142462213644842,-3.8791657311049192,-1.381173932641711,2.5074028968811035,1.0,0.49136523105400587,0.4960465216376601,0.4155340250948025,0.7729606376753861,-0.3449654948632294,0.18799773525252836,-0.49818421442087846
2.0,-0.07760493173621182,0.4676213898783851,0.10450168614101432,-0.07945730323705727,-0.06316152523752754,0.22421089200192518,0.0008145935133919935,-0.061640104325249315,0.9980979546428328,-0.8621465095831496,-1.9984557615046648,4.142055861214862,-3.8791170106654316,-1.3814291062593989,2.5072827339172363,1.0,0.49195623665610355,0.4966833311001426,0.4151026213566083,0.7729736746664543,-0.34496481425414344,0.18799539817021355,-0.49816533948686736
2.1,-0.33913219989036936,0.4864213837702994,0.018214312194817568,-0.0814452564644047,-0.07057246214267954,0.22351697412321028,0.0008603332656907963,-0.06058939527162148,0.9981622707618236,-0.8598403237276696,-2.0005726396542487,4.141716160528879,-3.87906626681737,-1.3817387143238127,2.5071265231096236,1.0,0.49278844815010914,0.4974794110076086,0.414585821082092,0.7729557990209048,-0.3449549261271533,0.1880113361807283,-0.4981939071968886
2.2,-0.25194815923118663,0.26441208698593566,0.22400063951005203,-0.08649950089157755,-0.10136886221592148,0.22101493582563528,0.0008040852481395045,-0.06077762833392711,0.9981507665756192,-0.8581001226058721,-2.002805372277731,4.141394100007926,-3.87898692474127,-1.381992729353961,2.5069947242736816,1.0,0.4931840793691548,0.49784769722544325,0.41445402833961775,0.7728842786546765,-0.3449711249664033,0.1880420355448189,-0.49828205628540967
2.3000000000000003,-0.9000349731970865,0.6509337728325661,0.37302841440550805,-0.10874728911261425,-0.13073063776296504,0.2101300869497375,0.0007771655014893546,-0.06051882462653343,0.9981662846841737,-0.8559891012576065,-2.0044244083169866,4.141060191228427,-3.8789582009520824,-1.3822526879544839,2.5068475433797706,1.0,0.4937765237821958,0.4984386244100693,0.4137882497253999,0.7730023212095108,-0.3450136107968112,0.18802157326700147,-0.4980772106369218
2.4000000000000004,-1.2226560705798692,0.9607960152579398,0.24205718625461878,-0.12588029599519712,-0.18610482861221528,0.19620449044504348,0.0008373597889493963,-0.0595778027320933,0.9982233128181247,-0.8539946721884437,-2.0065607931824085,4.140809233298617,-3.878902574578756,-1.3825762907611292,2.5067054126447097,1.0,0.4944664708329683,0.4991112784609172,0.4135927226363015,0.7728724660088503,-0.344991355442603,0.18804869529315804,-0.49828385901393124
2.5,-0.8754147142856816,0.3978445246723943,0.5286960275281888,-0.14148184903796224,-0.18081756865606746,0.1947874678276372,0.0008737872416035422,-0.05942592630690404,0.9982322940228603,-0.8524068397356586,-2.0084133178080172,4.1405295318977435,-3.8789007013862253,-1.3827913770149578,2.506552219390869,1.0,0.49474165576772533,0.49942009143948046,0.4133821585934378,0.7728857036470448,-0.34497702726371693,0.18804413330507816,-0.4982749679522778
2.6,-1.3753387889977797,1.06759032874795,0.29761541875126496,-0.1773748132765774,-0.19197487500152435,0.18429516367585855,0.000917825193527102,-0.059020046622218984,0.9982563719088017,-0.8503965510553493,-2.01004022510699,4.140257358551025,-3.878842072152665,-1.3831129951913426,2.5064205005492046,1.0,0.49543658596213724,0.5001488137502147,0.4127256885644456,0.7729762771593943,-0.34497290966087046,0.18801401036949988,-0.49814867103475646
2.7,-1.196364345820849,1.449135365628268,0.6465978672612931,-0.18328118755447212,-0.17735671010452964,0.18799592175982047,0.0009243106433312446,-0.059393646682920825,0.9982341692946725,-0.8486894540870443,-2.0119112274868103,4.1400177822280435,-3.878830173940343,-1.383319045834343,2.5063229627525554,1.0,0.4957419175483877,0.5004367432741638,0.4126108636745461,0.772927249238057,-0.3449653953485786,0.18802564994175794,-0.4982255496873567
2.8000000000000003,-0.7079410284942348,1.1272853712653594,0.3662700455431578,-0.14632161067742536,-0.13663877209006817,0.20613947404930122,0.0009601612948119243,-0.05880200712630664,0.9982688102055743,-0.8470087051391602,-2.0137079616275533,4.1397235009239965,-3.878797331990293,-1.3835224578150187,2.5062194571998413,1.0,0.496212093658453,0.5009532502906943,0.4123060819349255,0.7729242292975959,-0.3449495554113208,0.18800633686491708,-0.4982484894958385
2.9000000000000004,-0.16284888226245822,0.5655199035009152,0.3307160787265588,-0.1270483116252646,-0.10539223103706914,0.20936918265849952,0.0009540859866589771,-0.05852149635821382,0.998285398552419,-0.8452527565714038,-2.015290745537166,4.1395102014507845,-3.878759647414586,-1.3837979475604456,2.5061070172873974,1.0,0.49684608476317543,0.5015706066850111,0.41181982810386236,0.7729398306332307,-0.34498015376891195,0.18802283635900463,-0.49819687346847663
3.0,-0.05873512073953498,0.6918401097917989,0.37409753575657145,-0.14925362964260044,-0.09389362672898191,0.21167397460978843,0.0009320675614008844,-0.05917716530318045,0.998247035614922,-0.8436414300030728,-2.016958029944825,4.139271253908656,-3.8788155159283995,-1.3840109629585367,2.5059857314477187,1.0,0.49709519505453253,0.501831820988062,0.4116724933377809,0.7729353148032144,-0.3449658354292235,0.1880243443132834,-0.49821322489696507
3.1,-0.12234384183845054,0.5586835795397254,0.19681554802040954,-0.11570765168268256,-0.07522815396892643,0.2197001141004655,0.00100624056058724,-0.058689141770182834,0.998275760097053,-0.8421032388515381,-2.0184718933365593,4.1390576926226865,-3.8787716720443437,-1.3842290083514612,2.5058596442887002,1.0,0.49748332573449827,0.5022620046163209,0.41139319442990874,0.7729455702058804,-0.3449455265901108,0.18799509237982814,-0.4982224146158797
3.2,0.610455683755414,-0.23405994009663544,0.018139763953008113,-0.06665957718638345,-0.037002309007752456,0.24157108749927453,0.0010470508707148831,-0.058047007132404696,0.9983132290156908,-0.8404319790611285,-2.019987205480645,4.138803770900728,-3.8787928034500525,-1.384431614852539,2.5057949034013256,1.0,0.4981247577099986,0.5028893408288877,0.41100881017829816,0.7729204391571983,-0.3449437079367286,0.18801220178020547,-0.49825620424603206
3.3000000000000003,0.4200724489305529,-0.27507763347149544,-0.10974366880690085,-0.047729106031116963,-0.012426549662582304,0.24464610835846046,0.0010011548503478507,-0.05815351773091821,0.9983068948976405,-0.8390415729834377,-2.0216038922858135,4.13862727482382,-3.8787702816183556,-1.3846587242312285,2.5056877992232733,1.0,0.49837168347514255,0.503108646474251,0.410871569678718,0.7729023983868861,-0.3449704000469373,0.18801614497528077,-0.49826422196249354
3.4000000000000004,0.5899457059659138,-0.38587250422613223,-0.08311693939610565,-0.027441640451660337,-0.01403983227057193,0.2504792959549822,0.0009480797063084101,-0.05872986131897032,0.9982733084649414,-0.8376373950485715,-2.0228999712185107,4.138375384715931,-3.878781066179356,-1.3848135812869955,2.5056052207946777,1.0,0.49893168326416093,0.503679243544407,0.4103851450096245,0.7729459231426192,-0.3449735675777684,0.18801639450557792,-0.49819441282193616
3.5,0.6132209625370948,-0.49548207175428705,-0.25022708264905985,-0.018014720728657025,-0.018035928604018592,0.24639882657555173,0.001000043732040759,-0.057880345205600925,0.9983229587816986,-0.8361226968755177,-2.0241534009771525,4.138196631798688,-3.8788067303099574,-1.3849485090765343,2.505487385163587,1.0,0.4991798987304754,0.5039249696139522,0.4102557072286567,0.7729266746878337,-0.3449700512608341,0.18802254065476562,-0.4982243907064691
3.6,0.3578532836294444,-0.44195218803952174,-0.27286377079087265,-0.014197475234239329,-0.008460225787217905,0.24425844620586698,0.0009982948223717328,-0.057845885705974306,0.9983250231861559,-0.8347002365546367,-2.025600204326336,4.137979984283447,-3.8788308105864466,-1.3851162232638072,2.5053695528995776,1.0,0.4996155717453495,0.5043658068332602,0.41005618369273644,0.772888470118276,-0.34494753355706903,0.18803893875656286,-0.4982930557036003
3.7,0.325751368330923,-0.32223317928860223,-0.2557621916091117,-0.008585666239010113,-0.013218872466009023,0.24389321258888103,0.0010069235568657213,-0.057692078218361684,0.9983338742787724,-0.8335362376151887,-2.027168166797152,4.137821343098066,-3.8788067303099574,-1.3852740898139422,2.505320613819309,1.0,0.4998796534797056,0.5046299972409735,0.40986471609228686,0.7728993779083257,-0.34495035339455027,0.18804660202122894,-0.49827129236006307
3.8000000000000003,0.454609773978572,-0.670843846420931,-0.3725402640472437,-0.014727207385171632,-0.003997556844668097,0.2490342698123206,0.0010195242358682296,-0.05741701443460887,0.9983497368032002,-0.8323991247296108,-2.0281373168317045,4.137598161097961,-3.8788295317287935,-1.3854592514195723,2.5052695274353027,1.0,0.5002119640471608,0.5050081783815352,0.4094159551615666,0.7729996461254562,-0.3449595868458698,0.18800617487077395,-0.49812459158678973
3.9000000000000004,0.3673817564667966,-0.5626670544935883,-0.3224547439992548,-0.013028288401282773,-0.01292250713306002,0.2447798764955055,0.0009747746284601042,-0.057766154741849575,0.9983296521108573,-0.8309605093563304,-2.0292562475039198,4.137419459399055,-3.8788229133216294,-1.3856171794913466,2.5052165143630085,1.0,0.5005405550315561,0.5052952001672939,0.4092244311754285,0.7729789713233703,-0.3449905796745374,0.18800605835157008,-0.4981352545752979
4.0,0.23771833767880168,-0.14997567744419532,-0.38228235685138906,-0.0024054096183117792,-0.004719436526366166,0.2455920558936887,0.001019335712701549,-0.057205045186222894,0.9983616619951001,-0.8295797381868635,-2.030507463639299,4.13726997022924,-3.878936188072766,-1.3857637582621882,2.505081468219085,1.0,0.5009832044216962,0.5057143135065407,0.409156972479607,0.7728642759406918,-0.3449687253972283,0.18803790142535698,-0.4983163022619566
4.1000000000000005,0.4810970484612815,-0.2889939467491484,-0.38866154703175565,-0.011957039007995144,-0.008662313235542419,0.25016847551939986,0.0010809906658030566,-0.056469715819973794,0.9984036426660879,-0.8284600658190673,-2.0320578577590442,4.137073614028765,-3.8789266548552455,-1.3859289217099708,2.5050301551818848,1.0,0.5011650369852367,0.5059149088923858,0.40904320378680725,0.772870353125321,-0.3449600863583261,0.18803900747581137,-0.49831243988797824
4.2,0.48423257797096153,-0.43526075095382916,-0.2061977036294459,-0.01586742430688505,-0.009581922119053168,0.23903004171813122,0.0009998653165496955,-0.057065317567308205,0.9983698907389741,-0.8273565889418333,-2.0332032349746276,4.136889684098938,-3.878949987946184,-1.3861220518695276,2.504921494912603,1.0,0.5016768666799685,0.5064495842910595,0.40840275760140715,0.7729981083681787,-0.3449975927531586,0.18801215639992502,-0.49809839841099013
4.3,0.4981191868031921,-0.7867912081311608,-0.2674866333925158,-0.019683361611588037,-0.010118008678713753,0.2444040484346917,0.000969025001100014,-0.0574271978121877,0.998349221458552,-0.8259967025211759,-2.0342239814515923,4.136660973938968,-3.8789368932660726,-1.3862417379962366,2.5048507856455107,1.0,0.5018489294014881,0.5066096823899338,0.40826293954522985,0.7730063867314744,-0.3449970200624375,0.1880068425638125,-0.4980879534475554
4.4,0.5048755871683639,-0.43648520755482445,-0.3526302090944661,-0.0066365767904468945,-0.004339671500848731,0.23922861070917223,0.0010704250655396653,-0.05611582465623809,0.9984228977095481,-0.8245235830469995,-2.035291627064176,4.136493548758421,-3.878964141025968,-1.3864104042473329,2.5047659873962402,1.0,0.5021169001283091,0.5068326659290463,0.4081915591845936,0.7729569394114301,-0.3450020423863366,0.1880298081708655,-0.49815253869091
4.5,0.45991181489163435,-0.2982891408194614,-0.49628332579482376,-0.007031866855592405,-0.009089956411856526,0.2389536403657333,0.0011467423074601895,-0.05519650705083137,0.9984747868737218,-0.8233009538537021,-2.036755634729178,4.1363601742462555,-3.8790335269649163,-1.3865893522845667,2.5047087553588083,1.0,0.5025545239259781,0.5072880552695774,0.4081401808554038,0.7728401288493261,-0.3449701298001443,0.18803839802766814,-0.49835259169890594
4.6000000000000005,0.14453042661659082,-0.003661251872979554,-0.24844289943814363,-0.0050661612730850325,-0.0032417336201003,0.24134691064158076,0.0011154711072772934,-0.05570937758044529,0.998446402272819,-0.8222016370289602,-2.0380588970580042,4.1361565589904785,-3.879067971978559,-1.3867209593402308,2.504599414342093,1.0,0.5027777948377709,0.5075140392527973,0.40791440409339164,0.7728834757288168,-0.34497753710636897,0.18802780866763133,-0.49828423114224285
4.7,0.2641507778182725,-0.2558904867997908,-0.24991525024885455,-0.0025625100442488607,-0.004066689118603305,0.24244518288329087,0.0010925898925687677,-0.05584490036165426,0.9984387077138493,-0.820983145667632,-2.03916134456777,4.136002063751221,-3.879059615280432,-1.3868741783519176,2.5045260353683316,1.0,0.5030877663675897,0.5078564813695712,0.4075147722318654,0.7729694364400863,-0.3449857211154059,0.18801035364659746,-0.49815179361080286
4.800000000000001,0.3118922543155494,-0.46089721088148816,-0.31023531507719476,-0.006519354489252049,-0.001452972180506056,0.24129896534722847,0.0010369282518333173,-0.056633641980700804,0.9983941924087789,-0.8194880261290948,-2.040269287657709,4.135788138256267,-3.8791309795775355,-1.3870372543408271,2.5044690922357593,1.0,0.5035255203629585,0.5082825301882525,0.40725835576512986,0.7729469930785738,-0.34499711587122855,0.18801519295712454,-0.49817689945301596
4.9,0.414756330191258,-0.4771869794903105,-0.3490454670166738,-0.004943904037212553,-0.006544457419424947,0.2390896507910447,0.0009928739987326272,-0.05742128404233941,0.9983494428793734,-0.8181876601947989,-2.0415867291361005,4.135665279364067,-3.8791815930515936,-1.3872234083515151,2.5043589058165963,1.0,0.5037164008197229,0.5084513906907467,0.4072382661321843,0.7728946418922723,-0.34498663522870804,0.18803637148192698,-0.49825738032436756
5.0,0.16780760734567846,-0.3215126990810468,-0.29789490088564846,-0.0066868179936515944,-0.00329781736117956,0.23714762086905658,0.0009818816772588519,-0.058205794176882555,0.998304026196497,-0.817009944188552,-2.0428921093204178,4.1354766134066905,-3.8792153941497256,-1.3873565786855488,2.504298686981201,1.0,0.5040137743461541,0.5087881981383133,0.4070468649416026,0.7728958461953502,-0.3449679178747524,0.18802481104229357,-0.49827283390090793
5.1000000000000005,0.4908383507765109,-0.19526614750718918,-0.12663119719432936,-0.005719845676296541,-0.00587204803659689,0.2386893875312564,0.0009038776136576514,-0.059195182889803945,0.998245908939744,-0.815774600718713,-2.0441485844054164,4.1352742731449466,-3.8792595107978567,-1.3875416433018695,2.5042413294193606,1.0,0.5044909170342601,0.5092354690118284,0.40662468668901414,0.772945934921896,-0.3449789680731256,0.1880266996399084,-0.4981867656787376
5.2,0.6290686764787837,-0.3981613295737556,-0.13474011435896127,-0.008797296179922223,-0.008958452954537304,0.23798108352252684,0.0009097834292131754,-0.05905892373361867,0.9982539970524593,-0.8143328484971069,-2.045332482934136,4.135131535370539,-3.879310508767599,-1.387696267598954,2.5041588081813866,1.0,0.504674878224582,0.509435019421966,0.4064490949792187,0.7729691458870726,-0.34497876203708167,0.188013095905032,-0.49815602878834736
5.300000000000001,0.28996177339701207,-0.22958076059539254,-0.3187671869037943,-0.0004623288161816933,-0.0015629148801920285,0.2387424258307593,0.0009345219099184533,-0.05877184267011076,0.9982709740592378,-0.8130458831428821,-2.046507543025137,4.134992112635984,-3.8793852993972213,-1.3878668944346533,2.5040889690277712,1.0,0.5051212760639247,0.509901302452521,0.40621872169198914,0.7729352851882686,-0.3449770969037988,0.1880191388084218,-0.49820743768484277
5.4,0.6351416061281607,-0.5842066742701388,-0.33988393239077486,-0.008622900512622588,-0.007974817354402777,0.24217300450182191,0.0009175710909426797,-0.05916820863077479,0.9982475987754414,-0.8118108790097261,-2.047798321358075,4.134840681204082,-3.879418273965353,-1.3879734977061053,2.504011631011963,1.0,0.5052907844214853,0.5100568648035722,0.4061513803565664,0.7729130735468741,-0.3449703163143261,0.18803112919392687,-0.49824206572345464
5.5,0.2075045344861638,-0.35748340621724806,-0.36614628104925245,-0.007299495346302767,-0.002269577951453165,0.2427031432050591,0.0009579918578973448,-0.05896393995955002,0.9982596458680053,-0.8104607793292936,-2.0490154494242674,4.134646892547607,-3.8794661960997523,-1.388110733101109,2.503950330873483,1.0,0.5057329114313364,0.5105583687424368,0.4057657369670131,0.7729498422235811,-0.34495143581332394,0.1880114494434231,-0.49820552306758964
5.6000000000000005,0.47091986571892397,-0.598042941202964,-0.40048743608378395,0.0026632829553393023,-0.006943975928025682,0.23516386877738435,0.0009910730794130524,-0.05834754239876145,0.9982957732184637,-0.8090848815333299,-2.0501884872201432,4.134478648191837,-3.8795494909925505,-1.3882668501118913,2.5039141474682234,1.0,0.50591531937527,0.5107380537723079,0.40562217138447515,0.7729552473109929,-0.3449749166869642,0.1879956322814426,-0.4981868472313626
5.7,0.3423321886788333,-1.2012380179958022,-0.6867357830437859,0.03818769279412637,-0.013682577927607468,0.23957242646152743,0.0009849479455131993,-0.05811728103598877,0.9983092763465597,-0.8078107833862305,-2.051556812149342,4.134357197796857,-3.8796184113509686,-1.388420969463307,2.5037959802415637,1.0,0.5062279933086445,0.5110239762479174,0.40552048789632805,0.7729046914088916,-0.3449708184606576,0.18802736162188047,-0.49825614265177387
5.800000000000001,0.3809801076875245,-1.3826449019486025,-0.7437962252877165,0.046089814168217745,-0.013971186836444759,0.24916766943835153,0.0009605509498896575,-0.058296806764626924,0.9982987275011975,-0.8066172001078747,-2.0528633842288184,4.1341465023998625,-3.879691813545875,-1.3885663191424769,2.5037101460078968,1.0,0.5066938138334498,0.5115121621413172,0.40514554147634413,0.772932145432478,-0.34496572039693996,0.1880290139855029,-0.498216459189985
5.9,0.13383152900678658,-1.8178519067636858,-0.7990640845584508,0.08362479390480258,-0.029213717510785314,0.2511017971896836,0.0009241806795203622,-0.05920619305460372,0.9982451896153544,-0.8051428026033663,-2.053933183279675,4.133987903594971,-3.879705474046898,-1.3887201813145125,2.5036849206758762,1.0,0.5068954000435621,0.5117522674509997,0.40491508458979225,0.7729790627083857,-0.34495989733404947,0.1880091412725938,-0.49815519734686037
6.0,0.135035917759589,-2.2244303025146595,-1.0553536971745063,0.10291543662939083,-0.029936044882892848,0.25618999014831545,0.0009303978503763269,-0.059199943395187436,0.9982456261414606,-0.8036871115293874,-2.055168580900085,4.133820056915283,-3.8798138103880824,-1.388871988739343,2.5035782706655683,1.0,0.5071973909711678,0.512037964907623,0.4048301788150434,0.772914696888839,-0.3449610630757272,0.1880330910381125,-0.4982452136945741
6.1000000000000005,0.254762476025188,-2.1255407600519525,-0.9632911850917868,0.1120491258370058,-0.019703120987793053,0.24484055496741877,0.0009563710622719139,-0.0587689360871986,0.998271101051346,-0.8025513617146592,-2.0564900983771275,4.133676052093506,-3.879885812798971,-1.3890158770777044,2.503474590902221,1.0,0.5076364750389085,0.5124626927519591,0.4046040155483907,0.7728803664208843,-0.3449628204382673,0.1880272978865275,-0.49829943504471946
6.2,0.15846136636804248,-1.971246160461449,-1.0406312877693669,0.10647684058994625,-0.019028384966615165,0.2431987060298194,0.0009240402898725693,-0.05914465450762182,0.9982488197467582,-0.8014119279977366,-2.057923409865102,4.133467494585237,-3.8798960590020615,-1.3891476126173803,2.503420710168491,1.0,0.5077966232934358,0.5126360509017371,0.4044397296507519,0.7729041826549141,-0.3449712098638818,0.1880288233996434,-0.49825610921546604
6.300000000000001,0.09742855347220958,-2.5537685580372926,-1.2724697885941687,0.13532648634221767,-0.01653472425053485,0.23077051342744898,0.000873268584742904,-0.05972659116877125,0.9982143505096263,-0.7999064633965002,-2.0590340099730433,4.133304119110107,-3.879984041144644,-1.3893278283019606,2.5033330915180065,1.0,0.5083061421426167,0.5132031578982552,0.403795901046087,0.7730462123480912,-0.344977224034395,0.187993867800191,-0.498044751143225
6.4,0.3219787456406519,-1.7146284017023696,-0.8706109478865267,0.0960428024911375,-0.0006006933230885761,0.22604726121830063,0.0008838727651936291,-0.05919290239905784,0.9982460307761577,-0.798335744848149,-2.06014756683974,4.133106206808374,-3.880148014113296,-1.3894518229300736,2.5032553672790527,1.0,0.5084902924469396,0.513371546272814,0.40376832787906725,0.7730021465085404,-0.3449599885191509,0.1880091892505424,-0.4981192955220769
6.5,0.3578255541040383,-0.9147256420327038,-0.6520928054631174,0.06089449440601578,6.025385239095222e-05,0.2363848222345355,0.0009002120539684351,-0.058741740421787855,0.9982728068912203,-0.7970847190094336,-2.0614218226617207,4.132956951878877,-3.8802694282927455,-1.3896744738081117,2.5031774103525737,1.0,0.5089085097126241,0.5137092278589218,0.40378817056146765,0.7728655380331735,-0.34497784055092606,0.18805972020677866,-0.4982998006072861
6.6000000000000005,0.12607310224714435,-0.44551362097731884,-0.4192534344621329,0.031239033166934452,-0.02255609730585037,0.2566010132115293,0.0009493174473006952,-0.05876207459719529,0.9982715643655337,-0.7958772683772375,-2.0629473273590753,4.132792843501226,-3.8803287945189417,-1.3898152498037117,2.5031194566575783,1.0,0.5090702427993027,0.5139067302683769,0.40364339124191567,0.7728939909772551,-0.3449609926771256,0.18803592626534768,-0.49827631157420643
6.7,0.020118703140925828,0.45340174088852586,-0.12380819711263286,-0.02025081545237994,-0.016760578736176392,0.2580995499498033,0.0009617300902603432,-0.058680446552382026,0.998276349267482,-0.794435195588116,-2.0642082730527096,4.132625657370314,-3.88043166644693,-1.3899557539041447,2.5030463881722746,1.0,0.5095337522674972,0.5144410709545887,0.4030364738725161,0.7730252825846327,-0.34496999160793396,0.18797630231309587,-0.49808887474392183
6.800000000000001,0.42806871895802256,-0.13076044496034744,-0.21673410081585154,-0.008430894708390637,-0.004459097841528096,0.24387068808594423,0.0009785023023913938,-0.0582239817360712,0.9983024764177201,-0.7927394780465818,-2.0653328323559346,4.132420820216144,-3.8806138908898173,-1.3901172480670596,2.5029296007803223,1.0,0.509790660254221,0.5146776901022462,0.40286382798471054,0.7730255128838048,-0.3449720359042773,0.18799387487794958,-0.4980804692849965
6.9,0.15262975683726815,0.01948182204436169,-0.4939291127899755,-0.010093745449848916,-0.01991805616353966,0.2586993368780346,0.0011573143683426773,-0.05569731707683977,0.9984456670348807,-0.791236287900849,-2.06654994226444,4.132249355316162,-3.8809152875543322,-1.390317854727956,2.50286039738358,1.0,0.5100590530706598,0.5149441756948164,0.4029394817085104,0.77290587453113,-0.34495485718701824,0.1880147966615799,-0.49827009929821986
7.0,0.12065056148942233,-1.5385735818460744,0.21035015063308793,0.06037996655853825,-0.0359554396182688,0.2532718449352071,0.001219916853313402,-0.05469490449979112,0.9985023641202786,-0.7901072943182206,-2.0678116107394073,4.132112958718709,-3.880992929318098,-1.3904464439526742,2.50278902053833,1.0,0.5104925767153241,0.515339820591327,0.40274774793664625,0.7729077462726737,-0.34495219511799585,0.18801310005116192,-0.4982696790334773
7.1000000000000005,0.254671256512327,-0.8545582337215363,-0.45710093347901726,0.040675300465823475,-0.027011391558177552,0.2556697100203925,0.0012134220146766378,-0.05459880049466301,0.9985076328165219,-0.7900836744500271,-2.06779207805776,4.132071018218994,-3.8810118637480677,-1.390467001957673,2.5027700074815113,1.0,0.5107041160400917,0.515526094559259,0.4025685082674192,0.7729267055513109,-0.34496276875276244,0.18801182345842196,-0.49823342948849264
7.2,0.2317687366142941,-0.7279405065162226,-0.4518836593412665,0.019006137260018572,-0.0246747753293566,0.260209013929792,0.001265356835541325,-0.053593598967287916,0.9985609521427782,-0.7900237868609379,-2.067795896864999,4.132058620452881,-3.881024748831326,-1.390456480677621,2.5027957761935165,1.0,0.5107675573056688,0.5155876557751775,0.40247344935592516,0.7729465592261946,-0.3449813258515955,0.1879945508590424,-0.49819629689648376
7.300000000000001,0.0707448253634528,-0.508066092183576,-0.9321507009682594,0.001556309450416844,-0.03545853003239922,0.2792545753414619,0.001353555297659635,-0.05202417737269674,0.9986440934947604,-0.7899444432116557,-2.06780974535638,4.132058620452881,-3.8810300827274986,-1.390476504474472,2.502770695195298,1.0,0.5107914376104046,0.5155913391769419,0.40247497590697306,0.7729502945437317,-0.34497279241095724,0.1880094502599109,-0.4981907880259436
7.4,-0.2707823429959656,-0.1563790763117274,-0.8385142923258292,-0.02253126566215195,-0.04991559336678734,0.28736485577183823,0.001396139425000587,-0.051209918673944844,0.998686898002924,-0.7899331921250072,-2.0678278408446253,4.132071160558445,-3.881017514624241,-1.3904759807913554,2.5027580634159827,1.0,0.5107809269034377,0.5156064207522146,0.40252534826351477,0.7729285362814426,-0.3449562680114718,0.1880069947903154,-0.49823691239343026
7.5,-0.7788338453558101,0.06833690163848494,-0.8418128167483322,-0.03640612826851036,-0.0787948489545769,0.31930211524188756,0.001407524169717482,-0.050912177781399684,0.9987021128371333,-0.7899534545337997,-2.0678327948181043,4.132068119965516,-3.8810011256594508,-1.3904899915998064,2.502757016823236,1.0,0.5107901438544789,0.5156029979963793,0.40250449745508443,0.7729359886965819,-0.34496515682153606,0.18801107600089317,-0.49821765650939853
7.6000000000000005,-0.6779478635906175,-0.40696131863700696,-0.8528605963269511,-0.00647465703915851,-0.07904210955125462,0.31884878567138325,0.0013552831475157484,-0.051651070649979924,0.9986640002062452,-0.7899034786151399,-2.0678504459175575,4.13203560311829,-3.8810461994164083,-1.3904468357434323,2.5027421613458283,1.0,0.5107986273130133,0.5155931255517296,0.40254448565441997,0.7729081541059832,-0.3449745775118399,0.18802188985918578,-0.4982502334377672
7.7,-0.3453147868214672,-0.6403643174566714,-0.8510170259738203,0.0023053742100227178,-0.06713284300760966,0.3092325151501553,0.0013190444044077385,-0.0521223396521089,0.9986398159713156,-0.7899782139068001,-2.0678386296778024,4.132058620452881,-3.881012887955514,-1.3904516214133655,2.5027476022743818,1.0,0.5107942972973817,0.5155865214848735,0.40251335669105726,0.7729278078874644,-0.34498264240928916,0.18801422708506765,-0.49821705173968944
7.800000000000001,-0.6147778517519775,-1.1540885817969122,-1.1858885955320373,0.034678660905431265,-0.10037686257223823,0.32480073626255845,0.0013282919770067822,-0.051854972861361814,0.9986537405145085,-0.7899421961603701,-2.0678074046779575,4.132071018218994,-3.8809861477301757,-1.3904584089862269,2.502761636761528,1.0,0.5107976024916683,0.5156161204605227,0.4024828126412201,0.7729373345323582,-0.3449671633858819,0.18802856235296384,-0.4982075800416816
7.9,-1.29838636867273,-2.176710182894537,-1.4377602537115233,0.07840057561409489,-0.1301252825792968,0.3422258070814568,0.0013403404702277504,-0.05165022917738397,0.9986643266434674,-0.7899404262674266,-2.067796764216039,4.1320876581915496,-3.880989345524338,-1.3904687678624224,2.502768302785939,1.0,0.5108073916141052,0.515600296387464,0.4024918347769987,0.7729352758120356,-0.34496097010630394,0.18804128584876587,-0.49821026015632436
8.0,-0.43294512572351446,-1.891560752824588,-1.3034899326002642,0.07974131674265054,-0.09014514525729457,0.3113995007660907,0.0013738747975015314,-0.05128703615746922,0.9986829771491752,-0.7898995307358828,-2.067824173610799,4.132065444023578,-3.8810099934588163,-1.3904340902911585,2.5027527809143066,1.901218435263921,0.5107914175493173,0.5156047058512659,0.4025116831555391,0.7729362916887578,-0.34494783143708596,0.18803114191628603,-0.4982216095744349
8.1,-0.7542945048283178,-1.7180916965336424,-1.333628094709301,0.07873023530596272,-0.10518141541333713,0.33130037273864654,0.00137760629805573,-0.0512898212276926,0.9986828096627136,-0.7899068846129272,-2.0678332031170594,4.132071018218994,-3.881014049966908,-1.3904756047388624,2.502747808030277,2.0,0.5107995693363583,0.5156023326134003,0.4025097564926725,0.7729218036795092,-0.3449772525558296,0.1880254891784102,-0.49822584842124096
8.200000000000001,-0.9105233464095558,-1.9303475608142118,-1.5782215052916482,0.08282502768264631,-0.11245806175722653,0.33072777874524106,0.001340130686603812,-0.05172633319107259,0.9986603975181315,-0.7898857150846126,-2.067813964029649,4.132082462310791,-3.8810036552902965,-1.3904480453415757,2.5027406743725242,2.0,0.5108026251229714,0.5156104186413758,0.4024931356573208,0.7729320694942569,-0.3449727112021939,0.18802215594049476,-0.49821432471238847
8.3,-0.47552806798855773,-2.7117085956093323,-1.8479196018484774,0.09511975935127477,-0.09000448223041647,0.31302923513740455,0.0013359337444835862,-0.05192698782436151,0.9986499802272495,-0.7898853929906481,-2.0678159199156703,4.132033372073073,-3.8810524016425045,-1.3904793205901835,2.502744267076463,2.0,0.5108062800931513,0.5155946974594702,0.40253360845206076,0.7729076885322458,-0.34497833962433355,0.18802749168039035,-0.4982462368850961
8.4,-0.7260272503355173,-2.918665132930574,-1.7914443580206543,0.1122755940926329,-0.10150413763395548,0.3069220651297367,0.0013052932539303847,-0.05237652488492243,0.9986263707506463,-0.7899389575741868,-2.0678342746512786,4.1320519292939615,-3.8810284348574187,-1.3904517178273073,2.5027732485035106,2.0,0.5107902337977528,0.5156116856868903,0.4025338312170431,0.7729165767592853,-0.3449652794030753,0.18801546627340399,-0.49824602940621676
8.5,-0.7745844955093784,-3.38387761830716,-1.6874420283633014,0.14380594541784197,-0.0926290199851722,0.2831291522022231,0.0012489672071721587,-0.05306781027174677,0.9985899472362952,-0.7899164751847928,-2.0678088823622196,4.132039661970475,-3.881021342989271,-1.3904584089862269,2.5027339140917433,2.0,0.5108127652540783,0.5155943787282395,0.4024926284386376,0.7729262880182661,-0.3449889881707981,0.18803113423866263,-0.498208634899191
8.6,-0.6756001968576599,-3.960618609266848,-1.3972333235759093,0.18784002272429848,-0.1156874712690574,0.2849839769372915,0.0011773428163562771,-0.05415102806952061,0.9985306860729926,-0.7899129602462877,-2.067803998986715,4.132056181039832,-3.8809997044005335,-1.3904596286927509,2.502742507740773,2.0,0.5108065782495416,0.5155984263167197,0.40252051776481207,0.7729240522910482,-0.34495999543154116,0.18803291651586718,-0.4982315056762202
8.700000000000001,-0.21385251726337032,-4.2434382845357606,-0.6516158059205092,0.2185522471616826,-0.04531693915253851,0.26806353950297657,0.0010903070627231728,-0.05562907373638977,0.9984484185442585,-0.7899160647339408,-2.0678159199156703,4.1320545921833185,-3.881005827370269,-1.3904340902911585,2.5027692069499827,2.0,0.5108009958451307,0.5156266930061715,0.4025143801787324,0.7729198647372153,-0.3449516163951507,0.1880255928651132,-0.4982465669412087
8.8,0.026697676536490494,-3.8734766118584156,0.23505283062521998,0.22306765113237612,-0.038294430639328345,0.26935685226317396,0.00100327130909007,-0.0571071194032589,0.9983661510155244,-0.7899085944039481,-2.067819884045814,4.132056599523788,-3.8810198594109004,-1.3904221693622034,2.5027470886976197,2.0,0.5108108366218513,0.5155942798569979,0.40250696930553337,0.7729204086848481,-0.344979504168924,0.18803650539754088,-0.4982222959479947
8.9,-0.12087353673263923,-3.476376481682558,0.5396297301942994,0.23640772014384714,-0.029869072322670904,0.25611198176243455,0.0009071831165764712,-0.05877663597897749,0.9982698668318022,-0.7899492672777083,-2.067850964069589,4.132023334503174,-3.881002026371314,-1.390409098942763,2.502776622772217,2.0,0.510812120411748,0.5155940874556063,0.4025324242847097,0.7729098596812793,-0.34497573656783465,0.1880341154621769,-0.49824217144808386
9.0,-0.39894920271720974,-3.7684712620993595,0.7705298030046958,0.25326646549276727,-0.0585009248823439,0.2682896419447719,0.0008016918290528246,-0.060645040298799024,0.9981590230426172,-0.7899255752563477,-2.067849517637054,4.132056455387399,-3.8810262098117385,-1.3904449286873728,2.502731104121878,2.0,0.5108178950713537,0.51559911555129,0.4025023431282763,0.7729280874225639,-0.34496912922288087,0.18804269911412616,-0.49821522946050045
9.1,-0.6352710768019006,-3.6520191345879036,0.34041137876610267,0.2504400745964542,-0.08314144061112425,0.26714049898409625,0.0008186922410526956,-0.06039692549923948,0.9981740817310386,-0.789905707260658,-2.067856464666717,4.132014082766127,-3.881015041237425,-1.3904492201697616,2.5028080804320587,2.0,0.5108166590625561,0.5156100070554969,0.4024973208819349,0.7729235420789642,-0.3449722365812729,0.1880311567286803,-0.49822448573659717
9.200000000000001,-0.6865418561795404,-3.8017843578637676,0.22174759019524853,0.2464252272741088,-0.09078849898318107,0.2653704148442812,0.0008366158466959733,-0.06036433962539185,0.9981760440744362,-0.7899443131812075,-2.0678298334786276,4.132040324490121,-3.881023784677023,-1.3904584089862269,2.502767091609062,2.0,0.5108287139703971,0.515593446584174,0.4024993744781838,0.7729187533638316,-0.3449826160772568,0.18803790468293513,-0.49822218106527916
9.3,-0.5818169006875001,-3.5069527406341017,0.18517507773638597,0.2523520443370301,-0.10695939523162769,0.27347401099761126,0.0008528866735774396,-0.060617526827953044,0.9981607009304023,-0.7899382980050449,-2.0678511213706314,4.132022166932813,-3.881035371466015,-1.3904584089862269,2.5027429983649454,2.0,0.5108154341499975,0.5156100123957741,0.40249167206898434,0.7729297395894908,-0.34496692915588933,0.188016003599961,-0.49822426460096986
9.4,-0.1579282037441248,-3.1943190715355683,0.2135904706316286,0.253293968593742,-0.05607570220187421,0.2538161574885252,0.0008475853715280255,-0.06052421195405118,0.9981663666686423,-0.7899389266967773,-2.067825163082639,4.132028475806187,-3.881007844796972,-1.3904367680531449,2.5027342945803692,2.0,0.5107876018341798,0.5156200931867144,0.4025006217778444,0.7729336428425271,-0.34496998886017777,0.1879972247584439,-0.4982231769308937
9.5,-0.08638664407281378,-3.669441272282894,-0.05904882704933734,0.26002987932562566,-0.05008341648381363,0.24592827316868496,0.0008462123799275738,-0.060321921504323334,0.9981785916965678,-0.7898828242000451,-2.0678565205032164,4.132039521536814,-3.881028734752954,-1.3904269123040474,2.5027384249400844,2.0,0.5108216052286655,0.5155903406796212,0.40248551285876644,0.7729364182454439,-0.34498576911662504,0.18802910607541556,-0.49819591299547505
9.600000000000001,-0.16659478823653712,-2.982096533524561,0.7934611716284886,0.25258473439800566,-0.06106790997596495,0.25369461919172265,0.0008503249010679294,-0.060005400592214854,0.9981976861740145,-0.7899450082427156,-2.067854363975465,4.132065655673135,-3.8809955694756617,-1.3904419278581825,2.5027676537015853,2.0,0.5108041647807752,0.5156030312886587,0.40250178586040064,0.7729342082934757,-0.3449683513296748,0.18803567564662407,-0.49820892295777
9.700000000000001,-0.5291625719422691,-1.7804826015344273,0.9771945480818864,0.14762321550219634,-0.08578824837574127,0.2546689389000371,0.0002987706894289926,-0.06978725865933343,0.9975328828350115,-0.7899026870727539,-2.067870380375559,4.132032658365401,-3.8810385275135872,-1.3904814459611328,2.502767298909989,2.0,0.5108087647184539,0.5156052923853696,0.4024989838241217,0.7729386164375777,-0.34495492324718163,0.18803872405568542,-0.49821023112999585
9.8,-0.18012945006423725,-1.0331673376245312,0.9009222791319309,0.07386551757885053,-0.047363698627890645,0.23915940224698679,-0.00016330086741032232,-0.0779386186437575,0.9969484586826997,-0.7899447053662326,-2.0678720188010873,4.132036652758037,-3.881071706811422,-1.390438072887675,2.502730969399719,2.0,0.510804676903762,0.5156122958685752,0.40247816712502266,0.7729333574364414,-0.34497876876157624,0.18801769882097874,-0.49820981423075233
9.9,0.17231815389175154,-0.4935122132963199,0.49891730146287394,0.037879802789734816,-0.035276395365983995,0.24440542311981386,-0.0004672865107632567,-0.08321146357025931,0.9965201138062488,-0.7899361418994457,-2.0678614945854124,4.132029805742593,-3.8810550858135,-1.3904435247939246,2.502795491777749,2.0,0.5108113794240536,0.5155960797448697,0.402474570106436,0.7729477438706756,-0.3449798334515158,0.18802291762052015,-0.49818478720898723
10.0,0.10657392973932055,-1.3182467299522078,0.29554139110308886,0.07446901174021701,-0.04437281039373101,0.2492314940595567,-0.0006512315349116656,-0.08629013892994082,0.9962698347402676,-0.7899286794547911,-2.0678397617735804,4.132056578217063,-3.8810676019174277,-1.3904662045988294,2.50273204325484,2.0,0.510797566846064,0.5156101607289727,0.4024906078820832,0.772940226150904,-0.3449732084725729,0.18802213707708032,-0.49820133299991853
10.100000000000001,0.1521994116212545,-1.0155280880430115,0.2740153268093022,0.06043734287588257,-0.032290110384701615,0.24227422790851072,-0.0006709091071535305,-0.08636624194218757,0.9962632266679164,-0.7899692090423839,-2.0678542845766676,4.132046222686768,-3.8810409476286574,-1.3904486130942457,2.502767580410388,2.0,0.5108205699466497,0.515591528541396,0.40247623176391745,0.7729369811023041,-0.34499265153364456,0.1880260173587218,-0.49819143953751277
10.200000000000001,0.19115731290004145,-0.1256374226641332,0.45775108914661233,0.03451715780659748,-0.025648847207966324,0.2429037568303475,-0.0006679058306806289,-0.08628837498851495,0.9962699567439774,-0.7899371193480367,-2.0678446674344477,4.132046222686768,-3.881027044359573,-1.3904427838116482,2.5027667278364834,2.0,0.510820281493171,0.5155987695613601,0.4024609278090774,0.7729430130560601,-0.3449876379233815,0.1880215217388917,-0.49818724954665083
10.3,0.576138473575563,0.0011961968582172577,0.03243535163968164,0.003885547126787743,-0.021043729042394897,0.24232279378596028,-0.0006306708393199861,-0.08597812449219316,0.9962968177992324,-0.7899618148803711,-2.0678274427455556,4.132000545390259,-3.8810474668544424,-1.3904456131210439,2.5027523987391995,2.0,0.5108101074982245,0.5156140405325105,0.40247433361498747,0.7729383861879685,-0.34496863232634173,0.18802981857496748,-0.498204457220825
10.4,0.4082272166431831,0.83189664125912,-0.4873290473141752,-0.042305653879114224,-0.0005042138051669642,0.23730421593458842,-0.0005922034737011614,-0.08510792257165539,0.9963713137646039,-0.7899194107263752,-2.0678482093065984,4.132025001733224,-3.881059785882467,-1.3904340902911585,2.50274300405256,2.0,0.5107998835375835,0.5156108719412135,0.4024726393796611,0.7729482812032435,-0.3449681640430271,0.18802810244398988,-0.49819007725269626
10.5,0.4789147678723588,1.0979308706338748,-0.8961134739986152,-0.05845031280608539,0.017134925262117545,0.2369324721828559,-0.0005629654299182359,-0.0846030984208121,0.9964145611230463,-0.7899297777678057,-2.0678397617735804,4.132033451486089,-3.881037326429642,-1.3904584089862269,2.5027679434905896,2.0,0.5108205778289903,0.5156097409318944,0.40248714377531697,0.772924202606891,-0.34498446907366725,0.18803994077016628,-0.49821167569378977
10.600000000000001,0.8080540362791246,0.782337694463308,-0.8803017248837843,-0.061126421003241824,0.04133790302097033,0.23722814403967976,-0.0005494076179764733,-0.08482520223615961,0.9963956914623789,-0.7899302469460924,-2.0678263041045777,4.131998538970947,-3.881047626534933,-1.3904268410519482,2.502754379123956,2.0,0.5107973088227342,0.5156013474372407,0.402493023071397,0.772942881601433,-0.34497001297271485,0.1880210090328839,-0.4981998515591252
10.700000000000001,1.2121314065395445,0.7547065473558325,-0.858659963048462,-0.07438302645895113,0.07517207988277418,0.24140947484383354,-0.0006544443927324031,-0.08614699114967311,0.9962815866519922,-0.7899489610583655,-2.0678412302425477,4.132034778594971,-3.8809505228463665,-1.390453944840566,2.5027442737604444,2.0,0.5108196776186051,0.51559260926735,0.4024905710437603,0.7729314012127463,-0.34498103078351305,0.18804734135507492,-0.49820009517073915
10.8,1.6561140166052155,1.022599624177464,-0.9491185515650121,-0.05650622144512917,0.11378262104186518,0.24553880543137196,-0.0007460615227700648,-0.08732516522476334,0.9961794757485096,-0.7899694780892724,-2.0678373944949744,4.132032506007509,-3.881038089791769,-1.3904559470164766,2.5027483439671836,2.0,0.5108297766081955,0.5155761807606158,0.4025287576652694,0.7729040373257863,-0.3449805214501657,0.18804894216822177,-0.498242294727058
10.9,2.584111242955131,1.3819626430572036,-0.5307116858091476,-0.08175720515759391,0.17902691636802667,0.24121472282870865,-0.000778940134563026,-0.08792339241086994,0.996126773663838,-0.7899100671924849,-2.0678487068478053,4.13203180274024,-3.8810463770261467,-1.390423716806663,2.5027874730938704,2.0,0.5108196833354787,0.515606656539614,0.40247207603290047,0.77292888128502,-0.3449849333909213,0.18802899575570448,-0.49820822651161656
11.0,1.9807088826274415,0.42639055213489896,-0.8596266975502017,-0.06596844100128593,0.2250536398222213,0.24022457896479668,-0.0007667335453668798,-0.08762160519984097,0.9961530494910492,-0.7899482781777153,-2.0678202795216265,4.13201880051298,-3.8810313024039624,-1.3904421284513158,2.5027788897673138,2.0,0.5108357288560084,0.5155842432374287,0.4024659631119647,0.7729363023298744,-0.34499774064687666,0.1880338267186899,-0.49818602097880804
11.100000000000001,2.8795622629514233,0.5654698259468621,-1.1194737194863722,-0.07497517260172219,0.24218337130140355,0.23578423239008428,-0.0006848609802585681,-0.08613399112499476,0.9962833042578542,-0.789969742401451,-2.0678617559412316,4.132005333743398,-3.88102606450199,-1.3904487231797884,2.5027700068095675,2.0,0.510827653992943,0.515577449367168,0.4024754823638674,0.7729367395635991,-0.34499506385313916,0.188041014437902,-0.49818448333817655
11.200000000000001,3.1661761406887665,1.1647860214155075,-0.9773915747894963,-0.07809046106465446,0.2750203064301804,0.24233346314965434,-0.0006385058584370328,-0.08579627931640733,0.9963124818332423,-0.7899426393510068,-2.067838833610023,4.132012793064176,-3.8810247314038513,-1.3904369119083728,2.502766069717435,2.0,0.5108093615074805,0.5155913088586794,0.40249407259095527,0.7729320350913338,-0.3449841191527625,0.188032539974967,-0.49820255978118383
11.3,3.1070492957485207,1.098242919396272,-0.5429618284107615,-0.0896591732355249,0.27468079314374827,0.2531373544438309,-0.0007019677467480632,-0.08696351307266942,0.9962105884885954,-0.7899503707885742,-2.067825910115354,4.13200993275784,-3.8810347209340494,-1.3904584089862269,2.50276610543047,2.0,0.5107916119693295,0.5156136620901509,0.4024954395408948,0.7729436669898856,-0.3449661982801996,0.1880121155811886,-0.4982046307482711
11.4,3.2279823331879274,1.0619289768272449,-0.7712951106946156,-0.10188691937375374,0.29973867811828886,0.24508523426290832,-0.0007703218137697874,-0.08818868984486136,0.9961034568370202,-0.7899618148803711,-2.067803998986715,4.132046222686768,-3.8810107205904507,-1.3904460112201136,2.50278902053833,2.0,0.5108217744592042,0.51559382533955,0.40247225726160163,0.7729302249464619,-0.3449940830653912,0.18803293931778553,-0.4981983176864368
11.5,3.6306149559207403,1.4093769563696124,-0.9574765437795641,-0.10654195860546552,0.3179411066025057,0.24018500137891768,-0.0008020485656982442,-0.0888271524895205,0.9960465453374371,-0.7899343718002937,-2.067826122769636,4.132042923982787,-3.8810443944420334,-1.3904460112201136,2.5027562170642854,2.0,0.5108073435840721,0.5155962143994121,0.4024939300340917,0.7729258308935669,-0.34498478518612985,0.18802293238991774,-0.4982153498468965
11.600000000000001,3.5717295581901225,1.2424049246843225,-0.9274006559786754,-0.09262094879597747,0.3266744206776208,0.24143094397727993,-0.0008604596386669272,-0.08967955208194067,0.9959699588195287,-0.7899664668008103,-2.0678371449338258,4.132018682582735,-3.8810425789372074,-1.3904597578825728,2.502734172735906,2.0,0.5108214333454529,0.5155899700891744,0.4024611289883378,0.7729383520855886,-0.34500637741698653,0.18802140738076217,-0.498181547012111
11.700000000000001,3.5856716061175975,1.2194781329766267,-0.6557107699175724,-0.0909303604230607,0.32390837972469205,0.24153866725343706,-0.0008490385628741615,-0.08937398467136044,0.9959959907074232,-0.7899312598241971,-2.067813186950358,4.132025958149874,-3.8810386769898693,-1.3904368232564708,2.5027527809143066,2.0,0.5108169199885593,0.5155912608375393,0.402469403741288,0.7729397137315162,-0.34498710259168985,0.188028614590889,-0.4981900622022317
11.8,3.5194705467887144,1.360543916727001,-0.7108673343888785,-0.08210009580463862,0.3238729443849197,0.24457249961489258,-0.0006654393861471374,-0.08621333456524082,0.9962750384704611,-0.7899534212797968,-2.067821442021311,4.132040921465352,-3.88102936200372,-1.3904619363146076,2.5027373326569706,2.0,0.5108268023256723,0.51559272136216,0.40246438581158156,0.7729322801826365,-0.34499691046144576,0.1880210096270302,-0.4981976735820429
11.9,3.2312614412912004,1.1698385297263991,-0.9150305400626584,-0.08230471336115103,0.32839036917124254,0.24006147193917804,-0.0006550820781668211,-0.0860649059696785,0.9962890776419996,-0.7899310293384186,-2.067818542070512,4.132035734067401,-3.8810158657694007,-1.3904556819451914,2.502802373776873,2.0,0.5108112301661807,0.5155901430568348,0.40249947422580995,0.7729316245211812,-0.34497931675501475,0.1880292656776095,-0.49820775794344047
12.0,3.425569722246952,1.0867501115448281,-0.7886577429297403,-0.08215799640264987,0.3278931338338071,0.2383488691523922,-0.0006936388663768142,-0.08676696515619697,0.9962282927780458,-0.7899590546630519,-2.0678184901276406,4.1320377120167,-3.8810118637480677,-1.3904490014555426,2.5027708723194686,2.0,0.5108143210493507,0.5155970801362586,0.402489626408204,0.7729231765801005,-0.3449923696970908,0.1880217675389809,-0.4982146554324052
12.100000000000001,3.3015832573842125,1.046460311250233,-0.6626083700936404,-0.07488059299726035,0.34026882425990135,0.24251172326649909,-0.0006924180715336686,-0.08690352932624687,0.9962164906017601,-0.7900906406281354,-2.0676918947161353,4.13204351436796,-3.8810025819892666,-1.3904554749741853,2.5027622446683786,2.9453954496208166,0.5108124064846863,0.5155907967635972,0.4024893446915613,0.7729262850231083,-0.3450036610476353,0.18801891594245085,-0.4982030901469105
12.200000000000001,3.3022570239734064,0.8405332314501757,0.6805684382176904,-0.03619187991159724,0.34418001253811886,0.23594244715853496,-0.0006795114987958636,-0.08687396351413669,0.9962190784603846,-0.7911469803413971,-2.06659007731586,4.13216352031557,-3.8809334150519703,-1.3903764987289462,2.502777576446533,3.0,0.5107995384220709,0.5155878550885546,0.4024973349554438,0.7729344751363931,-0.34497196735710733,0.18802926308512097,-0.4982084253673977
12.3,2.996450176812336,0.182360303388943,1.4587511886608848,-0.008337769517220272,0.35644736345291256,0.1976993606451664,-0.0006737005674814624,-0.08675804085127226,0.9962291787909231,-0.7923234669118505,-2.0655115036742955,4.132275104522705,-3.880843063394064,-1.3901993780694044,2.5029121516071267,3.0,0.5104929767321594,0.5152426512362801,0.40282366742500936,0.7728863823485808,-0.3449510938033443,0.18804830427025593,-0.49829029503401
12.4,2.9145812670749756,0.1517805667688972,2.1239871666019257,0.03070439430320284,0.3423011739169564,0.1679650202584264,-0.0006779483824302895,-0.08675692619006968,0.996229237686135,-0.7938289320490076,-2.064441562110582,4.132490634918213,-3.8807205604443022,-1.3900413300544534,2.5029390545693144,3.0,0.5103341556809389,0.5150816736109662,0.40293145083982523,0.7728746725991623,-0.34497900198957554,0.18804083604087385,-0.49829195520504166
12.5,3.2144981552360417,0.1626462978815301,2.2412929658829124,0.030129227405036978,0.3619766533731631,0.14168822060741837,-0.0007061856583794657,-0.08718771230864159,0.9961915596097187,-0.7954198470802807,-2.063001601816199,4.132677677640005,-3.880643721664697,-1.3898558557786485,2.5030239623409467,3.0,0.5100690069928333,0.5148065272057644,0.402950378967722,0.7729550005011121,-0.3449863327729569,0.18804085967492654,-0.4981622551869088
12.600000000000001,3.973784638849991,0.5481051450055899,2.7728078407972125,0.02875808352636427,0.42018386523338186,0.10906343790363385,-0.0007310500328688605,-0.08763797463688516,0.9961520676521292,-0.7967526767278479,-2.0614739447423958,4.132872548726743,-3.8805544527039935,-1.3896641447607578,2.5031018257141113,3.0,0.5095360323555707,0.5143066263504839,0.403250643119727,0.7729913802491719,-0.3449636775463151,0.18802391558963602,-0.49812788960320564
12.700000000000001,3.6283944965163757,0.2483783935810907,3.3604636510557553,0.02341141457411836,0.4093368677115523,0.08609130880609303,-0.0007445146228466659,-0.08815406295975287,0.9961064451109005,-0.7978891797011146,-2.0603610510033814,4.132994174957275,-3.8804622715832817,-1.3895705381976526,2.503197878715239,3.0,0.5093256078616364,0.5140992066939555,0.40348439128765434,0.7729453496042222,-0.3449506941321115,0.18804460768062795,-0.4982004924377534
12.8,3.7124612912123016,-0.02085611195013365,3.3931875426719196,0.06792689515697935,0.435198935651206,0.061160254732632466,-0.0007563924381326936,-0.08849570638641523,0.996076256285669,-0.799315177746855,-2.059263845483297,4.1332032689024825,-3.8803544750182777,-1.3894245063922854,2.5032705693244037,3.0,0.508924916417921,0.5136748655109149,0.40383854992795803,0.7728899087103864,-0.34497527547589213,0.1880238676624097,-0.49827730583807595
12.9,3.870878246879585,-0.4993957699296603,3.598080106365649,0.08709774237353327,0.43535860386749836,0.042824125683130224,-0.0007626900479648404,-0.08822388000778582,0.9961003431598343,-0.8008908917349322,-2.058043828333186,4.133366107940674,-3.880270468439181,-1.3892691297360737,2.503384972230895,3.0,0.5087478165017496,0.5135090425459755,0.40389930802383106,0.7729256539947935,-0.34496833367373503,0.18803070259210314,-0.4982240831611893
13.0,3.533160782759168,0.22838705754122748,3.6451617232920936,0.036125396012476683,0.4273304209937466,0.019599498706005785,-0.0007549553069785191,-0.08783934847104453,0.9961342778544529,-0.802212059770285,-2.056538466420761,4.133537587600136,-3.8801962337889613,-1.3891156355487269,2.503397581330382,3.0,0.5084239569026571,0.513204457741883,0.403927142387454,0.7730091946828178,-0.3449872372684086,0.18801455652636997,-0.49808745978183844
13.100000000000001,3.6998109823016447,-0.2967107522755998,3.6744216727100656,0.07710684483552391,0.468868139854436,0.00010228784975285787,-0.0006952524176042678,-0.08703741870526709,0.9962046834869231,-0.8033660674131207,-2.0551728794952426,4.133715331561346,-3.880098922357066,-1.3889308474443909,2.5034877669829276,3.0,0.507930595146072,0.5127016101666267,0.40437643165050974,0.7729568993085935,-0.3449765575855004,0.18802105449314438,-0.49817355368886157
13.200000000000001,3.7613907209236386,-0.26477703338707825,4.100006611745656,0.12335512642127203,0.5043685412831029,-0.010465518277060555,-0.0006375254884446543,-0.08643214995647706,0.9962575056237966,-0.8046966156448557,-2.054169317285055,4.13390588760376,-3.8800305146018186,-1.3888161818133753,2.503592014312744,3.0,0.507714131055186,0.5124694896558215,0.40468287582809426,0.772871007155884,-0.34497185681598636,0.18803783319439188,-0.4983037202252642
13.3,4.025676075692396,-0.8949008286331885,3.7191410757139014,0.11719006885435385,0.4891977686847167,-0.0012247634264665108,-0.0006437087528803532,-0.08689080549209763,0.9962174099102946,-0.8062437200326265,-2.052923884797234,4.134052387187005,-3.8799415584868764,-1.3886634392341362,2.5037004679205235,3.0,0.5073207836480431,0.5121200317934151,0.40483237205809863,0.7729278821770759,-0.3449526070616259,0.18801711764379217,-0.49823664187569405
13.4,3.6836941383419703,0.18652527304010622,3.7798357546146977,0.10580412377505347,0.49340606377846175,0.0011625417280910176,-0.000665631509466991,-0.08747822110783157,0.9961661299521956,-0.8075564564645668,-2.051629112490352,4.134251687796413,-3.8798714941674914,-1.388501482532859,2.503775450390106,3.0,0.5071355341532006,0.511927825086982,0.4048686053651389,0.7729706608063669,-0.3449555552752635,0.1880069006953933,-0.4981720864402339
13.5,4.131880364472877,-0.2604770324131789,3.490986575008368,0.10719127207995234,0.5199001506231985,0.010150544104697007,-0.0006381349788906798,-0.08680292491863287,0.99622507366963,-0.8088276038640377,-2.050315185851146,4.134428982558034,-3.8798096229777803,-1.388288461965427,2.503830497824242,3.0,0.506810262322135,0.5115914201985795,0.4050532512765839,0.7729851394571162,-0.34497892780636225,0.18801059898783756,-0.49813203893773983
13.600000000000001,4.163767025126551,-0.6149905781308916,3.8376987019961577,0.1426853122701806,0.5300289385186661,0.007460384990722238,-0.0006278642586743854,-0.08631881423280074,0.996267350542205,-0.8100563221970456,-2.049150058301982,4.134612560272217,-3.8797141556320116,-1.3881705611411421,2.503900398481291,3.0,0.5063117062305391,0.5111044661076583,0.4055149645840987,0.7729285611527603,-0.34495953254962497,0.18802962909590745,-0.4982260720190419
13.700000000000001,4.107103476423976,-0.6960040913235027,4.178112880749811,0.1662676965926097,0.5401455733669145,0.010764504602597707,-0.0006944406806311408,-0.08668761317801506,0.9962352739086336,-0.8114768241058932,-2.0479560378497497,4.134785672140043,-3.8796280950067015,-1.3879738589631088,2.5039688323151217,3.0,0.5061483442127068,0.5108774640446186,0.40567226975571247,0.7729014081133095,-0.3449832205444413,0.18804814698355218,-0.49824480458435394
13.8,4.401721326881612,-0.7973005523969645,4.033798603024388,0.1966328574957331,0.57421170162269,0.011692050271294465,-0.0007194671336569256,-0.08690614187528725,0.9962162343229943,-0.8128023147583008,-2.0466338712123395,4.1349358558654785,-3.8795867548097323,-1.3878184758390097,2.5040955543518066,3.0,0.5058443523370673,0.5106160836029084,0.40575278882115884,0.7729472162493903,-0.34499029280070664,0.18803268245660726,-0.49817467729078085
13.9,4.364951824448959,-0.9724342308096583,4.287544010331543,0.19851467526832434,0.587369470400971,0.013616792434795095,-0.0007244359686597263,-0.08705212988694665,0.996203488174734,-0.8141325504435876,-2.0453554796669806,4.1351399421691895,-3.8795272924984587,-1.3876584620215624,2.5041349787239473,3.0,0.5053869554791158,0.5101503901089869,0.4061135374145162,0.7729247781452677,-0.34498098755734047,0.18803678972303373,-0.4982143828350466
14.0,4.3456190716734096,-0.6691929018237527,3.99295604737438,0.18267941836711493,0.5808696240295226,0.01254232716068057,-0.0007325850508669272,-0.08715684212213634,0.9961943293107688,-0.8153908358235913,-2.0442410155714215,4.135307636224969,-3.879489635406477,-1.3874944896094543,2.5041958909522655,3.0,0.5052037746715228,0.5099469035068285,0.4062674018733969,0.7729044943661287,-0.34498568188189005,0.18804985012257766,-0.49823766994678564
14.100000000000001,4.4480467183693415,-0.3983859129665535,4.18084056672327,0.16132278643392622,0.5766077563877776,0.013631091566902629,-0.0007423288890272138,-0.08724085634675871,0.9961869693141924,-0.8167864785664889,-2.042897251733312,4.13552624944045,-3.879427192826803,-1.3873184362994593,2.5042973602294007,3.0,0.5049089974518084,0.5096561884592394,0.40642191953668194,0.7729279790854131,-0.34500198219477274,0.18803537841382825,-0.498195411353201
14.200000000000001,4.381336648319848,-0.8963137372087007,4.405674314645532,0.1746662110054322,0.5749089533326565,0.017965884473301545,-0.0007063468536435935,-0.08729722938192432,0.996182057573185,-0.817997932434082,-2.0415994344729955,4.135719384356478,-3.8793493602383258,-1.3871701184279248,2.504378297271288,3.0,0.5043929170145064,0.5092088257644827,0.406750676483547,0.7729424633294395,-0.34496001377287855,0.1880167654202045,-0.49820902561169744
14.3,4.248294256929305,-0.830518159323675,4.3346301365898485,0.17977455463629982,0.5682160890377892,0.0177927365834114,-0.0006579505072446387,-0.08736356440749243,0.9961762694964594,-0.819345297721716,-2.040410410608836,4.135880134701729,-3.8793351982723325,-1.3870441489059993,2.504468864798546,3.0,0.5042120535306687,0.5090350665320508,0.40690756655147753,0.7729199721530177,-0.3449589619674993,0.18801065445625123,-0.4982469518383588
14.4,4.140186293759207,-0.781141612008723,4.345551228058205,0.1877539599410761,0.566562368464531,0.01926402589150966,-0.0006727753621858983,-0.08756587196920908,0.9961584716814693,-0.8207461100519163,-2.0393100130412884,4.136046991163933,-3.8792618713774623,-1.3869110626840664,2.504526926904871,3.0,0.5038989484636108,0.5086720779035878,0.4071489383957819,0.7729094888641729,-0.3449674040610745,0.1880329033434292,-0.49824897332491025
14.5,4.437523699316877,-0.7448423312016811,4.679447487017335,0.17989964472845413,0.5665464444149032,0.01863270214400958,-0.0006876002171271577,-0.08776817953092571,0.9961406738664791,-0.8220291279193431,-2.038109599687968,4.136183261871338,-3.8791867659875923,-1.3867398749353648,2.5046047111759715,3.0,0.5034509962400372,0.5082837205576664,0.40724935970411885,0.7730035267219268,-0.34496260919360716,0.1879887605194802,-0.4981230489067451
14.600000000000001,4.858452005007023,-1.0023701040385569,4.692025128762311,0.21169288242562284,0.6102581785350902,0.021968968859577716,-0.0007115333263763808,-0.08806935024131242,0.9961140556441552,-0.8230405681671635,-2.0367002541722425,4.136341349263345,-3.8791799396556828,-1.386598106860973,2.5046600785101614,3.0,0.5032660770699806,0.5080780381866896,0.407369104578061,0.7730084831956814,-0.344970840898345,0.18799856298361037,-0.4981059567536791
14.700000000000001,4.71118038780617,-1.38821558670785,4.986854716625841,0.20751353816715332,0.593777085848151,0.01870187337410102,-0.0007345045769601733,-0.08843850131627161,0.9960813485508682,-0.8242538920202759,-2.035467362319172,4.1365697256174885,-3.879184484001614,-1.3864496046404986,2.50477933883667,3.0,0.5028262262535755,0.5075799097645929,0.4079570812230102,0.7728754090188104,-0.3449450466124008,0.1880418693875748,-0.4983139294749866
14.8,4.533708535915812,-1.2142351903359991,4.727620385150352,0.2172910289964426,0.5917923146163608,0.01902120287762864,-0.0007196250561786858,-0.08889227349683244,0.9960409414925663,-0.8258070145278681,-2.034383145059228,4.136749629192665,-3.8791148023297533,-1.3862879912005823,2.504857981791262,3.0,0.5026237540095829,0.5074120723650039,0.4081596980455759,0.7728406693692357,-0.3449322513797382,0.18802323740867669,-0.498383691468107
14.9,4.5354165226006895,-0.9872457995264188,4.8430395791395595,0.22812811279096792,0.5995854251621485,0.02118820016597096,-0.0007373146532919931,-0.08909984265465486,0.9960224245129348,-0.8274107907754712,-2.033232444181132,4.136910811062864,-3.8789026384708847,-1.3861162369851698,2.5049387067594013,3.0,0.5023158761053659,0.5071099156954271,0.40815899270333295,0.7729430404617943,-0.34495163776485155,0.1880027519889262,-0.4982192178646002
15.0,4.432188681992141,-0.08514764211191128,4.122687637223609,0.18369605201868672,0.5942276023635474,0.02101324833791872,-0.0007746041103408438,-0.08915924861146679,0.9960170808245573,-0.8285850519470237,-2.031731554342549,4.137053585595701,-3.8787755674993516,-1.3859874892382988,2.5050404537780806,3.0,0.5018790836632309,0.5066536125128047,0.4082435699665836,0.7730135545488684,-0.3449758521434013,0.1879867936941703,-0.49809905773675456
15.100000000000001,4.513600839659225,-0.6491158308108981,4.613175059243623,0.2134250026854682,0.6105003836340955,0.018037672577010482,-0.0007305891959793803,-0.08843929528497584,0.9960808951719232,-0.8291893076155347,-2.030543805319777,4.137190341949463,-3.879003679026208,-1.3858479857671067,2.5050406526777906,3.0,0.5016935362323092,0.5064442699462237,0.40849298249754223,0.7729298206832643,-0.3449681707169949,0.18802762734919085,-0.49821889250021506
15.200000000000001,4.478380186247187,-0.3765285865161775,4.385182965021938,0.20800556770576978,0.6054108028525935,0.029699908455781614,-0.0006480144155526078,-0.08738187392485136,0.9961746760920573,-0.8297472370293753,-2.0300385747185103,4.137289487061201,-3.879202542128248,-1.385753461453755,2.5050981068306877,3.0,0.5012423332430389,0.5059715048805354,0.40914025212578625,0.7728289686683426,-0.34493822517175143,0.18804467168571218,-0.498389614110287
15.3,4.4613923438557,-0.7547096842762454,3.666115492834629,0.2358095049340745,0.6198800691339265,0.027425637033395404,-0.0006626447909741027,-0.08751695300288867,0.9961628055558981,-0.8297997248479897,-2.030058046380514,4.137269446306162,-3.8792618806719403,-1.3857537441918966,2.5051222100591994,3.0,0.5010999865181285,0.5058260730649616,0.40921513796953113,0.7728682041991771,-0.3449427395751531,0.18803239784029246,-0.49833027473228764
15.4,4.687449724012713,-1.0795105710863713,3.4623896599590234,0.23485136784967123,0.610996087371601,0.028023487630200024,-0.0007387966964068763,-0.08849004947061417,0.996076102577665,-0.8298628024416173,-2.030085912821881,4.1372895729812225,-3.8792500360456708,-1.385737721120016,2.5051303398879603,3.0,0.5011106262610493,0.505827073748372,0.4091814071942509,0.7728811410404477,-0.34495599571636787,0.18803185835233516,-0.4983012372931784
15.5,4.453723762851939,-0.7537138915779573,3.3786518286460194,0.23549261807726551,0.6146284627607039,0.03125524285201154,-0.000847396973536526,-0.08991549100899734,0.9959490198989045,-0.8298424609421473,-2.0301135664430334,4.1372971534729,-3.8792619337051617,-1.3857455574667148,2.505105909357216,3.0,0.5011236064115493,0.5058523954887304,0.40905179771227634,0.772930658362259,-0.3449776452657942,0.18801911821910855,-0.49821424388977653
15.600000000000001,4.392638367767166,-0.9195669133716434,3.369779751431988,0.23113810957793152,0.6150561372150418,0.02710039570307968,-0.0007980596136966984,-0.08932506751658179,0.9960021228280233,-0.8298513610897263,-2.0300938091673792,4.13728073043249,-3.8792328830817424,-1.3857332190085612,2.5051305015621383,3.0,0.5011255336072686,0.5058615988514173,0.40904939308717164,0.7729336346862272,-0.34496628683921127,0.1880169212735856,-0.4982183202471658
15.700000000000001,4.577671778398159,-1.0816361866926247,3.386273805910512,0.22251272812950504,0.6107326707693251,0.02560757399766719,-0.0007658627612676288,-0.08885901854254766,0.9960438630960622,-0.8298588144431994,-2.0301019883134885,4.137308597564697,-3.879238267938131,-1.3857579847780024,2.505146064989775,3.0,0.5011225790959078,0.5058756748520048,0.40903666478916095,0.7729444078901899,-0.3449631116606207,0.18801708816683305,-0.49820374191887756
15.8,4.3521877051511115,-0.8919398270433411,3.268759943175181,0.22742262265374721,0.6141033818300697,0.028145056399566055,-0.0007471323067914945,-0.08849068410633855,0.9960766763170634,-0.8298472122994998,-2.030109575860695,4.137293277393895,-3.879273996573993,-1.3857415668843767,2.505122277202253,3.0,0.5011271307621761,0.5058638285217741,0.4090330693144472,0.7729435871287579,-0.34496611082227957,0.18801432833159215,-0.49820398015541745
15.9,4.601625368031374,-0.9438618429992051,3.2288801554430835,0.22463319271532065,0.6057252652876959,0.03166641679595296,-0.00077515076511504,-0.08869772205783437,0.9960581664202737,-0.8298193067069488,-2.0301016411515613,4.137324888091796,-3.879238267938131,-1.3857339780806068,2.5051339949926565,3.0,0.5011349370134045,0.5058544887457264,0.4090363829730146,0.7729432571270343,-0.3449676948579018,0.18801735627698576,-0.49820225260920903
16.0,4.465625760672148,-0.8203104929829768,3.1745837146645663,0.22646020819927282,0.6058691168975715,0.02898549850493488,-0.0008357352345462122,-0.08930935740145014,0.9960035653257867,-0.8298661463772513,-2.030102046861322,4.137275646788926,-3.8792225901094635,-1.385749642048971,2.505134384474027,3.0,0.5011314800838526,0.5058549505333373,0.4090560623640388,0.7729256555582141,-0.3449798094542917,0.1880317380307973,-0.498215743972331
16.1,4.4828544570462485,-0.768292623218945,3.0509943775770294,0.22279251004147918,0.6005387497299061,0.03357013871253971,-0.0007872505681944094,-0.08865857302037383,0.9960615469140309,-0.8298711776733398,-2.0301017558584924,4.1372774429663925,-3.87926616351864,-1.3857297744289025,2.5051299719039553,3.0,0.5011244735906848,0.5058423817942356,0.4090751044368872,0.772923499249236,-0.344979683146411,0.18801934967693207,-0.49822385196975705
16.2,4.35009496659618,-0.7828710574556569,3.0620262265027565,0.227445916383148,0.6029038116359937,0.0390907331005983,-0.0007422460742852138,-0.08806630813330804,0.9961143040208973,-0.8298699544690712,-2.0301064764634447,4.1373011536716575,-3.879273606113939,-1.3857573961042202,2.505114968376101,3.907685951400077,0.5011224660725462,0.5058448287008249,0.40905511080839646,0.7729345102591596,-0.34498020317894745,0.18801648994258657,-0.4982074886778744
16.3,4.5302038292300635,-0.8978697971587994,3.0769624962607454,0.21733734248547373,0.6050913655255126,0.035804765961531294,-0.000790137308821536,-0.08903609544739684,0.9960276048188146,-0.8298718631743461,-2.0301068924344987,4.137268835760449,-3.8792708032827456,-1.3857539457552603,2.5051379203796387,4.0,0.5011164678500741,0.5058537406842177,0.4090593597016883,0.7729374274073806,-0.344956132185134,0.18802896047019488,-0.49821492370786213
16.400000000000002,4.492963624828319,-0.7055518247213767,3.1801062701994325,0.21601835186987758,0.6056286283661378,0.03321798854091848,-0.0008365188503756457,-0.08996894103888914,0.995944215582574,-0.8298701844352558,-2.030113559798355,4.137293564536818,-3.879238267938131,-1.38573398264493,2.5051183333977405,4.0,0.5011291563371604,0.5058566598725222,0.409045467329138,0.7729390764620665,-0.3449592770704791,0.18802516456348442,-0.49821162043037
16.5,4.498593326987463,-0.86207213766122,3.178971952117829,0.21163655026570038,0.6062531032508215,0.030027013153754605,-0.0008244332784970574,-0.08947111436065706,0.9959890140974972,-0.829845640943458,-2.030113450905243,4.137304565449453,-3.8792537095559485,-1.385749642048971,2.5051110346700245,4.0,0.5011321034132056,0.5058485306596014,0.40904411978133526,0.7729372418046382,-0.3449768271447445,0.18803095308368178,-0.4982001301154245
16.6,4.2132050607899085,-0.7548779449977462,3.0361376057683773,0.21372830645848753,0.611956073449261,0.032934723730968216,-0.0008114657352540145,-0.08927124073636014,0.996007019963705,-0.8298675658119409,-2.0301025950720937,4.137315821287495,-3.8792351329138905,-1.385749642048971,2.505100723946563,4.0,0.5011203616795017,0.5058463374338538,0.4090635275899806,0.7729396044213065,-0.34496626612967474,0.1880268653588696,-0.4982053201772364
16.7,4.306924510791247,-0.6056311171783265,3.136210975661037,0.21659410126355652,0.6072553838403718,0.032372526205939105,-0.0007972539358618282,-0.08933879246418655,0.9960009677058023,-0.829888074484374,-2.030103445541441,4.137301835282213,-3.879247904312193,-1.3857422902298029,2.5051333512698517,4.0,0.5011243157778621,0.5058512222766975,0.4090529434423329,0.7729435235049307,-0.3449640004979213,0.18801825073066297,-0.4982040598233165
16.8,4.371043169699775,-0.541782289915743,2.7284957494928648,0.21907608991618363,0.5989347386700918,0.031854675230431964,-0.0007391622843443771,-0.0882549733348066,0.9960973421788488,-0.8298753809597196,-2.0301101085196467,4.137308035197806,-3.8792351038558004,-1.385749642048971,2.5051186320819734,4.0,0.501123759085749,0.5058682111966547,0.4090260544004273,0.7729532966080626,-0.3449572343972407,0.18801985257957912,-0.4981929774050304
16.900000000000002,4.265869792645672,-0.5499790847687192,2.701523169315312,0.20361249128094758,0.5941611045209114,0.033223019350268924,-0.0007159067686906641,-0.08795611939389207,0.9961240332036838,-0.8298628046515109,-2.030121675769574,4.137297164422528,-3.8792664518517923,-1.3857538230850717,2.505130180486784,4.0,0.501125035302904,0.5058491638786757,0.4090834621271075,0.7729213151688222,-0.3449662460245717,0.18802361577201607,-0.49823493411585495
17.0,3.9883200277237276,-0.3344423831002394,3.5850198537195825,0.16209171684771792,0.5741741472670113,0.03150033138546137,-0.0007273635572112801,-0.08843944033295999,0.9960812884834147,-0.8298634820989685,-2.0301300487914027,4.137304257080013,-3.8792575884578278,-1.3857570416397127,2.505103981531987,4.0,0.5011190334515981,0.5058604256947673,0.40905329208439223,0.7729376664236925,-0.34496092785218346,0.18801157092613666,-0.49821779502216057
17.1,4.0604115528478175,-0.28420768157729653,3.7477466716497543,0.16172716653565983,0.5653896513954334,0.03410027187074195,-0.0007022120946544398,-0.08798211055756983,0.9961217509897452,-0.829846877744449,-2.0301176510252894,4.1373209953308105,-3.8792542098680247,-1.385765757902125,2.505114252444989,4.0,0.5011113435818686,0.5058645815499861,0.4090719757315459,0.7729314703847926,-0.3449568242155572,0.18801621269745825,-0.49822849705614397
17.2,3.9830705182193125,-0.34102543532024626,3.529278304453882,0.15920404736007357,0.5680784197698292,0.03222893136605051,-0.0007067995404938288,-0.08799667028841052,0.9961204474738876,-0.8298677872740541,-2.0301313422228673,4.137319701899346,-3.879238267938131,-1.3857739607440394,2.5051039278613962,4.0,0.5011173945218811,0.5058766374485455,0.4090267676795816,0.7729521509731971,-0.34496085544469,0.18801153264445564,-0.49819538748312187
17.3,4.128270848088858,-0.407335756330122,3.5236182197865733,0.1579860020410266,0.5635373366216295,0.03382759457943818,-0.0007435830705939994,-0.08852548365969284,0.9960736288183626,-0.8298529513537126,-2.0301223898683927,4.137306266632714,-3.879230903589083,-1.3857692219009363,2.5051217374447385,4.0,0.5011247698114265,0.5058832774309288,0.40904167491837645,0.7729358768434654,-0.34496015708614103,0.18801974245315936,-0.49821802131112813
17.400000000000002,4.015388330241441,-0.26525489498167537,3.606316017693525,0.1584433943953343,0.5649654578822875,0.03637184027329598,-0.0007400681229985996,-0.08848083690744347,0.9960776033103221,-0.8298804022490822,-2.0301224478046755,4.137306378048643,-3.8792355715849185,-1.3857542543368422,2.5051362967906234,4.0,0.501123615345489,0.50587015507806,0.4090241760177788,0.7729497976303086,-0.34495721033156684,0.1880082141058142,-0.4982028149381239
17.5,3.974135740670353,-0.05508821312056133,3.6384799945161523,0.1655778080714092,0.5647491356769948,0.02787545789133143,-0.0007100590512996996,-0.08789133437215892,0.9961294592991354,-0.829875308729627,-2.0301337053091575,4.137318767025905,-3.8792501888670863,-1.385765365756391,2.5051061446869762,4.0,0.501117806134002,0.5058475279368516,0.4090399947084912,0.772952896791539,-0.344974409128981,0.1880087008887652,-0.49818591386930805
17.6,4.001210278642531,-0.3395985150312677,3.528965334694365,0.1602925600183069,0.5600049994373862,0.029113702105258082,-0.0006506881088684592,-0.08668944447395802,0.9962351180703034,-0.8298753404916323,-2.0301331237314866,4.137313107284514,-3.8792501888670863,-1.3857268880692695,2.5050823486175218,4.0,0.501127343001029,0.5058531442281842,0.4090422681081461,0.7729407760517971,-0.3449751364562908,0.1880129664346098,-0.49820260576984854
17.7,2.543083518053903,-1.2220605012870598,2.613706773187284,0.22303436559430084,0.45919851287240016,0.04206515687514592,-0.000650614085816065,-0.08705861203550758,0.99620292239594,-0.8298601880803839,-2.0300909710932076,4.1372971534729,-3.8792484855138665,-1.3857541834763627,2.505133560609343,4.0,0.5011144843402647,0.5058597439512605,0.4090189919055514,0.772956531656044,-0.3449741909745868,0.18800174120374546,-0.49818305173505056
