xiamingqian9007/apple-picking-rnn/training_data/grasper_20191127_113242.csv
,/manipulator_wrench.fx,/manipulator_wrench.fy,/manipulator_wrench.fz,/manipulator_wrench.tx,/manipulator_wrench.ty,/manipulator_wrench.tz,/ground_truth.x,/ground_truth.y,/ground_truth.z,/joint_states.elbow_joint,/joint_states.shoulder_lift_joint,/joint_states.shoulder_pan_joint,/joint_states.wrist_1_joint,/joint_states.wrist_2_joint,/joint_states.wrist_3_joint,/mode./mode,/manipulator_pose.x,/manipulator_pose.y,/manipulator_pose.z,/manipulator_pose.rx,/manipulator_pose.ry,/manipulator_pose.rz,/manipulator_pose.rw
0.30000000000000004,-11.695301771357885,-3.3132171325860633,-11.699394745590537,-0.17801858624978045,0.24175563015501106,0.44351942998161564,-0.021376241352775358,0.6071519602748561,0.7942981469982083,-1.8291561442510282,-2.002664239127221,4.161327540744797,0.8992914661370253,1.3431883959476634,-0.8712271002070547,1.0,0.4695723811912681,0.4712189532169798,0.3577593060047266,-0.588152544109635,0.23004267534077533,-0.30958712258456605,0.7108535474408432
0.4,-11.592600020599187,-3.729589856685935,-11.564949127160832,-0.15223249066968203,0.24498578916835034,0.3532256270797402,-0.021444352791840524,0.6077829222721072,0.7938133251500181,-1.8243859194407244,-2.0046516210122856,4.160551151417586,0.8967247567423765,1.3437895774841309,-0.8709895066112624,1.0,0.46990571586950475,0.47151651466913463,0.35773889601919684,-0.5881795147846484,0.23004373504840436,-0.30959692923482984,0.7108266172288702
0.5,-11.562100115009185,-3.533097216420387,-11.590826102708432,-0.16181162740458194,0.23420600952897902,0.29074257873251913,-0.021489819098754318,0.6088425422715407,0.7929993584218511,-1.819712178634112,-2.0071179164891455,4.160009860992432,0.894330784614191,1.3444112238435837,-0.8708522613127619,1.0,0.47114310712267854,0.4726384911855004,0.35829061172672083,-0.588086657746308,0.23009502754950745,-0.309625663311367,0.7108743277800686
0.6000000000000001,-11.542085088677986,-3.64616744390224,-11.47908976547627,-0.1674184420352143,0.24148449373446357,0.2576834531629043,-0.02147265092246718,0.6093761243890163,0.7925898500094554,-1.8151896790047684,-2.0092612706252253,4.159307956632975,0.8921039934281243,1.345149199298267,-0.8707372190497196,1.0,0.4722590109307955,0.4739118661577371,0.35856659224986703,-0.588131238133988,0.23007036203993084,-0.3095858770525807,0.7108627574795165
0.7000000000000001,-11.499194917846838,-3.7222499226421664,-11.372944372038969,-0.1640164503088761,0.23938329221564933,0.26025531914045374,-0.021414596968316123,0.6081677396700543,0.7935193724741646,-1.8107243770708963,-2.0114513383329493,4.158706751444254,0.8897099352091524,1.345945535276199,-0.8705867878499106,1.0,0.4729173879246082,0.4745286381036215,0.3587843037502671,-0.5881091927029671,0.2300709061676113,-0.3096096634652182,0.7108704606905768
0.8,-11.570646191044489,-4.017986262078381,-11.541221784916774,-0.16667695451641534,0.2392473828319327,0.27274185000693396,-0.021231663748464313,0.607009653536167,0.7944100355118905,-1.806409307283241,-2.013731829122839,4.158153446373298,0.8875618205011014,1.3465352409186089,-0.8704613241602068,1.0,0.4740762541343963,0.47584189890751233,0.35919827014380873,-0.5881182744926146,0.229983196122571,-0.30951090589012686,0.7109343315976167
0.9,-11.411556731669856,-3.759688806721408,-11.639174368413565,-0.16512450850057012,0.23854001735464755,0.27264375795393214,-0.021141986858318834,0.6065767088995632,0.7947432503570446,-1.8021974205593978,-2.0157000241808642,4.157422224077725,0.885467931764273,1.3471453176517427,-0.8703052434560191,1.0,0.4747021221719527,0.47649631873402276,0.3593431159913816,-0.588122438165549,0.2299702628132455,-0.30950784702617146,0.7109364026247644
1.0,-11.491087799263799,-3.72166887328171,-11.464223781533358,-0.1637843091478795,0.24362197169957478,0.2751935288159325,-0.02125104161005972,0.6074154679395051,0.7940989022178548,-1.7980143221541542,-2.0177563868021875,4.156764465660522,0.8832162459512127,1.347639788709747,-0.8701747099505823,1.0,0.47558263922409744,0.47733269156135044,0.35962122172542454,-0.5881082350519188,0.22999861439098623,-0.3095345657360457,0.7109273478049224
1.1,-11.570798155133772,-3.772014336687636,-11.526660165000232,-0.15798189145159217,0.24285931016788767,0.28005394335186024,-0.021360096361800605,0.6082542269794469,0.793454554078665,-1.794051058206103,-2.019698503528789,4.156149674069642,0.8813966309227177,1.3481800883495996,-0.870057392449534,1.0,0.47658031481983787,0.4782691463737676,0.359919091605817,-0.5881071425978356,0.23001737450225151,-0.3095728660201877,0.7109055048855276
1.2000000000000002,-11.730728395072767,-3.753976969148062,-11.522361685173747,-0.1647341654519254,0.24498040189098977,0.280916730796219,-0.02140062555704887,0.6080128500140841,0.7936385927246444,-1.79030558023053,-2.021794277687584,4.155541063639932,0.8793012535728021,1.3487926537519443,-0.8699031537587667,1.0,0.4777844454503761,0.4793829839747216,0.36025851266117054,-0.5880555457640017,0.2300754052916783,-0.3096214050162525,0.7109082701247988
1.3,-11.52434806853361,-3.9094932820060144,-11.396143264142847,-0.16736442102345095,0.24209486621766402,0.2794329428110628,-0.0213886000662271,0.607722429870418,0.7938614317041705,-1.7864831891182853,-2.023499307905731,4.15500020980835,0.8774587281750164,1.349474746820958,-0.8697933968603209,1.0,0.4783035032431336,0.47998071701722633,0.360276670962842,-0.5881987968761259,0.23006044999147834,-0.3095714905690266,0.7108163313613916
1.4000000000000001,-11.664000707545075,-3.748001153653919,-11.51668251521658,-0.1613254273631484,0.23871576632982106,0.28597540574132835,-0.021297528609354757,0.6077247519026024,0.7938621034446252,-1.7829264817614794,-2.025317481453409,4.154521464422551,0.8755990693073168,1.3499614309225045,-0.8696877091123063,1.0,0.4790716628036913,0.4807262788899456,0.3606025862507588,-0.5881106998533727,0.2300062734885178,-0.3095598466202638,0.7109118231077183
1.5,-11.542451094766518,-3.4981937659293365,-11.528075628380005,-0.16083750622360307,0.24360408421363175,0.28633537522007324,-0.02128792222663779,0.6074046472408626,0.7941072171737424,-1.7793898777260786,-2.027354530565305,4.1540046568843465,0.873833840049263,1.350339319115558,-0.86957899997951,1.0,0.4798305390691975,0.4815139135368844,0.3608451898020146,-0.5881040916224913,0.23000320487548934,-0.3095415819647972,0.7109262354130834
1.6,-11.933150154360616,-3.87237588013878,-11.5633071156011,-0.1552894549959646,0.25099072798104527,0.2799820132213175,-0.0213006164867392,0.6072517588390263,0.7942237621095327,-1.7759090380394942,-2.0287689814674517,4.153511176051561,0.8721019464680175,1.3508387898821277,-0.8694804350482386,1.0,0.48095835983712587,0.48262177984214144,0.3609677107520278,-0.5882259499762352,0.23005217167504854,-0.3095553842753419,0.7108035552445521
1.7000000000000002,-11.741411845872713,-3.4312812851206482,-11.629029698657941,-0.14564338641320018,0.2441185178597868,0.282558028676977,-0.021328775327298145,0.6077826912427279,0.7938166407997067,-1.772611943421353,-2.0302534201495144,4.153122332738538,0.8704172531802099,1.3512462432528054,-0.8693731466876429,1.0,0.4816572706904083,0.4833203617343497,0.36136076697413816,-0.5881050984343508,0.23004310178283813,-0.3095777688094373,0.7108967362258909
1.8,-11.462482150991065,-3.732471944736149,-11.57362538107698,-0.1625001471386685,0.23813723420080554,0.2850317541549827,-0.021335217208343,0.6078147072973242,0.7937915249253449,-1.7694955829401042,-2.032161470362895,4.15269800980736,0.8687356973368049,1.3516503637405526,-0.869257847597616,1.0,0.48199456886054415,0.4836676968760695,0.36157640311812894,-0.588026256533897,0.2300282332444301,-0.30958286383486555,0.7109645447959982
1.9000000000000001,-11.4417712248059,-3.5015628720912653,-11.531855917225116,-0.15855863461898745,0.2374797439795571,0.287153054479643,-0.021275156706019947,0.6063189253977364,0.7949361985835087,-1.7662797840444484,-2.0336344490029568,4.152266574053268,0.8672172793857623,1.3521481082932956,-0.8691995968685766,1.0,0.48275291825794003,0.4845011892132737,0.36156120423324273,-0.58820695928608,0.2300526867844829,-0.3095371805414945,0.7108270311496929
2.0,-11.71402399245921,-3.8863762491733254,-11.566410026916053,-0.16270639983012103,0.247383256281077,0.2812946864573299,-0.021247738798258448,0.6063045468086811,0.7949484815684097,-1.7633112647550568,-2.034898092440685,4.151790528631897,0.8655910313807361,1.3525872526408957,-0.8691010215747182,1.0,0.48370687396337203,0.48544377550982915,0.36188908904660005,-0.5881404364078252,0.2300428960847967,-0.3095406604074246,0.7108837264823746
2.1,-11.74197595268004,-3.6318293034668376,-11.54744548350605,-0.1706838927885777,0.2466564511919232,0.2828863409712416,-0.02124206562245709,0.6068573510294156,0.7945267281186879,-1.7604432702394126,-2.0363956890501917,4.151390671795964,0.8641650516073324,1.3530319599511986,-0.868991514627693,1.0,0.4841173704779162,0.4858318561995744,0.3621197232006993,-0.5881123465057793,0.23001988342589413,-0.3095405551903136,0.7109144574480648
2.2,-11.813517491646902,-3.509635174904203,-11.600851310448837,-0.1573123589280094,0.24458237068552452,0.2927868472722763,-0.021271287696545647,0.6075341281743383,0.7940085410577039,-1.757637312198841,-2.0379951740450957,4.15098834580472,0.8626389290433623,1.3534011111308386,-0.868931240564734,1.0,0.48496299108241625,0.48667690899882504,0.362370146898351,-0.5880965174269206,0.23000165914982756,-0.30954441446366465,0.7109317677899907
2.3000000000000003,-11.650017769326057,-3.880032914686873,-11.592390559209713,-0.16770514787683688,0.24203369826397558,0.291596090634737,-0.02128438851985675,0.607844648066203,0.7937706223999262,-1.7549529294342405,-2.0392242986943234,4.1506388008318496,0.8613889972326066,1.3537301082132271,-0.8688374957393711,1.0,0.4853683090787808,0.48706536440391485,0.36236802363835946,-0.5881718143097086,0.23002493215949546,-0.30955299950736503,0.7108582052228409
2.4000000000000004,-11.771574590817854,-3.4876270335495443,-11.525401376108062,-0.1595996482094011,0.24334853242141544,0.2823396096162727,-0.021291114658930868,0.6080103420776207,0.7936435278088857,-1.7522523776455174,-2.04043257865573,4.150257439782073,0.8599295499602551,1.3540761268318018,-0.8687521603621436,1.0,0.48588899389474566,0.4876171136465591,0.36258500015706185,-0.5881074957237507,0.23000784501021682,-0.30955241125725885,0.7109172029091092
2.5,-11.694449950561662,-3.636963119993268,-11.614565811178547,-0.15613954169059457,0.2454717011070027,0.2890540434808442,-0.02130354434204948,0.6081820361443336,0.7935116604088985,-1.7496546671092197,-2.041793102606825,4.149899195170678,0.8586229984785708,1.3543906211853027,-0.8686927983384738,1.0,0.4866993399331462,0.48842331511443937,0.362924527313767,-0.5880769761450417,0.23001120089279484,-0.3095593148074872,0.7109383575302977
2.6,-11.674807859879701,-3.3788582983773363,-11.619863301837425,-0.1555141347067052,0.2443582475647419,0.2881247301874655,-0.021346474300304258,0.6083858161099032,0.7933542699332751,-1.7472127481274802,-2.043095835995678,4.149508229538927,0.8573813678743064,1.3547328987025018,-0.8686107451132699,1.0,0.48699233092467503,0.48869702883402694,0.36296159252367427,-0.5881093553651137,0.23002835279079387,-0.30956186434867283,0.7109049129000015
2.7,-11.611922772660705,-3.4890529270544928,-11.579419122576969,-0.15557285860098446,0.243577130385352,0.2894442844902994,-0.021400123538275594,0.6087798107772037,0.7930504076291524,-1.7447795893493976,-2.044298592092065,4.14919900894165,0.8560975511342577,1.3550109850494223,-0.8685467878924769,1.0,0.48761383943237735,0.4892893269739633,0.3630469852705289,-0.5881401908414411,0.230055355486877,-0.3095696427864204,0.7108672770594296
2.8000000000000003,-11.496313648604065,-3.844020342909244,-11.451337089264515,-0.16375297586142407,0.23887282928419953,0.29015577294835826,-0.02144639392270079,0.6091123774661957,0.7927937541926561,-1.7423508301189041,-2.0454165071988797,4.148893555769999,0.8549747643295764,1.3553052610048864,-0.8684752623187464,1.0,0.48833229420668095,0.4899907934995641,0.3632529341165622,-0.588141514307672,0.2300745108240473,-0.3095772103118443,0.7108566870139791
2.9000000000000004,-11.731924328350045,-3.5128322379936785,-11.702397984691688,-0.16053987195088926,0.2442353035767058,0.2888521434312941,-0.02139378042012139,0.6081930746585588,0.7935004119546435,-1.7401855680677625,-2.046498056451315,4.148592980702718,0.8538141076381293,1.3556458314259847,-0.8684084256437382,1.0,0.4887671875789174,0.490456855669204,0.36341507819524205,-0.5881155806314909,0.2300490901115544,-0.3095780969701398,0.7108859837088342
3.0,-11.694933458835447,-3.6710612011870687,-11.477721894352639,-0.1631888311814015,0.24281029809856103,0.2909782227036995,-0.021360653793713137,0.6080479705777644,0.7936127309810929,-1.7379094537524087,-2.047598228642485,4.14831871887893,0.8525672039110435,1.3559839383654866,-0.8683714673842082,1.0,0.48901007192755036,0.49069168664109597,0.3635273445659454,-0.5880820990494583,0.23004271301710552,-0.3095857788872772,0.7109124000016253
3.1,-11.521920055422568,-3.964948275657664,-11.472876370699215,-0.16644021891700253,0.24195752245759466,0.2872318751989074,-0.02133988524000507,0.6083938432993412,0.79334813575829,-1.7357470318422,-2.0486994420522384,4.147989054743377,0.8516154028808486,1.356285572052002,-0.8683282143395505,1.0,0.4895168133385264,0.49122559415774647,0.36363512107632995,-0.5881503723275973,0.23003534586522476,-0.30954467936325025,0.7108761992509508
3.2,-11.534747148227595,-3.9151461488220822,-11.450764346002408,-0.1653914311598532,0.23985246993732295,0.2881872292429158,-0.021319860283783052,0.6086924189461582,0.793119786524211,-1.73383078338801,-2.0496189139458805,4.1477370262146,0.8505143911360005,1.3565678059881006,-0.8682478109942835,1.0,0.4899973319386296,0.49172888732016473,0.36383291800894707,-0.5880927312977197,0.23000579360240184,-0.3095552402836404,0.7109288484208915
3.3000000000000003,-11.959339915108867,-3.569327001818987,-11.48966617527249,-0.1564612087934644,0.24954514748706794,0.28896976311080447,-0.021306646263244845,0.6085577799301135,0.7932234302064971,-1.7315567416937705,-2.050663497472009,4.147506845402919,0.8494497781020605,1.356813619162694,-0.8681829419752503,1.0,0.4906093397157427,0.49233086909980994,0.36400511784185907,-0.5881155494491898,0.23000492932002495,-0.3095486318756639,0.7109131293544053
3.4000000000000004,-11.782324930179161,-3.5288943941121538,-11.582304523694335,-0.16046353511785238,0.24517811217871718,0.28430790821078133,-0.021293432242706637,0.6084231409140688,0.7933270738887832,-1.7297954852920414,-2.0517279440221596,4.147231641173433,0.8484811081067044,1.3570243404296045,-0.8681494679072522,1.0,0.49081909835194104,0.4925597291514195,0.3641229698701626,-0.5880657529916056,0.2300021815579856,-0.30954871468057144,0.7109551743088939
3.5,-11.54365669225777,-3.7091650497219715,-11.499473311330721,-0.16483394461417009,0.24185897682162583,0.28817066865644914,-0.02131674269913383,0.6084615565752122,0.7932969853844347,-1.7279948445660651,-2.052693029443258,4.146987756446949,0.8476021264759012,1.3572781515598829,-0.8681281248675745,1.0,0.4912802807078386,0.49300785517187357,0.3641538784063094,-0.5881291744213416,0.23002134906427252,-0.3095551246636452,0.7108937177691179
3.6,-11.475394825443699,-3.950309338380814,-11.540491539764867,-0.16760061586403138,0.24007776140592219,0.2910431679612877,-0.021359279676368782,0.6085727575390236,0.7932105254781457,-1.7259390089549285,-2.0534941056656764,4.146768675925218,0.846637305729567,1.357470883248366,-0.8680493203508163,1.0,0.49170008323083114,0.49342113952747674,0.36423167320592165,-0.588143832572387,0.23003697447945903,-0.30955581172128227,0.7108762353665923
3.7,-11.815134371563188,-3.666331687551676,-11.446601569840263,-0.16229388084424756,0.24560311044816432,0.2852593980753446,-0.021321360221955923,0.6080755456430618,0.7935926827760921,-1.724301629925499,-2.0543173128842653,4.146547648477192,0.8456373987535317,1.3577037159758165,-0.8679878440971077,1.0,0.4922497265708239,0.49399065783029095,0.3645211351872056,-0.588076236820522,0.23002036263927084,-0.30956691803584147,0.7109326942236532
3.8000000000000003,-11.384195034316916,-3.767788401914359,-11.4495397575392,-0.16171805964800745,0.23909793446011765,0.2879294403054705,-0.021304035375875007,0.6077585026990755,0.7938360746467864,-1.7226867542564623,-2.055167925177583,4.146308497943737,0.8448262808212114,1.35791961713805,-0.8679246225228616,1.0,0.4925874093924906,0.49431956490145634,0.36456542536212794,-0.5881250907310085,0.23003512619859473,-0.3095459168435179,0.7108966477153665
3.9000000000000004,-11.609918330523305,-3.9986849832364033,-11.548935144545768,-0.1700131536696768,0.2410517395013856,0.29280821737097074,-0.02130528255750272,0.607625444708243,0.7939378639817671,-1.7208535927175679,-2.056082495616839,4.146109840042943,0.8440534311481933,1.3581231948066437,-0.8678493290079645,1.0,0.49277875659048304,0.4945077527485395,0.3645877067441836,-0.5881472309712249,0.23003229436361503,-0.30954772471184483,0.7108784596373783
4.0,-11.614045299565651,-3.731525828883554,-11.623856615567458,-0.16505144320809326,0.24002630762607738,0.28611566499467667,-0.021353530370589534,0.6082703238382845,0.793442227641831,-1.7192228342591327,-2.0569611988463343,4.145882040234447,0.8431585820055695,1.35830690659659,-0.8678595807789247,1.0,0.4932867747836453,0.4949998170161101,0.3647753958095132,-0.5880791159873457,0.2300509499368802,-0.30957279442523356,0.7109178565238272
4.1000000000000005,-11.531603362740794,-3.846178769703221,-11.536188126950131,-0.16913580670234968,0.2389665029271374,0.28832459868660004,-0.021398635709260174,0.608881973487934,0.7929721549668705,-1.7176752990817432,-2.057841530369627,4.145670278823531,0.8422834791906514,1.358546711347118,-0.8678291479693812,1.0,0.49354363154786074,0.49525622512474216,0.36483771542299903,-0.5880870455375542,0.23004974097474012,-0.30957737297896876,0.7109096944674519
4.2,-11.801328254567501,-3.5715974041786973,-11.584620146934409,-0.16121535486113178,0.24557653456721798,0.2894853448920947,-0.02137188526912828,0.6087337982745764,0.7930866207201057,-1.7159789463811028,-2.058528989697379,4.145423595135966,0.8414731123925773,1.3587438504155072,-0.8677635470592553,1.0,0.4939888301583001,0.4957215229167464,0.3648039490530547,-0.5882077213562492,0.23006753970841995,-0.309538597066627,0.7108209765021206
4.3,-11.876190381785387,-3.467490845610527,-11.507348385813414,-0.15482636719998943,0.24829522862178294,0.28444412477727243,-0.021356785108979013,0.6086018421269419,0.7931882929716639,-1.7143296945122508,-2.0592911590182403,4.145286451272875,0.8406971584173208,1.358951530910325,-0.8677178734014036,1.0,0.49419278437543523,0.49595025321040087,0.3649249911294505,-0.5881800918472339,0.23006273623790255,-0.30953449551649537,0.710847179803548
4.4,-11.609458762326089,-3.7338092514145935,-11.622012365854099,-0.16158791056035932,0.24442154966851432,0.29120148880968133,-0.02135187787100255,0.6084840761682881,0.79327877208734,-1.7126836776733398,-2.0600164594659165,4.1450522413239455,0.8397965705460108,1.3591998625589599,-0.8676617781268519,1.0,0.49458606403895194,0.4962849418560155,0.36513822321856476,-0.588085454386875,0.23006002508125617,-0.3095770764475535,0.7109078118408745
4.5,-11.606835642460537,-3.817102205444282,-11.588557761535215,-0.16041832585625598,0.24187174859732283,0.2945322512682937,-0.02134079088187595,0.6084945310977029,0.7932710441173889,-1.7109981498629123,-2.06087353120308,4.144833173541884,0.8388602892020235,1.3593749833450064,-0.8676393917629067,1.0,0.49499370130406367,0.4967068985049904,0.36534203295530165,-0.5880563648730956,0.2300332701800482,-0.3095679603902922,0.7109445015205536
4.6000000000000005,-11.62443863437688,-4.04329390744924,-11.677197039769554,-0.16365232925929302,0.24168813713760437,0.2903466424494721,-0.021324089338633393,0.6086214798951337,0.7931740910340914,-1.7094309572281206,-2.0618122068301874,4.144632816314697,0.8380922125938957,1.3596143162293128,-0.867548245668063,1.0,0.4951950861278056,0.4969350957285452,0.36542212415251873,-0.5880613675040175,0.23002104050391928,-0.30956643431201025,0.7109449850179319
4.7,-11.587139702392589,-3.656738633860978,-11.353414837278262,-0.16932626710255252,0.2413490512031313,0.288097019324054,-0.02130764105468241,0.6087441864222272,0.7930803860216838,-1.707766971461357,-2.062779632955477,4.144390366598195,0.8373108195217053,1.3598298471181076,-0.8675472816780648,1.0,0.49549656672805925,0.4972759242934657,0.36539799411538415,-0.5881275175840538,0.23002512889681226,-0.30953487184984985,0.7109026840892646
4.800000000000001,-11.544720233931232,-3.478781685678359,-11.443244964671084,-0.1590556105014833,0.24223370610546813,0.29124201221872653,-0.02130828570922032,0.6085805742698368,0.7932058993273244,-1.7059205312243777,-2.063522098600761,4.1441833056433355,0.8363910192929738,1.3600455303391437,-0.8675023973024412,1.0,0.49589644115923104,0.4976708997224333,0.36541240647473067,-0.5881644017020284,0.23002825913587482,-0.30953464093121164,0.7108712560182753
4.9,-11.532333897110888,-3.428461106881587,-11.362086834759886,-0.15967690088732117,0.24186804102779597,0.2900917577420268,-0.021308988037658835,0.6084179727748851,0.7933306356303823,-1.7044249753367322,-2.0642833881652916,4.143976747006745,0.8355460639798232,1.3602363486118598,-0.8674182046910826,1.0,0.4962570485355071,0.4980220168526225,0.36557839363805245,-0.5881140030598877,0.23002894825547274,-0.309543488441121,0.7109088768140802
5.0,-11.534376073857636,-3.688808645721953,-11.417899793421011,-0.16242180191352995,0.23986329204503018,0.2891800493138425,-0.02131821503350086,0.6084047545960314,0.7933405246885096,-1.7029020900673615,-2.0650313378796596,4.1437643929601045,0.8346764913157029,1.3604277115136467,-0.8674100081073206,1.0,0.4965948183926127,0.49835442347842557,0.3657227968794113,-0.5881024027948188,0.23002686250658205,-0.30954690978459243,0.7109176583790477
5.1000000000000005,-11.705840536538833,-3.5781439399561146,-11.659153616897285,-0.1546565514449207,0.24288379363976084,0.2891441679903004,-0.021326889754996883,0.6084163405384742,0.7933314056843794,-1.7009597455242544,-2.065742730431032,4.143545052277607,0.8338935602975882,1.3606114022562463,-0.86733463134135,1.0,0.4970157459224159,0.4987455431542394,0.3658397639825099,-0.588126152399356,0.23003277851941362,-0.30956101390189233,0.7108899551566332
5.2,-11.649133898418022,-3.7074685424430043,-11.598577305552228,-0.16089391666859332,0.24042271076984065,0.2916546292527153,-0.021335014274463018,0.6084526375289419,0.7933033499425316,-1.6993518035503883,-2.0666081278297916,4.143305160094255,0.8330311098093738,1.360811233222551,-0.8673071001360979,1.0,0.4974591266442603,0.4991694417752723,0.36616624953450844,-0.587968088158012,0.23002094608480966,-0.309590536959791,0.7110116673409866
5.300000000000001,-11.444777266254079,-3.5169606778936306,-11.525221763568453,-0.1533464601326254,0.2378916416364607,0.29257979708783727,-0.021340344048366853,0.6080612111875597,0.7936029615321748,-1.697886491739606,-2.067568918267721,4.143133640289307,0.8321015787071917,1.3610305662334685,-0.8672664801227015,1.0,0.49780708582901034,0.4994958614171929,0.36614867874727547,-0.5880546474731752,0.23003488184453563,-0.309590074607934,0.7109357709555936
5.4,-11.61403434998372,-3.7174412555967735,-11.356081836549164,-0.15659716848588348,0.2397570452578225,0.29485028587921547,-0.021345656611178876,0.6076671507654108,0.7939045910201918,-1.69602737954372,-2.0684541568918364,4.142904134281117,0.8313154699592314,1.3611984159546646,-0.8672116531878123,1.0,0.4979913429393578,0.4997172952241807,0.3660814893310428,-0.5881561442592272,0.23004173458264351,-0.3095555706939466,0.7108646136731473
5.5,-11.855217268269644,-3.722888675376209,-11.564738822003804,-0.16165473113944195,0.24733973663546882,0.29470896373699734,-0.0213509691739909,0.6072730903432618,0.7942062205082089,-1.6942885693233563,-2.0692291631812054,4.142758300894158,0.830568680456967,1.361402127505861,-0.8671657654109416,1.0,0.49850807777937123,0.5002407548028617,0.36621674429272505,-0.5881347060455536,0.23004344789133352,-0.309575283217803,0.7108732120762427
5.6000000000000005,-11.688940276717691,-3.355607887636275,-11.526569699356145,-0.15410707005659666,0.23862677918021266,0.2968831212996784,-0.021327801625258037,0.6074189278342284,0.7940953039922896,-1.6928627677733519,-2.0700546752443207,4.142548701819508,0.8296338754841308,1.3615598702943301,-0.8671434585713285,1.0,0.4987060416821237,0.5004733884836199,0.3662809526329314,-0.5881220482935736,0.23003115560982643,-0.30956888148559325,0.7108904496302777
5.7,-11.659378763436768,-3.6536855988564256,-11.627779647742948,-0.15686033752617276,0.23975358528973056,0.2915588296846358,-0.021334322758838002,0.6076799866026604,0.7938953125770135,-1.6911688123630289,-2.0707169903692244,4.142319202423096,0.8287790606974156,1.3617582389336527,-0.8670766784828761,1.0,0.49897688469327195,0.5007556216272582,0.3663686586232627,-0.5881276346592149,0.2300472348714149,-0.309547415650455,0.7108899721773387
5.800000000000001,-11.722663537790684,-3.937028002097205,-11.713647878625492,-0.16266416507552206,0.2478764823783105,0.29422981184285885,-0.021373369142150545,0.6080584127344072,0.7936045212713428,-1.6893320083618164,-2.0715244204907366,4.142104628444619,0.8278640800186963,1.3619709014892578,-0.8670678917990735,1.0,0.4995100372497975,0.5012324123312032,0.366634196466747,-0.5880743158632238,0.23005473812431987,-0.30958169681890224,0.7109167247176574
5.9,-11.665386561819254,-3.7715149519293445,-11.670841570759535,-0.17277737394559428,0.24313236798468446,0.30010195542192164,-0.02137469307687708,0.6082200315545921,0.7934806208027158,-1.6877640212886837,-2.072525171086549,4.141899585723877,0.8271291482181072,1.3621621131896973,-0.8669705535030277,1.0,0.49970977089357665,0.5014430421698257,0.3667378885258991,-0.5880543574163639,0.23004825667921414,-0.30957880912091945,0.7109365887797274
6.0,-11.391413816403864,-3.787817123799511,-11.433399029070156,-0.1637268076969394,0.23614016898949072,0.2926791863889129,-0.0213624578904081,0.6081288988284057,0.7935507392378842,-1.6860777769688517,-2.073350930077777,4.141686735717897,0.826269444726529,1.3623870238963187,-0.8669684644398314,1.0,0.5001940466817387,0.5019360242728456,0.36677046034344063,-0.588087594712349,0.23004360237211385,-0.3095775757084124,0.7109111383088657
6.1000000000000005,-11.57880650045634,-3.530419027065019,-11.64977970890888,-0.16290739345795083,0.24067990044860474,0.2930103297099598,-0.02133554483962082,0.6077474606312488,0.7938436880607823,-1.6843980902357765,-2.0742043664238876,4.141509231140967,0.8253144254053567,1.3625915925754881,-0.8669312636004847,1.0,0.5004098000407591,0.5021612172633715,0.3668235912706788,-0.5880869729781822,0.2300336587372171,-0.3095731732547091,0.7109167872981605
6.2,-11.596674754144136,-3.692802932800966,-11.560392146681062,-0.16435122456874904,0.24166705355622156,0.2925740844580082,-0.02130167914430321,0.6068455059880735,0.794533440816084,-1.6827602736861618,-2.0750529554550856,4.14129521730211,0.824493867052237,1.3628307519135652,-0.8668750318545175,1.0,0.5007666385531336,0.5025388112869771,0.36689168368640995,-0.5881449315101168,0.23003961320665964,-0.30954875598901777,0.7108775447011545
6.300000000000001,-11.692408259768806,-3.4179400551473043,-11.672744830001083,-0.15558031951198142,0.24188787312839138,0.28971417825338247,-0.021267433385602105,0.605915097532716,0.7952448846911423,-1.6810741172491883,-2.075801605182891,4.141101059234184,0.823719627996782,1.3630386096545453,-0.866865949513244,1.0,0.501236360638789,0.5029875981129787,0.3670156146918898,-0.588131412633954,0.2300469908997588,-0.30956159509897896,0.7108807511045239
6.4,-11.689872448217345,-3.7215463476847788,-11.662826753510043,-0.16208249625957846,0.2395680526495673,0.29606013266196873,-0.0212789336170401,0.6060918597319925,0.7951098787214177,-1.6793565434641846,-2.076626346867117,4.140920514269391,0.8227880333984925,1.3632418308043381,-0.8667992887023463,1.0,0.5014231605236087,0.5032144621114354,0.36707916404485363,-0.5881410184678347,0.2300242169619803,-0.30954318685767424,0.7108881891525848
6.5,-11.47413984719045,-3.810500573834794,-11.502276770387255,-0.16637404174920237,0.23751849904302955,0.29537444170231186,-0.02129342636655597,0.6063410485677723,0.7949195014184938,-1.677773208506077,-2.077421640073275,4.140684666292675,0.8218911244774991,1.3634138616362002,-0.8667592108527787,1.0,0.5019217383066336,0.5036718099450399,0.367270485414569,-0.5881126760973671,0.23004173706101183,-0.3095647971064039,0.7108965577466362
6.6000000000000005,-11.61103233810381,-3.9424080255234464,-11.698900622160515,-0.17187547132077532,0.2424248714520947,0.2929471501558329,-0.021296055167571944,0.6065082027195143,0.7947919692369568,-1.675991378869299,-2.0782685079415906,4.140492597827475,0.8210225165682743,1.36363395017802,-0.8667077862923379,1.0,0.5021390159155942,0.5038887048005348,0.36731141070713946,-0.5881300020540987,0.23004497997091766,-0.30956937538175044,0.7108791808034463
6.7,-11.5685848639023,-4.143684284897529,-11.752967755211195,-0.17079895278559412,0.23787812742417402,0.295271440456938,-0.02128289560089258,0.6065661863235786,0.7947480704161282,-1.67426398001821,-2.0790951645623332,4.140316486358643,0.820242345672944,1.3637959087280338,-0.8666794935809534,1.0,0.5025138094093113,0.504283683180175,0.3674223684568557,-0.588152931907461,0.2300378448483609,-0.3095520182996855,0.7108700771538852
6.800000000000001,-11.39658846249655,-3.915353066499885,-11.53503224156648,-0.16200898198827574,0.23164566701846445,0.29255741763882515,-0.021273953121369628,0.6066977788862314,0.7946478368191054,-1.6727485656738281,-2.079899751539162,4.1401495933532715,0.8194063227043349,1.363972235255425,-0.866626643869707,1.0,0.5029466707405784,0.5047496300398874,0.3676571616898227,-0.588056888848378,0.23002736657714934,-0.3095700778845818,0.7109450562329568
6.9,-11.469254836840072,-3.697588677217015,-11.549164846593854,-0.16429799434465345,0.2382808162500325,0.29623082436721687,-0.02127085294366145,0.6069313484145946,0.794469557700853,-1.6710683448199068,-2.080769217222736,4.139929110698089,0.818516862168828,1.3641654139398325,-0.8665722052203577,1.0,0.5031653527574146,0.5049747107303661,0.36766882836635006,-0.5880920352057318,0.23002859794807837,-0.3095560514125928,0.7109216927956736
7.0,-11.532477553489354,-3.91011891585224,-11.444600252603887,-0.1639316392350824,0.23864454621782935,0.29760594478108027,-0.021265090424088137,0.6068885910798179,0.7945023786426274,-1.66917663773067,-2.081600269276065,4.139702111284769,0.8176608255427408,1.364381149707979,-0.8665519100366633,1.0,0.5034719546265001,0.5052752763410657,0.3676958549270823,-0.5881477504590239,0.23003048645983276,-0.3095595674868947,0.7108734578716308
7.1000000000000005,-11.492301164211947,-3.675251917404281,-11.521537032360555,-0.16754509485788213,0.23755664583498856,0.2969665595839443,-0.021262826554292888,0.6068311458973883,0.7945463177566277,-1.6684573510603182,-2.0821024032879167,4.139619134797064,0.8173088389798598,1.3645079602565393,-0.8664868166443619,1.0,0.5039824439528791,0.5057802301168954,0.367958897567018,-0.5880408578263532,0.2300181794972776,-0.30956963347334465,0.7109614818390544
7.2,-11.582598382616125,-3.623220251967461,-11.242230720416275,-0.1589592505957645,0.23936168519273696,0.29494071038218245,-0.02126622481165002,0.6067926640170362,0.7945756153792876,-1.6684824798758675,-2.082089840088803,4.139593935511254,0.8172964254025491,1.364498130690108,-0.866488281880514,1.0,0.5041532190912227,0.5059424266448355,0.3679414661149244,-0.588078101208609,0.2300303309268225,-0.3095625266293279,0.7109298389007457
7.300000000000001,-11.678994616704184,-3.5864452134181937,-11.3817201513941,-0.1578999903922611,0.23878338195914528,0.29474835822893186,-0.021264140012537673,0.6067997811419454,0.7945702344912089,-1.6685023913327532,-2.0821029649891485,4.139605582708485,0.8173038202473144,1.3645061393242097,-0.8665245215045374,1.0,0.5041570471929194,0.5059130639557066,0.36790130262877857,-0.5880919831902565,0.23005086799973692,-0.30955245473061993,0.7109160957596656
7.4,-11.492165116597308,-3.6440262056021258,-11.185716670584052,-0.16334083770540225,0.23679021342584014,0.29125125355519893,-0.021253305422458256,0.6068796645727578,0.7945095140818792,-1.6684669280658913,-2.082103451095895,4.139586256800099,0.8172927084552266,1.3645063871433354,-0.8665229842521925,1.0,0.5041385723803546,0.5059476156690036,0.3678606445143251,-0.5881315579373981,0.23003923894272407,-0.3095363353943619,0.7108941385152999
7.5,-11.487356726074998,-3.9426956099652415,-11.25516308815428,-0.16666648734765188,0.23673026803378075,0.29858876494141406,-0.021246001427405216,0.6064164340540649,0.7948631695378799,-1.6684678312218864,-2.0820827967855404,4.139603962551127,0.8172722199017132,1.3645152663758373,-0.8664955635310468,1.0,0.5041523014004526,0.505939387286464,0.3678665121414583,-0.5881328181785576,0.23003514892322233,-0.30954754348671676,0.710889539072392
7.6000000000000005,-11.675627159622731,-3.3562764305933963,-11.315298638428306,-0.15314410243044532,0.2418471462241778,0.29486016809657034,-0.021248537758162586,0.6063470716558137,0.794916044138692,-1.6684535779567122,-2.0820987881043704,4.139621454396918,0.8172612663070541,1.364488124847412,-0.866504789266297,1.0,0.5041454338696596,0.505935287592362,0.36789419479605046,-0.5881151226313392,0.23003697038997897,-0.30955263815004497,0.710901370796591
7.7,-11.251484076738299,-3.7084162548557797,-11.259175514673354,-0.16072628044597412,0.23575659819317132,0.303081522597909,-0.021267448525871188,0.6070655804768619,0.79436683697206,-1.668473243713379,-2.0821003922238535,4.139600282126877,0.8172813405219462,1.3644743649487567,-0.8665073579567698,1.0,0.5041455640328115,0.5059440255551421,0.36789269789002754,-0.5881106660202383,0.23003853403849409,-0.30954729957098953,0.7109068762495976
7.800000000000001,-11.56874315224139,-3.6628684150767317,-11.410175126767996,-0.16024503606384827,0.24027344234665785,0.29957149992869436,-0.021286533106876747,0.6077208350710509,0.7938650077569606,-1.668473153618639,-2.0820985782679586,4.139591385397725,0.8172446023449572,1.3644877713195929,-0.8665015100116046,1.0,0.5041597774147707,0.5059121572075765,0.3678934511212796,-0.5880940102024653,0.23004889784164223,-0.3095641105384231,0.7109099811033627
7.9,-11.637156134260541,-3.6919931011178804,-11.285554011544823,-0.16208532516833257,0.24066582343592074,0.30044585892359976,-0.021299882075905534,0.6079998007943138,0.7936512764737736,-1.6684654576880587,-2.0820936615507404,4.139616138787735,0.8172661196955208,1.3645063416553618,-0.8665301167370724,1.0,0.5041506183036369,0.5059401939956397,0.36787368665514,-0.5881328722724537,0.23003848590959436,-0.3095410660887911,0.7108912349702938
8.0,-11.399079001688671,-3.6948796499657104,-11.215037369576972,-0.1616325488509699,0.23540478908208617,0.29921270095949554,-0.02130155539251628,0.6075127771020613,0.7940240094299723,-1.6684703877796718,-2.082122702319507,4.139597380423505,0.8172627894121834,1.3645015117884085,-0.866514502834973,1.0,0.5041548653731597,0.505947161558621,0.3678560995962702,-0.5881353913583711,0.2300405610885796,-0.3095573165751168,0.7108814032175831
8.1,-11.624238385901677,-3.6200405916553913,-11.439862767479648,-0.15843525755837512,0.2414745950394853,0.2982907140033726,-0.021301610433940462,0.6072018478028425,0.7942620180457448,-1.6684795033878592,-2.082094448533975,4.139569986545549,0.8172545396347902,1.364493741299505,-0.8665126005755823,1.8099091079351906,0.5041481752580551,0.5059441621479718,0.3678687110540652,-0.5881246521296549,0.23002426181883023,-0.3095613843144641,0.7108937908530268
8.200000000000001,-11.732550362415667,-3.609307567163436,-11.369909510291365,-0.1576742625895414,0.24174107714872597,0.2988213013861055,-0.021298168276706043,0.6072714700193484,0.794208878538792,-1.6684652382270262,-2.082104345361227,4.139579109986831,0.8172653010241976,1.364495558513311,-0.8665028392935796,2.0,0.5041497221889019,0.5059355124130531,0.3678811736612548,-0.5881145705027442,0.23002922919891416,-0.30956022880008366,0.7109010271632517
8.3,-11.674525545356836,-3.6172851031254254,-11.26212596053731,-0.15973635689503057,0.24077375939395307,0.29803082635271466,-0.02130727234337546,0.6076335110499761,0.7939311410486549,-1.6684484481811523,-2.0821041322013847,4.139580261672841,0.8172737428564159,1.364506760127591,-0.8664944688771062,2.0,0.504150123092578,0.5059379109677554,0.367885071416672,-0.5881058192422312,0.23003610743282016,-0.30955447948221204,0.710908544668776
8.4,-11.55608847926394,-3.4565841207108208,-11.248226346776839,-0.15906833064391923,0.23808853572060615,0.2950120853180729,-0.021344308483511973,0.6086465737634472,0.7931533736359732,-1.668494488883289,-2.082109450089411,4.1395952489908225,0.8172626800842343,1.364495213696214,-0.866507291658271,2.0,0.5041530460976534,0.5059357123783172,0.36788468476661684,-0.5881146846053049,0.23001902051247405,-0.30957545741457015,0.7108976045258872
8.5,-11.512549829969982,-3.8584901533072915,-11.32738063257004,-0.1679084120902418,0.23344444716745424,0.3035083622026351,-0.021351084997174734,0.6087761235923608,0.7930533584667542,-1.6684846878051758,-2.082104345361227,4.139591952534434,0.8172738983989521,1.3644949691043784,-0.8664887587176722,2.0,0.5041490534522702,0.5059352373021888,0.3678747425300225,-0.5881307498444233,0.2300350114490257,-0.3095497318400195,0.7108903418339957
8.6,-11.51290489785627,-3.605053701852921,-11.359278547892826,-0.15951666149639088,0.2440531372187436,0.3015389406141559,-0.021287630973210694,0.6068551000298112,0.7945263602175376,-1.6684654788910427,-2.0820971351690574,4.1395763947726865,0.8172561365314941,1.3644905465097872,-0.8665225766793205,2.0,0.5041505982765995,0.50593703631442,0.36787131642186616,-0.5881220041108799,0.23003697768755887,-0.30955687702703905,0.7108938296695524
8.700000000000001,-11.575178514610426,-3.5459379095629715,-11.237612192677977,-0.16318523105575214,0.24289509467213868,0.30208050017509624,-0.02121623896744665,0.6050419287332996,0.7959065898517637,-1.6684484481811523,-2.0821191482823735,4.139597737293337,0.8173038202473144,1.3645056542928562,-0.8665035616388187,2.0,0.504167114861665,0.5059202467683109,0.36787333193809846,-0.5881131115124313,0.23004630416930869,-0.3095614180044931,0.7108961910773306
8.8,-11.619224828230044,-3.6163334364660304,-11.487167490840095,-0.1715487158027068,0.2512044272629143,0.3022749250404271,-0.02114276184462481,0.6032570876352319,0.7972624504804167,-1.6684692485939887,-2.082136541077208,4.139603347857063,0.817267580623291,1.3644847004593632,-0.8664930686677007,2.0,0.5041572884953415,0.505932480635911,0.3678599356407158,-0.5881278512320727,0.2300336353009116,-0.30955694381807497,0.7108900447814736
8.9,-11.746064585252475,-3.2196385027051426,-11.764362245433212,-0.1903359641214612,0.24209438377550693,0.2965352939987629,-0.021115050527413744,0.6027044389960877,0.797681929912435,-1.6684909119498315,-2.0821030399827887,4.1395880133872325,0.8172738047679465,1.364494867670789,-0.8665058577522055,2.0,0.5041577694535927,0.5059438227935837,0.36787190076371784,-0.5881223736972878,0.23003016664267398,-0.3095550740175916,0.7108965129616089
9.0,-11.86503576022327,-3.0628928499564716,-12.09765161071383,-0.24897075959946297,0.2122092855130991,0.3114728601592276,-0.02120284060328575,0.6052615344912984,0.7957382185030659,-1.668473636601564,-2.0821080993542385,4.1395745277404785,0.817251428864166,1.3644991760510239,-0.8665070749737764,2.0,0.5041625560513542,0.5059337094407946,0.3678851565049613,-0.5881085010057568,0.23003722340703298,-0.30955084191915766,0.7109075489535085
9.1,-11.822839861806003,-1.2556907035946534,-11.810556845429494,-0.35497741625931184,0.21615051710121677,0.32193481825984754,-0.02126512638749134,0.6070040220790666,0.7944141180894144,-1.6684970171620266,-2.0821391859969944,4.139599323272705,0.8172455830675763,1.3645005226135254,-0.8665068812110965,2.0,0.5041469385858958,0.5059367394937374,0.3678816692009165,-0.588111383744696,0.23003923718330382,-0.3095429550839931,0.7109079466596866
9.200000000000001,-11.743952708869191,-0.4382554997091246,-11.742595074035377,-0.4404435897032209,0.2230445076058612,0.32621174801395736,-0.021260362186306732,0.6066049309471759,0.7947189556111456,-1.66848344675573,-2.0821507363172076,4.139563899571363,0.8172382121174407,1.364488124847412,-0.866481887599499,2.0,0.5041564155640229,0.5059355356966961,0.36788021093871814,-0.588110066701726,0.23004472775225177,-0.30954725639239955,0.7109053866285033
9.3,-11.582965197179085,-0.4078918540087996,-12.082492109205758,-0.5089364443640202,0.2158512142037059,0.3385948771428447,-0.02127777482005705,0.6068736684495911,0.7945119566957208,-1.668497494301702,-2.0821534482486403,4.139556476102668,0.8172342928761811,1.3644738424124292,-0.8664915970608582,2.0,0.504150187127148,0.5059449794336794,0.36784900835023754,-0.5881527750702282,0.23003573587238413,-0.30954714727105814,0.710873010470358
9.4,-11.378029640461659,-0.25868500343767253,-12.202765462437327,-0.5389489345343476,0.2103543497591985,0.3355363097335694,-0.021356574134349555,0.6089909917917501,0.7928881667932266,-1.6684866941018959,-2.0821334076908555,4.139554158350479,0.8172421995804419,1.3644900816700887,-0.866499199661109,2.0,0.5041611189058514,0.5059440411008168,0.36783581959924994,-0.5881543806207937,0.23004033676770494,-0.3095413936624217,0.7108726986077725
9.5,-11.435446428773272,0.14064335614904588,-12.043527570779005,-0.5534326786953075,0.20634701993646262,0.33458828270673047,-0.021404149913229444,0.6098395025085434,0.7922357425640247,-1.6684598922729492,-2.082159925990868,4.139585971832275,0.8172506089508764,1.3644936524280298,-0.8664912275286741,2.0,0.5041582457265235,0.5059476912891604,0.36783929687152633,-0.5881487361897865,0.2300398934342937,-0.30955425375392787,0.7108719121824582
9.600000000000001,-11.446746270609292,0.2460792635608528,-11.840328403943085,-0.5690364827031151,0.20451160917301675,0.3359641823342619,-0.021434867393499632,0.6102676302234207,0.7919052437915465,-1.668473243713379,-2.082141220768128,4.13957971572876,0.8172686487385253,1.3644897143046062,-0.8664839903460901,2.0,0.5041615468510703,0.505949264313033,0.3678360570805894,-0.5881456692558551,0.23004142945034156,-0.3095581840819994,0.7108722410812516
9.700000000000001,-11.658177445682892,0.3656252484499267,-11.643839137301788,-0.5798393968321087,0.20215757208434681,0.32831856785789115,-0.021433569259787507,0.6104429296327605,0.7917700712993929,-1.668458248387268,-2.0821175703291783,4.13962255406075,0.8172577804171752,1.3645183316316072,-0.8664904026033533,2.0,0.5041661221482724,0.5059510436313377,0.3678359466079755,-0.5881435718197735,0.2300454608781405,-0.3095537705915067,0.7108745937006213
9.8,-11.767792362793466,0.2466089085679089,-11.693511783511198,-0.5822646862028349,0.19342228558179828,0.3316116930066025,-0.02139393575724646,0.60981279317713,0.7922565446022216,-1.6684908335730704,-2.082134589060694,4.139586007442267,0.8172379989144867,1.3645195782948578,-0.8665181196629805,2.0,0.5041460199127075,0.5059499724593616,0.3678669668741344,-0.5881260555262775,0.2300357105214099,-0.3095482754506234,0.7108946334454614
9.9,-11.896893919294149,0.1615637969814881,-11.601353355850364,-0.5941502028246208,0.1900523614932957,0.3407753250484006,-0.02136609136076547,0.609656691689247,0.7923775659370044,-1.6684424229749937,-2.082146384404507,4.139586268659362,0.8172485008037887,1.3645070499201972,-0.8664872444996649,2.0,0.5041455551510473,0.5059452831478278,0.3678776800910683,-0.588112228117831,0.23003101863540565,-0.309550651948879,0.7109065560830498
10.0,-11.48920872124448,0.448779453369321,-11.590733160505394,-0.6469491490947148,0.20075662240944736,0.3422577714094774,-0.021353177857307667,0.6096782047065551,0.7923613615811992,-1.6684484481811523,-2.08215624849846,4.13955369113154,0.8172712773469113,1.3645089155957166,-0.8665003109789858,2.0,0.5041434141173204,0.505943652487024,0.3678703584046849,-0.5881229274405002,0.2300308889062683,-0.30954333443078264,0.7109009329556973
10.100000000000001,-11.233988790427434,1.0653117587043206,-11.244621922660617,-0.6861590071208703,0.216619602154629,0.3306501414391857,-0.021380822082549492,0.6096444756362165,0.7923865658796575,-1.668473243713379,-2.082140108148092,4.139599323272705,0.8172561365314941,1.364488124847412,-0.8665111383658548,2.0,0.5041739697969929,0.5059385922419943,0.3678276175782295,-0.5881495029998228,0.2300419761074558,-0.30956512875621056,0.7108658680846823
10.200000000000001,-11.218225345550044,1.0860312529637375,-11.247705201053398,-0.7221284307516167,0.22586608693952456,0.32914721069546393,-0.021408466307791318,0.609610746565878,0.7924117701781159,-1.6684786236058442,-2.08213939532844,4.139580119974822,0.8172495669822183,1.3644734678348929,-0.866518917449886,2.0,0.5041666117871164,0.5059394862827992,0.36784619184198586,-0.5881393388159275,0.2300373266481468,-0.30956358191394184,0.710876455678726
10.3,-11.10699931408608,1.4898133212946871,-11.114165928726136,-0.730116447118542,0.22754723038457417,0.3267743805757852,-0.021425378588093708,0.6097745678622547,0.7922851993009582,-1.668489558302255,-2.082105596775824,4.139560832751483,0.8172467642400182,1.3644744298584168,-0.8664936292147514,2.0,0.5041636718393787,0.5059420205177971,0.36784281070981933,-0.5881386972040243,0.23005523391547628,-0.30956787309889366,0.7108693228324569
10.4,-11.094869044980522,1.6677361168540217,-11.079710798543394,-0.7459658591605259,0.23371289169513754,0.3236726543924001,-0.02143749246423601,0.6100267167177852,0.7920907675991146,-1.6685018421791669,-2.0821520535847644,4.13957450421307,0.8172375271383112,1.3645066832645432,-0.866500490733637,2.0,0.5041620619209406,0.50594470408348,0.36785544329824915,-0.5881337949805769,0.23003373683699918,-0.3095678742209756,0.7108803347743256
10.5,-11.140243586869682,1.6579525936022612,-10.935564220589026,-0.768023133781736,0.23861837890050056,0.3243468781588223,-0.021444949473090377,0.6100297833941175,0.792088231175504,-1.6684787979348814,-2.0821343225006936,4.139598005978864,0.8172561365314941,1.3644699644140044,-0.866500202809469,2.0,0.5041724779876547,0.5059258440762684,0.3678603880416681,-0.5881262184651896,0.2300501970283813,-0.3095685772590943,0.7108809703282395
10.600000000000001,-11.018983489444967,1.9514886838517027,-10.943982999551888,-0.7597847470910486,0.23246873176392766,0.3266767154667494,-0.021445480110827177,0.6099171481987569,0.7921749559894873,-1.6684544286512077,-2.082132801724464,4.13959294904734,0.8172665038559703,1.364488124847412,-0.8664896078340869,2.0,0.5041794467202053,0.5059273214628797,0.367861299459327,-0.5881226610420893,0.23005522857309152,-0.3095703157245172,0.7108815281023817
10.700000000000001,-11.132181839061452,1.6928556309834473,-10.879432221336176,-0.7583275794279255,0.23563120665542459,0.32044883512855,-0.021423867520536342,0.6098010671936194,0.7922648977245962,-1.6684604664207077,-2.082128187219137,4.139580074620273,0.8172791366228633,1.3644953552602888,-0.866507187505179,2.0,0.5041626698587205,0.5059341559967241,0.36786237973952984,-0.5881415863838447,0.23003795312458414,-0.30956285638520964,0.7108747093790694
10.8,-11.383455090717998,1.6774261911973511,-10.890842082692066,-0.7552305772294857,0.2374991465026402,0.3218422731070068,-0.021405488809577915,0.6096496399378759,0.7923819197337746,-1.6684642872465403,-2.0821468188581695,4.1395745277404785,0.8172611383416166,1.364479681738015,-0.866504389374305,2.0,0.5041628480009344,0.5059262429991704,0.36786023163777576,-0.5881255089827242,0.23005186013009815,-0.30955307349538075,0.7108877703435733
10.9,-10.950783807669497,1.3268111597849397,-10.982808869536093,-0.7632917742119363,0.22589674460726836,0.32850547652636725,-0.021392818719826286,0.6096194097942317,0.7924055280257878,-1.6684484481811523,-2.0821496482029933,4.139583686193184,0.8172584221705859,1.3645056825225148,-0.8664979171703773,2.0,0.5041533434617664,0.5059306044742354,0.36787154105235054,-0.5881238761980224,0.23004613673269841,-0.3095576793137742,0.7108889677003327
11.0,-11.413770645043181,1.6230858548668972,-10.755417500980005,-0.7562198315209729,0.2376396497454373,0.3231693429053984,-0.02138315559788826,0.6096530192016774,0.7923799314343991,-1.6684463607869744,-2.082125848044732,4.139598977925502,0.8172583821389227,1.3644689613383114,-0.8664910043251007,2.0,0.5041405046850509,0.5059445662812079,0.36787641095974605,-0.5881251038045836,0.23003209787223358,-0.30954522556463576,0.7108979178148478
11.100000000000001,-11.18762442935325,1.614721517677177,-10.836382862795727,-0.7564632056878517,0.2297769141594422,0.3278281096353979,-0.02138618603091349,0.6097307457445829,0.7923200258385449,-1.6684857133829756,-2.082152029077047,4.139583920676675,0.8173212522439757,1.3644831760816807,-0.8665055870929181,2.0,0.5041683194835345,0.5059182353151082,0.3678817248859685,-0.5881050148515715,0.2300560837134229,-0.30955565802705653,0.710902232684855
11.200000000000001,-11.164743809856011,1.5416555315605647,-10.894852843496961,-0.7556405097208925,0.22668125359180763,0.3282422782668857,-0.021396119912022674,0.6098324655939453,0.7922414611332584,-1.6684403481338357,-2.082128187219137,4.139581773170185,0.8172965748176073,1.364488124847412,-0.8664921027621524,2.0,0.5041609981757397,0.5059397322781165,0.3678644553161367,-0.5881261753017669,0.2300363681922314,-0.30954684082749945,0.7108949462245163
11.3,-11.235574177763402,1.368301161805452,-10.895808913881291,-0.7571394586181532,0.23034690972632405,0.32405228903495986,-0.021406053793131864,0.6099341854433077,0.7921628964279721,-1.6684405347221116,-2.08212181960373,4.139580640651269,0.8172729118042971,1.3645026606264763,-0.866500202809469,2.0,0.5041655279074315,0.505923315653781,0.36787657352765485,-0.5881113612428142,0.23004190765951765,-0.30956060224297427,0.7108994169616831
11.4,-11.513658189451766,1.2661041114457339,-11.040229567999889,-0.7591571665087705,0.23547775266894655,0.32202287105429667,-0.02142114947135558,0.6103634938371028,0.7918316734352698,-1.6684588003681924,-2.082128187219137,4.139557510287299,0.8172595032378278,1.3645051632087422,-0.8664979280078922,2.0,0.5041700770015284,0.5059219332299885,0.36789658727579716,-0.5880977816589368,0.23005376012356532,-0.30955590777080044,0.7109088595769801
11.5,-11.142066652243374,1.2041111520339092,-10.91126909380175,-0.7582884331863162,0.22822751558714693,0.33104608171694616,-0.021399384296745223,0.6101206054736545,0.7920192119686547,-1.668474176213476,-2.0821382945188485,4.139591631920114,0.8172329695366297,1.3644920438511763,-0.8665093605549705,2.0,0.504153810225063,0.5059435717752699,0.36786716407722553,-0.5881125260022024,0.2300356800579762,-0.30955744630964394,0.7109018427981639
11.600000000000001,-11.212226927006405,1.5846840729086011,-10.836288605876819,-0.751456123119921,0.22787750478980956,0.3304320132124811,-0.021362644832695392,0.6094890472252273,0.7925066146835394,-1.6684324283432401,-2.082128187219137,4.139581921511823,0.8172749743946351,1.3645173082267958,-0.8665126005755823,2.0,0.5041555194858114,0.5059368262919252,0.3678588881893494,-0.5881203234855913,0.23004552429727868,-0.3095437649391934,0.7108981639034264
11.700000000000001,-11.228997557068107,1.3118910224760987,-10.991983131060282,-0.7569510464582926,0.22250290197874892,0.32856810066026976,-0.021380756013061237,0.6095832906676025,0.7924336264764588,-1.6684410834462529,-2.0821085946913285,4.13957600161219,0.8172760792834939,1.3644925441507176,-0.8664807802548644,2.0,0.5041591963139681,0.5059332879225733,0.3678623941062961,-0.5881270860778268,0.23003541531793228,-0.3095575806243222,0.7108898245151122
11.8,-11.252833583516672,1.3166961163262274,-11.004640629872934,-0.7541107039032999,0.2250302611761844,0.3275304477121624,-0.02139886719342708,0.6096775341099778,0.7923606382693781,-1.6684547425689586,-2.082129379598112,4.1395745277404785,0.8172901824070672,1.3644937036934017,-0.8665111459304489,2.0,0.5041625386108581,0.5059312432390605,0.36786343113709047,-0.5881157231795648,0.23004462559776606,-0.3095609914872415,0.7108947593926949
11.9,-11.234733062471278,1.4311200076512032,-10.944063156000748,-0.7505595289288055,0.22534717871788032,0.33082434491909374,-0.021418427818420512,0.6099399826584005,0.7921580336522744,-1.6684463306861588,-2.0821214818183242,4.139576645235472,0.8172914224812011,1.3644810922035184,-0.8665126005755823,2.0,0.504158774529414,0.5059310062200806,0.367901567977333,-0.5880993989928324,0.23003896109721134,-0.3095649133160579,0.7109083891228227
12.0,-11.317009288648505,1.4042551908380363,-11.04789667828485,-0.7530943642013509,0.2262811329529149,0.3292066022578934,-0.021430556464743244,0.6101636804921219,0.7919853508106831,-1.6684598922729492,-2.082104345361227,4.13957947185629,0.8172490948908435,1.364509249769364,-0.8664887587176722,2.0,0.5041757070746049,0.505904742241422,0.3679102301295757,-0.5880715002327896,0.23005683908307697,-0.30957161057542276,0.7109227660799718
12.100000000000001,-11.156616384841088,1.4117068171376637,-10.50957815076314,-0.7559944345540527,0.22130948793182853,0.33067553365428093,-0.021374250742488127,0.6092152076840501,0.7927164272546073,-1.668470349740091,-2.082114400618094,4.139567910171978,0.817267580623291,1.3644933535809831,-0.8665054315430399,2.8477832132724803,0.5041421840882321,0.505934847148782,0.36789845653642544,-0.5881011273621785,0.2300287077618858,-0.309548290081995,0.7109175154038933
12.200000000000001,-10.862041705474878,1.9469948648248114,-9.194440980970217,-0.7693084303083344,0.2134889713969822,0.32920047040650574,-0.02136487189816091,0.6086888204854267,0.793121272675733,-1.6691627502441406,-2.0816824260156075,4.1395881993868615,0.8176318842121582,1.3644638061523438,-0.8665245215045374,3.0,0.5041502156701024,0.505918592482453,0.36789472450504945,-0.5880965499115596,0.23003963379956585,-0.30956872989639295,0.710908866405404
12.3,-11.461042966983966,0.9853566596434996,-9.326395518691099,-0.7015080876132922,0.21528321589340313,0.3303955468543919,-0.02138684558584825,0.6084444348425736,0.7933081583893719,-1.6708143850338697,-2.0808150841565007,4.1397186163780795,0.8185931879230957,1.3642477989196777,-0.8665236154019406,3.0,0.5040971282588559,0.5058163742568457,0.3678987828056555,-0.5880917570920615,0.23004098533816936,-0.30957318857020616,0.7109104523239841
12.4,-11.055957867040467,0.23692190839798527,-9.15223999011632,-0.6427856880131408,0.21815975087283798,0.36334119096177747,-0.021402605307280838,0.6081251891664909,0.7935523717008978,-1.6727278110804988,-2.0800919636321993,4.139944490172865,0.8193553771983081,1.3640317171120186,-0.8666327635394495,3.0,0.5036900673472458,0.5053067179796208,0.36780679763007484,-0.5880334694121863,0.2300749832710466,-0.3095991694936395,0.7109363509996824
12.5,-11.228503215699577,0.3287007907458313,-9.066979298103067,-0.6304976704978561,0.23263595807169904,0.3609775811120745,-0.02135599254233803,0.6070545383151541,0.7943720089319561,-1.674247103049736,-2.079250632481798,4.140292968125382,0.8201800579907482,1.3637932375929172,-0.8666357820748155,3.0,0.5034340796893647,0.5050675734124118,0.3676231494909628,-0.5881115748833061,0.23008646366072597,-0.30959341252938266,0.7108705322678597
12.600000000000001,-11.129847765658875,-0.08185907882394222,-9.013573914165882,-0.6005574688237568,0.22519589440886903,0.372225547416326,-0.02130996365141668,0.6059521555165573,0.7952153650061378,-1.6758159613346888,-2.0784152457978586,4.140397921358863,0.8211394983479003,1.3635728784351995,-0.8666708127342457,3.0,0.5029869449501427,0.5047299084531034,0.3675420775698215,-0.5881080780206173,0.230062740043388,-0.309578592055732,0.7108875576006484
12.700000000000001,-11.141489984601309,-0.6410674612731994,-8.784329236210702,-0.5675971907858429,0.23133394647677244,0.4063071946931272,-0.021270389824670416,0.6044989577331619,0.7963209465757034,-1.67783201660427,-2.077568670312399,4.140678882598877,0.8220397669025878,1.3633791761603025,-0.8667678273375101,3.0,0.5027679537451968,0.5044960751732878,0.36749303215208834,-0.5880867218314133,0.23005704039420216,-0.3095876617062537,0.7109031196231288
12.8,-11.336548809367956,-0.5977511974583777,-9.082916300493258,-0.5892899830760957,0.2120983896077964,0.41283380429605593,-0.021241190048006325,0.6041365463076614,0.7965975658106584,-1.679387425941159,-2.076745255162944,4.14088696911251,0.8228728434442946,1.3631723035889467,-0.8667603065996726,3.0,0.5024540559220084,0.504138474430736,0.3673744317517045,-0.5880850380852206,0.23008456804214905,-0.3096028227907883,0.7108890009341388
12.9,-11.476671972679792,-0.27815922067783627,-9.56465042138883,-0.6218129378781063,0.20877572961280533,0.4247732973447279,-0.021212189965335464,0.6043556478114437,0.7964312245161481,-1.6809684154927076,-2.0759267416118665,4.141109943389893,0.8236520949985401,1.3630138600958377,-0.8668314370478749,3.0,0.5019070772598617,0.5036803375939196,0.3672081440826835,-0.5881247587509832,0.23004794373094595,-0.309562403678616,0.7108855955482424
13.0,-11.309252295093163,0.4178238009808317,-9.149252522067485,-0.6596497129627215,0.20899037442561033,0.43921102166362475,-0.02108300567787054,0.6016003792161957,0.7985114233118826,-1.6827342341157494,-2.075175683707077,4.141349097869318,0.8244996834283463,1.3627963066101074,-0.8668386708469162,3.0,0.5016437016740337,0.503476319430061,0.3671369808486891,-0.5881276364559208,0.23002844088511123,-0.3095432827423674,0.710897851825293
13.100000000000001,-11.32926959513632,-0.48654033689513765,-9.269100579640682,-0.5380679135982493,0.25051719004011874,0.44371743998311797,-0.020959624026686736,0.5989874256284263,0.8004840656190546,-1.6844356082335372,-2.074188026054585,4.141529560089111,0.8255047275128742,1.3626148216091856,-0.8669019147150518,3.0,0.5013066116795412,0.5031341908906272,0.36695354755473364,-0.5882091081943754,0.23003934512773871,-0.3095284766868219,0.7108333608169458
13.200000000000001,-10.800356763073179,-0.07708394165803377,-9.335215925921208,-0.55179362952035,0.285230560861425,0.43540746469586655,-0.02092761923070281,0.5986155737056787,0.8007629650815882,-1.6860489017023903,-2.0733662994600777,4.14171724837074,0.8262027508065584,1.3624152159642746,-0.866943661366598,3.0,0.5008256739388999,0.502618841222426,0.3669872334810038,-0.5880651572011437,0.2300181828374554,-0.30955233809394433,0.7109489126728598
13.3,-10.677474208390553,0.6976947059406499,-9.074687947462268,-0.6233681544733805,0.2885378700542363,0.454070876941545,-0.020926914960832117,0.5987806861881603,0.8006394026129081,-1.6877814718156747,-2.0725634709110246,4.14194917678833,0.8270145905258657,1.3622322082519531,-0.8669918219195765,3.0,0.5006312954752622,0.50243134302998,0.36686357431498173,-0.5881373442745802,0.23002883728613424,-0.30953700301306764,0.7108924264979347
13.4,-10.671924989600342,0.7763775465876677,-8.681480926369087,-0.6691518259714865,0.28950697440528034,0.4837292405409941,-0.020947304293239224,0.5993137863614045,0.8002400345754304,-1.6894086817008873,-2.071692511163422,4.142138744894,0.8279828521591364,1.362043573029144,-0.8670607502242207,3.0,0.5001375559018144,0.5019531509594296,0.36672098711199896,-0.5881464058090285,0.2300209010853846,-0.3095349555429634,0.7108883890561195
13.5,-10.325474894100099,0.2720840456489715,-8.592483391724912,-0.6491990122793383,0.27602701795470636,0.4890360231463471,-0.020860211056947152,0.598106810803853,0.8011446142116738,-1.69111004045934,-2.07092113209553,4.14235329805284,0.8287858674309745,1.3618249893188477,-0.8670800403397101,3.0,0.49991382247776306,0.5017531206213484,0.36668634342137596,-0.5881224799410603,0.22999905746645577,-0.3095288129251624,0.7109179250248646
13.600000000000001,-10.663740194115233,0.6553700526950792,-8.64560743010052,-0.6410049851693858,0.27764953995440006,0.4910995425843868,-0.020786578771644783,0.5956322223838664,0.8029853390341615,-1.6928329489204321,-2.0702208465157512,4.142548084259033,0.8296507151866084,1.361628770292475,-0.8670912430028339,3.0,0.4995902278302643,0.5013983025551599,0.36655522684141667,-0.5881204602847608,0.23001940197406237,-0.3095223885410871,0.7109158106989578
13.700000000000001,-10.648530564596795,0.9100131063825398,-8.55203273783558,-0.6431796954537713,0.276492362502199,0.49632155033242525,-0.020748757467642848,0.5938148515467007,0.8043337861446472,-1.6943091345196835,-2.069375493751161,4.142746981073722,0.830415155667794,1.3614451710222861,-0.8671781047394421,3.0,0.49913851059060044,0.5009269130249887,0.36629322834880496,-0.5882039408763846,0.23004323489563228,-0.3095237665383012,0.7108384288740917
13.8,-10.84062123932605,0.49828011128368965,-8.57052498189879,-0.6406658375740493,0.27851280864883654,0.48691185737354564,-0.02071137859286239,0.5924262513209817,0.8053566234205494,-1.6959213092660146,-2.0684105358519496,4.142924420561866,0.831323918399234,1.361189365386963,-0.8672334646826357,3.0,0.4989192509718021,0.5006968860086461,0.36625447484538004,-0.5881850761476738,0.2300374118463335,-0.30954416094552345,0.7108470424590141
13.9,-10.753978673420713,0.15779873120863527,-8.54491306535142,-0.6237324774807473,0.27821002841859016,0.4942600959416947,-0.020642204923406095,0.5908607132012477,0.8065076953809781,-1.6977853775024414,-2.0674732216772043,4.1431367717543885,0.8321887689777832,1.3610107187031666,-0.8672502480870748,3.0,0.4984650702887819,0.5002123255202228,0.36633166054864774,-0.588067691185857,0.2300245089727797,-0.3095629513286785,0.7109401486903417
14.0,-10.347200357278316,0.12889272134939334,-8.332993093015876,-0.6332133827116985,0.2753212655688112,0.49503293921301583,-0.02060521684076086,0.5901529183759201,0.80702845762149,-1.6994107086281927,-2.06665481849142,4.143341012885195,0.8330120600034369,1.3608104865927546,-0.8673177806213007,3.0,0.49819315556952576,0.4999352652567154,0.3662428166158979,-0.5880713975598213,0.23003713490150715,-0.30955636969299033,0.7109358634369498
14.100000000000001,-10.381834171683492,0.018159542546426613,-8.294445170968352,-0.6410875043226174,0.2844514774774194,0.4891540042087478,-0.020600474931584813,0.5903044814745549,0.8069177236370899,-1.7007083555186644,-2.0659998381369338,4.143581329220981,0.8336808873692405,1.3606078670385868,-0.8673215593805265,3.0,0.49781073340399357,0.49956198912653066,0.36611535842551124,-0.5880835282234378,0.23003330987848697,-0.30955780229588037,0.7109264429013491
14.200000000000001,-10.453375989973717,0.4282173227321075,-8.368785391129364,-0.6309235937484639,0.2841062144757648,0.48855318390453367,-0.020578705702062144,0.589691059669297,0.8073648317714328,-1.7025788875446677,-2.0653282763029237,4.143776518352156,0.8346032691997408,1.3604065168407837,-0.8673718769762637,3.0,0.49744774131423725,0.4992459541191184,0.36598314055114695,-0.5881015068112883,0.23002383239294216,-0.30954228457094457,0.7109213938827248
14.3,-10.450622336060182,0.1849584651110429,-8.151735978857271,-0.6124034023005905,0.2847082336030425,0.49027847830785987,-0.020539345527790118,0.5882873310568302,0.8083882472571325,-1.704289515393783,-2.0645924611994917,4.144002799887135,0.835521860713623,1.3601975638612631,-0.8674313117111382,3.0,0.49724387098611095,0.4990357011443107,0.3658661959200675,-0.588139245471517,0.2300289799749975,-0.3095352404092638,0.7108915748921464
14.4,-10.920008048419412,0.18605609200576667,-8.315927754971277,-0.6137164061246358,0.29188534684222306,0.48220413080914376,-0.020499985353518095,0.5868836024443632,0.8094116627428323,-1.705781817853764,-2.063625714223052,4.144166544398159,0.8363281158537772,1.3599829234091496,-0.8674824873553675,3.0,0.4968214720068803,0.4986045661894301,0.36561113426671166,-0.588200412171792,0.23004518839262403,-0.30953239712893577,0.7108369584834144
14.5,-10.69198254022322,0.06607201659501426,-8.12955521679888,-0.5996434687596067,0.2841000164147317,0.4822015548822924,-0.020468126396573968,0.5859777309263197,0.8100678487334253,-1.7074188921879363,-2.062676283492258,4.144382953643799,0.8371390229124569,1.3597702678418697,-0.8675216181646208,3.0,0.49643564158208686,0.49818957410936776,0.36566687489797794,-0.5880981595040294,0.23003887992985292,-0.30956671936931507,0.7109086543062415
14.600000000000001,-10.630720860634534,0.24157140995030832,-8.186456941697672,-0.5927107999716681,0.2791728074056334,0.4849613501596425,-0.02043641795289275,0.5850818489996273,0.8107166661987338,-1.7093065391718645,-2.061774334985448,4.144592049273381,0.8379124812705644,1.35961347671489,-0.8675562142963884,3.0,0.49620143226169383,0.4979436440082278,0.36565227398548167,-0.5880799082479581,0.23004108666169162,-0.30956234065255883,0.7109249448516282
14.700000000000001,-10.707128218653152,-0.25314589449711766,-8.267971386920266,-0.5923046348250139,0.2712669763492916,0.4812785279724126,-0.020449648564563504,0.5853341675552072,0.8105341809847597,-1.7108089404573072,-2.060995321750594,4.144785837957342,0.838905033050224,1.3593897819519043,-0.8676105092889259,3.0,0.49586606293487023,0.49757122174201857,0.3655168192796391,-0.5881221765101073,0.23006823079421201,-0.30956918975632747,0.7108782113905633
14.8,-10.893461556127084,-0.2640538795742939,-8.572933312662519,-0.5646083241274752,0.27249876782752597,0.47860978728699755,-0.020431307259015805,0.5851681753620196,0.8106543089687305,-1.7124189800902383,-2.0602668120241643,4.145018100738525,0.8397132593342285,1.3591836293214297,-0.8676565858784104,3.0,0.49537247456906197,0.497093053632007,0.3654268037810039,-0.5880549249884592,0.23004350873849644,-0.30955787853049677,0.7109467695431191
14.9,-10.67855420291234,-1.1076724081957445,-9.08723056507316,-0.5266566285742694,0.2851278011575369,0.479452619028934,-0.020374361528377787,0.5844714369948352,0.8111584113784974,-1.7141930885862506,-2.0595620530537886,4.1452107429504395,0.8405452320313632,1.3589784558309892,-0.8676961669838765,3.0,0.4951509682656035,0.4968845879027999,0.3653262321309191,-0.5880665940318018,0.2300345560656154,-0.3095480884187465,0.7109442769696026
15.0,-10.779478677324823,-0.2309679504907799,-8.385799738067716,-0.5871946814097155,0.2879279723794469,0.48215237655538506,-0.020230969783392984,0.5799307544092887,0.8144033220357247,-1.715805339261444,-2.058875217106698,4.145432687886311,0.8414197289335118,1.3587783430788303,-0.8677333037005823,3.0,0.4948099296331873,0.49653880549897716,0.36516693618852664,-0.5881028161031541,0.23004163797019428,-0.309558519920735,0.7109074800816303
15.100000000000001,-10.605937027479444,0.0336622973186672,-8.478699537365577,-0.6008998469986376,0.2851018439663846,0.48505179799030596,-0.02013632015142339,0.5771612251111811,0.8163818914485678,-1.7174526473031548,-2.057881809004717,4.145644061642626,0.8422909766006662,1.358565298299967,-0.8677766933449816,3.0,0.4943479047862267,0.49610042419965367,0.36488695483315814,-0.5881935821392221,0.23004222196648727,-0.30954314911752223,0.7108388881296231
15.200000000000001,-10.82040063961588,0.025377169111125017,-9.265607485538556,-0.6042496415403752,0.2774225431531714,0.47508093151150754,-0.020110946525623657,0.576958904620426,0.8165254903924677,-1.7190952108456539,-2.056787491913403,4.145868978503325,0.8429421620770498,1.3583630133429472,-0.8678107898127415,3.0,0.494090265870164,0.4958473072739195,0.3648900059468151,-0.5881471794629297,0.23002771560776847,-0.30954000191669334,0.7108833466578645
15.3,-10.852860358669433,-0.09474957198033541,-10.244465957158242,-0.6322087173081677,0.27176885108992155,0.4798186109816557,-0.020085572899823927,0.576756584129671,0.8166690893363677,-1.7193200588102369,-2.0565395456421744,4.1459646622856345,0.8431121545979003,1.3582805096839725,-0.8678571919934824,3.0,0.49365228702562963,0.49539430671134155,0.3649713127542958,-0.5880884294011335,0.23003033717110943,-0.30954997948634444,0.7109267566954119
15.4,-10.771029607597253,-0.3956016077861897,-10.33642609874883,-0.645330052471471,0.27749935407769943,0.48923891896007365,-0.02010460037431444,0.5768794995744381,0.8165817676220272,-1.7193697241962773,-2.0565629055773917,4.145968929918111,0.8430804148617728,1.358255594706011,-0.8678579665523454,3.0,0.49354714359809276,0.49527949997162424,0.36505235398702834,-0.5880225270998222,0.23003052296706283,-0.30957230068248887,0.7109714880195894
15.5,-10.647340628098927,-0.334109819306995,-10.643473135516471,-0.6123881788734631,0.2746548387533888,0.4808765543613178,-0.020127086141043388,0.5770277468444104,0.8164764600669109,-1.7193515247455984,-2.056659217733266,4.145956389162923,0.8430873590656738,1.3582693312752352,-0.8678773085223597,3.0,0.49354756766605146,0.4952870486968879,0.36502473110204986,-0.5880283462209083,0.23003320742810607,-0.30956637069693826,0.7109683886464763
15.600000000000001,-10.85459034746576,-0.9137822468881793,-10.53697608416795,-0.6107855199167163,0.2733874382549394,0.4766807062975821,-0.02014957190777233,0.5771759941143828,0.8163711525117946,-1.7194356906904378,-2.0566445789732875,4.145929973569042,0.8431080195325696,1.358245535242366,-0.8678733324980031,3.0,0.49356630557325026,0.49529695230712617,0.3649577484791755,-0.5880743953033885,0.2300423498739559,-0.309572778319337,0.7109245513953425
15.700000000000001,-10.797964582637112,-0.2895577377957047,-10.583201102307795,-0.5956840092087914,0.2769356864996198,0.4790284111768736,-0.020119176566785416,0.5766627451498508,0.8167343694947609,-1.719426830020616,-2.056660006494921,4.145945407855832,0.8430946527784449,1.3582935030729497,-0.8678545312419182,3.0,0.49355568178354686,0.4953067235358832,0.36491619030469413,-0.5881149590751684,0.23003063092634082,-0.3095722414394641,0.7108950211372906
15.8,-10.839193155126917,-0.4433821841230794,-10.537357700563987,-0.6053169390094866,0.27716964285452356,0.4786101317973643,-0.020090486902964975,0.5760479454103429,0.8171688732278303,-1.7194492286049339,-2.0566680347249306,4.145927906036377,0.843051706323176,1.3582749366760254,-0.8678298101375475,3.0,0.49354646307158234,0.49531549986226303,0.3648951529774984,-0.5881129577738986,0.2300316999176224,-0.3095523336298259,0.7109049997543798
15.9,-10.705246766081775,-0.8110991134398955,-10.756383487124861,-0.6124981576254321,0.2764312460708599,0.4780346606587581,-0.020077401176209295,0.5756715755601586,0.8174344798858149,-1.719447536676559,-2.0566455701557658,4.14596462142799,0.8430992414168984,1.3582506190505257,-0.8678639195737682,3.0,0.49357578373681976,0.4953015014238313,0.3648885489796316,-0.5881275213571445,0.23005389856299469,-0.3095553292084793,0.7108844635641566
16.0,-10.91424962966978,-0.4797019282509042,-10.69466846283089,-0.60176790957933,0.27925181588093956,0.4723298753302503,-0.0200740693958191,0.5757514489470599,0.8173783044081839,-1.719421688970655,-2.0566604456174886,4.145928584269417,0.8431114361489159,1.3582632171429527,-0.8678531074399572,3.0,0.4935610582796726,0.49530431036663564,0.3649120751187752,-0.5881113948039466,0.23003663041385847,-0.3095632481838969,0.7108999446781729
16.1,-10.82463289307609,-0.6462509332661478,-10.738160332905155,-0.6047521362258624,0.27517720663449075,0.47542575393033376,-0.020076648718537725,0.5759595253613295,0.8172315110729266,-1.7194257767546721,-2.0566318553513017,4.145941410222983,0.8430704584688968,1.3582807715166654,-0.867842098945741,3.0,0.49355247526094387,0.4953247414177899,0.3648922378502848,-0.5881328834954159,0.23001776279327707,-0.3095529742127033,0.7108927459940865
16.2,-10.645204571195315,-0.7774184895425178,-10.617780070828482,-0.6080041060018264,0.2728327212175775,0.47658215243222934,-0.020088818605308388,0.5763756068337088,0.8169376933410674,-1.7194166186732902,-2.056646413119147,4.145936635510771,0.8430997568317871,1.3582598242925095,-0.8678612424645273,3.0,0.49356011364088254,0.49530572870818357,0.36492916782512436,-0.5881031141042425,0.2300333274556739,-0.3095563776075282,0.7109108555389124
16.3,-10.761156096627195,-0.6144767063802064,-10.761201224269847,-0.6028204523878035,0.27524712772639837,0.4722226521550868,-0.020100988492079055,0.5767916883060882,0.8166438756092081,-1.7194400950250384,-2.0566497786460154,4.145935809538924,0.8430794555631271,1.358277640505844,-0.8678612661735416,3.879117109402449,0.49353907207702075,0.4953262955059329,0.3649143324671641,-0.5881135337296156,0.23001013516103183,-0.3095603856009693,0.7109079946335165
16.400000000000002,-10.54475357776457,-0.5658136112492655,-10.618069900116504,-0.602366331865696,0.2733072843105371,0.47040441269470534,-0.02010832892563496,0.576800229860725,0.8166377079361894,-1.7194702531467962,-2.056657679395452,4.145972098452297,0.8430770472873578,1.3582749366760254,-0.8678773085223597,4.0,0.493546150073008,0.49532384366258836,0.36489502385134526,-0.588131712765152,0.23003492555772517,-0.30954349308143714,0.7108922895590605
16.5,-10.636773102675974,-0.874328552775723,-10.702057206917557,-0.6079072678692633,0.27355861583115887,0.47817051475253636,-0.020114961845818312,0.576749066945968,0.816673680906054,-1.719437599182129,-2.0566445789732875,4.14594030380249,0.8430900537107432,1.3582473201007468,-0.8678624233915669,4.0,0.4935479485682414,0.4953119942771174,0.36493794527987633,-0.5880901677992507,0.23002997897374294,-0.30956683425762754,0.7109180954504527
16.6,-10.718562827190173,-0.9737152505764484,-10.746062906179903,-0.6119773625213734,0.27623952195936724,0.4777850532109091,-0.020115863752257844,0.5767855364299076,0.8166478994208026,-1.7194392619311094,-2.0566853345683556,4.14594030380249,0.843056384813422,1.358261691272833,-0.8678463342701079,4.0,0.4935547091741799,0.4953091336010742,0.36490336109844423,-0.5881215295944204,0.23004437235754663,-0.30954322934431555,0.7108977720750251
16.7,-10.747706201224561,-0.8851228457435476,-10.696981529078043,-0.6092055428011443,0.27734382421828824,0.474853919111011,-0.020115868685588807,0.5768357214463138,0.8166124526148857,-1.7194448872048702,-2.056649373725091,4.1459527015686035,0.8430584074643916,1.358289950914573,-0.8678553212526394,4.0,0.4935472322863992,0.4953177567064848,0.3649148416343759,-0.5881224451180247,0.23003074241507088,-0.30955252987948056,0.7108973753908372
16.8,-11.008176660138082,-0.846994901825605,-10.638825976441325,-0.6069463692577748,0.2798419325761165,0.4738586504686648,-0.02010841788535759,0.5768344983139642,0.8166135009361569,-1.7194452375646399,-2.0566564999022425,4.145945329054142,0.8430873590656738,1.358297119077393,-0.8678892294513147,4.0,0.493558652729914,0.4953033572904525,0.364918021688517,-0.5881020442429463,0.2300438025944968,-0.30955552520827834,0.7109087221705463
16.900000000000002,-10.89661408871403,-0.8042473440877524,-10.633543287633717,-0.605373268075948,0.2780168938904509,0.4757150221079361,-0.02009903847977386,0.576902543049669,0.8165655921168986,-1.7194359227689526,-2.0566684208311976,4.145977405866471,0.8430413517630296,1.3582582195741142,-0.8678551430776257,4.0,0.49354210287217215,0.4953197454122866,0.36489800854718935,-0.5881277218948725,0.23003024196085592,-0.3095469385630385,0.7108956065052223
17.0,-10.997551140908259,-1.0259941257589396,-10.675766497911457,-0.6089523612046639,0.28016011188606216,0.47415818255196845,-0.020110974307882928,0.5772707412280378,0.8163050037185855,-1.7194370154178504,-2.056662764410615,4.145964729424679,0.8430759149738769,1.3582879668534404,-0.8678649107562464,4.0,0.49354054950665294,0.4953264130212769,0.36490314729971984,-0.5881246402515277,0.23001978982056834,-0.30955048429736876,0.7108999940154572
17.1,-10.730833287396594,-0.8395049388842903,-10.606146618114334,-0.6080384307119893,0.27293632373226256,0.4687429214734875,-0.020109217903973266,0.5771804689450484,0.8163687899857498,-1.719436021778867,-2.0566667777028,4.145960859403605,0.8431186035793675,1.3582890432956725,-0.8678237995540177,4.0,0.49355435619020643,0.4953190366811076,0.3649092453035882,-0.5881150688679925,0.2300448765776005,-0.30954208772102304,0.7109034508708648
17.2,-10.770814808589146,-0.7728698576680495,-10.669298388139877,-0.6040620200990744,0.2732424824792337,0.4733662556298712,-0.020093796976834798,0.5766450186410378,0.8167476308849193,-1.719437599182129,-2.056649200233685,4.145973371547206,0.8430713103474684,1.3582634925842285,-0.8678602894958488,4.0,0.4935461807439744,0.49532251851634657,0.36489244541227805,-0.5881273215006291,0.23002999692284007,-0.30954843227536416,0.7108953666300254
17.3,-10.654891480413289,-0.7895719512972377,-10.545538991197455,-0.6029698472152115,0.27279020619438965,0.47079331345416603,-0.020103886585007644,0.576988612876973,0.8165047046655487,-1.7194388017369884,-2.0566671681698856,4.145962943105541,0.8431133571527599,1.3582898397647627,-0.8678308273613989,4.0,0.49354370993379454,0.4953211255693529,0.3649134473022239,-0.5881139036450467,0.23002260269995134,-0.30954829709570847,0.7109089184640129
17.400000000000002,-10.798763188025035,-0.9073837685033591,-10.66373215699052,-0.6074407411392247,0.2757347664295751,0.47150238980883397,-0.020100313091329966,0.5770149403376595,0.8164862114221164,-1.7194558968458178,-2.056645726603264,4.145941497337666,0.8430558017719534,1.3582645943090057,-0.8678422624335115,4.0,0.49354775717232574,0.49530966929983405,0.3649330547359678,-0.5880958540728328,0.23003410709982564,-0.30955987922771133,0.7109150843565328
17.5,-10.69178815821945,-0.8465893545764485,-10.574354488775864,-0.6040198788350165,0.27413720883723997,0.47061145186606657,-0.020093815215503793,0.576973361600764,0.816515754693053,-1.7194539221767655,-2.056673503021656,4.145962459374283,0.8430807938767167,1.3582670056803061,-0.8678397891874556,4.0,0.49354534359008345,0.49531924680571704,0.3649177109242334,-0.5881093387919599,0.23003931755498203,-0.30954527983535196,0.7109086001281568
17.6,-10.769044569993673,-0.7243777237737672,-10.623814667847917,-0.6019799388729694,0.2751206307658946,0.471517494944613,-0.02011019116995566,0.5771775326932983,0.8163710300966663,-1.7194584184946928,-2.0566684208311976,4.145939183164016,0.8431088788854364,1.3583191777152237,-0.8678534666644495,4.0,0.4935387401797278,0.4953115343829095,0.36492326762103683,-0.5880974165623699,0.23003533623964187,-0.30954564089998365,0.7109195938456047
17.7,-10.868967562552548,-0.8849153928710805,-10.639735672929321,-0.606032139198718,0.2772828880480856,0.46614918296572755,-0.020135580126509185,0.5772564720033377,0.8163145984017031,-1.7194684470461594,-2.0566666472259367,4.145965848321451,0.8430742123128265,1.358265195245279,-0.8678446161088579,4.0,0.49356000682190104,0.4952963645817151,0.36493269626003105,-0.5880939742717584,0.23004714740310364,-0.3095632310063493,0.7109109602516007
17.8,-10.846260619418986,-1.0216693292966181,-10.618658085506869,-0.6107011928120367,0.27762536428611834,0.4653570495124649,-0.020148029240331333,0.577872661300705,0.8158781030489548,-1.7194273544074576,-2.05666967011987,4.1459641456604,0.8430630716787668,1.358299732208252,-0.8678521674042301,4.0,0.4935506058220904,0.4953036299272526,0.3649065314368812,-0.58811783840398,0.23003579844487454,-0.30955291045574207,0.7108993847326348
17.900000000000002,-10.756440641622483,-1.0200850798176724,-10.63170647423876,-0.6086936383870545,0.27206353082529167,0.47008255559125245,-0.020148323836778517,0.5778045741590085,0.8159263253408715,-1.719447085175638,-2.0566663811454813,4.145966103758688,0.8430834428690981,1.3582770579491705,-0.8678391108000484,4.0,0.4935485521188646,0.4953091519584906,0.3649071035516398,-0.5881083666742578,0.23004766947626915,-0.30953942499645254,0.7109092510223366
18.0,-10.55926086982325,-1.3086270328427814,-10.720626477760685,-0.6161806268874982,0.27174692523440414,0.46937160736962036,-0.02014606577854713,0.5774804108019023,0.8161558936168285,-1.7194400207376033,-2.0566445789732875,4.145937680450727,0.8430550118678571,1.3582920639492502,-0.8678508433126857,4.0,0.49355577512105026,0.49530420564397665,0.3649199946722104,-0.5880971843319346,0.23004483875758344,-0.3095670392447799,0.7109073935155473
