xiamingqian9007/apple-picking-rnn/training_data/grasper_20191127_114916_noimg.csv
,/manipulator_wrench.fx,/manipulator_wrench.fy,/manipulator_wrench.fz,/manipulator_wrench.tx,/manipulator_wrench.ty,/manipulator_wrench.tz,/ground_truth.x,/ground_truth.y,/ground_truth.z,/joint_states.elbow_joint,/joint_states.shoulder_lift_joint,/joint_states.shoulder_pan_joint,/joint_states.wrist_1_joint,/joint_states.wrist_2_joint,/joint_states.wrist_3_joint,/mode./mode,/manipulator_pose.x,/manipulator_pose.y,/manipulator_pose.z,/manipulator_pose.rx,/manipulator_pose.ry,/manipulator_pose.rz,/manipulator_pose.rw
0.2,0.2637170481956937,0.27155009899486215,-0.24988120302883712,-0.004222186344770549,0.01851996452653748,-0.0031848690284389043,0.23854152743696963,0.2681638909239617,0.9333734834761582,-1.5604431169413757,-1.771722929486043,4.126426885850128,-0.19453704884946763,1.3732430475138855,0.04821820373642967,1.0,0.5013823868880831,0.48825113745781923,0.44671977739699603,-0.5901209129339084,0.57963083961227,-0.012483378488587226,0.5618091874915679
0.30000000000000004,-0.5386857449199731,-0.0873750595967395,-0.03529376835468748,-0.0017478243529924706,0.009472960492535883,0.07852239452904228,0.23882629389560045,0.2684204989691841,0.9332268170275223,-1.5581222679790845,-1.774694808836367,4.126050558973554,-0.19395988032231104,1.3737829714749767,0.048015594482421875,1.0,0.501547555118341,0.48840419098887305,0.44665154738271823,-0.5901088682739687,0.5796324311492543,-0.012496513212148367,0.5618199048645033
0.4,-0.3864803407065989,-0.34653095014541063,-0.01224083628626602,-0.0008808669364428394,0.026083493969846508,0.1510041555463928,0.23902340213118542,0.26858034104105294,0.9331304304342167,-1.555106434819947,-1.7784834116969708,4.125375049187899,-0.19331405710814242,1.3743010675538776,0.04778447281444121,1.0,0.5019760894986216,0.48889237145186193,0.44638059769560495,-0.5901315067062264,0.5796148699064462,-0.012462762380303449,0.561814993507493
0.5,-0.27210757361994564,-0.31207423693164166,-0.1596197067953401,0.0019713700183440538,0.018828381179367082,0.19463480565177219,0.238941266964654,0.2684308378865155,0.9331944861854379,-1.5522553766517277,-1.7818589235666566,4.1247275762869755,-0.19260962427172856,1.3747719529884033,0.047527544298886205,1.0,0.5029903627181764,0.4899095813868333,0.4457844665361578,-0.5901632472405718,0.5796002931112578,-0.01243100728030403,0.5617973939863065
0.6000000000000001,-0.37365999381678566,0.23933712385647438,0.15381580760452027,0.011065520049429609,0.02520891316511971,0.17899541860155074,0.2387190114010009,0.268326582905059,0.9332813261642887,-1.5493247166170296,-1.7854123936243134,4.1241429872758,-0.19195273152144843,1.375254919025915,0.047298048986188064,1.0,0.5043968599102837,0.49113321164331347,0.4450074669884799,-0.5901383161501428,0.5796521578629742,-0.012510415390961652,0.5617683091836149
0.7000000000000001,-0.11533755888723562,-0.32006786279086236,-0.15199690130972765,-0.003798872019918506,0.027161986543277714,0.17500130946476827,0.23854762930150025,0.26828569939946917,0.9333369219847938,-1.5468067499936935,-1.788358747209664,4.1236042976379395,-0.1912817970154193,1.375702206707653,0.04715129711984744,1.0,0.5050815250097095,0.49178650955742903,0.4446749058209739,-0.5901214404141012,0.5796385373070466,-0.01253549556921154,0.5617995309565221
0.8,-0.22782913963221144,0.04447361974130149,0.21950038216541232,0.004657711764630576,0.024888482076117987,0.17465500091543598,0.2385340477839184,0.26835620527992904,0.9333201239892291,-1.5439470185173882,-1.7916764512987609,4.1231369972229,-0.1907733504249257,1.37617878958031,0.04693260501932215,1.0,0.5062662575890502,0.49288265779344775,0.44406291741428,-0.5900701534002125,0.5796586657362347,-0.012556299114730551,0.5618321676939466
0.9,-0.22301679842086403,0.23715003931567902,0.028875483378395076,0.010056560001824649,0.027512857900503764,0.17561109921880586,0.23846888286083176,0.2682587869004443,0.9333647731786847,-1.541628759752848,-1.7947407670943718,4.122633457183838,-0.19022764464129957,1.376753113289208,0.046771221417331345,1.0,0.506900736171227,0.49350624726243,0.4437142902834308,-0.5900700350837526,0.5796538894797094,-0.01255723593000843,0.5618371987801287
1.0,-0.3554301588740633,-0.11401553859026439,0.02161231134246362,0.007241326536764894,0.022341391942009094,0.16823287028042236,0.23839379747440462,0.26810223522362764,0.9334289352139123,-1.5389184768559496,-1.7978219017439183,4.122152494536811,-0.1897570716521206,1.3772429292529507,0.04660161691257063,1.0,0.50771420364504,0.49430880018986295,0.44325304543905175,-0.5900752951060001,0.5796485233622464,-0.01251990922661259,0.5618380436945256
1.1,0.011872316578415976,-0.3145548977178059,0.24893959554667447,0.0009429686879431805,0.01563085927971488,0.16369557518369468,0.238415823065359,0.2680241947018416,0.9334457042619366,-1.5366287315451281,-1.8006423219394814,4.121758937835693,-0.18928594533582033,1.377636847513247,0.046412529928159196,1.0,0.5085685208126154,0.4951869281946189,0.4427478520435621,-0.5901170390545986,0.5796336661482293,-0.012480255507090225,0.5618104097535697
1.2000000000000002,0.1864060083822413,-0.2941903339856777,0.036442404552461206,0.006241883808397522,0.0107173802076034,0.1737170132919483,0.2386544335848125,0.2682412489329881,0.9333223783125805,-1.534099593099569,-1.8036192108517957,4.121385047701942,-0.18878436188604308,1.3779735316176946,0.0462755018465516,1.0,0.5096942461108273,0.4963259794370018,0.4420433055507511,-0.5901428061823214,0.5796476476600774,-0.012483244152070718,0.5617688505861049
1.3,-0.08018047866217952,-0.10902935102447592,0.12692051467668344,0.005726650326550389,0.01321047613476371,0.16322493075428804,0.23872497505704637,0.2683050348296198,0.9332860192350172,-1.531890118351689,-1.8062573220684028,4.120893964838099,-0.18832781026167358,1.3783565026742441,0.04607762682879413,1.0,0.5102906328483716,0.49699242660226844,0.4416896869421327,-0.590169566283881,0.5796162105288485,-0.012476533832193073,0.5617733240623013
1.4000000000000001,-0.2465632841823112,-0.0077988204968676145,-0.01022659412602122,0.012172054621414678,0.017909465510315973,0.1629920045270626,0.23872589318442694,0.2683379588926461,0.9332763177123309,-1.5296495668205834,-1.8089620611134036,4.120475518992262,-0.18787653863940434,1.378749483236165,0.045894342465033544,1.0,0.5112251030295755,0.49783057123377156,0.4411988914918631,-0.5901287062652283,0.5796412060160163,-0.012489949070287294,0.5617901596701813
1.5,-0.09819043233470229,0.00436422442676938,0.11440225449584511,0.01462600822389667,0.014001084831051556,0.15960113923488514,0.23866028447667628,0.26839271032604445,0.9332773540263094,-1.5274644049638586,-1.8114231799231257,4.120068073272705,-0.18751301310756133,1.3790848130120674,0.04575157165527344,1.0,0.5118128103865691,0.4983329659544803,0.4408863418101277,-0.5901099578330323,0.5796655646392858,-0.012527828803858344,0.5617838768985598
1.6,-0.05296803735364826,-0.11238004580237737,0.016520166733710956,0.01600711016498526,0.0073937481430216044,0.16623191099742438,0.23870582533312187,0.2684405262890185,0.9332519528514838,-1.5252599495385637,-1.8137821529475566,4.119697255921977,-0.1871797875320481,1.379413819225385,0.045607566833496094,1.0,0.5126666133707712,0.4991989966514464,0.4403631801455084,-0.5901414183656242,0.5796654409214619,-0.012536482806814003,0.5617507628206402
1.7000000000000002,0.184970684883264,-0.03172164442138637,0.28470124814290315,0.007106079886136239,0.014208032143652209,0.16287870129546334,0.23870388830581368,0.26841117171684914,0.9332608722082084,-1.5233071957956,-1.8163167026786502,4.119336779660495,-0.1868201192880435,1.3798167067234837,0.04549980163574219,1.0,0.5131844908230055,0.49968447477631045,0.44014925340403266,-0.5901079720687153,0.5796550867658881,-0.01251769308084728,0.5617969998560984
1.8,-0.05194787849652226,0.11648486611746574,0.23171230642402924,0.013749449292011853,0.015159077877273934,0.15971160178083316,0.2384772974217918,0.2681706530681405,0.9333879367215422,-1.5213641961434858,-1.818347393406942,4.1189748349974575,-0.18646158167720975,1.3801759115442953,0.04535645476492898,1.0,0.5138825485638093,0.5003886601830295,0.43970362721310385,-0.5901493555466908,0.5796543260958661,-0.012523915631283477,0.5617541739261338
1.9000000000000001,0.0964278741014182,-0.053408803619155454,0.020297423533330625,0.010495751727421133,0.012657529179238763,0.16552476644478614,0.23845422143605444,0.26810575502079287,0.9334124961732179,-1.519230132891946,-1.8207661889864304,4.118593781500052,-0.18613894403491216,1.3804993629455566,0.0452443167541588,1.0,0.5146638718889613,0.5011109694298213,0.4393693195242021,-0.5901171664012752,0.5796292293409394,-0.012508430398513605,0.5618142269301514
2.0,-0.02379500344280446,0.0981636718321923,0.021271127051028075,0.012015839149713018,0.018910096037095085,0.16356832455091017,0.23864515770132735,0.2682705071976384,0.9333163440845503,-1.5175041038299275,-1.8228360347787005,4.1182814580257805,-0.18584890226290757,1.3807895696051766,0.04509055057418681,1.0,0.5151180824948662,0.5015642636717216,0.43913296606700297,-0.5901171061319298,0.5796238724407753,-0.012492612114657712,0.5618201689061985
2.1,-0.19633544081290308,-0.060504264513447946,-0.01805861252140748,0.003932212399708163,0.018988566950691392,0.16392045944934208,0.23872766306337365,0.26837994753213523,0.9332637909806337,-1.5157506555741307,-1.8249619709169544,4.117951295577391,-0.18555499099190045,1.3810858726501465,0.04495918068694417,1.0,0.5157895204201662,0.502223049558627,0.4387014544129429,-0.5901435075055553,0.5796337335709497,-0.012499544228237573,0.5617821079829156
2.2,-0.03663878084953686,0.1144493785349081,0.10513905283537142,0.011055285114319236,0.016069840744306705,0.15840110056356177,0.23868953176443525,0.2683743846308262,0.9332751212804709,-1.5137027228868,-1.8270563095119468,4.117625383039713,-0.18523962915454106,1.3813605308532715,0.04482024349481226,1.0,0.5165360730612323,0.5029000883800896,0.43827600386605947,-0.5901399636191602,0.5796555752258671,-0.012514380417827382,0.5617629640087562
2.3000000000000003,-0.1855418894654771,0.19959455284833846,0.15642794618757802,0.017850882468746384,0.01568046351366395,0.15204159021495078,0.23842670849905825,0.26810162672913684,0.9334206783826483,-1.512171133078111,-1.8289197560486987,4.117336750030518,-0.18496466484032503,1.3816253462021413,0.044711174219646536,1.0,0.516928108951444,0.5032917751436244,0.43809087291825893,-0.5901189078801443,0.5796508456839473,-0.01251303061235657,0.5617899925462583
2.4000000000000004,-0.09047953849999452,-0.03727973688323702,0.003552343656582635,0.00697264885780364,0.018009523375241497,0.1611324361442955,0.23861768534763905,0.2683125640647337,0.9333111106992363,-1.5106310339890412,-1.830874044969487,4.117082583237097,-0.1847122472575684,1.3818987576485686,0.044612162971698,1.0,0.5174413238228527,0.5037790088999379,0.43784539270464795,-0.5900989496332506,0.5796463042198962,-0.0125092798285782,0.561815725629072
2.5,-0.19709503596302966,-0.3090605568292508,0.026752176856345553,0.002335178219091993,0.01940435714078766,0.16307638098902644,0.23900209352340032,0.268729675459837,0.9330927966220811,-1.5086899136297183,-1.8327512022261248,4.116796970367432,-0.18447162780573198,1.3820926638358235,0.04451577642495483,1.0,0.518200110620732,0.5045217007086351,0.4373450766532135,-0.590118573634652,0.5796683945654371,-0.012516156440397424,0.5617721666488041
2.6,0.030183327957503364,0.007861058636881968,-0.1541116293366983,0.010939196679820871,0.016732682544561627,0.1619952258894421,0.23892306852256204,0.2686564298817455,0.9331341359460539,-1.5072186475793363,-1.8346591586555536,4.116522566201902,-0.1842687887004395,1.3823538514801859,0.044409751892089844,1.0,0.5186009111187512,0.5049245404116361,0.4371850959269305,-0.590102974105301,0.5796459646064407,-0.012529756021580518,0.5618113926235272
2.7,0.05162958058751731,0.14477418648611118,-0.004532255629430824,0.008572476737912635,0.02006433697284003,0.16072304899867684,0.23863753451622027,0.2683646778695244,0.9332911786083934,-1.5058728107565056,-1.8363540765782276,4.116318008521035,-0.18402899848632895,1.3825582280417466,0.0443256195718998,1.0,0.5191885727861023,0.5054993183312971,0.4368655301437054,-0.590090668470569,0.579654788168432,-0.012523057749617202,0.5618153634086263
2.8000000000000003,-0.014389573797619182,0.15658519571305957,0.022322303335219854,0.013309143112874702,0.01626464550680764,0.15818979454301255,0.23870098591094446,0.26841740631095495,0.9332597899076402,-1.5042191242374785,-1.8379102539824008,4.116054058074951,-0.18380341836544847,1.3828091815164645,0.044206626839833715,1.0,0.51937688397314,0.505709318799794,0.43664322816576917,-0.5901425991007645,0.5796750785560346,-0.01252836684218328,0.5617397582973076
2.9000000000000004,-0.18863583144985432,-0.07167975441985841,-0.03602932104784022,0.01269863595109209,0.01688810508240308,0.15491443147793235,0.2389267037570299,0.2686303065550072,0.9331407869728222,-1.5027064962535714,-1.8397408574218959,4.11577890087322,-0.18361169422992935,1.3830585418953179,0.044122692706225,1.0,0.5202306142839844,0.5065251651094502,0.4363322520273715,-0.5900785625990806,0.5796277783705022,-0.012507959725100392,0.5618562800626103
3.0,0.07672938040707983,0.03995318186625974,-0.25606687186093785,0.010244063306313628,0.01322883146383894,0.16112998790306352,0.23886460568755216,0.2685694462701128,0.9331742241647729,-1.501391408381748,-1.8413425178670064,4.115586757659912,-0.183471132967367,1.3832755088806152,0.04404845174361176,1.0,0.5206393820263981,0.506954153548821,0.4360117414328833,-0.5901330680090016,0.5796435793335813,-0.012519805344654904,0.5617824645303279
3.1,0.1464816963010358,0.19563485439323075,-0.07497631443114083,0.009797903375740089,0.01265791233310963,0.16167973708005642,0.23886640920236177,0.2685921173366846,0.9331672435528701,-1.5000681489107965,-1.8426501147548737,4.115369720009064,-0.18329892089117383,1.3835034370422363,0.0439310263557734,1.0,0.5209873118198051,0.5072887677563847,0.43575660208017875,-0.5901553222542116,0.5796654083489641,-0.012525351026142356,0.5617364378072055
3.2,-0.11921290386847697,-0.14024269809273565,-0.15432476420545688,0.01262843491586586,0.016989596916129165,0.1584766594602478,0.23896011468822775,0.26866478596247256,0.9331223344808036,-1.4986761046133052,-1.844104915914766,4.115129704347254,-0.18308421333495417,1.383742186861158,0.043859126631915046,1.0,0.5214809394344652,0.5077305597598157,0.43560116519909226,-0.5901109628651208,0.5796325748063238,-0.012517304104448446,0.5618170937482667
3.3000000000000003,-0.3120805137667404,-0.15647647101764728,0.009065806020065154,0.009876787728012777,0.020975754794937296,0.1587988636329328,0.2390338942285025,0.2686890745509586,0.9330964458647634,-1.4973817895638195,-1.8457934098909337,4.1149360680109615,-0.18294917550534823,1.3839188923832653,0.043808795190172896,1.0,0.5218174916351634,0.5080730832927469,0.43541624635845133,-0.5901080434926189,0.5796382309780004,-0.012498599990210562,0.561814740988782
3.4000000000000004,-0.16047227656965818,-0.1572804656971445,-0.15644440204081708,0.007971754960595937,0.019900019678258142,0.15756756631592,0.23896486354139074,0.268618856724631,0.9331343411698813,-1.4961735543474681,-1.8470377928630108,4.114758569154241,-0.18279465838745151,1.3840902849651628,0.04372827395488976,1.0,0.522314906574267,0.508579578355574,0.43503478032098264,-0.5901514331458356,0.5796610429190218,-0.012506454363675912,0.5617454493604713
3.5,-0.3485777321095862,0.23855008211925866,-0.1439648208423766,0.011702558335140672,0.02117699570673948,0.15487340070753364,0.23895073744026799,0.2685856037293268,0.9331475330062009,-1.4949364676586046,-1.84816692474204,4.114554137882467,-0.1826505081391096,1.3843174504480948,0.04363107681274414,1.0,0.522595903486119,0.5088702184557392,0.43489257859233654,-0.5901521174428617,0.5796414719724124,-0.012496191956688232,0.5617651532748745
3.6,0.04703716139634131,-0.10401211525572517,-0.0881283253065465,0.006656971834449791,0.015367830342811455,0.16184758780789543,0.238864140146758,0.26848368615817425,0.933199022311864,-1.4937143325805664,-1.8495356967443075,4.114350633749801,-0.18251821218824207,1.38447086248505,0.04357099533081055,1.0,0.5229812503673567,0.5092261559776242,0.43482331740879476,-0.5900970336556886,0.5796092143485629,-0.012486763243967126,0.5618565032610086
3.7,0.07656556521531814,0.013010792711309296,-0.01835330513086217,0.0056268139453154896,0.018277593873064803,0.15621670901061022,0.2387808463581442,0.26840000614329435,0.9332444181321883,-1.4926464734877758,-1.8509004356082703,4.1141486167907715,-0.18237525260240292,1.384627823987079,0.04352283477783203,1.0,0.5234081000614572,0.5096333061648525,0.43459436902731774,-0.5900911645296029,0.5796226518269765,-0.012486227854419569,0.5618488169847189
3.8000000000000003,-0.16613001480898001,-0.20356238826046658,-0.15795897158951688,0.010352171919430048,0.016604167549845027,0.15799279087299828,0.23878899856429886,0.26841367659206555,0.9332383888885998,-1.4916026853051958,-1.8521974471280038,4.113981158782138,-0.18222056687597632,1.3847957688559571,0.04347515106201172,1.0,0.5236600169215936,0.5099000735628553,0.43436076700734283,-0.5901203913143545,0.579651568437215,-0.012489419427889153,0.5617882139789191
3.9000000000000004,-0.19419847152731784,0.19733845816837425,-0.14822228108252486,0.012800001401026074,0.02007504337790811,0.15914657980678912,0.23917916381679374,0.2688976726569092,0.932999122208365,-1.4905466297541572,-1.8532629682140729,4.113824428140545,-0.18209936269903512,1.3849624480460194,0.0434033317195429,1.0,0.5240572000805968,0.5102590846825371,0.43411954926174184,-0.590136083392333,0.5796455256305009,-0.012519060428565532,0.5617773053629739
4.0,-0.11553751383239202,0.08258329982367352,-0.12476625486957296,0.00957098648221262,0.02017823409736283,0.1583931933729171,0.23896119481943895,0.26864280075648356,0.9331283559286487,-1.4892995001458824,-1.8543893804047193,4.113621020267396,-0.1820148388512496,1.385058879852295,0.043320596425117625,1.0,0.5244511418400332,0.5106575952908508,0.43392048818340395,-0.5901233993128499,0.5796447497262323,-0.012504309340162004,0.561791758524621
4.1000000000000005,-0.17838981942575266,0.19827229390927653,-0.10499956645756846,0.011820801523875296,0.017151686441547312,0.15816854974336703,0.23883293755342436,0.2684838993846794,0.9332069554256561,-1.4881746724077083,-1.8557454548277796,4.113500831676323,-0.1818598073771973,1.3852505683898926,0.04325938357412645,1.0,0.5246479934440849,0.5108174711342154,0.43391371426404685,-0.5900840940480034,0.5796240948764776,-0.012499057000782417,0.5618544688478169
4.2,-0.26716189385391986,-0.007383781143440987,-0.11333468227306093,0.007544989187706816,0.020703728370722315,0.15794275281736486,0.23883079086170786,0.2684688134918569,0.9332118455207079,-1.4872738268212349,-1.8569565112414617,4.113296880056793,-0.1816931343081339,1.3853947931479775,0.04317580729481401,1.0,0.5250408645216995,0.511234223047329,0.4336995027021037,-0.590083651353284,0.5796191517541529,-0.012487129212944042,0.5618602984100158
4.3,-0.1480185482545909,-0.0876984530980659,0.01048223981032484,0.0052725153339436125,0.02117117416895144,0.15507730556313107,0.23883150744114412,0.26848859110725976,0.9332059724917448,-1.4862794817526164,-1.8580836099898361,4.113117694854736,-0.18158426871534358,1.3855500221252441,0.04310376813135915,1.0,0.5253673514644847,0.5115380179649268,0.4334255984252211,-0.5901210192165693,0.579644636496905,-0.012501441860898875,0.5617944392841272
4.4,-0.03478327092405377,0.23540955773287078,0.030017745893801434,0.00972133158226015,0.02047099538508884,0.15504527353291936,0.2386902244926023,0.2683817828780472,0.9332728236488226,-1.4851850294599347,-1.8592357109689934,4.11296038982915,-0.1814769071391602,1.3857285904416852,0.0430446839800068,1.0,0.5256940734423298,0.5118337137919686,0.4332004561028279,-0.5901348445045499,0.5796647116887363,-0.012514192929390273,0.5617589183090296
4.5,0.07989864122603002,-0.00418266445603907,0.021375140244340785,0.012242740460709126,0.013642212251203623,0.15652583423068445,0.2386730652483102,0.2683849954365335,0.9332762706895289,-1.4839029636881003,-1.8604103351560068,4.112745761871338,-0.1813691419414063,1.3858727901395955,0.04299591280410022,1.0,0.5262017030964661,0.5123010679669304,0.43296690655409087,-0.59010497232895,0.5796647729983277,-0.012526050453863846,0.5617899702179396
4.6000000000000005,-0.31617774086960543,0.12706155929970406,-0.010332422455458457,0.014001441703595638,0.0214382054396103,0.15502720978419998,0.2389066530822689,0.2686294184638988,0.9331462055904672,-1.4827654041254945,-1.8615798430049018,4.112593626939721,-0.18125217343602074,1.38602921205062,0.042932860149190594,1.0,0.5265258324573519,0.5126304412917395,0.43288861554379876,-0.5900566742463176,0.5796445402984496,-0.012513681713979236,0.5618618476543282
4.7,-0.12757980403893865,0.11260303684743633,0.011948846445120714,0.014025615700839905,0.015633066648783823,0.15325422344260314,0.23857862378195946,0.26827932869649534,0.9333307507029983,-1.4818173512458268,-1.8628190081465945,4.112421406841332,-0.18112962740980215,1.3861726431156285,0.04288746752240526,1.0,0.52668986084196,0.5128006284446258,0.4328417217008003,-0.5900532407676636,0.5796270576482664,-0.012510002165077028,0.5618835706331169
4.800000000000001,-0.10096433131291467,0.01667162994749309,-0.05395189772661031,0.008841424936684238,0.01827543861906554,0.15383819916973518,0.23839024590047914,0.26808488419162196,0.9334348319417488,-1.4809264849052495,-1.863951254388983,4.1122362014373275,-0.18100611968948918,1.3863272666931152,0.042798461054311294,1.0,0.5270443768324031,0.5131412469759026,0.4325509895590018,-0.5900883937279592,0.5796538316528985,-0.012516391797704847,0.5618188880538251
4.9,-0.004680327648102139,0.006410051539760257,0.03502959619747882,0.010822801525335893,0.014767137080177321,0.15564249240380476,0.23838251238356595,0.2680906867863073,0.9334351404581259,-1.479801371003663,-1.865303360217307,4.112099068263308,-0.18091223149198526,1.3864835707987877,0.04272099164217051,1.0,0.5275072185071701,0.5136046784864494,0.4321626566346822,-0.5901406669573687,0.5796713220390923,-0.012524434700320218,0.5617457522260411
5.0,0.1282025184008525,-0.13317138046491075,-0.12441771988414288,0.005979112957503493,0.012015735943029446,0.16276053262918275,0.23862636802673734,0.26834534088017375,0.9332996047553311,-1.478482750521044,-1.8664521422127913,4.111931324005127,-0.18078174785763657,1.3866276741027832,0.04266123832300725,1.0,0.5277217734552526,0.5138066193070966,0.43201297730859534,-0.5901427917977676,0.5796901755345526,-0.012531233857021724,0.5617239124835942
5.1000000000000005,-0.03717460874621023,-0.26122273865152357,-0.10748723031688444,0.0033928420409608468,0.015686725064747966,0.16182018066666332,0.2389121538001161,0.26862295263583313,0.9331466323537828,-1.4774150373705985,-1.8675898438433753,4.111761673531234,-0.18068417074982862,1.3867939974889314,0.042636871337890625,1.0,0.5280250337841716,0.5141311097874274,0.43195076903708995,-0.5901144780314694,0.579651944202215,-0.012511302546815633,0.56179355078963
5.2,0.21637337932143158,0.12464607945880152,-0.11787553073134077,0.010017970402574426,0.016319790439171332,0.1600905716820485,0.23905054026300648,0.268735637211323,0.9330787663666181,-1.4763269293138022,-1.8686707595430316,4.111592660671361,-0.18057937260216783,1.3869867324829102,0.04255143331110762,1.0,0.5285225049093969,0.5146059778066572,0.4317678023241498,-0.590097103929484,0.5796207661958285,-0.012522810537725674,0.5618437100696537
5.300000000000001,-0.2873493916676282,0.041606593761100236,0.0297200305260778,0.010492263184674857,0.02678034004181965,0.15208714873049622,0.23895392280320155,0.26862044052562345,0.9331366882693665,-1.4754247665405273,-1.8700169327286102,4.111438492976514,-0.18049366891894536,1.387140969477979,0.04251549645551819,1.0,0.5288090646062024,0.5148689229371308,0.4316011268015315,-0.5900773840592767,0.57963825750175,-0.012496525641949644,0.5618469614663547
5.4,0.1388266991106641,0.030130703689698765,-0.08605900269498319,0.005621583464290083,0.012790228019873234,0.15839311502845757,0.23885387543777728,0.26852593927811863,0.9331894955008482,-1.474311321357812,-1.871380799393359,4.111282114645806,-0.18038590372119145,1.3872963545136292,0.04238715451889321,1.0,0.5289815878937345,0.5150672021272459,0.4314140647695533,-0.5901370243396853,0.5796410894250102,-0.012508486391267339,0.5617811297310447
5.5,-0.1681095035600284,0.17847972684379762,-0.06114708036656683,0.008262272958669568,0.020491546854250267,0.1550010571956641,0.23893510453320496,0.26861952761119495,0.9331417348685651,-1.4730262553298867,-1.8723284612883677,4.111104468067924,-0.18028961143506267,1.3874544894302285,0.0423130989074707,1.0,0.5294907751549925,0.5155968321727382,0.43097334791651254,-0.5902053551902551,0.579677436932629,-0.012516417118193244,0.5616716541881798
5.6000000000000005,-0.18887724357445626,0.28111745697035206,-0.07222871982175463,0.017087564916572123,0.01776644466429872,0.15437216207592938,0.23915633975451078,0.2688515873782164,0.9330182561284023,-1.471890452265354,-1.8734561010126591,4.110874614002805,-0.1802290236107856,1.3876319306469889,0.04227876800279414,1.0,0.5297314528850992,0.5158078218046036,0.43096914588412627,-0.5901498439062702,0.5796517805102721,-0.012514005022480554,0.5617565084331232
5.7,0.014349741669115346,0.09318016042605033,-0.12511722502691575,0.009933170212312688,0.015232737152922698,0.1629487843819818,0.2392097294248799,0.26890345785861863,0.9329896220103748,-1.4708317015153,-1.8745799609809375,4.110726241587759,-0.18012855023569302,1.3877999093550613,0.04222283810463907,1.0,0.5301281785352917,0.5161620156093618,0.4308663738372056,-0.5901066307722211,0.579629211711151,-0.012509383226385912,0.5618252900867515
5.800000000000001,-0.07989592793207687,-0.08488078751683006,-0.1362357864072227,0.007286179046869108,0.015548502580408375,0.15944645818011585,0.23901531261180434,0.2686882866379482,0.9331013960780986,-1.4698005400236607,-1.8759874901146718,4.110567010668799,-0.18005149088244263,1.3879199028015137,0.04215717315673828,1.0,0.5303483202013665,0.5163635369959497,0.43078862871617835,-0.5900855188069262,0.5796229407556723,-0.012500756293496387,0.5618541253174155
5.9,-0.07874981130349872,0.023575191335918594,-0.32052122639356007,0.007364511471980357,0.02381524478794341,0.15724969362965388,0.23889960008910135,0.2685669846769906,0.9331659827922278,-1.4687185287475586,-1.8772268222182393,4.110373919378991,-0.17995769033626388,1.3880958693297518,0.042109012603759766,1.0,0.5307615761597184,0.5167696477135835,0.43044757191386357,-0.5901152785454308,0.5796679490980274,-0.012498777884507997,0.5617764745582793
6.0,-0.10230939190427565,0.08423473787310282,-0.12628526956723413,0.010206172429842847,0.018119339594802063,0.1551857809587898,0.2389540116420746,0.2686433902572624,0.9331300592474708,-1.4675158803603228,-1.8782311356884112,4.110192775726318,-0.1798133905896571,1.3882282481474035,0.04202769279479981,1.0,0.5312017524833483,0.5172077940618625,0.43011469250601175,-0.5901490906405431,0.5796869218699768,-0.012510884409825469,0.5617211062443137
6.1000000000000005,-0.0925291315840042,-0.011029164449490257,-0.1455906435861813,0.013954815103605864,0.01617074409500228,0.1568217755961368,0.23908017860604394,0.26875749331146154,0.9330648729500647,-1.4663923739572104,-1.879226315834496,4.110094085344672,-0.1797666055651149,1.3883843882783857,0.04196626398614359,1.0,0.5314088513167855,0.5174020677551513,0.43009360443196665,-0.5901109357408578,0.5796641781822354,-0.01249412930270142,0.5617850307585013
6.2,-0.19663242317873925,0.04405114812735389,0.07128455302618902,0.013813576813191529,0.024763151891636512,0.15211981253442083,0.239217130510397,0.26890851473580407,0.9329862516367234,-1.4652931961565387,-1.8806002648597604,4.109879693516329,-0.17972351562260147,1.3885251476723774,0.04189689729961763,1.0,0.531685385421308,0.5176699993242029,0.43009156486137295,-0.5900621096201746,0.5796209480920868,-0.012496774143878321,0.5618808538822233
6.300000000000001,-0.21765721078560538,-0.017228719929351256,-0.1342300234492263,0.014544653022969048,0.018413779530589206,0.153221793545995,0.23935532675931562,0.26911389911882355,0.9328915925740198,-1.4641194994390527,-1.881851614282708,4.109717838158885,-0.1796382308149919,1.3886830481320362,0.04184260387006752,1.0,0.5321666871963039,0.5181110409213974,0.42973234331020066,-0.5901028713463147,0.5796594805950757,-0.012527341686741272,0.5617976090153336
6.4,-0.07780702863708745,-0.05112632459233964,-0.09618819022355904,0.010041673053366992,0.016074089140759404,0.15358570973298105,0.23908474026246113,0.2688393304326088,0.9330400576728769,-1.4629600927236854,-1.883095335354405,4.109613251438428,-0.17951313687343742,1.3888297080993652,0.04176791484057208,1.0,0.532431869439064,0.5183775442019509,0.42954803723079327,-0.5901042204851127,0.5796773268193662,-0.01252126326622252,0.5617779131502317
6.5,-0.06855984606381088,-0.023843380146271305,-0.06253218737741745,0.0079081611661546,0.02638610841842685,0.1537632465040999,0.2390042441486257,0.2687440710299826,0.9330881290618505,-1.4619426727294922,-1.8842018948790833,4.109438419342041,-0.17944015473726924,1.388960838317871,0.041724433978305615,1.0,0.532819389261283,0.5187740431459015,0.429374380815256,-0.5900929946177264,0.5796632212665035,-0.012518393478818522,0.5618043230865478
6.6000000000000005,-0.09466535005856491,0.054963409681057174,-0.12920445322491947,0.015757252281694042,0.01808832548556281,0.15532690894009046,0.2393964267308793,0.26912280332467364,0.9328784456116019,-1.460831541864062,-1.8852340244860077,4.109328790818433,-0.1793425522375261,1.389083843942796,0.04166460649294496,1.0,0.5330410155121631,0.5190118081669829,0.42922496547224287,-0.5901089176699889,0.5796576192127219,-0.012510694827021003,0.5617935495268154
6.7,0.050230706014554025,-0.16144854742454337,0.008904287072893868,0.0022387125927173616,0.019788049248901367,0.1513110900554256,0.23875438439442093,0.26845885531149355,0.9332341361581958,-1.4597771042356824,-1.8866116069345447,4.1091589987864525,-0.17929091619689544,1.3892066353330945,0.041629791259765625,1.0,0.5333714120129044,0.519339458343505,0.42911795716038903,-0.5900874908122903,0.5796256874883923,-0.012516482231853629,0.5618488704829829
6.800000000000001,0.16761263965688727,-0.4134853574632496,-0.005701830881778929,-0.003956874963166063,0.017546075826841007,0.1559503441307171,0.2395400481061769,0.26933301045936797,0.9327799792976748,-1.4585830382617493,-1.8878496328769423,4.108969445642228,-0.17918776593200803,1.3893796702011696,0.0415099393544481,1.0,0.5337878041787663,0.5197517495442993,0.42879253276793255,-0.5901195357365827,0.579657818983198,-0.012531926804834687,0.5617817167229997
6.9,0.10391071955078736,0.28986141564457935,-0.18402565104403423,0.018087826955260115,0.014414473015818673,0.1584625247220152,0.2401331967147917,0.26997514560433344,0.9324425034239741,-1.4573007055021308,-1.8889949087956657,4.108809070056753,-0.1790907049801773,1.3895307344854642,0.04145108634477394,1.0,0.5340883911322158,0.5200365600950296,0.4286258758462915,-0.5901109172632714,0.5796682067952496,-0.012543212607533303,0.5617797995433464
7.0,0.17198973520266142,-0.19318456352012264,-0.11396879416529684,0.010354444012087053,0.01772727182474855,0.15352612154661469,0.23957235321326065,0.2693254960264832,0.9327744054723365,-1.456533350961791,-1.889903075887798,4.10866252251341,-0.17911445882496008,1.3896529437373628,0.0414072876688696,1.0,0.5344760305554966,0.520427309861402,0.42851895491951264,-0.5900811475290098,0.579631270696178,-0.01251304758836283,0.5618498491608167
7.1000000000000005,0.24903048920739856,-0.19232929722747577,-0.18447214185602884,0.0140151868711825,0.02165071275305105,0.15442919159180368,0.23924757398609373,0.2689392862685487,0.9329695700035153,-1.456536399668614,-1.8898565093862523,4.108679357804689,-0.17904978620572,1.3896546363830566,0.04140804218301487,1.0,0.5346641045269659,0.5205881247130165,0.4284288733017545,-0.5900742622803531,0.5796294099358308,-0.012506570261378447,0.5618591441206908
7.2,0.10971862112822392,0.011444535766022987,-0.09519213241517924,0.012874922090675254,0.012846570857917844,0.15225928212181836,0.239465128453612,0.26915830274083,0.9328505939765939,-1.4565604415302138,-1.8899150719704134,4.108672471838102,-0.17905771901067305,1.389666954341843,0.041448422945008716,1.0,0.534724486557083,0.5206543585242518,0.4283402318913726,-0.5900993145032547,0.5796417474060704,-0.01250360639137138,0.561820170084731
7.300000000000001,-0.033677859489748344,0.05467454097510642,-0.11824213573721337,0.009393216523344454,0.020581393900827992,0.1528184682583168,0.23933068445391892,0.26900254953717184,0.9329299951087947,-1.456526756286621,-1.8899318800718754,4.108653596705543,-0.17904953657338674,1.3896893834717245,0.041425642932173795,1.0,0.5347124571683465,0.5206681429870508,0.42833402260866255,-0.5901095027722439,0.5796330761341255,-0.012497083000022498,0.5618185603072193
7.4,0.16911196483174196,-0.048098110989846336,-0.0822373935400755,0.012314085153568466,0.01813400063120107,0.1567817447261952,0.23906589388007113,0.26872089007435884,0.933079010407907,-1.4564699455074037,-1.8899303875365199,4.108692691774987,-0.17909030534405201,1.38970045849862,0.04145264801588719,1.0,0.5347213367813198,0.5206724209679975,0.4283262592842887,-0.5901092329782982,0.5796329279104394,-0.012500479673502863,0.5618189210445552
7.5,0.031077909526795372,-0.07223622137090564,0.0007070753330767204,0.009416065032770187,0.023534265032113404,0.15735132901478224,0.23870306515128495,0.26836803352326455,0.9332733637542185,-1.4564996336633493,-1.889942308465475,4.10867709763158,-0.17908153560861736,1.389680902294139,0.041403600442952236,1.0,0.5347339099236014,0.5206859643585121,0.42828641310322385,-0.5901277326561928,0.579647136095893,-0.012517492256776817,0.5617844507936232
7.6000000000000005,-0.15061700049276056,0.21130853274978334,-0.2034769916421999,0.013535143795591639,0.025040003890791987,0.15761673904249926,0.23855993337215442,0.26824021953527527,0.9333467627799032,-1.456476547766281,-1.8899403939165134,4.108650338537822,-0.17907139469431577,1.3896679782230479,0.04141807316141384,1.0,0.5347318345416696,0.5206892899252528,0.42831783695314396,-0.5901096480610096,0.5796460269282853,-0.012512400446805867,0.5618047050057732
7.7,-0.26229909973093996,0.10394304092529709,-0.1768915002454768,0.011550319510889272,0.022965747267818772,0.14696074675033746,0.23900475503745638,0.26871466493381313,0.9330964635951988,-1.4564853737592047,-1.8899705152551745,4.108659267425537,-0.17904944114904223,1.389672906762291,0.041420094892450375,1.0,0.5347325717307986,0.5206922805121792,0.42830952405607114,-0.5901266959604081,0.5796289532067521,-0.012523606727927192,0.5618041639164141
7.800000000000001,0.07016161755517175,0.1848479475379327,-0.028397702976742933,0.014178216768475206,0.01599081172787344,0.1477908955499989,0.23903430532650943,0.2687367142367066,0.9330826136757557,-1.4564873596590233,-1.88995422939443,4.108679952279873,-0.1790975883491614,1.38969087600708,0.04140816061063597,1.0,0.5347536833971621,0.5206930572053117,0.42829684795524453,-0.5901177273294645,0.5796433918670554,-0.012511415660525872,0.5617989592679332
7.9,0.12442998528791285,0.10522456545590811,-0.17872945594406803,0.012057541837749465,0.015082021370704659,0.15555152261240565,0.2390185549490085,0.2687106740008332,0.933094134625601,-1.4565019607543945,-1.889942308465475,4.108649795170027,-0.17907458508046223,1.38969087600708,0.04142384563940586,1.0218538729351379,0.5347434233742925,0.5206937783345909,0.42830848267233596,-0.5901208063384357,0.5796342614728588,-0.012511840726948885,0.561805135874452
8.0,-0.12750429597824478,-0.015342731612652621,-0.1810290064013757,0.0073851850948752715,0.02097820596195753,0.15566792027781082,0.23924446252810253,0.2689515799515712,0.9329668242549479,-1.4565200467599175,-1.8899853697781588,4.1086543023757764,-0.17910081067658967,1.38969087600708,0.041402339935302734,2.0,0.5347381237518185,0.5206912939073921,0.42828897211683803,-0.5901261773516969,0.5796502293133176,-0.012512886714278039,0.5617829955840311
8.1,0.03466538403812319,0.0068484136590030165,-0.025083124941084778,0.008981026634081494,0.01977873020141229,0.152683348600723,0.2395074774126933,0.26923129956267006,0.9328186155828192,-1.456493763433584,-1.8899627682702744,4.108678158733623,-0.1790990086172079,1.3896852423471884,0.041395575829081196,2.0,0.5347350274185013,0.520696967079677,0.4283137498629317,-0.590120076319855,0.5796297716932161,-0.012513855555784895,0.5618104900322244
8.200000000000001,-0.12472578260956363,-0.15572310235250414,-0.021990526841476708,0.007014648917890264,0.021953469641852234,0.1533277472426143,0.23965499844370616,0.26938754142606053,0.9327356330493575,-1.4564889721594334,-1.8899406996080121,4.108654505207447,-0.17906792581591802,1.3896801514527282,0.04139411355843135,2.0,0.5347473693232682,0.5206863767160758,0.4282965564245646,-0.5901138582985086,0.5796514711119436,-0.01251412290180465,0.5617946270745263
8.3,0.14214471895756492,-0.1560711360311396,-0.22090790489278014,0.006618837137646695,0.014178644692979922,0.15324125849137027,0.23939009173444734,0.26910377772177757,0.9328855092183982,-1.4564959092491836,-1.8899484417477834,4.108630032981041,-0.1791140419414604,1.3896846609476743,0.04141678212885214,2.0,0.534748039996295,0.5206787962180515,0.42834093844986887,-0.5900948520616897,0.5796399120886675,-0.012510145161077693,0.5618266050590552
8.4,-0.020860762476040434,0.08636406296565943,-0.256920109165828,0.007152234021852685,0.020525993059577145,0.1507470498221201,0.23914848147160916,0.2688460903484701,0.9330218433928396,-1.4564878928704772,-1.8899460300440536,4.108646869659424,-0.17905600488696294,1.3896934997992005,0.041414737701416016,2.0,0.5347477780738181,0.5206902678138967,0.42831738955276605,-0.5901116424150168,0.5796405546150734,-0.01251010637041845,0.5618083073169907
8.5,-0.015334748419458866,0.007963259118919704,-0.23253665290332523,0.009443600837183133,0.025456078524296422,0.15475004327012848,0.23899044413618606,0.26868194837159404,0.9331095974486108,-1.456505849332581,-1.8899573421780627,4.1086500535859845,-0.17906481303228539,1.3896960945316117,0.04140557723028068,2.0,0.5347509975470476,0.5206737547390738,0.42829998576613487,-0.5901129115469034,0.5796506607349925,-0.01251411128956828,0.5617964579398445
8.6,-0.16210126795383095,-0.014673725353659548,-0.08289728805831417,0.0022168800645251787,0.02057899358924903,0.15500727998204866,0.2389204626317388,0.2686152842298302,0.9331467150961134,-1.4564849579827475,-1.889979240485156,4.108646869659424,-0.17909860676009126,1.389702320098877,0.04140800978874993,2.0,0.5347482321007199,0.5206807107252631,0.42828414074204574,-0.5901232996264818,0.5796522669280436,-0.012512394139499693,0.5617839270360374
8.700000000000001,-0.10892813884813854,0.07573858914284534,-0.31619072547579985,-0.015135366043994364,0.03090075840761667,0.15221130571385802,0.23918211989325552,0.2689157443158112,0.9329931242378311,-1.4564903184646878,-1.8899775757575659,4.10865937048845,-0.17908042268098617,1.3896783751780537,0.04137869627530234,2.0,0.5347529890279958,0.5206835580853156,0.4282908871897223,-0.5901262935807213,0.579645228052625,-0.012524088006999591,0.561787784167735
8.8,-0.2716169668769176,0.3621859019312774,-0.5443871010899793,-0.02656550529887195,0.014556154818380868,0.15930947363512257,0.23908084698148024,0.26880157771787017,0.9330519938175781,-1.45646819372722,-1.889943067926741,4.108647659499141,-0.17904715218152314,1.3897008011763445,0.041403889236285706,2.0,0.534758628414233,0.5206885786467952,0.4283091323512726,-0.5901091845286818,0.5796459685835379,-0.012519755934638336,0.5618050882210694
8.9,-0.40960986850558495,0.6221035336032363,-0.749132088844724,-0.05228244197462443,0.00168739524395135,0.16971014292017253,0.23908607252864483,0.2687970836824314,0.9330519591402716,-1.456494759483276,-1.8899521895767963,4.108651112480102,-0.17909796439433479,1.3896703232955319,0.04140721438457605,2.0,0.5347542685244899,0.5206917309990818,0.428290714298184,-0.5901180570575989,0.5796521430686519,-0.012509290744476315,0.5617896309256284
9.0,-0.48616988448483045,1.0366459280506706,-1.2024858767913136,-0.06533018697249104,-0.020144115570617894,0.1730714204990154,0.23915434098991237,0.26885576393883376,0.9330175593521389,-1.4565108121430232,-1.889959659864057,4.108657017399636,-0.1790538414005202,1.389702320098877,0.041432002560540235,2.0,0.5347447993769997,0.5206849154221579,0.42829339595230803,-0.5901140724725378,0.5796511564717329,-0.012512774563271342,0.5617947567782989
9.1,-0.7206504241260048,1.502405016619853,-1.7781156129699511,-0.12970125886795542,-0.025191756379335087,0.17997511216379386,0.23921332414358393,0.2688736067505074,0.9329970821988258,-1.4564815290445303,-1.889960255783765,4.108668600031048,-0.17906203127629786,1.389702320098877,0.04144791216483697,2.0,0.5347485350357822,0.5206980014072664,0.4283106930205739,-0.5900993761222701,0.5796470860370754,-0.01249246021170717,0.5618148452886359
9.200000000000001,-0.4410438040652966,1.6975583333814421,-1.8044821426260516,-0.15983676474216565,-0.04979332308005049,0.1809569751877787,0.24013386377345142,0.26982854006563906,0.932485002615079,-1.4564808554578659,-1.8899493987920641,4.108676302569922,-0.17905842018814588,1.3896784782409668,0.041431237043730036,2.0,0.5347417354199933,0.5206843050564773,0.42833163705797705,-0.590096404044321,0.5796420528654467,-0.012492607237290183,0.5618231565611254
9.3,-0.32128604419009227,1.9275452582915868,-1.6693945069675553,-0.19042791805726805,-0.03644693670152756,0.18247804468622583,0.24031552818859814,0.2700277847602946,0.9323804881191076,-1.456493103122513,-1.8899469218154132,4.1086901245593035,-0.17906061823690128,1.3896882955150645,0.04142876228522857,2.0,0.5347386318172238,0.520686781851165,0.42832543683432583,-0.590111557059507,0.5796321441634931,-0.012498237044031014,0.5618173384188381
9.4,0.07523694379904479,2.147019212071789,-1.5179873651599907,-0.237096570126418,-0.024832783934509238,0.17691343297959036,0.24070374460780788,0.2704114869748539,0.9321691545070643,-1.4564594029654405,-1.889936857801441,4.108653598734942,-0.1790932641118735,1.389702320098877,0.0414103066382692,2.0,0.5347298063528748,0.5206969179152989,0.428318685249817,-0.5901182998910169,0.5796290560070299,-0.012491635764287856,0.5618135888371403
9.5,-0.28231763498656315,2.7637557960540984,-1.4948946268870948,-0.2881508931519078,-0.016126937332529123,0.17367440159659614,0.2406298107430245,0.27033428843359103,0.9322106339288292,-1.4564573799193654,-1.8899630882699727,4.108660328937387,-0.17909224451098638,1.389702320098877,0.041382621642654584,2.0,0.5347305706744867,0.5206983680398284,0.4283007498211922,-0.5901258589957856,0.5796387834245688,-0.012494023437929776,0.5617955594990982
9.600000000000001,-0.33172858763420626,2.7464744677929898,-1.819001948204067,-0.30149034434118466,-0.04124504425002246,0.1625799737150204,0.24063643112271274,0.2703937984562933,0.9321916648673851,-1.4564559635486747,-1.88994555175413,4.108659267425537,-0.17907123397034602,1.3896920208142494,0.04143695791499872,2.0,0.534752481402166,0.5206725375391223,0.42831414170823695,-0.5901006848685523,0.5796552804911239,-0.012524858809077737,0.5618042945975358
9.700000000000001,0.33514609940011586,3.518661515958308,-1.7203522847924624,-0.3917480715068436,0.0005311459276005803,0.18700495226906985,0.2408065884893332,0.2705831487399906,0.9320926992180038,-1.4564814676244633,-1.8899592269686787,4.108689755703965,-0.17911416058843863,1.3896973225246283,0.04140954022419749,2.0,0.5347301380897698,0.5207002653976082,0.4283004595851895,-0.5901328854776845,0.5796324654187146,-0.012503654642908367,0.5617944830015472
9.8,0.4900688361163799,3.3767171082488687,-1.7666768354584648,-0.4103394050018359,0.000393359253655154,0.18298525567634608,0.24108113970489353,0.27085538256487884,0.9319426677401913,-1.4564676540558785,-1.8899780712523402,4.108676935275461,-0.1791096551105772,1.3896970500150667,0.04143214830100683,2.0,0.5347333701431727,0.5206956642431378,0.4282790472668788,-0.5901428469360429,0.5796407968054693,-0.01250600906072174,0.5617753702560445
9.9,0.004842828177821064,2.9593792562661068,-1.8765032645710247,-0.41507500789150237,0.007951672457187612,0.1721562018828515,0.24100696048612832,0.27077855451274835,0.9319841749845251,-1.4564757430551838,-1.8899717438794637,4.108684576917043,-0.17909783806706503,1.3896653466580557,0.04141375078970316,2.0,0.5347444616501958,0.5207011202193742,0.42830474158856485,-0.5901228206230271,0.5796324812660669,-0.012511475351516515,0.5618048649004328
10.0,0.005803335939079057,3.072594046875313,-1.7005433346575756,-0.3791356009375119,0.014158228065069504,0.17875133814875452,0.24067083337041945,0.2704368325476016,0.932170201774776,-1.4565048180607643,-1.8899807244653977,4.10864052790043,-0.17907057902897555,1.389668733687911,0.041424107463969614,2.0,0.5347428019116404,0.5206929795358658,0.42832165252728716,-0.5901217972229299,0.5796291045104006,-0.012513795921617357,0.5618093720813868
10.100000000000001,-0.05335453713092794,2.527422523209195,-1.836472607107627,-0.3354077048867926,0.017150014230641476,0.17958611218217183,0.24001772459677148,0.2697516889633817,0.9325365879022476,-1.4564974210152275,-1.8899605308801866,4.108663827922297,-0.1790528541440847,1.38969087600708,0.04142103918717252,2.0,0.5347414190349848,0.5206985285093859,0.42830376462196,-0.5901140340943255,0.5796384261084823,-0.012509221836679369,0.5618080109009158
10.200000000000001,0.24887333361059488,2.3542623526422766,-1.9392034983770967,-0.30717012554771245,0.042337374796593455,0.1830980320221016,0.239416718640014,0.2691193449150136,0.9328742745718583,-1.456499809346929,-1.8899564704438734,4.108628284290761,-0.17906344371703134,1.38967399614208,0.041416978750859354,2.0,0.5347412252863384,0.5206926979518657,0.42829025833638296,-0.5901252779255759,0.5796378555266147,-0.012510992883961835,0.5617967495908343
10.3,0.21894633025234606,2.1859662337514423,-1.639117723826956,-0.3222282493610272,0.03656563032833641,0.18240622161778033,0.23937399523649033,0.2690527487751868,0.9329044460711363,-1.4564804888709941,-1.889942308465475,4.108640578819643,-0.17907350850560214,1.3896811103338007,0.041399261810696426,2.0,0.5347331542351936,0.5206987837547755,0.42827788840273756,-0.5901288769528681,0.5796399926873381,-0.012512167267777735,0.5617907378499868
10.4,0.47503724967569216,0.5693207007239476,-1.5018517063205492,-0.18335281975889062,0.04014874259862298,0.17297547194584484,0.23979337017811878,0.26946637663795775,0.9326771577704218,-1.456484685454516,-1.889966150323385,4.108659267425537,-0.17906196857591028,1.3896726314870969,0.041426658630371094,2.0,0.5347311714590559,0.5207011770011096,0.4283030503737233,-0.5901063234590705,0.5796440347829593,-0.01248846292572037,0.56181078509397
10.5,0.3497869713624369,0.32669740695877825,-1.7198620686989317,-0.13653207002439627,0.03781645776055355,0.17151451397523013,0.24018713958794682,0.269905975271587,0.9324488659543132,-1.4564790725708008,-1.8899572728020988,4.108641168959758,-0.17907426658863596,1.3896400599409569,0.04139980318673431,2.0,0.5347340854226906,0.5206968278557554,0.42831188530618297,-0.5900998807392451,0.579638205601528,-0.012493522565709058,0.5618234538113103
10.600000000000001,0.6350701935732439,0.46178412159178406,-1.2568246516626354,-0.07868138975686317,0.06747284117017951,0.17482648733509348,0.24023825174964925,0.2700223111673393,0.9324020232913368,-1.4564856916186106,-1.8899746238316057,4.108664494556523,-0.1790425052912558,1.3896784782409668,0.04144905971835854,2.0,0.5347555690302566,0.5206833729499664,0.4282968417867795,-0.5901009446069516,0.5796550351837202,-0.012526949238523639,0.5618042282707734
10.700000000000001,0.5781074322719035,0.22068556425508593,-0.8961011636058487,-0.04974721445965811,0.05750623204181927,0.17029579376775378,0.24007373631058193,0.26985892805439543,0.9324916280998401,-1.4564709483150649,-1.88995971336696,4.108646869659424,-0.17906148885949272,1.3896746808773268,0.041421174657841314,2.0,0.5347618162479385,0.5206708331900888,0.42828851296392945,-0.5901067403248923,0.5796614470137489,-0.012524172260508294,0.5617915867812955
10.8,0.2601474576819901,0.24225860159085663,-0.7846356748602634,-0.05627196251376756,0.06403318148507144,0.17053412857618577,0.23981858710596468,0.2695623934580906,0.9326430839379465,-1.4564926246543983,-1.8899758754275477,4.1086173053427695,-0.17905380906217055,1.3896761945831828,0.041426658630371094,2.0,0.5347574502077229,0.5206969813150675,0.4282702332420003,-0.5901191116601763,0.5796582125160834,-0.012513344505919772,0.5617821703519431
10.9,0.5071553948584763,0.21251057825535058,-0.671313439554467,-0.06127060131595096,0.06552386460755491,0.17498697333869517,0.2404073273519655,0.27017950834138604,0.9323129036039691,-1.4565019607543945,-1.8899902275765712,4.108646869659424,-0.1790560078509857,1.3896784813235505,0.04145097732543945,2.0,0.5347483150300641,0.5206997593227709,0.4282932512118325,-0.5901118766192217,0.5796512821976899,-0.01251562810296556,0.5617968700275067
11.0,0.5890203951114082,0.053584969960671226,-0.7426100283693562,-0.06073939931918172,0.06740926715800484,0.17540297368490046,0.24041143172567347,0.27017816358224084,0.9323122349297643,-1.4564767779226397,-1.8899887218699032,4.108661104649301,-0.1790598117593923,1.3896713607460278,0.041414737701416016,2.0,0.534748757973049,0.5207020118039404,0.4282696967825971,-0.5901234461091038,0.5796518128560045,-0.012524371974920836,0.5617839747729523
11.100000000000001,0.5898030174141046,-0.21345356645813524,-0.6429925750186509,-0.06588357791145354,0.06843461377912763,0.17027976334220588,0.2404131280002785,0.270173879318145,0.9323130386584366,-1.4564666748046875,-1.8899607383216432,4.108620833950571,-0.17909114758551517,1.3896784782409668,0.041414737701416016,2.0,0.5347455627491381,0.520702266103519,0.42827971515421215,-0.5901151610857098,0.5796578217231163,-0.012508970694520173,0.5617868207996357
11.200000000000001,0.5762713590718053,-0.2523836951211462,-0.7024954692107525,-0.06030757389249495,0.06907974848807787,0.16595840294748518,0.24034009787603408,0.27007837845125865,0.9323595329338652,-1.4564966188938129,-1.8899546066898245,4.1086410660535,-0.1790617767037432,1.3896907764653164,0.04145097732543945,2.0,0.53475394316394,0.5206925259802473,0.4282981602535922,-0.5901072964087073,0.5796502176943158,-0.01249789387368698,0.5618031741641022
11.3,0.5617264948890796,-0.12293166924814408,-0.8400760566211573,-0.059118350739190036,0.0680945523436647,0.1687493803716253,0.2402343313461404,0.2699738751701059,0.9324170446087942,-1.4564848409107634,-1.8900143108763636,4.108635425567627,-0.17906835905535082,1.3896846269721206,0.041414400907950386,2.0,0.5347518942645216,0.5206884558221023,0.4282873695096369,-0.5901077863349102,0.5796572367317707,-0.01250162884060317,0.5617953343413699
11.4,0.4647491250374366,0.12983751613347344,-0.563683224860893,-0.05778775370208928,0.07013679466642896,0.169271301724341,0.2400985650299915,0.2698611220368875,0.9324846526771281,-1.4564954421539797,-1.8899614281895267,4.108664003474943,-0.17906555779121514,1.3896760154952759,0.04143148940076498,2.0,0.5347492244067679,0.5206900439664938,0.42829555892661214,-0.59010743877789,0.5796534000316909,-0.01251043033512496,0.561799462142435
11.5,0.40550424825207376,0.4424744264218246,-0.7666889572905184,-0.04829306434335567,0.07019696742519582,0.16943331486267005,0.23986123579420665,0.26962024409756974,0.9326153382183382,-1.4564830781611502,-1.889996848272928,4.108646869659424,-0.17905046321248227,1.389660760467352,0.041400886442294414,2.0,0.53474590709929,0.5206882646783348,0.42830525544857034,-0.5901219243514236,0.5796374717247429,-0.012525189863007099,0.5618003518966648
11.600000000000001,0.49797033992676076,0.1693412248646442,-0.8371800642782117,-0.054577850091432296,0.06704773763982713,0.17032520342865717,0.23953027904970026,0.26926089660887303,0.9328042743879811,-1.4564790725708008,-1.8899731768313466,4.108637774889704,-0.17906589161737013,1.3896669703239606,0.041414737701416016,2.0,0.5347457390865865,0.5206983501726472,0.4282993139500503,-0.5901279838349961,0.5796319744143955,-0.012520089199365328,0.5617997724258634
11.700000000000001,0.21953953000229576,0.3511044261504272,-0.6761414918554184,-0.04616532029922007,0.0722329399911385,0.17087226648924658,0.23972310460056762,0.2694822620956523,0.9326907811625642,-1.4564905166625977,-1.889973191237164,4.108652045003076,-0.17908764360479565,1.389668618082745,0.041433699544149945,2.0,0.5347649058811069,0.5206829283408311,0.4282629804148998,-0.5901211976736769,0.5796646522130544,-0.012532606192875894,0.5617729050184942
11.8,0.4659100300428795,0.2633108202077947,-0.6974011154633991,-0.05560103111051149,0.0698046809947282,0.1708106606203883,0.2399339419915123,0.26969378213373324,0.932575433918225,-1.4564677474997811,-1.8899819456187417,4.108663141791939,-0.1790840489343404,1.38969087600708,0.0413948892306845,2.0,0.5347557547997455,0.5206916723347128,0.42827539754412125,-0.5901169363240221,0.5796592189998433,-0.012515767108894814,0.5617833629306921
11.9,0.6504744085238047,0.6355476247780858,-0.3619558258986907,-0.09691652008128332,0.07773668799653856,0.1725863354079155,0.23987521738499712,0.26963058122899913,0.9326087516303551,-1.4565119590281776,-1.88997101784261,4.108649532387087,-0.1790752613620375,1.3896835404609607,0.04139816285506078,2.0,0.5347403870345894,0.5206910033733638,0.4283234273728335,-0.5901028713865857,0.5796323609367533,-0.01250944072735246,0.5618259883886475
12.0,1.1360519671231761,1.4574797708413159,0.2268488698780835,-0.13669484351228967,0.09254132205515023,0.16679479300837283,0.23950660959707448,0.2692825565339644,0.9328040933075683,-1.4564880217681555,-1.8900049887957857,4.108628971264714,-0.17908964566260913,1.3896933709015222,0.04141294323668188,2.030064646779344,0.5347622977564614,0.5206833961136321,0.42829557394358825,-0.5901187517953719,0.5796512558892633,-0.012531984946740536,0.5617893107551679
12.100000000000001,0.7957000049708561,1.7592435029661033,0.8679034925854535,-0.14809860220596627,0.0952432772122097,0.15949897828392015,0.23965757719658143,0.2694195993118122,0.932725734118211,-1.456632459976027,-1.8899009007125689,4.108659267425537,-0.17911305682821949,1.3896987319861653,0.04142968817104814,2.9634493118066736,0.5347534515289643,0.5206953100426245,0.42828893353378245,-0.5901208967608732,0.5796501105369964,-0.01251822235049196,0.5617885462251562
12.200000000000001,1.3374541982032542,2.1512360337478396,1.5979675828338986,-0.18724191014660777,0.14539655592972028,0.15786809557660064,0.24002188333419652,0.26981874299657876,0.9325165428701903,-1.4575347098583933,-1.8889716198450222,4.1087058803217245,-0.17911502720264022,1.3895843926128393,0.04144140361762785,3.0,0.5347551818411347,0.5206753110966377,0.4282678902190657,-0.5901220020525151,0.5796572485802005,-0.012520997279418309,0.561779958247971
12.3,1.6894739803290133,2.6068097756767643,2.415063685852757,-0.21494578570345535,0.1869788727715822,0.1175871082904318,0.24013510590088652,0.269963706313458,0.9324454916996967,-1.4587242290723408,-1.8876736511862067,4.108875751495361,-0.17920098360912487,1.3894422310179146,0.04154356080689603,3.0,0.5344998064329823,0.5203511661941415,0.4283860770462948,-0.5901346733429487,0.579677014217699,-0.012550004101494868,0.5617456042579396
12.4,1.4794994354149797,1.7390016579906533,2.4529588513251404,-0.14180801020108402,0.18791101444006691,0.10523314842033454,0.2397004455047407,0.26949358217002567,0.9326932577663184,-1.459925378240883,-1.8864420288835222,4.109065511152994,-0.17927537151106832,1.38927825140015,0.04157066345214844,3.0,0.5342637913611031,0.5201376175602399,0.4285268111327725,-0.5901219786763381,0.5796769522973743,-0.0125211183747294,0.561759648651447
12.5,1.616315266014253,1.203661625671123,2.3093943227362317,-0.09364513481597886,0.19436019626947124,0.0762761700001085,0.2392960432141904,0.26905991821882197,0.9329223595050797,-1.4609125278614186,-1.8851753673949183,4.109298759036594,-0.17938705938608282,1.3890883304454662,0.041664335462782115,3.0,0.5337605078623775,0.5196903821508153,0.42878984605656834,-0.5901379245514424,0.5796626975134184,-0.012531804962923417,0.5617573684269347
12.600000000000001,1.3948733987781479,1.5913602455989004,2.304081483120778,-0.11020771894178515,0.17825707109894318,0.06908741701957129,0.23924343829419156,0.2690126728694625,0.9329494935157949,-1.4619914908408205,-1.884120603600973,4.109411716899737,-0.17948963058496117,1.3889418551921389,0.04172658920288086,3.0,0.5335269373343741,0.5194914115647326,0.4289198148054948,-0.5901393945853017,0.5796510270379123,-0.01252154842753686,0.5617680950689206
12.700000000000001,1.2599870275815932,1.6105106598209986,2.456964804317522,-0.11893371594539517,0.16678340629263017,0.04376634177120299,0.23921335989933543,0.26899017093514455,0.9329636949935105,-1.4631166458129883,-1.8830311111337468,4.10960741686605,-0.17955056545928744,1.388763389385025,0.041786292432658606,3.0,0.5331355927738332,0.5190629073465477,0.42920553667955513,-0.5900927111409886,0.5796609256028847,-0.012529685382865915,0.5618067377414504
12.8,1.127899450035698,1.680423005611371,2.5125244761260945,-0.10339987451277687,0.1607743492944816,0.01969580679720989,0.23899748846142035,0.2687340067025899,0.9330927906670955,-1.464268684387207,-1.8816263211932494,4.109787464141846,-0.17966599608647116,1.3886233540840296,0.04185313123130058,3.0,0.5329147832216934,0.5188747274277921,0.4292589121069415,-0.5901280154558104,0.5796726633254398,-0.012536887052457882,0.5617573811089736
12.9,1.0250847893895416,0.9248993113477869,2.646406651654961,-0.044265753297228934,0.17050168100002056,-0.003272535241344316,0.2390399567302563,0.268750314149948,0.9330771627303107,-1.4654586150763633,-1.8803881771842776,4.109965102422416,-0.1797439730495864,1.3884500315986599,0.04194211959838867,3.0,0.5324875254076082,0.5185084686883772,0.4295326180900884,-0.5901267968102323,0.5796375979566644,-0.01251153025254834,0.5617954078953143
13.0,1.2673526440001945,1.12996326289896,2.510716787451841,-0.0316048145269496,0.17460424440752284,-0.026927169890631347,0.23944865162652143,0.2691565391223985,0.9328553235633652,-1.4664636083951361,-1.879271831855355,4.110138352654144,-0.17985556814319476,1.3883132934570312,0.04193821224304822,3.0,0.5320617628992071,0.518061916863381,0.4298265819256286,-0.5900959801004808,0.5796349211242222,-0.012507618195177766,0.5618306256957283
13.100000000000001,1.0360977268643925,1.028900780897652,2.6052370182043076,-0.014843282782251466,0.18278123596190773,-0.03664499035184732,0.23936402979632074,0.26907822675255666,0.9328996367145661,-1.4675996133160412,-1.878265752430733,4.110331430773206,-0.17991257897708163,1.3881379919367984,0.04202110001266452,3.0,0.5318469229593688,0.5178481800770008,0.429907210022191,-0.5901200131228374,0.5796441114900932,-0.012506267339641858,0.5617959303910912
13.200000000000001,1.3875456107009203,1.0168265144542645,2.683241429262222,-0.0029307732274261936,0.17813510431824672,-0.046699938433085786,0.23923382868563234,0.26895514626064176,0.9329685406215846,-1.4687371689001163,-1.877103551641217,4.110497214500137,-0.18004228608468745,1.3879751523299908,0.042092008342138214,3.0,0.5315487111485455,0.5176015110941209,0.429998286371019,-0.590150573733089,0.5796536339812426,-0.012522225567553938,0.5617536460065753
13.3,1.164548057824243,0.6082274068136123,2.7156401304681963,-0.00826901499254815,0.17860546852284873,-0.06485026964243885,0.2396504804774491,0.2693938793092227,0.9327349752354932,-1.4698607589471862,-1.8756460184030708,4.1106524388721395,-0.18012316644702153,1.3878345489501953,0.042142985653150326,3.0,0.531110669903601,0.5172055608318336,0.4301853144820869,-0.5901576333670779,0.5796683769093308,-0.012518645747315264,0.5617310958977835
13.4,1.0246475308798413,0.8356047685661792,2.6926652813506635,-0.008705874252252195,0.1900618098929713,-0.06821293812206415,0.2396050364286556,0.2693665660395647,0.9327545644105923,-1.4708664551549289,-1.8743620941923969,4.110802723522827,-0.1802224115376336,1.3876989282026873,0.04222453311945657,3.0,0.5308672066109352,0.5169218717027136,0.4304263201656283,-0.5901213961811054,0.5796450791554695,-0.01252889838379578,0.561792974934184
13.5,1.1074510554261843,0.782673934250468,3.0823746852264122,0.006105219110025966,0.1847580852871462,-0.05891308289552255,0.23953890712711454,0.269260470640783,0.9328021810417556,-1.47191981838574,-1.8734051418495905,4.110966812813605,-0.18034851432627613,1.3875470161437988,0.042305512362233615,3.0,0.5305150289058188,0.5165511949277795,0.4307777683634529,-0.5900702318336463,0.5796073458503161,-0.012509445012900428,0.5618860737957546
13.600000000000001,1.0317177877094,0.6694744739071214,3.1846708743841727,0.018461180449263946,0.18752287444826155,-0.056267610262522416,0.23952355968259503,0.2692537172530456,0.932808072448515,-1.4731390079511049,-1.8722835979857386,4.1111255262623665,-0.18043501794848638,1.3874116514454717,0.04233019136664861,3.0,0.530235654732657,0.5162884396939754,0.43088994282275106,-0.5900764343280617,0.5796255128126524,-0.012512062982610197,0.5618607610674282
13.700000000000001,1.2461840726209354,0.5167449572453711,3.0680105033732286,0.026299799816064416,0.18011767079948596,-0.053406880268031635,0.2393848718463465,0.2691261360859171,0.9328804194376522,-1.4742796618721459,-1.871021174875955,4.111255154131435,-0.18052215787658749,1.387209059870483,0.04241169117761073,3.0,0.5297547956751971,0.5158335271643767,0.43099332332110357,-0.5901398488879879,0.5796603949862682,-0.012523990916462342,0.5617578970431573
13.8,1.3461480854937276,0.4355393220299992,2.962775443034359,0.023677161341682115,0.18808486246419714,-0.05142424828136875,0.23901587819401923,0.2687585191634816,0.9330810283056133,-1.475384907311516,-1.8696333541673318,4.111429691314697,-0.18061526239428716,1.3870886268717164,0.04246950149536133,3.0,0.5294012952753321,0.5154741662338053,0.4312065314957951,-0.5901350309768466,0.57965536799243,-0.012526914202693725,0.5617680802538315
13.9,1.1302785125165422,0.6286228242812782,2.989034718834296,0.026736516899387688,0.19458346939134427,-0.052504872146150613,0.23865672083426065,0.2683927849468632,0.933278223103878,-1.4763173827586074,-1.868419355539813,4.111601189091563,-0.18070697872874938,1.386952899986754,0.04253667817947729,3.0,0.5291627952856923,0.5151884112304198,0.43143765501389414,-0.5900830852405241,0.5796482629674563,-0.012532169331085054,0.5618298572376622
14.0,1.247377508728646,0.03912347581304025,3.0123117023568997,0.027693280394195153,0.18936466197536045,-0.04280111279574764,0.23890272282822864,0.26859331490396476,0.9331575877881371,-1.4773995964038371,-1.8674482427394734,4.111771823567649,-0.18080969354151502,1.3867703803748397,0.04258061491777518,3.0,0.5287512984772541,0.5147925954114699,0.43179564970398554,-0.5900353891296559,0.5796118183356106,-0.012502932388293102,0.5619181936029447
14.100000000000001,1.0532956338236028,0.28152895980760306,2.995190400615685,0.036995649949574695,0.18555255296218107,-0.04309266298193863,0.23876910544373722,0.26844418800106945,0.9332346750209195,-1.47867330473863,-1.866251025435269,4.111964741248434,-0.1808821487857856,1.3866302870465952,0.04267715441720071,3.0,0.5285400150737927,0.5146238697884934,0.43182498180861556,-0.5900756243399886,0.5796206417054054,-0.012499368512002883,0.5618669193461985
14.200000000000001,1.019580560490014,0.2768808732920391,3.1731107791953224,0.04847467052148753,0.18861191214227332,-0.04824056948544365,0.2384589539076476,0.2681278363219621,0.93340488378921,-1.4799481930365004,-1.8650195618163679,4.112146852236381,-0.1809609671697309,1.3864768924620954,0.04272566414801206,3.0,0.5281671621752686,0.514290242159779,0.4318612981667853,-0.5901465145618411,0.5796432144682147,-0.012516187808226113,0.5617687961378909
14.3,1.4950607898519666,0.3818706950110855,2.972875439017149,0.04347302826239865,0.18848677735772001,-0.04279666370493798,0.23811236347669198,0.2677763335672455,0.9335943068036243,-1.4809026718139648,-1.8637405149169817,4.112297113990973,-0.18109595262971603,1.3863443341259911,0.0428084082869501,3.0,0.5277491866910561,0.5138567191252615,0.4320524642352127,-0.5901560413681507,0.5796555924061793,-0.012522602739042805,0.561745872659119
14.4,1.0425492704615904,0.5645678984142405,3.227584075670128,0.05110458100217531,0.20089721770667848,-0.04372104411227632,0.23804692165041547,0.26770037635377314,0.9336327722846791,-1.481827735900879,-1.8626176808664374,4.112469522432481,-0.18120521176860685,1.3861615476849858,0.04285880423569995,3.0,0.5274883907014002,0.5135888292184875,0.43224922879360816,-0.5901311127015476,0.5796551620094526,-0.012518427340050646,0.5617725980807184
14.5,1.1890514814571698,0.2339789015375654,3.219301459231662,0.06070139843078159,0.1941835914342103,-0.04502170324592038,0.23798147982413898,0.26762441914030083,0.9336712377657339,-1.4828442930482229,-1.8614977971982631,4.112644101257695,-0.1813423111950073,1.3860273361206055,0.042920368340942525,3.0,0.5271073070379895,0.5132323285688228,0.43258852266130826,-0.590075670371565,0.5796289910896797,-0.012499498117062312,0.5618582547856084
14.600000000000001,1.1576808439546258,-0.06979618092267169,3.279415723955583,0.06948589697439644,0.19309628492306735,-0.04716382997381022,0.23804185766727534,0.2676909181750699,0.9336367784506973,-1.484074099381364,-1.860287545177941,4.112804152422915,-0.18146248000087822,1.3858536341144982,0.04296756353559718,3.0,0.5268849419730679,0.5130109390750551,0.4327012232097189,-0.5900904211224367,0.5796264117178378,-0.012519199669024181,0.5618449851856797
14.700000000000001,1.0095768428038239,-0.21555947637549916,2.9593842181187813,0.0782943263118046,0.1864154231841157,-0.042186672097596904,0.23805300681010588,0.26770758657171134,0.9336291475884161,-1.4853397291121464,-1.8590857508514087,4.112990995442172,-0.18152289605971872,1.3857098143036584,0.04306321548774037,3.0,0.5264665803028982,0.512621132645563,0.4328633801327762,-0.5901084728892103,0.5796359678434694,-0.012509442972432276,0.5618163835658836
14.8,1.0667931392579173,-0.2768341065367896,3.124049216063558,0.07957406926127332,0.18642116032949596,-0.04661189785315569,0.23786786297239038,0.2675164006096571,0.933731134858714,-1.4863481521606445,-1.8579349057512475,4.113131046295166,-0.1816603541999137,1.3855091704146412,0.04312849044799805,3.0,0.5260815212288859,0.5122448851329193,0.4329827435727533,-0.5901319744966644,0.5796658659452408,-0.012509150876511568,0.5617608545270585
14.9,1.1990221835356212,-0.3767244816955756,3.186773101921511,0.07433626690261634,0.18949840633910642,-0.04892985391744332,0.23795667546680596,0.2676125573586167,0.9336809278556679,-1.4872239851011055,-1.8567325417194518,4.113295198250254,-0.18184957282914987,1.3853768962626247,0.043155960009640226,3.0,0.5258399438147571,0.512006426576967,0.4331291501308866,-0.5901335690779865,0.5796591199588346,-0.01251593223703971,0.5617659893016529
15.0,0.739433731779104,-0.036654728455394775,3.088545646436501,0.0942273633912631,0.1858311332157159,-0.04803317738965073,0.23812230320939726,0.2677892827934188,0.9335880467491,-1.488156793390335,-1.8555056057372035,4.113463656603943,-0.18202956140551763,1.3852459263673782,0.04325367448158238,3.0,0.5255308993100261,0.5116896860637418,0.43339825822043704,-0.5901067317867668,0.5796386060290285,-0.012512856730683631,0.5618154144530954
15.100000000000001,0.6298942917275274,-0.2779212231799403,3.0668868726362355,0.09828927685231087,0.18026241803341644,-0.04062089179556752,0.23813442365415052,0.26780839485819774,0.9335794875124466,-1.489232463465861,-1.8544018498743429,4.113625521654058,-0.18210163697006312,1.3850703239440918,0.04332338387592449,3.0,0.52515178869092,0.5112868779225729,0.43374748876186253,-0.5900568489259895,0.579622356354953,-0.012514605240377952,0.5618845287999497
15.200000000000001,0.9898312588063937,0.17088809436106933,2.6916929241241525,0.065698498139069,0.1802468342146481,-0.03457939224194822,0.23786599319260154,0.267512508304957,0.9337327078105031,-1.4891894194953685,-1.8544387714797113,4.113642897856926,-0.18217800729631053,1.3850687156646424,0.04329046554719538,3.0,0.5249114692295002,0.5110741649357925,0.4338709651895822,-0.5900657663425044,0.5796210539629796,-0.012508499890191486,0.5618766436006883
15.3,1.1467484217667758,0.21462470319305352,2.7539763219428157,0.05530321713694155,0.18510547436352198,-0.04092631449928413,0.2381017936850573,0.2677554233449138,0.9336029565215928,-1.489203787137873,-1.8544322452940882,4.1136480888812885,-0.18215511234137508,1.3850603346374737,0.043326043794744175,3.0,0.5247971046253089,0.5109926254877083,0.43387975617769525,-0.5900982427241577,0.5796262509072989,-0.012510434826775505,0.5618371313943706
15.4,0.9420492992282228,-0.11630899638405551,2.5168989900367054,0.05643046453172443,0.18313946180524712,-0.03845163358539672,0.23809561603093984,0.26775702244186217,0.9336041025348769,-1.4892423883595525,-1.8544676698550764,4.113646030426025,-0.18217822853540377,1.3850464820861816,0.043310933692747355,3.0,0.5248010422528304,0.5109866140627752,0.43388416945348546,-0.5900891981867631,0.579630818926119,-0.01251222676003902,0.5618418782147205
15.5,0.6398942371754606,0.21195894547423708,2.5077643609356723,0.06356874477166076,0.18769471740747715,-0.040930905469202715,0.23805887788099503,0.26772516632139587,0.9336225446964512,-1.489254539513031,-1.8544416866026525,4.113622188568115,-0.18217261255297856,1.3850766181498013,0.04333162307739258,3.0,0.5248057163400436,0.5109923241275117,0.4338468121913122,-0.5900980019821984,0.579644178921918,-0.012513958440234611,0.5618188095308925
15.600000000000001,0.672335325105319,0.4013171384782858,2.7257379528470564,0.06358284754779885,0.18642070301241573,-0.03536493835722038,0.23845483055481512,0.26813395795899114,0.9334040484264444,-1.4892486597738108,-1.8544404939401131,4.113630767159981,-0.18215701934109327,1.385033510185745,0.04333987172341743,3.0,0.524809647408343,0.510994434707008,0.4338521546460152,-0.590091929018443,0.579646744207818,-0.012513567719759137,0.5618225501521741
15.700000000000001,1.060317075661398,0.07266517945139211,2.4812591491793055,0.05996284023705815,0.17637003075770744,-0.03427189773329711,0.23867770208217864,0.26836591678440963,0.9332805498135491,-1.4892339706420898,-1.8544583183932162,4.113660833609571,-0.18218563687262046,1.3850529418780064,0.04332516328556777,3.0,0.5247985459584945,0.5109725933436559,0.4338666449797105,-0.5900945428575849,0.5796455597156385,-0.01250862218102634,0.5618211369846938
15.8,0.8334017942088678,-0.007957109899733153,2.3673993910980173,0.05802397177853812,0.18055215409199277,-0.03780625917870218,0.23827700337416474,0.2679607890144996,0.9334993051816224,-1.4892259175670925,-1.8544731999363677,4.113623920038667,-0.18219292210172253,1.385054535161179,0.04332809076822637,3.0,0.5248010252619026,0.5109876204716423,0.4338420746831271,-0.5901157614326877,0.5796419749776469,-0.012520608021106348,0.56180228134773
15.9,1.0315659174403833,-0.24803217054064786,2.2696768043261817,0.05353309720365783,0.17691315758752377,-0.035770090566002465,0.23798001696336887,0.26763311367811665,0.9336690998998313,-1.4892454147338867,-1.8544395501629527,4.113653968180767,-0.1821689601185463,1.3850592205434178,0.043315086088346964,3.0,0.524806176668127,0.5109804803262171,0.4338327645800272,-0.5901011494534266,0.5796541101424962,-0.012512360631519425,0.5618052926415716
16.0,0.9354348629570242,0.04758805751501263,2.4352659740738485,0.05652849331203188,0.17903171760521036,-0.03597034506011732,0.23854611484723057,0.26822544411633986,0.9333543583485419,-1.4892667281357546,-1.8544203243651332,4.113649244700203,-0.18215546709960442,1.3850579261779785,0.04332492667285656,3.0291597052501738,0.5247910292213742,0.5110013542200371,0.4338366685694279,-0.5901048806376908,0.5796418589482519,-0.012508990218708084,0.561814088792992
16.1,0.8088189337836749,0.3259924671077412,2.389345080255436,0.06557157558742129,0.18077718473703525,-0.03708963286814323,0.23871951413591344,0.2684195588579543,0.9332544719853973,-1.4892618161550961,-1.8544360949624499,4.113626192223212,-0.18215684195566192,1.3850901621469058,0.043331995001263016,3.994392665313519,0.5247986696787862,0.5109905058699952,0.4338315557862376,-0.5901049987915369,0.5796422185403614,-0.012518639435640572,0.5618133787598233
16.2,1.0976955441078458,0.21195974762665565,2.4233335278344086,0.06096297189599604,0.17326345019687714,-0.027319902253580615,0.23840310435105244,0.26808674153794504,0.9334309728653607,-1.4892701361643148,-1.8544260834619308,4.113657474517822,-0.18215493252722578,1.3850579261779785,0.04333162307739258,4.0,0.5248042760841797,0.5109850740691841,0.43385988058029396,-0.5900884154818651,0.5796447264667137,-0.012512323287021645,0.5618283499071508
16.3,0.8105704370110282,0.14864791368583286,2.431358783969235,0.06208678355931262,0.1774004404562974,-0.034513246933602484,0.23816809465155156,0.2678322380582969,0.9335640499209341,-1.4892396933925292,-1.8544322467618817,4.113658425256552,-0.18217261255297856,1.3850579261779785,0.04330754130375404,4.0,0.5248107488266501,0.5109856981458768,0.4338304183700528,-0.5901062448114348,0.5796518873513137,-0.01251042755033805,0.5618022770754089
16.400000000000002,0.6677567715542186,0.2971524457947558,2.5296412280515215,0.06657240418076436,0.18078510112823493,-0.036649685129895485,0.23785689308663766,0.2674774790638498,0.933745034978789,-1.4892675123279957,-1.8544406307155648,4.113654080430643,-0.18217746246697636,1.3850649971929359,0.04330071020452515,4.0,0.5248032235212102,0.5110075470943585,0.43381960677264464,-0.5901180925309966,0.5796398514746065,-0.01251145032458316,0.5618022277108292
16.5,1.0565385014646462,0.021358731742094652,2.559706322893975,0.057568391017442794,0.17440230226248302,-0.029945899412913313,0.23774667807928815,0.26736225557924737,0.933806152027927,-1.4892409584568074,-1.8544433936246414,4.113650339586268,-0.18216812384439224,1.38504261733159,0.04332341825862187,4.0,0.5247817304143066,0.5110128188272061,0.4338416480862876,-0.5901162851915912,0.5796223963792664,-0.01250132066938324,0.5618223603139644
16.6,1.1472760750366149,0.009427279600590541,2.5318616234337434,0.05856560337616707,0.17124277651988223,-0.02851234678161333,0.23783011713574279,0.2674740069129425,0.9337529039154997,-1.4892523021759725,-1.8544322452940882,4.113622188568115,-0.18214021663767244,1.385065317925512,0.04331147709324907,4.0,0.5247904533455028,0.5110067771164225,0.4338210074582911,-0.590116402529189,0.5796404269041218,-0.012509486331830983,0.5618034529229325
16.7,0.9989300450751669,0.024186448449661044,2.4594934827579804,0.060082125928434836,0.1714964370078756,-0.030018457508708917,0.23795236628596497,0.2675943697508267,0.9336872553091962,-1.4892460045975981,-1.85444405319649,4.1136402541273815,-0.18217249952642542,1.385076217790351,0.0433197021484375,4.0,0.5247809606382189,0.5110120147255715,0.4338031485088267,-0.5901324381799762,0.5796400418183048,-0.012501918123809378,0.5617871744458537
16.8,1.034641358117135,0.014086663458653871,2.474011541040026,0.059651193114715936,0.17036784935582225,-0.028039952117443902,0.23805066772726358,0.26769104007171546,0.9336344982046593,-1.4892494241867174,-1.8544641528378472,4.1136419884009925,-0.18215282692808643,1.3850703239440918,0.04332355739154391,4.0,0.5247899748111543,0.5110036444269351,0.43383247321322843,-0.5901130815820825,0.5796397996921888,-0.012505704378751701,0.5618076725325927
16.900000000000002,0.9875796920104593,0.1771155422054418,2.331771998238141,0.06590654510733883,0.1740342955400003,-0.027360918764584522,0.23784035618415214,0.26748238605441865,0.933747873269444,-1.4892458516185256,-1.8544361535100211,4.113622188568115,-0.18215682336060987,1.385062507512226,0.04332775481397897,4.0,0.5247852105814675,0.5110101432101264,0.43380434649306543,-0.5901280062043464,0.5796473828612007,-0.012496919108012707,0.5617843668599648
17.0,0.7494346681218176,0.23372979657007958,2.4209483037965653,0.06492874917312251,0.1770582539779778,-0.032435733416265974,0.23776408646221997,0.2674271257731438,0.9337831485976245,-1.489266285597382,-1.8544479399429774,4.1136502289755486,-0.1821688388330445,1.385061576965918,0.0433278493574585,4.0,0.5248021869669387,0.5109932284749222,0.4338060077425905,-0.5901244584966163,0.5796467485963277,-0.01252337149003158,0.5617881589107265
17.1,1.0952179969419318,0.020409756598478768,2.3483711997592214,0.05912030011672639,0.17025659326918552,-0.026229749660271598,0.2377975678625349,0.2674928034893008,0.9337558111026208,-1.4892821199494943,-1.8544367483174942,4.113661331828708,-0.1821487706950684,1.3850579261779785,0.043302949717029304,4.0,0.524805463092605,0.5109999952873371,0.4337910557448516,-0.5901248345013441,0.5796548002895999,-0.012530102576650368,0.5617793060761529
17.2,0.9274571783822277,0.26485960929618124,2.576477580953653,0.06695022008874248,0.17452861217609514,-0.02898198965586906,0.2379202301887023,0.2675795206242562,0.9336997118513656,-1.4892668859333011,-1.8544597792581508,4.11365038567401,-0.18218537809243193,1.3850664841536935,0.04330778121948242,4.0,0.5247969825176547,0.5109938383507748,0.4338107492597182,-0.5901240712895927,0.5796509266834289,-0.01252307367130592,0.5617842613543577
17.3,1.177649147569312,0.051266002032624935,2.628678569618309,0.059689156381255326,0.17078651891079114,-0.030671540307510747,0.23779274684617796,0.2674293987716212,0.9337751259504227,-1.4892593729335721,-1.854452597602077,4.113642680458101,-0.18216767072386622,1.3850498320541063,0.0433059916851301,4.0,0.5247860887408075,0.5110084898082241,0.4338240387331844,-0.5901164576170798,0.579647287751714,-0.012503395751216026,0.5617964518811411
17.400000000000002,0.9039140042541465,-0.07434960790259937,2.4980967322437615,0.061011482373705905,0.1721201595302809,-0.030801774719285573,0.23746984899730797,0.26709547350936363,0.9339529318148295,-1.4892454147338867,-1.854452367799341,4.11363815691278,-0.18217261255297856,1.3850867270966873,0.04331598279578016,4.0,0.5247886714997065,0.5110050451419518,0.43381535568549967,-0.5901152069226551,0.579641756356733,-0.012511735309253716,0.5618032870372555
17.5,0.9702008343364751,0.16005912581353365,2.4829071254014132,0.06191741060435291,0.17202093383920575,-0.029134316551810764,0.23747087111663348,0.2671003516933838,0.9339512768095689,-1.489277610040591,-1.8544518743214575,4.113646030426025,-0.18218453348193364,1.385050526403501,0.04330339987571984,4.0,0.5247967311749775,0.5109854161093557,0.4338276399926075,-0.5901094250809493,0.5796477769800605,-0.012519946365522918,0.5618029654742931
17.6,0.8129590891077015,0.18875670280465762,2.3632475641877333,0.06300773401092684,0.17644331520086745,-0.03272168242683862,0.23747189323595896,0.267105229877404,0.9339496218043082,-1.4892778469705683,-1.8544481322515243,4.113682270050049,-0.1821567255955424,1.3850779606485468,0.043339577977866584,4.0,0.5247993111419275,0.510980584353406,0.4338349227932917,-0.5901006451641778,0.5796566652371477,-0.01251525556772118,0.561803121565772
17.7,0.6905208309087388,-0.018172013078964204,2.3940575863963858,0.058135363790912525,0.1759294209929018,-0.026172760424474195,0.23750140920997007,0.2671334988332904,0.9339340293404504,-1.4892387200416637,-1.854448214595886,4.113642359210086,-0.18216030549953677,1.3850661136363354,0.043315787252496324,4.0,0.5247909152172393,0.5110080092610084,0.43383080840602556,-0.5901111953165994,0.5796432770713353,-0.012508015835507959,0.5618060146063553
17.8,0.9869214713058081,0.20261981274037127,2.5491884587922997,0.06487226186287602,0.16901846956815766,-0.022184729281154593,0.2375627525776917,0.2671891174885487,0.9339025137902404,-1.4892621446482457,-1.8544723402291992,4.113630254185983,-0.18216770475221017,1.3850464820861816,0.04331120447303258,4.0,0.5248000755720321,0.5109954380013394,0.4338503504270111,-0.5901014980182077,0.5796350797837426,-0.012508778089701281,0.561824640605469
