xiamingqian9007/apple-picking-rnn/training_data/grasper_20191127_124048_noimg.csv
,/manipulator_wrench.fx,/manipulator_wrench.fy,/manipulator_wrench.fz,/manipulator_wrench.tx,/manipulator_wrench.ty,/manipulator_wrench.tz,/ground_truth.x,/ground_truth.y,/ground_truth.z,/joint_states.elbow_joint,/joint_states.shoulder_lift_joint,/joint_states.shoulder_pan_joint,/joint_states.wrist_1_joint,/joint_states.wrist_2_joint,/joint_states.wrist_3_joint,/mode./mode,/manipulator_pose.x,/manipulator_pose.y,/manipulator_pose.z,/manipulator_pose.rx,/manipulator_pose.ry,/manipulator_pose.rz,/manipulator_pose.rw
0.2,0.2708462608885605,-0.3691320648111121,-0.6735900329730963,-0.006547242344855837,0.006593789758176312,-0.012086422502145852,-0.03950856179923753,0.12155640842517342,0.9917978295432772,-1.9363180499779753,-1.9775474349262874,4.172886244693973,0.8836024426456541,1.3282088145092201,-1.141041689661333,1.0,0.45680240546666545,0.45850883601298087,0.32105347475921464,-0.6507275733129978,0.15055010081105225,-0.39291746155395946,0.6320634152377055
0.30000000000000004,0.22418937189215832,-0.27441752390478114,-0.06808771679177361,-0.0034504066468999373,-0.0018436174461150994,-0.04433475518100835,-0.039706157314633735,0.12219723889340228,0.9917111441817962,-1.9325337627807742,-1.9796353503174382,4.172043578649739,0.882029978840745,1.3290352447161615,-1.140979568384317,1.0,0.4568569172196658,0.4585471689200214,0.3210809044871654,-0.6507094015747434,0.1505526020732485,-0.3929313009128753,0.6320729241742038
0.4,0.014867313277168944,-0.5020772313226415,-0.12474207163894664,-0.005440706506245914,-0.002257776009667487,-0.07820225000588873,-0.03979275045348158,0.12245733289251022,0.9916755596731879,-1.9281681637932273,-1.981986316383889,4.171326093920539,0.8797646303364257,1.3296962230682372,-1.140908499506749,1.0,0.457891167615574,0.4595373281612986,0.321253299800108,-0.6506577498636216,0.15054899807865152,-0.39293645637719377,0.6321237481456118
0.5,0.06933587151624482,-0.39391088477615366,-0.07927676684412839,-0.0029457384508113182,-0.005045015157799202,-0.10708253745142282,-0.03958626677693237,0.12165697610749014,0.9917821604582726,-1.9237216031706614,-1.984428013092686,4.170654773712158,0.8778370534414206,1.3303802945755687,-1.140811876684253,1.0,0.4584609100496207,0.46005779581839923,0.32129069185936177,-0.6507177568016697,0.1505759144538657,-0.3929590963899072,0.6320414887757075
0.6000000000000001,0.13181817400126505,-0.34477033115550776,-0.10653657053183817,0.0028791559998250682,-0.009626949868575797,-0.1380668689401072,-0.039469058515474366,0.12123737580183028,0.9918384292811873,-1.9194169730741262,-1.9868014854719898,4.169922427034197,0.8757047991261914,1.331160342444032,-1.140727756324849,1.0,0.4595906691063904,0.4612725398746874,0.32149099663730674,-0.6507051146126872,0.1505738141464503,-0.39294841375356665,0.6320616460748398
0.7000000000000001,0.2898267736859317,-0.2998292529198783,-0.1658085875797364,0.00022579425826867,-0.017029119430693962,-0.16567747306532093,-0.039610118337170715,0.12191927971177653,0.9917490909469939,-1.9152008892512844,-1.9890641326286835,4.169157139828796,0.8738809142747195,1.3320717218452922,-1.1406065937118741,1.0,0.460964859525882,0.46277277008157525,0.32171177179710314,-0.6507288470268232,0.1505426340452916,-0.3929055475619598,0.6320712884452854
0.8,0.3209448084876997,-0.3421836214120359,-0.13960083661071243,0.005918563647228927,-0.014565794346594624,-0.18719890295910493,-0.03970741262648195,0.12240831000690526,0.9916851934202282,-1.9110070055119002,-1.9914238581761745,4.168425436109026,0.8719716833321198,1.3327539654449967,-1.14052472836205,1.0,0.4615281411796139,0.46331733211964937,0.321864637924592,-0.6506595234655861,0.1505220580267445,-0.3929051308834967,0.6321478092158134
0.9,0.38943765450651746,-0.21127042547020955,-0.0164361619927183,6.905459812650387e-05,-0.018774848503633538,-0.21169977412206997,-0.039669058498262195,0.12229954109321259,0.9917001480193299,-1.90710804992632,-1.993425641601597,4.167681565551539,0.8701352130691422,1.3334020376547508,-1.1404523246945963,1.0,0.4628829662535048,0.4646570531035666,0.32196070497480705,-0.6507385251452988,0.15052276335942116,-0.392887298797151,0.6320774003603065
1.0,0.10289308270648821,0.11766837359288868,-0.049522185839059464,0.0014350744198792364,-0.014979151399381668,-0.22652497653104484,-0.039698535973680504,0.12213859548515889,0.991718788954445,-1.9032453584105145,-1.9958479846191517,4.166973595239257,0.8683770613483325,1.3339533783905038,-1.1403801506427402,1.0,0.4636006652682606,0.4653472674755998,0.32204972048219416,-0.6507596363123476,0.15055040467570416,-0.3928923562070875,0.6320459380714717
1.1,0.3175998142529776,-0.2774309609649403,-0.1566222184436615,0.0019018280855448574,-0.01345950413433112,-0.2474437221141836,-0.039752515669866685,0.12195880254318406,0.9917387614726864,-1.8996116759369366,-1.9976641179390124,4.166304111480713,0.8665899039705744,1.334589282401347,-1.1403200286846553,1.0,0.46460491797109216,0.46626959509504096,0.32215967699925996,-0.6507708749324034,0.15059041256373334,-0.39293586593271473,0.6319977857930412
1.2000000000000002,0.05606711234478262,-0.1915933407420202,-0.20970946386850686,0.007363048346264472,-0.01048665498676134,-0.2387864646615963,-0.039575666869844005,0.1215850931863546,0.9917915991372203,-1.8959177571959882,-1.9994161709013147,4.165753373659291,0.8650234741911894,1.3353943824768066,-1.1402010794697717,1.0,0.4650967083886174,0.46672912370677844,0.3221692801184323,-0.650773059532004,0.15060749198888806,-0.3929479145204969,0.6319839751276641
1.3,0.1581387440522037,0.029859156251946434,-0.34856750319435387,0.008369545838557198,-0.016961581431071775,-0.22832246997241662,-0.039311457854099424,0.12113799349812347,0.9918568750679,-1.8923778923944612,-2.001657775445371,4.165166077422729,0.8633337340041759,1.3359449856260335,-1.1401878790485744,1.0,0.4659161345405085,0.4676374054900071,0.3225243235686442,-0.6506799761931464,0.1505577774620516,-0.39290707471449937,0.6321170420628353
1.4000000000000001,0.3048729692149245,-0.32859297000714827,-0.3155565907550121,0.008510299555465525,-0.011269407922006862,-0.2217792696708604,-0.03909891909513566,0.12061211254798289,0.991929264761079,-1.8890694695295225,-2.0033406900298836,4.164720216089589,0.8617686837711194,1.336471601447397,-1.1400586179690162,1.0,0.46704889483273426,0.4688545462732511,0.3225298981375643,-0.6507957168503846,0.1504929603365514,-0.3928624440202162,0.6320410618755694
1.5,0.009563663296346225,-0.23948516531876468,-0.25738239124671386,0.010665108455127536,-0.006813928574003393,-0.22474754258937207,-0.03890707683137246,0.12005467580325974,0.9920045038682265,-1.8855919658755294,-2.004974981347555,4.164171185218119,0.8602422825650146,1.336967119047338,-1.140023431224898,1.0,0.46768382709584405,0.4694732295814166,0.32266322639211675,-0.650782918978557,0.15053191826126988,-0.39288032582039234,0.6320338468259381
1.6,-0.05866136547845163,-0.013157191343058428,0.008900002957891784,0.008417691617744617,-0.014471643466527462,-0.2246624224972936,-0.038626194476233514,0.11918546308520242,0.9921202561166685,-1.8825303048312831,-2.0069615156024465,4.163594722747803,0.8587020225183352,1.33745504958289,-1.1399487700730215,1.0,0.46855779178451884,0.4703456816932522,0.32298401739700083,-0.6506523530846693,0.15053489292129887,-0.3929070158408051,0.6321509616710466
1.7000000000000002,0.043045437402177096,-0.1689933760704035,-0.10144015786356836,0.013898789803187813,-0.01350089244974226,-0.21994107675298813,-0.0388548497840237,0.11978223960287217,0.9920390253274975,-1.8793907124143212,-2.0085314818219753,4.16305612464765,0.8573116352450766,1.3379707357117847,-1.1399357880346839,1.0,0.46912280866890443,0.4708908476253035,0.3229149102358937,-0.6507674381551086,0.15054991377794036,-0.39289437702131336,0.6320367658637632
1.8,0.1777382521157391,-0.11364514757794113,-0.2917985457983388,0.007109296484126093,-0.01097354674717465,-0.21600536822638952,-0.03924648542807035,0.12089661114057869,0.9918889521337738,-1.8763175239991605,-2.0100463020517805,4.162552356719971,0.8558066151813154,1.3385556138304573,-1.1398841767425634,1.0,0.4698126683199345,0.4715958375857296,0.3230810344041693,-0.6506985580536782,0.15054103753497114,-0.392921200833094,0.6320931201181025
1.9000000000000001,0.0795296926329726,-0.013450082248554984,-0.2093072063421741,0.008718624070930483,-0.013120766827567227,-0.21751239414312085,-0.0393096518142081,0.12123201279262855,0.9918455047264444,-1.8733927017156122,-2.0117901463564345,4.162001490723716,0.8546054207715472,1.3390748652505264,-1.1398038157399342,1.0,0.47073320269958807,0.47250965883232254,0.3232268190087656,-0.6507323452907787,0.15052734986738567,-0.39288335562013643,0.6320851213332948
2.0,0.4647301010279232,0.9042221242369772,-0.6491811305381021,-0.03520254128180132,-0.005420632496054869,-0.20380083558263185,-0.03940212564235211,0.12139498420327155,0.9918219163590423,-1.8710799994338134,-2.0130864920657503,4.1615480294905245,0.8535216922900138,1.339410934174698,-1.1397334542443522,1.0,0.4711577639827454,0.4729244073489753,0.32330173133304935,-0.6507002997613975,0.15052035524306856,-0.39289592293529435,0.6321119649941386
2.1,0.026133327085993287,-0.061014296583892506,0.10529665550161392,-0.0030855245973967077,-0.017117617980864766,-0.22856686855679922,-0.03950843275427464,0.12147656753300087,0.99180770157446,-1.8688631454474978,-2.0141945105144448,4.161235313147585,0.8523409194774083,1.3397589119163769,-1.1397425983030116,1.0,0.47206260291053714,0.4737009872277983,0.3233287390011284,-0.6507619938167867,0.15057251409147593,-0.39292263658990983,0.6320194198432565
2.2,-0.026851714742721626,0.014514212062526774,0.047606640026970806,0.0048203865985297495,-0.00636066871872611,-0.21833788395180717,-0.03967838174816649,0.12193766649735326,0.9917441218743681,-1.8661349260014621,-2.0156238329365523,4.160851392093531,0.8512639143105305,1.3401417030054987,-1.139684025441305,1.0,0.47219667296817913,0.47387053962989617,0.32338288164998696,-0.6507565136720621,0.1505774748518172,-0.39291173048363526,0.6320306606716077
2.3000000000000003,0.10852767362970761,0.016767322518064884,0.04746074030549639,0.000301313078882752,-0.012492540116843726,-0.21894453623411358,-0.03988116797568302,0.12259458373691538,0.9916550714117329,-1.8636065926694259,-2.0170956352081544,4.160421004030816,0.8499928752465234,1.3405137062072754,-1.1396576922957726,1.0,0.47281110711854085,0.47452068370599354,0.32356968278208015,-0.650663218256392,0.15056166278479308,-0.39293555926586815,0.6321156605971192
2.4000000000000004,0.2589887621434337,-0.2789285720805109,0.12065395756878947,0.0036219799361570503,-0.010021799007168418,-0.21329609184212384,-0.03986496590432734,0.12248317566565364,0.9916695441681315,-1.860869503067024,-2.018379420727961,4.160022836915015,0.8486995923654089,1.3408980213102102,-1.139576260243551,1.0,0.47366303303719237,0.4753635106418672,0.3236251648393451,-0.6507342427143502,0.15056793132072435,-0.3929205196105376,0.6320504004316141
2.5,0.41031015088220163,-1.0708563960386601,0.9372412903839693,0.019075022244535295,-0.016112523881626227,-0.2243711351580593,-0.03968597870032168,0.12184444337760388,0.9917552151752771,-1.858755722688424,-2.019684639622262,4.159712765563374,0.8477222049397201,1.3412403147144758,-1.1395520471487268,1.0,0.47407513619503255,0.47576462132002856,0.3237825266547143,-0.6506686263870631,0.15058308321383385,-0.39295627405648625,0.6320921138291726
2.6,0.19108898337269642,-0.6448939029337681,-0.2854524841815296,0.013872531289817209,-0.02334920118386348,-0.21721139894041364,-0.03918526179787177,0.12039409122983755,0.9919513087215514,-1.8562384867688204,-2.0210860817392993,4.159352251137877,0.8466413293127548,1.341677291700076,-1.1394918600665491,1.0,0.4747306996960471,0.4764227512458233,0.32380411952949434,-0.6507117225053529,0.15058683419373972,-0.3929526210931654,0.6320491255730324
2.7,0.12083721609284345,-0.1764776379566978,-0.028918743092699456,0.009961203126005597,-0.010310107955791879,-0.2150359022788963,-0.038747151227974695,0.11916651543589535,0.9921179146802444,-1.8540438320718364,-2.022212139196994,4.159017354210883,0.8454424966871706,1.34209577410393,-1.1394794234033043,1.0,0.4750974229133361,0.47682139095224313,0.3238181361073944,-0.6507314137631384,0.1505789074442356,-0.392928334266705,0.6320458400346609
2.8000000000000003,0.04686546410112588,-0.013468752918952321,-0.10180746474223262,0.009501785542323497,-0.008654097637572697,-0.21117444326442147,-0.03879917622995039,0.11968302224716217,0.9920536667458414,-1.8518710350711234,-2.023395027208837,4.1586689949035645,0.844510739412676,1.3424221922975796,-1.1394091732319342,1.0,0.47581414847605635,0.4776197439603927,0.3239462308154406,-0.6507750322444652,0.15051200441231763,-0.39287861953712067,0.6320477705408099
2.9000000000000004,0.13740354145320904,-0.2090923878266815,-0.019203244299926356,0.010203475812454023,-0.007824498996734961,-0.21245348196063496,-0.03902832084208298,0.12045849764442752,0.9919504366421642,-1.8494976559443816,-2.024488472578449,4.158369541168213,0.8435491781300849,1.3427673732241596,-1.1393377310230124,1.0,0.476065584210562,0.47787720285877955,0.3239495571253622,-0.6507832413392973,0.1505109172083561,-0.3928648019740784,0.6320481658567528
3.0,-0.01937477462010287,-0.01139575508004241,-0.029367398970297005,0.0009534235047789579,-0.010723935742706745,-0.2164841509104828,-0.03937324380055984,0.12140325387183623,0.9918217249382765,-1.8476512339924038,-2.0257838472242655,4.157962629942381,0.8425203211784406,1.3430787990082607,-1.1393372410092841,1.0,0.47680609849165645,0.4786098108481767,0.32421101778244205,-0.6506834375335164,0.15051555867702515,-0.392907944971875,0.6321229923786096
3.1,0.05743967606463455,-0.48866514020382634,-0.02462830763286587,0.0031824890901987228,-0.013042863331128668,-0.2145583383228348,-0.03923776133579857,0.12099941959443816,0.9918762375421198,-1.8454822824431565,-2.0270416777560842,4.157710552215576,0.8415188714613848,1.3433774884755254,-1.1392915215075083,1.0,0.4771250191746548,0.478919266116268,0.3241339362615518,-0.6507589335488485,0.1505339665501601,-0.39289239357563377,0.6320505536675449
3.2,0.054919735845276776,-0.20639427156641443,-0.17988228157303726,0.00027737114025983695,-0.006646540603655435,-0.21200572209388088,-0.03886284906547178,0.1199234224140144,0.9920220739322229,-1.843480980320785,-2.027868433782866,4.157400078455297,0.8407470895588542,1.3436317680175862,-1.1392643851092656,1.0,0.47760088843300924,0.47943324660965564,0.3240709720624366,-0.6508493369110243,0.15052792083118255,-0.39285431122711806,0.6319825755849505
3.3000000000000003,-0.11814317023160528,0.0771771105714304,0.03279204290761664,0.010387361202638754,-0.012485260122651264,-0.2118104216083148,-0.03934452548780972,0.12125165281426127,0.9918412771110021,-1.8416239819031788,-2.0288103171741083,4.157063007354736,0.8397388370428047,1.343965740553431,-1.1392264719273533,1.0,0.47815205373123754,0.47995179501973184,0.32433509948934214,-0.6507100166157935,0.1505316111290576,-0.3929095475786639,0.632090812896607
3.4000000000000004,0.21650481987739073,-0.3867344454019863,-0.03340789754442574,-0.0008852627716137516,-0.015459637852575906,-0.20791959507429225,-0.039459282395029695,0.1214742636794301,0.991809795746364,-1.8396732784011989,-2.0297747460825826,4.156762439024101,0.8387990398205483,1.34419584274292,-1.1391805444282015,1.0,0.4784284258650831,0.48019662813375164,0.3244073819472445,-0.650689629721605,0.15055491179332575,-0.39290966150749135,0.6321061795313607
3.5,0.15265246022183734,-0.21322878773580364,-0.01620118536982345,0.005614484691748018,-0.004988379418956946,-0.2052670638413911,-0.03930934626354731,0.12089928874626812,0.9918860294535592,-1.8379001777187718,-2.0309254168178916,4.156417355256105,0.8380180879558004,1.3445291665029282,-1.1391914752311094,1.0,0.4788657321503902,0.4806074863264028,0.3245160173956325,-0.650681529540537,0.1505603725429389,-0.3929247894831121,0.6321038135814169
3.6,0.05395943687111762,-0.22669487669900296,-0.14758448576100694,0.0035412759810547955,-0.011237252195388653,-0.21255484297414537,-0.039500662820414735,0.12135986018752888,0.9918220865412709,-1.8360320365074838,-2.0320361779485916,4.1561760902404785,0.8372743288605231,1.344771385192871,-1.1391318480121058,1.0,0.4794587323250185,0.4811623372586465,0.3244844611837173,-0.6507478619078622,0.15058048191988613,-0.39292766572564997,0.6320289456935598
3.7,-0.09521173667969592,-0.27378150968339593,-0.17468121762657116,0.008660375293692641,-0.0073148926430349126,-0.209480687605651,-0.03943584124033807,0.12122124792317532,0.9918413984687156,-1.8344367611480308,-2.0327933203828845,4.155949724905436,0.8364358252307943,1.3450458603182036,-1.1391416822624487,1.0,0.47964160405861755,0.48136083560643256,0.3244686888751342,-0.6507552026743917,0.1505701288409425,-0.39293021849596943,0.632022266922411
3.8000000000000003,-0.10989698135438065,0.08315856485303222,-0.07314727315048998,0.010632768787010147,-0.010117822933014489,-0.21066277160584998,-0.03903076843795491,0.12017011777992678,0.9919857000151492,-1.832893087609414,-2.033576925434297,4.155695527971888,0.8356464602406193,1.3452617844891694,-1.1390829444824764,1.0,0.48025143812078896,0.48201222478522,0.32463816804124956,-0.650726658030927,0.1505562240003402,-0.39291244277313914,0.632066018906811
3.9000000000000004,-0.018353423728295758,-0.17405030613299466,-0.1461907370045246,0.009671175835581499,-0.007176544788073407,-0.209387562839242,-0.03935107793232639,0.12108390528359048,0.9918614903273048,-1.8311199307398325,-2.03433832133871,4.155445114877579,0.8348914819904785,1.3455266775269827,-1.1390364468553573,1.0,0.4804277303970099,0.48219029784562256,0.3246551236453162,-0.6507430355296681,0.15054524271263248,-0.39291918562909145,0.6320475814136142
4.0,0.010771161743811972,-0.025002797137942512,-0.18518379185282918,0.00840340960036822,-0.007347607932629293,-0.21009362590959882,-0.03965826076466099,0.12196403825042347,0.9917418982385051,-1.8295767570226915,-2.035168736275992,4.155206468173814,0.8342205811683507,1.3457903861999512,-1.1390398112040494,1.0,0.48077805411554075,0.4825047042984358,0.3248283986811646,-0.650675209137425,0.1505636136887998,-0.39293091692803045,0.6321057387566064
4.1000000000000005,0.044847079682228286,-0.01970435224944056,-0.06243469975585131,0.009483306387232878,-0.013036854205689676,-0.21019252655421433,-0.03969161966181583,0.12214213305357584,0.9917186298866916,-1.8281781875110064,-2.0361683507716126,4.155001757286235,0.8335077261009323,1.3460116641849167,-1.1389784991543175,1.0,0.4812640715955686,0.4829858234419801,0.3249639878338521,-0.6506117180587984,0.15056247800346975,-0.3929508401469568,0.63215897507655
4.2,0.03227507064808331,0.11034469884676253,-0.4118134252218909,0.006050858208317156,-0.013512371799300753,-0.20426064374245886,-0.03972917817065349,0.12232511555697465,0.9916945860165106,-1.8265885585938797,-2.0370503123612282,4.154718939868255,0.8327238122609095,1.3462462425231934,-1.1389992512409304,1.0,0.481567808135139,0.4833270011827961,0.3248584449609469,-0.6507148197590403,0.15054206727786235,-0.3929085083146223,0.6320840240186785
4.3,0.19448642862029467,-0.3012688667852311,-0.19474052535117942,-0.0004351848597266431,-0.014142712468785786,-0.20781105941298098,-0.039895628977619356,0.12265810881491604,0.9916467403398377,-1.824772100561991,-2.037958065966994,4.154525449568876,0.8319290024558001,1.346451550840229,-1.1389526914101256,1.0,0.4819881770142938,0.48373033734599413,0.32484890086068496,-0.6507605902158041,0.15056574006252701,-0.392908493243084,0.6320312714406235
4.4,0.018082586326964457,-0.2168685021021622,-0.0917384022511814,0.0014626576818502837,-0.013689023930818939,-0.20574033517795928,-0.03962552599848712,0.12179443424532024,0.9917634897140547,-1.8233715085546924,-2.0386814377968454,4.154292962117915,0.8312216567752436,1.3466779022954356,-1.138928238545553,1.0,0.4822459204534449,0.48397943114755626,0.3249263764274691,-0.6507223526660024,0.15057387774605865,-0.39292513438610427,0.632058356363556
4.5,-0.04576183819919477,0.041938143963123425,-0.1166102628587966,0.00787190762172637,-0.009318597897819463,-0.2136139845521681,-0.03947926273614588,0.12138889911331667,0.9918192617988562,-1.8219327926635742,-2.039456438902222,4.154031728895489,0.83060453091618,1.3469140724265458,-1.1389129118900152,1.0,0.48255264011112403,0.4842878803012093,0.3250293009428776,-0.6506967531868687,0.15056202789623485,-0.39293290137910053,0.6320827051594142
4.6000000000000005,0.1108090238930431,-0.08557652964234061,-0.010531944942316837,0.004422229278850333,-0.005630355634170045,-0.21840434405143505,-0.03983432181671502,0.122471107547862,0.9916723517312339,-1.8201401931673906,-2.040273221614712,4.153782521815629,0.8297780500458319,1.3471217155456543,-1.138856989917734,1.0,0.48301381759068773,0.4847562387076062,0.32505489319385744,-0.6507380374564898,0.15055061764316552,-0.3929235545942518,0.6320487310164902
4.7,0.27843652621690534,0.052111007112726176,-0.1703987836424873,0.009877034928018991,-0.017624930051939516,-0.21194027827364795,-0.03939528845523305,0.1211981302457243,0.991845799179948,-1.8185448853095316,-2.04121918126942,4.153579062065795,0.8290240214137796,1.3473608088203632,-1.1388661685947268,1.0,0.4832351476628561,0.484993329247089,0.32518193071173473,-0.6506654711559114,0.15055895934648086,-0.3929477884483934,0.6321063834193398
4.800000000000001,-0.07683745780757234,-0.19399057292528937,-0.30682921954789366,-0.0020581113950635978,-0.01036468212062214,-0.20522458441579525,-0.03905810083552042,0.12020775717420144,0.9919799807500486,-1.817167054018439,-2.0421076402375666,4.153394450345575,0.8282560388240932,1.34756444851452,-1.1388095872239008,1.0,0.48372398289487256,0.4855013197792199,0.3252762472796451,-0.6506558377278134,0.15054512009271465,-0.3929371580755369,0.6321262037366496
4.9,-0.1623170256855151,-0.1831544577000229,-0.12051708795241356,0.00795557354361737,-0.007852500658143701,-0.20870309854238311,-0.038825670099730494,0.11950806624675517,0.9920737740720339,-1.8155618590734022,-2.042962083015205,4.153180727288021,0.8275669169439223,1.3477591613584736,-1.1387984082979197,1.0,0.48396333317769913,0.48574933710972745,0.32520323461982764,-0.6507345918173786,0.15056175482216885,-0.39291677657474305,0.6320538392283148
5.0,0.167228200933475,-0.44740914192486286,-0.39137125962268166,-0.00145804641997661,-0.011703651795508944,-0.20925464489816661,-0.03881549358096449,0.11949413852485022,0.9920758581375069,-1.813875199374753,-2.0438052093000834,4.152981459904984,0.8268955942049042,1.3480215072631836,-1.1387541406313824,1.0,0.4842737793872385,0.4860703601285602,0.32520590478257144,-0.6507658496302066,0.15056056806775217,-0.39290800816454774,0.6320273897691133
5.1000000000000005,-0.06374070967452546,0.017228657017556548,-0.16386256688225978,0.0030266295454122356,-0.007575658532437504,-0.20903069876750419,-0.038764736655985725,0.11937142977477275,0.9920925955203227,-1.8123058793084996,-2.044619571685401,4.152722270803397,0.8261179806142799,1.3482375144958496,-1.1387630783863956,1.0,0.48477755654363874,0.4865912100301536,0.3253456775929977,-0.6507006715958344,0.15055602641665225,-0.39292139214105226,0.6320872554420754
5.2,0.29884271018119246,-0.2160009833047551,-0.2592470235069919,0.0011514889795191043,-0.014225561615721647,-0.20876217528621985,-0.038663129810583514,0.1191103705577092,0.9921279542529077,-1.8108267810902696,-2.045434863799688,4.152529960713488,0.8253000188609073,1.3484922591676103,-1.1387236754046839,1.0,0.48499365722793886,0.4867842125370974,0.3254039936585357,-0.6506946672099457,0.15054931478413788,-0.39292441400505174,0.632093156711375
5.300000000000001,0.25277964662973457,0.02495211835466188,-0.10273203189257404,0.006655764164388889,-0.01704151924419464,-0.20353134460291492,-0.03906891341715497,0.1204082241774032,0.9919553355109291,-1.809187889099121,-2.04623022687016,4.152280330657959,0.82459075474597,1.3487048149108887,-1.1387105390518522,1.0,0.48550733330174256,0.4873480881833383,0.3254680976152874,-0.6507299556945785,0.15054499537223684,-0.3928962798302459,0.6320753455290424
5.4,0.08577509056913453,-0.20078201730099093,-0.14080617392599262,0.001495661935443505,-0.00995216387278822,-0.20860559003311568,-0.03932774808068982,0.12111029826114862,0.9918596653922491,-1.807581901550293,-2.0471415216808966,4.152027850231588,0.8238837441261821,1.3489586938471743,-1.1386640707599085,1.0,0.485792017289939,0.48760380969558365,0.32552819211655576,-0.6507193900053507,0.15054793344658715,-0.3929094830836744,0.6320773159265771
5.5,0.030540536296732396,-0.13048412751945368,-0.17641410827353296,0.0015119337976268919,-0.007833435117993202,-0.20851753558540978,-0.039367971963773285,0.12124250530043638,0.9918419288763997,-1.8060409607251822,-2.048029035981323,4.151800632476807,0.8231696831992033,1.3492306678612858,-1.1386496672100614,1.0,0.48606519939941734,0.4878641402852807,0.32554544876090513,-0.6507214182643528,0.15055835306007015,-0.39289951751249963,0.6320789406983226
5.6000000000000005,0.1765866981536526,-0.2211289536038062,-0.19970498105609802,0.0029845634291912806,-0.01244645492582285,-0.21227047543934469,-0.039266507036010985,0.12094895289109138,0.9918816217527215,-1.8043881852572632,-2.0488211742189733,4.151581852064438,0.8223833536497575,1.3494418618098833,-1.138593630857126,1.0,0.4863295197108699,0.4881447283946246,0.32558402427947264,-0.6507176906977185,0.15054332034232115,-0.39290525314900354,0.6320827934386881
5.7,0.1191837030888908,-0.17547463343157066,-0.05646828280848029,0.004020977925022514,-0.009944733821289041,-0.20913294753932957,-0.03899830130890391,0.12014704000101817,0.9919897901211802,-1.8028656049497476,-2.049636503259176,4.151310236051721,0.8216452189282859,1.3496292655642994,-1.1385912512710485,1.0,0.4867297804106227,0.48852924301030526,0.3256559002172512,-0.6507072416580864,0.1505491993728336,-0.3929105079270005,0.6320888837675207
5.800000000000001,-0.06563657074101062,-0.0010099884344152155,-0.1750823045949709,0.0053538107851614745,-0.006262860921571945,-0.21275961722422676,-0.039028375085530476,0.12021404591876914,0.9919805225793618,-1.8012824017630205,-2.0505107165183145,4.151116987423049,0.8208230097254567,1.3499041997948749,-1.1385558287249964,1.0,0.4872786506628204,0.48908576025317896,0.3257121823803198,-0.6507302327760981,0.15055692327099665,-0.39289977332728065,0.6320700476416424
5.9,-0.052759446168373574,-0.026818560545106493,-0.11484059797930013,0.005106604031658015,-0.006931550904301662,-0.2126474915178718,-0.03903908089010303,0.12024371433462724,0.9919765055712954,-1.7995224634059916,-2.051422211595022,4.1508888730086975,0.8201705652424316,1.3501186287439493,-1.1385672259951685,1.0,0.4874553227205111,0.48924645304186165,0.32571911197487835,-0.6507616855168884,0.15054927014710964,-0.3929039710554672,0.6320368782359426
6.0,-0.2990224773786087,0.10733949390329331,-0.3160871136411286,0.012953105768619327,-0.005508542717831818,-0.20827054631353864,-0.03898839764483913,0.12012159685741673,0.9919932922533844,-1.798026683436436,-2.052334285558131,4.150651292583379,0.8194034559542583,1.3503225052914842,-1.1384846506184387,1.0,0.4879131047710436,0.48974443796454,0.32589162339410305,-0.6506513187409464,0.15054522143152574,-0.3929180258116614,0.6321427233758738
6.1000000000000005,0.18336103435240328,-0.21904498037684075,-0.08666194255168493,0.0007038430535454163,-0.010662017255757524,-0.20870993590906228,-0.03897464996895446,0.12007934060744897,0.9919989542871137,-1.7966108322143555,-2.0530764405635518,4.15044641494751,0.8186101489670816,1.3505406379699707,-1.1385302505670643,1.0,0.4882415508215664,0.49005281449987553,0.3258556980693562,-0.6507152699230153,0.15054729543330028,-0.39291175814962015,0.6320802952430258
6.2,0.14845622318131552,-0.38207416691355905,-0.2875608418664435,-0.003723364021197271,-0.011133164624661934,-0.20980635177294507,-0.039015168834557044,0.12015441820867744,0.9919882717456304,-1.7948246036893267,-2.0538807317228085,4.150240551090811,0.8178317594924683,1.350779598284053,-1.1384378517838527,1.0,0.4885657343602053,0.4903776528263941,0.3258852451460365,-0.650760789823646,0.1505520135620492,-0.392900942491294,0.6320390296729862
6.300000000000001,0.1394663048275097,-0.18627360203232446,-0.20067278376635786,0.0017377612252002803,-0.011285183602666232,-0.2081362946333489,-0.03907499182534618,0.12025669283328456,0.9919735198159948,-1.79315091372008,-2.0546929094682365,4.149965763092041,0.8171024152515904,1.3509497392682346,-1.138399902974264,1.0,0.4887371145349662,0.49054592270380926,0.32592359749693045,-0.6507553318669297,0.15055566990964814,-0.3929033197195091,0.6320423005291727
6.4,-0.007166962422628542,-0.001227383872126231,-0.13248765454695582,0.007669409954256969,-0.007909563512923726,-0.20601311985161033,-0.03917312978472934,0.12048160184394627,0.991942335318031,-1.7918118587941765,-2.0555689886536412,4.149751508898748,0.8164263556161979,1.3511650912532562,-1.1384348663960728,1.0,0.4893446299281742,0.49112822595437566,0.3261654324857257,-0.6506252668506523,0.15057764037157664,-0.392954757299933,0.63213898398295
6.5,-0.08543405084890128,-0.2160329951502602,-0.12678652194691784,0.00854349596353555,-0.007352569616428908,-0.20940427907834225,-0.03933237970940427,0.12092536860398836,0.9918820147586492,-1.790205503987,-2.0565360041018192,4.149519708187062,0.8156439948763533,1.3513619150735636,-1.1383879820453089,1.0,0.4896743371702542,0.4914588696657788,0.32608196912540416,-0.6507233611523299,0.15057464940792226,-0.3929215256024564,0.6320593776889429
6.6000000000000005,0.10115113733387773,0.0006639733923385072,-0.1367513434450077,0.0041187021699469655,-0.015647420426168734,-0.21469072888688842,-0.039481225540708646,0.12136585946849876,0.9918223185030325,-1.788395958208656,-2.0574877019007807,4.149288619497548,0.8149091440388183,1.3515820868773647,-1.138369971894932,1.0,0.4899014600869844,0.49168327929435995,0.32606181921427296,-0.6507525795138581,0.15057326066030008,-0.39291363942412116,0.632034528633268
6.7,-0.07419968799561502,0.1866627549928974,-0.15828870520241883,0.011331601321647775,-0.010225896373675204,-0.21264601876824307,-0.039368819812423766,0.12104183695173037,0.9918663330763371,-1.7868640116179848,-2.058253228894647,4.149093261102583,0.8140540677849354,1.3518255459346413,-1.1383539584303897,1.0,0.490241638894094,0.4920498995854205,0.3261091906506855,-0.650753776869357,0.15057733870778997,-0.3929076341196742,0.632036057522375
6.800000000000001,-0.051940732183406876,0.1491244917555497,-0.15826060869352776,0.005581469686503809,-0.012980811334933947,-0.20307277307563484,-0.03928083213347787,0.12076625146527027,0.9919034819087412,-1.7854615908131026,-2.058984854007301,4.148850915894226,0.8133747655406154,1.3520259022408787,-1.1383269051506115,1.0,0.4907087617662407,0.4925167200453077,0.32618444324048435,-0.6507552782157063,0.1505679566647199,-0.39291590209483535,0.6320316069479527
6.9,-0.019717845560446645,-0.17514805327478924,-0.16565707428619492,0.0025916645876730257,-0.008009585079920955,-0.21082680448443156,-0.03935614406761525,0.12091977669279322,0.9918817944623555,-1.7836621436640532,-2.059702151026185,4.148672580718994,0.812603159541748,1.3522276927077292,-1.138275064707684,1.0,0.49107493487196513,0.49284804820880135,0.32625270384160104,-0.6507781410132008,0.15057900214120873,-0.39291904610971273,0.6320034798146241
7.0,0.12911105913186643,-0.33418459805120393,-0.16013007295051257,0.0012844562731602225,-0.01231619668050607,-0.2086975771112178,-0.039279729178945934,0.12074922903824324,0.991905582651102,-1.7820326307991845,-2.060455873000056,4.148500420263888,0.8117370553551586,1.3524735085112447,-1.1382446219679823,1.0,0.4913041954120859,0.4930943871701697,0.3264274340351025,-0.650676086312284,0.150579217762136,-0.3929423019562107,0.6320940414311992
7.1000000000000005,0.047502827265076236,-0.09864876954000418,-0.13106391117445837,-0.0018494525944521088,-0.0075487701017248575,-0.21049884855971207,-0.0393031047831961,0.12090343435043313,0.9918857560924288,-1.781370512541107,-2.060875555078024,4.148420810699463,0.8113401313665827,1.3525864135014294,-1.1382534350038103,1.0,0.49162834853897885,0.49346571896052194,0.3265706409569232,-0.6506535058120407,0.1505505319612774,-0.3929457198157105,0.6321219929564151
7.2,-0.011679423487127694,-0.10364449281700777,-0.3522889627523229,0.0076632034697329265,-0.008108611288361555,-0.20694597557002042,-0.03956777598986436,0.12175523843595842,0.9917711468443471,-1.7813844680786133,-2.060922940635816,4.1483842228441175,0.8113510034181847,1.3525551463575423,-1.1382866536099747,1.0,0.4918844217863992,0.4937453123486674,0.3265663873952258,-0.650716787916366,0.15055733750429662,-0.39291883467778294,0.6320719416355054
7.300000000000001,-0.07889469691044901,-0.11176857129092144,-0.11279531803998763,0.0003812043622508152,-0.011420805970168663,-0.2084291567571247,-0.03967282444864723,0.12209162864936772,0.9917256001576472,-1.7813579564464965,-2.061001080854048,4.148402216191457,0.8113321029267211,1.3525441164599976,-1.1382541105484343,1.0,0.4919028185762428,0.493761565266932,0.32653758372151176,-0.650727954184368,0.15055019397760638,-0.3929089885828054,0.6320682680115886
7.4,0.007381070692312655,-0.32252913850583426,-0.211351954465661,9.173575687471195e-05,-0.011354875503969243,-0.2049824112865984,-0.03927831948875159,0.12093911187768398,0.9918817195519324,-1.7813119888305664,-2.060998266855144,4.148374452366534,0.8113351444095027,1.3525649168351261,-1.138214160608905,1.0,0.49190765642550227,0.4937869784207881,0.326479548421844,-0.6507634515281973,0.15055373435709124,-0.3928946839654145,0.6320397697439294
7.5,-0.08111030247654191,-0.08918305602263885,-0.32319257967245363,0.008384948936642734,-0.0102680112004617,-0.204541193163886,-0.03891821466188622,0.11987047666232968,0.9920264126875894,-1.7812564988880206,-2.06101003230313,4.148385524749756,0.811344972259937,1.3525662422180176,-1.1382534569535572,1.0,0.4919092049904681,0.49378650914845573,0.3265272768285985,-0.6507173963039358,0.1505539984713877,-0.39291285660968117,0.632075826782297
7.6000000000000005,0.14304334119596432,0.0880921520963901,-0.34345603113898676,0.007777412367135539,-0.01780549407114267,-0.202092191500251,-0.03903945089822754,0.12018411101791548,0.9919837012138921,-1.7813026015863649,-2.0610387081356105,4.148368817197439,0.811353733191853,1.3525662422180176,-1.1382387137630114,1.0,0.49191127606649393,0.49378208641721133,0.3265559310506782,-0.6506911687014827,0.15056206769569302,-0.39292213480259885,0.6320951374020092
7.7,0.12491317113306485,-0.16751414143683058,-0.39625893614720575,0.003069935884867949,-0.017473743930659133,-0.21178396611312827,-0.03906690045171208,0.12026755941586056,0.9919725255286304,-1.7813093952177592,-2.061019559899801,4.148395112768662,0.8113700586506347,1.3525736878234036,-1.1382453280635352,1.0,0.49191789389815577,0.4937835665800608,0.326509815458151,-0.6507253979971666,0.1505622304145879,-0.3929125275717634,0.6320658326876893
7.800000000000001,0.054582047273207875,-0.03851731855876695,-0.36291180020718705,0.007534167394134815,-0.012730839099909966,-0.2081339560474613,-0.03906193598627597,0.12027145225475436,0.9919722490628728,-1.78129491635188,-2.060984500421416,4.148386704895394,0.8113574344131997,1.3525334522504748,-1.1382439772235315,1.0,0.49191507273991614,0.4937916335002045,0.32652356702636187,-0.6507225395002051,0.15055333502461976,-0.39291040650081066,0.632072212933567
7.9,-0.20680708207364226,-0.23153919135247186,-0.34779477613187587,0.004337706207749664,-0.007460201090352358,-0.20836769424754806,-0.038938893433513456,0.1198954718155828,0.992022514161591,-1.7813085563801376,-2.061032609924292,4.14839449006544,0.8113234588665288,1.352575428118743,-1.1382428029641742,1.0,0.4919284251239743,0.49378980560255864,0.326504929682409,-0.6507245428802393,0.15056475610615705,-0.39291014100034155,0.6320675949699439
8.0,0.12700315554059755,-0.4196403830293166,-0.2874950749854199,-0.0010372278500350284,-0.016553489791297553,-0.1999839528860689,-0.038841895148479216,0.1195934252990008,0.9920628149055624,-1.7812745903286138,-2.0610409874286924,4.148385524749756,0.8113149023998998,1.3525538444519043,-1.1382463915525505,1.3760570315343281,0.4919195837556443,0.49378477767980555,0.3265351582719372,-0.650712110063634,0.15055877801132497,-0.39291996913224875,0.6320757091024637
8.1,0.19179934054906403,-0.10484802101131621,-0.349281051180268,0.004718849669627966,-0.017373458892599267,-0.20471397135264605,-0.038989024495367314,0.12004212788583471,0.9920027811756355,-1.78125654779773,-2.0610100644805702,4.148343096664513,0.8113462167927246,1.3525662422180176,-1.1382546853976245,2.0,0.4919127730775112,0.4937906162291177,0.32650042054539763,-0.6507398038010316,0.15055440888200572,-0.3929086869030928,0.6320552519133691
8.200000000000001,0.020911322699472785,-0.01281256246400569,-0.2595450606293013,0.007385793252373877,-0.012177545429449424,-0.20340101387647105,-0.03914878485134161,0.12051992700864991,0.9919385958393558,-1.7812655329470999,-2.061008917962881,4.148366798859986,0.8113113073204177,1.3525636842339472,-1.1382490931916722,2.0,0.4919135216401973,0.49378953729887526,0.32652079513086535,-0.6507232194619261,0.15055342841754235,-0.39291620607642613,0.6320678854738132
8.3,0.017730220204800567,-0.12192972956558429,-0.1609478028244477,0.0024602213873712,-0.012469572313944403,-0.20210093446229246,-0.03936429551955517,0.12112615141838945,0.9918560862861527,-1.781306017394104,-2.061044605676353,4.148381864837085,0.8113627388252936,1.3525526886900083,-1.1382439772235315,2.0,0.4919218637587959,0.4937826662784305,0.3265429681679775,-0.6507063218251216,0.15054645842271092,-0.39293923529893904,0.6320726255390952
8.4,0.13823381950063435,0.2947716104575193,-0.14812221087057564,-0.0010218856432250784,-0.012940654467611631,-0.20509218231020324,-0.03949961731930271,0.12151374824178547,0.9918034449847045,-1.7812968367627495,-2.061021999357709,4.148373126983643,0.8113437773348167,1.3525514049939964,-1.1382464166814394,2.0,0.4919214679227814,0.49377620122425614,0.3265363120242006,-0.6507141486590783,0.15054728664443334,-0.39292986723207035,0.632070194405556
8.5,-0.21641143762331713,-0.10885033774181752,-0.10309864738194352,0.006689090767702614,-0.01391912176786303,-0.2081066765746704,-0.03925410003034556,0.12086302226126205,0.9918926562620144,-1.781275749206543,-2.0610002214728222,4.1483839635603665,0.8113400921266578,1.3525468437452932,-1.1382346417904516,2.0,0.49192681003191935,0.493782275561124,0.32650666686296537,-0.6507381014202932,0.15055187792216512,-0.392910386006282,0.6320565512534587
8.6,-0.38526384766941046,-0.1906018445198086,-0.2707866509375979,0.008071973550299021,-0.006600378598279526,-0.2018416658408353,-0.03924584879645877,0.12080749362747163,0.9918998107137629,-1.781275749206543,-2.0610495529628103,4.1483651908839505,0.8113562143537137,1.3525447082496498,-1.1382451311683028,2.0,0.4919131315212468,0.49378358260248983,0.326528167145841,-0.6507169534263748,0.1505432582539122,-0.39291860459159034,0.6320752677360431
8.700000000000001,0.17166363861452472,-0.16595976376619426,-0.451762267795667,0.0017403704188747367,-0.020502239745093756,-0.2015638136430222,-0.039367227306506415,0.12107714964609423,0.9918621336143548,-1.7812464700501824,-2.061017033340286,4.148374440794591,0.8113312924670962,1.352531316404942,-1.138223925204894,2.0,0.49193612908475587,0.4937683055679428,0.32653923814923863,-0.6506982010418891,0.15056829958723011,-0.39293493821010395,0.6320784545086797
8.8,0.2966551858097881,-0.07324191328123932,-0.3004419233730409,-0.0011106579349832143,-0.021085870080627237,-0.19730178887838234,-0.03944626781042055,0.12132024382539063,0.9918292994582175,-1.7812874335220754,-2.061044890262084,4.148400316501081,0.8113323900624135,1.352585559022635,-1.1382469542322768,2.0,0.49193191616168375,0.4937788695109089,0.326522139272658,-0.6507194395165895,0.15055786283537007,-0.3929262626204274,0.6320644691143497
8.9,0.05910332832546683,-0.16926407006526883,-0.29012896517454184,-0.0032601163737616214,-0.014473238550544977,-0.19789335246281256,-0.03951788424966658,0.1215932403569565,0.9917929993735086,-1.7812863824631924,-2.0610208667189265,4.148384165657865,0.8113532827368073,1.352573818125204,-1.1382452840426567,2.0,0.49191844827287823,0.493792597869098,0.32651433614165415,-0.6507242120546527,0.15054880629504447,-0.3929167968696993,0.6320675972604864
9.0,-0.010449977294280988,-0.0379992778579433,-0.24953338675409992,-0.0020290993200671936,-0.014730095237688682,-0.19450308110520093,-0.039706457073081236,0.1221813019205416,0.991713143696275,-1.7812905598585809,-2.0609987580660745,4.148373126983643,0.811343176768541,1.3525508044277206,-1.138275596010796,2.0,0.49189772236130147,0.4938072627388779,0.3265184919231783,-0.6507265628750682,0.15053973094590337,-0.39290380015340454,0.632075417652473
9.1,-0.1022779707892833,-0.1790941854630379,-0.20630798993242888,-0.0028863107025042627,-0.008284766049028992,-0.19446359229607152,-0.0396138653071283,0.12193101347328185,0.99174743972871,-1.7812743500581252,-2.061031480828756,4.148355231506509,0.8113477325368439,1.352561811581361,-1.1382215345140392,2.0,0.4919114496015824,0.4937955899345271,0.3265475474171431,-0.6506994476633671,0.15055790212715991,-0.392915188115697,0.6320919251704331
9.200000000000001,0.1059122282836952,0.08859698357963444,-0.43421122903294046,-0.013994878507285011,-0.018708840585733147,-0.19944212878784048,-0.03934630271681381,0.12115901355150471,0.9918527732228255,-1.7812848131172359,-2.0610419913860873,4.148381237220019,0.811364417164139,1.3525538444519043,-1.1382453875951555,2.0,0.49190954693815453,0.49381160736866786,0.3265184251431527,-0.6507257823884661,0.15054231491680625,-0.3929066512753214,0.6320738334546216
9.3,-0.13854716514812038,0.44799600707237625,-0.5494875757355562,-0.036305642983532393,-0.031358315408463414,-0.20052292202813923,-0.03914324304583422,0.12055304290438817,0.9919347026649435,-1.7812773331714122,-2.061019559899801,4.148397922515869,0.811318075601598,1.352576328625641,-1.1382315794574183,2.0,0.49191653551894166,0.49378773128054976,0.32653671113730875,-0.6507111068525281,0.15056033226350235,-0.3929095258505367,0.6320828634470074
9.4,0.016012888923962743,0.16371305924962354,-0.7706665582247172,-0.06124493954803535,-0.03629661358031669,-0.1977991232912314,-0.0389830786476302,0.12005748386497452,0.9920010681108143,-1.7812621772672474,-2.0610165050020908,4.148388879164,0.811343911624601,1.3525538444519043,-1.1382536816446756,2.0,0.491926588478875,0.4937831651634155,0.326520076951798,-0.6507297288020925,0.15056234076076885,-0.39291727307561664,0.6320583977106977
9.5,0.3143040797287968,0.6616060046873214,-0.8710758721292228,-0.06733930301263173,-0.04004618187668474,-0.19287476467622577,-0.038874143774232414,0.11970972385004473,0.9920474760986014,-1.781275749206543,-2.061014171852505,4.148402833726007,0.8113288540365504,1.3525555430011356,-1.1382422786743003,2.0,0.4919132218760118,0.49378814235154067,0.3265380067338426,-0.6507083832717842,0.1505554788831179,-0.3929190550201153,0.6320808998223215
9.600000000000001,0.14590165722285026,1.0437799409716402,-0.7552674678489858,-0.08882154035053375,-0.030317884663892316,-0.1945900598082604,-0.039276663537687925,0.12083752888633437,0.991894636982003,-1.7812971053396016,-2.0610487084574975,4.148363270306846,0.8113305119120269,1.3525727917802295,-1.1382439772235315,2.0,0.49191994887373347,0.4937828328815788,0.3265270553970895,-0.6507139166529574,0.1505621118305819,-0.3929226929103273,0.6320713619136532
9.700000000000001,0.10565672926803293,1.5833794173281046,-0.3408847085584085,-0.11841233899413761,-0.02567562073145645,-0.19815832262166436,-0.03939822751612884,0.12121337454636204,0.9918442816729497,-1.7812846912192155,-2.0610224608391152,4.148385524749756,0.8113193579579279,1.3525394994207935,-1.1382742989313546,2.0,0.491922283118409,0.4937886456205569,0.326511204259604,-0.6507290258318077,0.150545683581248,-0.39293086361754653,0.6320546404479682
9.8,0.3140865321522386,1.8732174764410157,-0.136450745642516,-0.16310261982860375,-0.02775721993925023,-0.19869626193748008,-0.039349735976832,0.12113946031961935,0.9918551671398476,-1.781262850577813,-2.0610477469734727,4.148373126983643,0.8113192234381258,1.3525538444519043,-1.138296422386566,2.0,0.4919206037173004,0.49379699056158516,0.3264946852414553,-0.6507368612600525,0.15054173419726508,-0.3929142073820412,0.6320578686320082
9.9,0.23533788405101852,2.1135912567744373,-0.04070643218940816,-0.19291717280505055,-0.019059082886769593,-0.19623437484717954,-0.03975321248679705,0.12235210541735354,0.9916899006427536,-1.781277439753371,-2.061034499662378,4.148371677943504,0.8112999821170426,1.3525508256182828,-1.1382346586677123,2.0,0.49190722158732647,0.49379639259123326,0.32650186483619,-0.6507446038994372,0.15054072872259638,-0.39289335571729816,0.6320630985310205
10.0,0.46262192993343776,2.4989732932367232,0.3991343844178148,-0.20816188646161404,-0.02198815098694645,-0.19582073871415354,-0.03974345197943944,0.12220002381812183,0.9917092218148129,-1.7812575165711866,-2.0610434017577113,4.148397922515869,0.8112991720901427,1.3525554371394592,-1.13827862416,2.0,0.49192248510774095,0.4937838362487321,0.3265240211775528,-0.6507100323356145,0.15056927852501595,-0.3929200883523961,0.6320752726941508
10.100000000000001,0.3583663437383642,2.7615017644399953,0.8493800420270969,-0.22839330622820228,-0.006526591961278002,-0.19978489631565796,-0.0397470718028614,0.12212519282545417,0.9917181298904392,-1.781286573632928,-2.061034297583966,4.148349285125732,0.8113099771687011,1.3525536673809473,-1.1382314023864613,2.0,0.49192986609702916,0.4937749525621904,0.3265027716585697,-0.6507341207034469,0.15056641780155805,-0.39292431442563713,0.6320485275007464
10.200000000000001,0.4942567089244353,2.8909806468593557,1.1583795596467354,-0.25462321403975385,-0.0009007040540524418,-0.19831255657935293,-0.04004398011900373,0.12304720576945974,0.9915922390535131,-1.781285467981097,-2.0610370078270837,4.148385524749756,0.8113099771687011,1.3525313463634525,-1.1382406523796051,2.0,0.49192332202986844,0.4937796687868544,0.3265010992498947,-0.650738779189139,0.15055995190168275,-0.39291871273230333,0.6320487539166433
10.3,0.6900552008960218,3.155785099303605,1.5364330185713848,-0.27130983043178414,0.0072468666180122215,-0.2032452180127815,-0.040093984100257614,0.1232491859075567,0.99156542385427,-1.7812970573939522,-2.061029804220671,4.14837661432846,0.8112894885269616,1.352564498545609,-1.1382456538316168,2.0,0.4919215751034727,0.49378864358446667,0.32651756166325363,-0.6507274541129617,0.15055928516669598,-0.39291926158244267,0.6320602313002018
10.4,0.6889433531245179,3.117612820027905,1.7018656877642233,-0.29033621512354635,0.019938101775007447,-0.19825976517601868,-0.03992169986186952,0.12280208058287939,0.9916279037137481,-1.78125982012946,-2.0610300681506324,4.148374936351336,0.8113028683235362,1.352545879913363,-1.1382439772235315,2.0,0.49192193287894903,0.49380216953690736,0.3264909097457713,-0.6507490071430337,0.15055260827454142,-0.39290493005558536,0.6320485406850525
10.5,0.8410684639486948,3.144324772430022,1.7286131511474296,-0.29939977610595725,0.02279205038512036,-0.20083845941124023,-0.03976688653230079,0.12235585866045398,0.9916891696141774,-1.781304014050659,-2.061028265191697,4.148399466021657,0.8113445446614537,1.352555516583175,-1.1382991709371348,2.0,0.49192268105737585,0.4937990634902359,0.3264802110574185,-0.6507546686566972,0.15055789971330794,-0.3928934514598527,0.6320485866255808
10.600000000000001,1.00197979049484,3.2967846202144915,2.0420228598208388,-0.3083329798084716,0.02405730743373523,-0.20087944421177814,-0.03961231871884722,0.12191018463409595,0.9917503567859864,-1.7812528610229492,-2.0610329748610337,4.1483329731905005,0.8113416749346011,1.3525702759097182,-1.1382771690217088,2.0,0.49192045297927944,0.49379441633079035,0.3264844240849912,-0.6507529077419305,0.1505468058082659,-0.3929060329221789,0.6320452211825561
10.700000000000001,1.0326176365846242,3.261748555447162,2.016942076704792,-0.31037685212872357,0.025818984012642425,-0.2028470409269046,-0.03950817303461843,0.12157703310465476,0.9917953753056584,-1.7813258728091805,-2.0610418518211184,4.148360070957789,0.8113509285999663,1.3525438882992364,-1.1382558981524866,2.0,0.49192223842296795,0.49378498129211734,0.32648979547575796,-0.6507437578220656,0.15055591197577517,-0.3929053074378492,0.6320529237428849
10.8,0.7541332590775449,3.649160652416098,2.123786643784246,-0.30634538757650276,0.03567274944915172,-0.20259928456544277,-0.03940301067445783,0.1212577300444,0.9918386523705484,-1.7812719535534303,-2.061035434634082,4.14840746878111,0.8113263287401401,1.3525300025939941,-1.1382960720187072,2.0,0.49192325614679977,0.4937901940506375,0.3264977662112035,-0.6507326874648175,0.150564196055576,-0.3929071789883318,0.6320611845623694
10.9,0.9459411461815384,3.0012411351247907,2.0359627901112494,-0.3259334199531756,0.03351130803753312,-0.19763646021108455,-0.03929681265293013,0.12095253406003952,0.9918801554606803,-1.7812740129173448,-2.061061817711877,4.148376888943572,0.8113425995235617,1.3525538444519043,-1.1382765272330089,2.0,0.49192784417424157,0.49379202285216184,0.32650630342728315,-0.6507380427637521,0.15055477555097452,-0.3929099069127979,0.6320562192626327
11.0,1.118255899466688,3.4119494403643817,2.173998056170915,-0.32087464953022465,0.03471571535642152,-0.2000584941277425,-0.03947969540881211,0.12148591100482473,0.9918076190011997,-1.7812824048021942,-2.061021159802602,4.148361682891846,0.8113338190266113,1.3525439362667961,-1.1382265349768246,2.0,0.491915841788999,0.4937943272293973,0.32649249256588714,-0.6507469069101857,0.1505476403218758,-0.39290749051079593,0.632050294708301
11.100000000000001,1.1876489531250785,3.2982941630469935,2.063528660774684,-0.32050756846622414,0.036435823347048625,-0.2009881350020385,-0.0394623870840894,0.1214242235661956,0.9918157306481701,-1.7812739109046518,-2.0610553226866664,4.148385524749756,0.8113423869971179,1.3525319940877096,-1.138280216847555,2.0,0.49191980963077464,0.49378495651126697,0.32649177298034154,-0.6507404776243413,0.15055576078458063,-0.3929219848271822,0.6320459694636835
11.200000000000001,0.9984497547861128,3.325693183043575,2.1020428007065375,-0.3109800769700471,0.04087665778374308,-0.2062276255145037,-0.03922169349523197,0.12069884918364403,0.9919137967492484,-1.781275749206543,-2.0609999306720352,4.148385524749756,0.8113440262250494,1.352562438217399,-1.138250380421351,2.0,0.49190455040895953,0.49380516237811173,0.32650124765223215,-0.6507371907600351,0.15054295672383658,-0.39288744942862824,0.6320738713347119
11.3,0.8792145494203213,3.35455883299013,2.0513776335595053,-0.30984489365872026,0.043679897072080184,-0.20311231455286438,-0.03910145920030998,0.12033063965115152,0.9919635137565437,-1.7812869219652878,-2.0610115294738547,4.148385524749756,0.8113242423762584,1.352573795806806,-1.1382459224750359,2.0,0.49192644171733585,0.4937776537276528,0.32649868954469974,-0.6507336290050248,0.1505738991548255,-0.3929158329021653,0.6320525241070243
11.4,0.7966375235816536,3.2314407412824577,2.0133952638913835,-0.3071743837215591,0.042089585592409724,-0.2046013867147497,-0.039179075941362246,0.12059182919941092,0.9919286940397422,-1.781264305114746,-2.0610529012908128,4.148385524749756,0.8113363374976424,1.352558881174623,-1.1382439772235315,2.0,0.49191719414794516,0.493783341438169,0.3265266077721466,-0.6507176906189698,0.1505665890191869,-0.3929075760952586,0.6320758071889723
11.5,0.9380054185525739,3.244446036685554,1.9171397120793356,-0.3024118799765821,0.03960102293062611,-0.20073755819266134,-0.03941985267362682,0.12131607758646634,0.9918307383067098,-1.7812917403137893,-2.061018691588348,4.148372293404647,0.8113577115149269,1.3525759496869088,-1.1382775771807383,2.0,0.4919189334692072,0.49379647579262703,0.3265304263211096,-0.650719046701803,0.1505436371138067,-0.39291261667681504,0.6320767447392931
11.600000000000001,0.7811154620758674,2.9357099967440394,2.0337246716345994,-0.30866385690360587,0.041887720825947404,-0.20010466651003575,-0.03954483865081493,0.12161389629621086,0.9917893829690542,-1.781264305114746,-2.0610357340373158,4.148361682891846,0.8113521496818276,1.3525603093289145,-1.1382809428537821,2.0,0.49192378382235563,0.4937745124106338,0.3265216134047342,-0.6507124939466127,0.15056574832334793,-0.39292392981444846,0.6320711914276587
11.700000000000001,0.9697648053228456,3.021008905735214,2.0138762167766773,-0.3085450815482746,0.03966200539013853,-0.20294334592573202,-0.03939370991304945,0.12112076904599066,0.9918557186937508,-1.7812286562190907,-2.0610434017577113,4.148379507339674,0.8113501756151472,1.3525619204496466,-1.1382479360459543,2.0,0.4919298160245242,0.49377539560694234,0.3265149422483028,-0.6507163105960355,0.15058890918137413,-0.39291150079858544,0.6320694709413285
11.8,1.2002188703165193,2.926842037291282,1.837270880274843,-0.3093501471163824,0.03605034265896141,-0.20334148478265945,-0.03925988195199019,0.1207093745847126,0.9919111601348313,-1.781275749206543,-2.061036283636784,4.148360104669542,0.8113753382958206,1.352546726330977,-1.138265695880863,2.0,0.4919355228190266,0.4937767495784147,0.3265278981461024,-0.6507156245764899,0.15057737997327003,-0.39292747506430203,0.6320629936264316
11.9,1.1358521341882248,3.0300436906466848,1.8814401229292093,-0.30648567670951227,0.03494043505873317,-0.20417918333571258,-0.039237668919225366,0.12064858444189575,0.9919194431184188,-1.781273801666276,-2.061029452140978,4.1483636304321125,0.8113161443795471,1.3525716813939908,-1.138263761705885,2.0,0.49193010626954736,0.4937832582452488,0.3265217872794593,-0.6507205125547191,0.1505718989622733,-0.3929234258755423,0.6320617843072351
12.0,1.1282457266645438,3.223398772798545,1.925814255000033,-0.29691845777051845,0.03623680597020164,-0.20422218413987817,-0.039373732240073046,0.12108497128010474,0.9918608527114302,-1.781296671175525,-2.0610478735265807,4.148367344253511,0.8113223749348144,1.3525587930579317,-1.1382315794574183,2.2345065088690257,0.49191569139055813,0.49379011576475645,0.3265464817339283,-0.6506952204239119,0.15055492144389204,-0.3929289448362011,0.6320884353129788
12.100000000000001,0.8002800485480652,3.3091737670697534,2.022865078769029,-0.2960893725114693,0.04084855146385038,-0.20309189574167744,-0.039382218119699115,0.12114961220124237,0.9918526069843686,-1.7812661727019636,-2.0610353716354592,4.148355199151921,0.8113545681198665,1.3525617816975788,-1.1382838793259455,3.0,0.49192222718289835,0.49378676644871355,0.3265185269073702,-0.6507193361827905,0.15056060681856379,-0.392921338529577,0.6320669829380268
12.200000000000001,0.7475516551321948,3.025660380664035,2.6413209074975055,-0.2984807372685158,0.04055366907636705,-0.20625931720520407,-0.039177570209828094,0.12059320589587338,0.9919284682303826,-1.78190702283185,-2.0606247752365414,4.148458957672119,0.8116704295565702,1.3524876958665328,-1.1382539725519876,3.0,0.49191157128162666,0.49377556181742344,0.32652609659251436,-0.6507175881648202,0.15056548980063217,-0.39291048037733184,0.6320743691558058
12.3,0.9873942437160161,2.7110782563727183,2.6477818423039756,-0.27750204541420004,0.04284034403728423,-0.19723846629852412,-0.03917593728782938,0.12055882278562048,0.9919326825601839,-1.783419404197578,-2.05987557633921,4.148651443198697,0.812359018916748,1.3522727154008107,-1.1382479726995882,3.0,0.4918418431509974,0.49369938114584133,0.32652668157656023,-0.6507076352100076,0.15055615182232163,-0.3929107629885911,0.6320866641178067
12.4,1.0038112771566945,2.614325560444082,2.7958965462491654,-0.26394384809337157,0.05778206612956842,-0.19420624113629367,-0.03952386695606669,0.12142328848530293,0.9918135312120308,-1.7851741870904465,-2.059099370094554,4.14890734945894,0.8131123547650354,1.3520799173148685,-1.1382783507134497,3.0,0.4914236491307159,0.4932169795496781,0.3264249917768328,-0.6507232948969953,0.15057688454619217,-0.3929358984130017,0.6320499782905838
12.5,0.9900842598271002,2.875182791369261,2.819703348508089,-0.28592668859999215,0.05786929080506563,-0.16034096479665433,-0.03943150264232672,0.1213016093064698,0.9918321512062623,-1.7867555618286133,-2.058221556405076,4.149135940312258,0.8139050460995977,1.351833743393407,-1.1383974860052068,3.0,0.4912308707128359,0.49302742574178887,0.3262947162706023,-0.6507993262142723,0.15057185047759106,-0.3929130103214554,0.6319871210419835
12.600000000000001,0.8047917730245,2.9012674580713633,2.8507888344094012,-0.30335136683529457,0.05848181743503365,-0.1654051675724695,-0.03916218177894954,0.12062908765550834,0.99192442107411,-1.788177185570991,-2.057267526403422,4.149368083070771,0.814711104286472,1.351583633166653,-1.1384005371036348,3.0,0.49069129547970386,0.4925785789253455,0.3262703745024063,-0.6507606612229191,0.15053284341111065,-0.3929033596924293,0.6320422254894656
12.700000000000001,0.8947307895871213,2.8988479983395643,2.8421431080832673,-0.2900162596152394,0.0626732769939988,-0.16629320576951614,-0.038698780783530416,0.11923797433218974,0.992111007245231,-1.7899979748756492,-2.0562936279218236,4.149595812698126,0.8154698979550229,1.3514009285411934,-1.138420798695611,3.0,0.49047847477490364,0.4923441717088848,0.3263559253544368,-0.650663078131753,0.1505420184044611,-0.3929385419555621,0.632118629449141
12.8,1.0927068235221302,2.8863029274010734,2.8774219091161437,-0.27499209783587386,0.0651276189246096,-0.1676828462378689,-0.03891161998667114,0.11990945703442818,0.9920216299539205,-1.7916662229673466,-2.055430074731344,4.149804712503526,0.8161753631065841,1.3511616020067767,-1.1384122307136453,3.0,0.49016053229768314,0.49201381587425264,0.32632699088036976,-0.6506589830210069,0.15055167569126707,-0.39291907137123555,0.6321326475617175
12.9,1.2188660366407582,2.824248136455493,2.9328887686012046,-0.26615432349871476,0.06700965972175961,-0.15999522735170676,-0.03905249690944136,0.12036342970552025,0.9919613466778373,-1.7930594691932493,-2.0547466493760145,4.150047380332667,0.8168992269219089,1.3509273985329837,-1.1384242216693323,3.0,0.48977424048408497,0.4916400701739545,0.32624097944207714,-0.6506983358069913,0.15054028376203188,-0.3929077052969203,0.6321019173054039
13.0,1.3113298377546165,2.7017094100402512,2.9439325028716032,-0.25718734772652213,0.06718482105356784,-0.13963485378197427,-0.038806286889911716,0.11964065699535399,0.9920584902244659,-1.7946427995160124,-2.053974035563786,4.150285595078756,0.8177718628161701,1.3507108888216381,-1.1384604612933558,3.0,0.4892556203892899,0.4911301328083828,0.3261710666138805,-0.6506566876500013,0.15054340182107737,-0.39291995534604474,0.6321364312198186
13.100000000000001,0.9323798786462982,2.7243582133216404,2.99563018382622,-0.2428365746303658,0.07400192853495681,-0.12565611554418074,-0.03918645019930438,0.1207291654536465,0.9919115466866504,-1.7964580725315473,-2.0530934274975676,4.150470582222254,0.8185161290277898,1.3505297475276576,-1.1384878585736256,3.0,0.48896154014975074,0.4908416320836654,0.32601250246021274,-0.6507335184261414,0.15054063104929807,-0.39290422663707913,0.6320677772919077
13.200000000000001,1.0378147805886617,2.5725921243526573,3.071585571525843,-0.2591107880785023,0.07043008204947573,-0.11810693335690094,-0.03895893168434948,0.11998981913789519,0.992009915503084,-1.7978784069395193,-2.0522241508995966,4.15068132243675,0.819245804762922,1.3502507209777832,-1.1385343966654833,3.0,0.48872244374175744,0.49056805121943103,0.3259605759248909,-0.6507406011965305,0.1505507579259237,-0.3929068690266795,0.632056430640461
13.3,1.2095629201393,2.3553445209984463,3.1205285910396707,-0.2674704810310855,0.06744555940990754,-0.11646605942905199,-0.0388731096581596,0.11964878513555406,0.992054601495387,-1.7994203392635446,-2.0513607753402843,4.1509118517312755,0.8199202546514208,1.3500147521605113,-1.1385129789567967,3.0,0.48828187864705663,0.4901155218525032,0.325908156277389,-0.6507433031522448,0.15056952382983513,-0.3929074831424462,0.632048796839952
13.4,1.0927153974123753,2.6554044118085276,3.1801796851534254,-0.25985905123227626,0.0695348465245327,-0.11483183780330218,-0.039298368020913015,0.12083768635632773,0.9918940927213227,-1.8011423012661705,-2.050438648069862,4.1511516797204955,0.8207045599382117,1.349806308746338,-1.138541855431416,3.0,0.4880823976068807,0.48988972153688226,0.3259219747195419,-0.6507080810772292,0.1505701663466471,-0.3929319649635209,0.6320696869309896
13.5,1.313286939778424,2.3473549065081585,3.1933451298783657,-0.25259963938839425,0.06783856107643285,-0.09079262145203208,-0.03912314286913373,0.1203259412786981,0.9919628994859195,-1.8028059005737305,-2.0496428780393594,4.151349894026087,0.8215301530233738,1.3495518918419824,-1.1386174577347132,3.0,0.48768073115592325,0.48950888374671314,0.3258907855087465,-0.6506943330646033,0.1505700512771004,-0.39291843985947106,0.632092275063081
13.600000000000001,1.0477492736322673,1.9571393257555867,3.3924873297893066,-0.2501178098643718,0.08017395218997708,-0.08129461691956151,-0.03876919685124571,0.119202170015055,0.9921127702361433,-1.8043312565507013,-2.048819459409976,4.151590915192076,0.8222408614510298,1.3493623733520508,-1.1386435729069446,3.0,0.4872009342969397,0.489004072103235,0.32572923380303015,-0.6507257610177068,0.15058973462244832,-0.3929206922140307,0.6320538310969359
13.700000000000001,1.2958189274372705,2.2848542692916296,3.113604587087582,-0.24571668437499766,0.07796225836366037,-0.07983572424856289,-0.038861947354114044,0.11954287306928779,0.9920681493515173,-1.8058635991953025,-2.0480219326415003,4.151819950273046,0.8230012893766988,1.3491307526481193,-1.1386565379735956,3.0,0.48701853566552333,0.48884631834772146,0.32568293557936373,-0.6507456115997541,0.15056191823228135,-0.3929216498651943,0.6320394250591428
13.8,0.9835892645309567,2.4476924849140573,3.2791011712475564,-0.24098497848937633,0.08489958448748752,-0.07701976108033519,-0.038900541040360635,0.11967668401748309,0.9920505208888425,-1.8075350942655797,-2.0471375993839995,4.152042865753174,0.8236700728944674,1.3489247143360465,-1.1386553329526252,3.0,0.4866409947185364,0.4884490642228151,0.3256615954606643,-0.650718020122228,0.15057717923609293,-0.3929333830730562,0.6320569023816386
13.9,1.2451499918348328,2.365178596922853,3.2257284646821316,-0.24968475656102015,0.07960681619800242,-0.06963328898750737,-0.038921424817978126,0.11974490833184286,0.9920414700747378,-1.8090583884504539,-2.046260903316961,4.152275020697515,0.8244468388404254,1.3487074041210212,-1.1387007872210901,3.0,0.48615238989308346,0.48797010492710624,0.32555902569511674,-0.6507564968302789,0.15056579798767844,-0.3929080055475459,0.6320357754796531
14.0,1.138608456738972,2.2894946536386085,3.3088634827816836,-0.24236841056918507,0.08378663355693927,-0.061077626676240414,-0.038938551251445894,0.1198047219176917,0.992033576342675,-1.8106337169933153,-2.045464777426917,4.152466812868948,0.8252626127422292,1.3484789871232075,-1.1387088545706483,3.0,0.4859314611630373,0.4877237206993729,0.3255669654647712,-0.6507267889585905,0.15058175288455172,-0.3929075628789863,0.6320628361661151
14.100000000000001,1.1942530481710096,1.900432646944206,3.288266150878235,-0.24156459476583858,0.08691582499090779,-0.05357026590193022,-0.039115047546535345,0.12035382116105206,0.9919598947069681,-1.8122418393178352,-2.0446535549559535,4.152690410614014,0.8259472354267386,1.3482584953308105,-1.1387555522298882,3.0,0.4854756470024101,0.4872528466320896,0.32548949150249884,-0.6507091611829743,0.15057309993592166,-0.3929213847263432,0.6320744533304367
14.200000000000001,1.2027015335764282,2.0352964116094174,3.2897116697931796,-0.24169924596631986,0.09176770455379132,-0.04512297079942877,-0.03934490408711173,0.12106674311550959,0.9918641859536319,-1.8137553124926178,-2.0437938723165496,4.152978420257568,0.8266396152228425,1.3480510985454104,-1.1387604321282454,3.0,0.4852704589409086,0.48705301451600813,0.325446652595295,-0.6507181021174931,0.15056108162758589,-0.39292358802057703,0.6320667419290268
14.3,1.2867835456811134,1.9438379312502767,3.4648084338714202,-0.23912342026913272,0.08763139088123195,-0.04285915005946802,-0.03912154334504011,0.12034947032954893,0.9919599572917119,-1.8153977662663177,-2.042860843860354,4.153133869171143,0.827440199565776,1.3478047952321557,-1.1387863615769869,3.0,0.4848668060438762,0.48668724101403676,0.325352238984802,-0.6507534435348823,0.15054078347617245,-0.392894965767855,0.6320529836272816
14.4,0.9925421364296465,2.1523700009317364,3.320643354762444,-0.23289381469257825,0.09352986025845168,-0.03716222334274943,-0.03879178565943711,0.11932804300015991,0.9920967574385159,-1.8170651278373522,-2.0420284588929647,4.153372333026679,0.8282330143145928,1.347550868988037,-1.1388071203749697,3.0,0.4844094945181833,0.4861925729885975,0.3253025796800794,-0.6507423823210827,0.15056676289878118,-0.39292111473721336,0.6320419284785856
14.5,1.107313969659519,2.5067041190151165,3.4460317627125905,-0.24796756814540322,0.09367888378899532,-0.022141885054301005,-0.03864422361941229,0.11899134056114805,0.9921429519604393,-1.8184499646320265,-2.0411413231528375,4.1536295820194065,0.8289103192303306,1.3473027158695046,-1.1388562361346644,3.0,0.48413037011769283,0.4859426966459042,0.32528348285960806,-0.6507127728308075,0.15056956552105877,-0.3929020945839449,0.6320835682765298
14.600000000000001,1.3532201844296876,2.2087622773536735,3.4432898131190375,-0.23416847112432382,0.09105617064737252,-0.012895839576632644,-0.039260831662519,0.12086339790750257,0.9918915359867555,-1.8200464248657227,-2.040357104210463,4.15390866924089,0.829693662267529,1.3470535539558213,-1.1388762029829764,3.0,0.48371807241373826,0.4855298288029613,0.32529843024097427,-0.6506637237590522,0.1505608523687593,-0.392927757531344,0.6321201829394356
14.700000000000001,1.1341769525849383,1.8507471630652368,3.4343045821620026,-0.2084941468842004,0.1022340085410534,-0.015245862004593547,-0.03911767121745425,0.12037612094234255,0.9919562711128048,-1.8217561980573844,-2.0396258303750847,4.154138950753818,0.8303999336483099,1.3468394726795903,-1.1389064784537368,3.0,0.4834864099842176,0.4853226285062571,0.3252588704713462,-0.6506611069064601,0.15055632876509237,-0.3929249612736304,0.63212569211839
14.8,1.140236787375394,1.8906713917070643,3.590086333667728,-0.22216113726483222,0.10558193889906682,-0.009788782680774624,-0.03864975073404771,0.11895089596864052,0.9921476042948942,-1.8233204178883087,-2.038870724816986,4.1543905319100825,0.8311952808087077,1.3466057631932968,-1.1389254316112492,3.0,0.48316055977077055,0.4849594705162591,0.3250819581275077,-0.6507334248672437,0.15057224119249846,-0.3929295635406488,0.6320445933939876
14.9,1.2734732531097774,2.065082198021405,3.633985369039694,-0.24168439908711437,0.09554707801919061,-0.002082146747595272,-0.038631832599545626,0.11906430820028534,0.9921346520692893,-1.824760449772298,-2.0379579007369055,4.154608249664307,0.8320092791328392,1.3463521658808328,-1.1389520804034632,3.0,0.48265077423331326,0.4845014010853231,0.324906202577254,-0.6507890310975805,0.15055223870937384,-0.39288638158747846,0.6320189487553094
15.0,1.3920725688932074,2.2177860732606782,3.7576981070695568,-0.239892456025448,0.09544452432521452,0.0008015929752120922,-0.03842547695639126,0.11843822991599053,0.9922175649194617,-1.8264169692993164,-2.036953308414115,4.154852089215049,0.8326349405900241,1.3461480140686035,-1.138992310487653,3.0,0.48241448344111754,0.4842621977320858,0.3249515218273343,-0.6507223363788817,0.15055538185292636,-0.39290824208082253,0.6320732799586508
15.100000000000001,1.4433145694493714,2.0961559634988784,3.681203602340651,-0.23421867772497587,0.09113208035571031,0.00820731446598358,-0.03847901499805237,0.11855508332745918,0.9922015440305709,-1.8281650878966837,-2.0359894544866113,4.155046878459436,0.8333187502618897,1.3459392514789366,-1.13897436445945,3.0,0.48204856774147464,0.48387711775779185,0.3249562564263837,-0.6507203203738521,0.15056102532887192,-0.3929045992965405,0.6320762755839642
15.200000000000001,1.268674075463093,1.859790849671834,4.084746864204751,-0.22781031801783572,0.10184313820935918,0.008428496297342474,-0.038641152962929165,0.11899423303806905,0.9921427442795473,-1.8291470595654034,-2.0354316788275724,4.155244995863641,0.8338472641629666,1.345774580164402,-1.1390743459158084,3.0,0.481591037598612,0.48336681836067535,0.3248928257467388,-0.6507424464740938,0.15056229902111623,-0.3929084976972984,0.6320507692485146
15.3,1.457082840438953,1.8283938551554577,3.368572703645316,-0.2375657046057136,0.084398205600696,0.003955234622874327,-0.03869530289006119,0.11918778405560647,0.9921173967489068,-1.8291703605179126,-2.035425295606305,4.1551963162678245,0.8339320259742864,1.3457366896424146,-1.139026593387596,3.0,0.48141792108169307,0.4832111060583306,0.324904460939157,-0.6507137990096444,0.15055177561734306,-0.39291739799920256,0.6320772365672076
15.4,1.1542884403763158,2.1018912442529416,3.4739602605420488,-0.24259338013344903,0.09292819694538365,0.01043782480086099,-0.038416285291712364,0.11845980292676243,0.9922152259823765,-1.8291702450740563,-2.035426886212186,4.155238039306105,0.8339585820439323,1.3457871425607566,-1.1390514268055794,3.0,0.4813397213142769,0.4831415147825042,0.3249367689170311,-0.6506587461045172,0.15054724562210609,-0.39293689635775675,0.6321228665647431
15.5,1.2684408108621426,1.6188401203248557,3.4677701915654366,-0.24088352806229812,0.09507929064558453,0.008710742855964234,-0.03865017829660991,0.1191717900837478,0.9921200373270059,-1.8292498436575386,-2.0354401073851527,4.155218601226807,0.8339295890390876,1.345774665772393,-1.139042989282411,3.0,0.4813209147431138,0.48314847743425665,0.3248819974262231,-0.6507015114492413,0.15053987512662817,-0.39289517233539517,0.6321065357596551
15.600000000000001,1.1690449521807518,1.9494458867994373,3.4491549546233093,-0.23210448599081063,0.0937158163710711,0.006491427206387783,-0.03922653669386499,0.12082572970672463,0.9918983586094559,-1.8292951583862305,-2.0354497074658644,4.155218601226807,0.8339755073059523,1.3458062190048854,-1.1390364805804651,3.0,0.4813294714128447,0.48312584321814367,0.32487694842927656,-0.650707631961226,0.15054831693219198,-0.39291106917867846,0.6320883432663236
15.700000000000001,1.2124766002380312,1.8523105802836073,3.285520627121743,-0.227549640633356,0.09510095556049396,0.00751127743437447,-0.03945607706342279,0.12140069142456536,0.991818997098596,-1.8292837142944336,-2.0354157886900843,4.155212942018683,0.8339524247073321,1.3457715932132492,-1.1390364805804651,3.0,0.4813367804394043,0.4830968993869157,0.3248607243587508,-0.650712701320606,0.15055862350839613,-0.3929212743377487,0.6320743258510797
15.8,1.3335033605727489,1.6909042528578384,3.3908550611431867,-0.23486874012596098,0.09295534389773333,0.004492239377798294,-0.03922201402359119,0.12071963894277234,0.9919108179253657,-1.8292616096925942,-2.0354685989214127,4.155227813472996,0.8339713563677085,1.3457847828472849,-1.1390048906347916,3.0,0.4813352223102357,0.4831039777174369,0.3248572930542348,-0.6507129815104572,0.15055787555063185,-0.3929208589420788,0.6320744737858596
15.9,1.1031304385794867,1.7080471606146714,3.403557378851809,-0.23656178558148647,0.09968394923919993,-0.0018083850142094154,-0.038739183555061486,0.11936580248111738,0.9920942520845927,-1.8292911170104973,-2.0354495932101395,4.15523257782673,0.833944186749615,1.3457770347595215,-1.1389981578475186,3.0,0.48131951186453437,0.483112107783004,0.32485594701160153,-0.6507141407831416,0.15055451391665006,-0.39290681308483943,0.6320828122609365
16.0,0.8853794356892956,2.0626883855831806,3.294937734839404,-0.22564895721627998,0.10083312098941785,-0.004832096208176952,-0.03854536034312339,0.1188044104450787,0.9921690431088946,-1.8292809770569463,-2.0354495843520657,4.1552260308714155,0.8339295396746904,1.3457679368712852,-1.139050466392786,3.0,0.481316943808577,0.4831204745593975,0.324853740501961,-0.6507186293450476,0.1505344297728923,-0.3929044526366975,0.6320844421234477
16.1,1.2512397174010008,1.8017208338146438,3.356634048271836,-0.2338761818126239,0.09120246369129703,0.00172338854809515,-0.038374856018838104,0.11831433230913245,0.9922343909579308,-1.829296804469995,-2.0354495788121,4.155222598832499,0.8339632433397544,1.345784481245626,-1.139047924672262,3.0,0.4813217344316332,0.4831138631485693,0.3248606584345312,-0.6507181257540723,0.15054108170742064,-0.3929181236751875,0.6320748781758668
16.2,1.196335576821797,1.9335809091052119,3.3466456436738126,-0.2257768901182871,0.0929008009210991,-0.0035566106609502455,-0.03840671894348802,0.11844313436967852,0.9922177885257963,-1.8293043387777819,-2.035456780858952,4.155249936166965,0.8339467994239366,1.3457916962258802,-1.1390098038643077,3.36153021860265,0.48132066651776395,0.48310274241731743,0.32485457060303474,-0.6507193526903048,0.1505450187503505,-0.39292356055068145,0.6320692975678714
16.3,1.1723397591162172,1.811108551484273,3.3385103333236446,-0.22839562445546327,0.09322405959071886,-0.004054934942522441,-0.038448606170380574,0.11854693113072455,0.9922037700583791,-1.8292828318008232,-2.0354326777150376,4.155218601226807,0.8339467190110464,1.3457795675143442,-1.1389931907098378,4.0,0.4813242491040652,0.4831065639120323,0.3248608594881195,-0.6507117867340853,0.15054410087860004,-0.39291453198506043,0.6320829177022182
16.400000000000002,1.361690140448288,1.6639470949305148,3.296861867014099,-0.23351634668715135,0.09090729319316125,-0.0002492103725762744,-0.038497321921590964,0.11863369435750779,0.992191511779899,-1.8292824651994182,-2.035448047279432,4.155206498881392,0.8339568740643772,1.3457852922495719,-1.139024104989424,4.0,0.4813396711986728,0.4830959376644887,0.32485378895105194,-0.6507115693746579,0.15055596370778607,-0.3929229511932376,0.6320750823277137
16.5,1.3550026660979417,1.8103061383801569,3.3053778910957807,-0.22927784927244846,0.08884831128735277,-0.0005805709127533568,-0.0387148053232899,0.11925323884315829,0.9921084663339367,-1.8292909507208133,-2.0354520283141078,4.155234603622805,0.8339317198266307,1.3457921106478126,-1.1389927030122962,4.0,0.4813213808375464,0.48311410055385623,0.32484773197681044,-0.6507194862142929,0.1505510734463087,-0.3929096266263994,0.6320763797591824
16.6,1.2342589149707976,1.736857331425771,3.170887512558044,-0.23222291669372983,0.09247515890723887,-0.006273797395382166,-0.039044183114889275,0.12023205377351616,0.9919777042855237,-1.829290102963372,-2.035448700882369,4.155218601226807,0.8339595177022853,1.3458031589910593,-1.1390230377562407,4.0,0.48133149936431807,0.48310691666290556,0.32483848615435906,-0.6507260129753252,0.15054652858816336,-0.3929170298852561,0.632066140837681
16.7,1.3795597341941614,1.3713277819734428,3.2471595336035737,-0.23814922914372355,0.09089081062480943,-0.009244798939607926,-0.039230474663003986,0.12084617901111189,0.9918956459799272,-1.829297049054586,-2.0354749611968472,4.155217655892629,0.8339827281053731,1.3458160376680643,-1.1390328083207748,4.0,0.481326820763032,0.4831076019478218,0.32484651999135644,-0.6507296717119837,0.1505433731702102,-0.3929100940817257,0.6320674371590729
16.8,1.264740369237993,1.7239789594177357,3.169503857279549,-0.23236310642133762,0.09396693148219655,-0.007122992534256458,-0.03910112731231817,0.12046723857472567,0.99194653238628,-1.829267866478424,-2.035448674398316,4.155218601226807,0.8339422756210222,1.345790949026688,-1.1390363464238336,4.0,0.481317441761106,0.4831257814076323,0.32484721805664396,-0.6507339754901311,0.1505258659867775,-0.39290071286467965,0.6320730073671608
16.900000000000002,1.2631282838632583,1.5356953205872668,3.2294140440131844,-0.23303271332099296,0.09136459761841363,-0.008931198423075305,-0.038739168143079705,0.11935292004985293,0.9920958393359259,-1.8293066024780273,-2.035430437928908,4.155215635932827,0.833960695857666,1.345784502998922,-1.1390433743399118,4.0,0.4813336572292504,0.4830970003115445,0.32486049450680926,-0.6507162484338975,0.15055481834029927,-0.39291039878526557,0.6320783410504094
17.0,1.116076106987908,1.749851642707522,3.2969939144158853,-0.22791851442697542,0.09111169365932684,-0.0014618387431228445,-0.03881709746580516,0.11954678790000456,0.9920694415071883,-1.829281002488122,-2.0354290655221954,4.155250877441605,0.8339182271539833,1.3457933959348594,-1.1390377321833782,4.0,0.4813437525321897,0.4831015640643016,0.324835152692528,-0.65073611991091,0.15055509750958648,-0.3929143252915639,0.6320553756102769
17.1,0.9400679486839705,1.743963831733201,3.183691075340048,-0.23051968113472115,0.09861460456752809,-0.006957551224183098,-0.03867712065073026,0.11910587251079333,0.9921275046318714,-1.829319953918457,-2.0354277096190394,4.15520544308144,0.8339030888085559,1.3457922199428483,-1.1390319791096817,4.0,0.4813391299114927,0.4831075389283754,0.32484220108996514,-0.6507398952265555,0.15053941993071426,-0.39292312193807355,0.6320497544132846
17.2,1.3682594395604046,1.5436478593592375,3.2597806753166885,-0.23594660882849508,0.08485002690042527,-0.006275075332862057,-0.038345579373418884,0.11810690992239457,0.992259818611924,-1.829319953918457,-2.035445540279107,4.155202085229186,0.8339436015561568,1.3457816720338287,-1.1390438064407549,4.0,0.4813283249805437,0.48310803028210303,0.324819995708623,-0.65074178821486,0.15056561557700449,-0.3928968737867087,0.6320578826701514
17.3,1.2548195744408857,1.8030958802799038,3.0600798880801046,-0.23229833502949251,0.08850411862230134,-0.005223399147268739,-0.038278830336193635,0.11795260674358977,0.9922811116058761,-1.8293260655456651,-2.0354343305485147,4.155207047553531,0.8339504306492769,1.3457770347595215,-1.1390423700216488,4.0,0.4813446875805074,0.4830918375198729,0.3248335563804911,-0.6507315645609226,0.1505695729269137,-0.3929139337023505,0.6320568608086186
17.400000000000002,1.210588836291556,1.9420519334921,3.2916183820251748,-0.22644536952719915,0.08972433688970702,-0.010826099925685412,-0.038301530972494884,0.11805181473058371,0.9922684445903226,-1.8292911216394225,-2.035439475056379,4.155194127040123,0.8339569804564008,1.3457854075075975,-1.1390318232336543,4.0,0.48132198283280686,0.4831087504899332,0.3248709688765259,-0.6507112357700668,0.15055087790385951,-0.3928997445354045,0.6320910627029808
17.5,1.383475423189264,1.5869692979116543,3.1467017052042814,-0.2287845534585275,0.08657330290919552,-0.009596307584635536,-0.038174899837216315,0.11764390459603884,0.9923218149824039,-1.8292795094257772,-2.035448273967093,4.155206203460693,0.8339453472449739,1.3457897637502685,-1.1390526635704656,4.0,0.481339813439561,0.4830990421020497,0.3248509832329133,-0.650719440068429,0.15056107034644084,-0.3929140751777933,0.6320712807431954
17.6,1.2244445194965283,1.7690246227358153,3.242815565193266,-0.23095858303402933,0.0919765126534126,-0.014813593587958532,-0.03836233536274361,0.1181539276347166,0.992253825984447,-1.8292900536009133,-2.0354434091072777,4.15519723948559,0.8339630563885198,1.3457911035199421,-1.1390002409564417,4.0,0.4813345582188898,0.4831020064469644,0.32484847892052937,-0.6507282213310587,0.15055944956701892,-0.3929152664168464,0.632061885835534
17.7,1.2524380708870066,1.8284754252833728,3.1086181683353313,-0.22751111310726488,0.09046629062512039,-0.011433141285916701,-0.03855461348688378,0.11867810429893345,0.992183965744212,-1.8292739603788162,-2.0354575250916125,4.155203570404785,0.8339523353585653,1.3457803753182758,-1.1390274233731061,4.0,0.48134219529852146,0.48309011760285875,0.3248423244430986,-0.6507381087204992,0.15056246097838805,-0.39292142029538235,0.6320471633320244
17.8,1.5124776588844202,1.696403127018471,3.204376857603402,-0.22996215833207545,0.08175413343179988,-0.016481433624874715,-0.038977565005015126,0.11997975963909942,0.9920103545654437,-1.829319953918457,-2.035434350601244,4.155174042679083,0.8339697080250081,1.345813274383545,-1.1390298395982603,4.0,0.48132159608699593,0.48311118364960115,0.32485883428722023,-0.6507142824505768,0.15054678455337717,-0.39291312382655075,0.6320805845778934
17.900000000000002,1.2384675525017124,1.6408808074803278,3.309982788192181,-0.23258460580615276,0.0896141877806752,-0.018669200520579105,-0.039309054177670784,0.12094269658183851,0.991880833649402,-1.8292837142944336,-2.0354311508734098,4.155202762206323,0.8339181031486514,1.3457977000749362,-1.1390363482245278,4.0,0.4813380737361877,0.48310827327076566,0.3248239344863965,-0.6507459582968832,0.1505484901453971,-0.3929211942633318,0.632042549971036
