xiamingqian9007/apple-picking-rnn/training_data/grasper_20191127_130403_noimg.csv
,/manipulator_wrench.fx,/manipulator_wrench.fy,/manipulator_wrench.fz,/manipulator_wrench.tx,/manipulator_wrench.ty,/manipulator_wrench.tz,/ground_truth.x,/ground_truth.y,/ground_truth.z,/joint_states.elbow_joint,/joint_states.shoulder_lift_joint,/joint_states.shoulder_pan_joint,/joint_states.wrist_1_joint,/joint_states.wrist_2_joint,/joint_states.wrist_3_joint,/mode./mode,/manipulator_pose.x,/manipulator_pose.y,/manipulator_pose.z,/manipulator_pose.rx,/manipulator_pose.ry,/manipulator_pose.rz,/manipulator_pose.rw
0.30000000000000004,-0.15692558227663866,-0.10928529374656053,-0.0037830652815480544,0.012638092247336167,-0.013824930275343796,0.0019324346398084816,0.2923309821218861,-0.4805081530414451,0.8268340163591401,-1.8884264750615558,-1.755696870807241,4.1640637776919105,0.06232758747254572,1.3604097516496805,-1.224853380587679,1.0,0.4594888277594396,0.46410489265862465,0.32178947295769034,0.8355874651832003,-0.10187433514831985,0.3305724463065235,-0.42677519329235025
0.4,0.261052756929121,-0.2534612984258042,0.1353353316970627,0.02241788357767087,0.006794332785440893,0.02561757921416003,0.2927731580757546,-0.4812097500731388,0.8262683655983052,-1.885715818483656,-1.7597434527717821,4.163379476696086,0.06323572995731642,1.3610096736609014,-1.2251980940448206,1.0,0.45966365407199355,0.46440439088777014,0.3217732303252161,0.8355135935171181,-0.10184715149067326,0.3305785421169925,-0.4269215622021826
0.5,0.41475868607501587,-0.3669116717993911,-0.05097336243245759,0.01544268524691891,0.00796909186497017,0.02785653660792357,0.29323025045182294,-0.48193642211965604,0.8256828262047086,-1.8830141222626113,-1.763457050899098,4.162577782489567,0.06432382126406523,1.361562053553753,-1.2254980072350325,1.0,0.4605347665105933,0.4653191337819554,0.32112288593072275,0.835564450877675,-0.10183126069454762,0.3305435850020947,-0.42685288002871813
0.6000000000000001,0.46816482073058585,-0.24907137826763187,0.16980806132147147,0.02475660763439545,0.0070301548345104,0.025084693366488425,0.2945210807932704,-0.4841695146211898,0.8239019736836357,-1.8801133465851516,-1.7672193876673066,4.161852817502583,0.06535702168008041,1.3620571165805813,-1.225776809936053,1.0,0.4619963516601353,0.4666051452820706,0.3201460145191061,0.835561571340017,-0.10191278195235529,0.3306088912866836,-0.42678847966729794
0.7000000000000001,0.4314545229052212,-0.31106872062083957,0.04082262436005277,0.03398707758434418,0.013236993938755454,0.023090850244838517,0.29682877968319626,-0.4882399129011576,0.8206632574507176,-1.8775330685765208,-1.7707825721402826,4.1611617898170765,0.06620056680909776,1.3627163077171027,-1.2260366479854479,1.0,0.46262350287174964,0.4672242296004462,0.3197888789315594,0.835539482859432,-0.10190905353590253,0.3306395542106724,-0.42680885953993214
0.8,0.36514416057046917,-0.5174854385921743,0.12674934842366853,0.026840683726588693,0.018479909259117636,0.018929561097939196,0.30722801790121684,-0.5057853514468962,0.8049663266925516,-1.8748219480910622,-1.7743618700404902,4.16058702039871,0.06710944041032703,1.3633998673045977,-1.226310626431966,1.0,0.4638318976530843,0.4683327455387012,0.31892262486858813,0.8355947946285526,-0.10194371838232055,0.3306089491530406,-0.42671599479276084
0.9,0.4816794342941786,-0.5858074589086814,0.34932335085391963,0.02209811399303094,0.00555502376357059,0.020116550764072132,0.32790469423312385,-0.5404460614877307,0.7734456418128195,-1.8723122756184944,-1.7777276650998197,4.160059084253806,0.06797300504825733,1.363866220159036,-1.2265625920452015,1.0,0.46439579030842737,0.4690176907442879,0.31851417306351426,0.8356111976976234,-0.10189729152570463,0.3305384564601215,-0.42674957183696044
1.0,0.4638851665787651,-0.6034941563109504,0.2691233310303926,0.015433382175531076,0.0016396244447535826,0.01646999443906537,0.34005304700917127,-0.5608317731579223,0.754871317070181,-1.8697969204259135,-1.7809081268579763,4.159521470577059,0.06875172720060553,1.364285125043696,-1.2268114579868874,1.0,0.4655127604644027,0.47018182586507323,0.3177373674697993,0.8356107786587862,-0.10188279446956097,0.33055453657872796,-0.42674139842245523
1.1,0.3937128305810062,-0.6328967280353619,0.16952551042811875,0.015319673940432613,0.008717368502132424,0.01727617307866078,0.3405844323420829,-0.5617726091457604,0.7539320460675468,-1.8673111570720617,-1.7841608346784854,4.1590388619911245,0.06945228800371267,1.364766677205335,-1.2270614945694052,1.0,0.46601418672607453,0.47066437515991666,0.3173827730376555,0.8356285295821051,-0.10189585031655893,0.33054884169314547,-0.42670793230503024
1.2000000000000002,0.3602760239927667,-0.567941482535017,0.01048051697256851,0.026353987006641995,0.015092227515585026,0.012314015167163177,0.34050771464969265,-0.5616065569619024,0.7540904533799908,-1.865047503227314,-1.7869023828802142,4.158562487187866,0.070196767089468,1.365174043001155,-1.2272330329124497,1.0,0.466837059222384,0.4715151310269303,0.3168842196905959,0.8356105039076971,-0.10190600731473079,0.33055130259009813,-0.4267388988459856
1.3,0.2535642258354772,-0.3589145356643708,0.20314819099307685,0.025658878177946386,0.012607548213523589,0.011129724733311565,0.3403740125805561,-0.5613367800308098,0.7543517223985109,-1.8627455607933157,-1.7899852209828753,4.1581067978459245,0.07089249669995112,1.3656703877755825,-1.2274902038515687,1.0,0.4675053732423398,0.4722539505563354,0.31650627979500984,0.8355780880290535,-0.10187788436863675,0.33057466103494176,-0.42679098978764235
1.4000000000000001,0.5089019215000311,-0.28472304859679703,0.08172305169616326,0.021592680718296405,0.013472984786992702,0.013530569510305322,0.34038784663319915,-0.5613484355614183,0.7543368233501969,-1.8603939770865026,-1.7927390031313397,4.157525027284532,0.07165535024214452,1.3661589622497559,-1.2277215162860315,1.0,0.4686242333538933,0.4734297129834867,0.3156932504078039,0.8356092230800567,-0.10186447192658837,0.330551319746517,-0.426751310105192
1.5,0.34932249121038345,-0.3069716625808169,0.01717739271755283,0.021601947508561575,0.015983984014341195,0.015471786607229795,0.3404177371872293,-0.5613907196639127,0.7542918686592734,-1.8584249789235823,-1.795619261068645,4.157123058697978,0.07224298295157551,1.366650104522705,-1.2279494116180063,1.0,0.469024722757717,0.47379572429102773,0.315584244614307,0.8355404711583266,-0.10186900420217682,0.33060130481312927,-0.42684611313122534
1.6,0.3790243027030239,-0.16172017758403232,-0.05726353527625969,0.02934086371192556,0.020176034942543084,0.011797461599189582,0.34095337378598195,-0.5622885013125383,0.7533790871131794,-1.8561190665073315,-1.7982133044340802,4.156581887337928,0.07283083107222882,1.3670811653137207,-1.2280924955951136,1.0,0.46987404539594946,0.47467329849420387,0.3148661940224641,0.8356130378348388,-0.10183757057032651,0.3305275198532811,-0.42676869477552487
1.7000000000000002,0.3574433602331659,-0.43864225503330534,0.20588515319444234,0.018278549960760795,0.010951681378999177,0.015536310791298323,0.34154969087818393,-0.5632889273887093,0.7523621818426391,-1.854212760925293,-1.8008571437491643,4.1560809702293895,0.07335855284630544,1.3674164601352727,-1.228283707295553,1.0,0.4705327075461257,0.4752885843947191,0.3145485457301118,0.8355728351402764,-0.10186925922780797,0.33056081315714286,-0.42681405788107146
1.8,0.12175153005847003,0.008974471710834098,0.1680904033443426,0.025422528751897624,0.011102462768484068,0.012997386591785023,0.34300174390082994,-0.5657539021581418,0.749836892242225,-1.8523271988079113,-1.803446130135843,4.155723618948332,0.0739135823467958,1.3677867768913188,-1.2285130057230937,1.0,0.4714040842114384,0.476096269552751,0.31392696819859306,0.8356024703725189,-0.10190252171370871,0.33056885940254654,-0.42674186198336617
1.9000000000000001,0.3573325164353569,-0.36644836968054734,0.1788511275812315,0.03008586376444626,0.01717577247570035,0.015097233875642145,0.34456982354206517,-0.5684174506073663,0.7471070854220684,-1.8501816094240706,-1.8057719618917478,4.155288013244081,0.07452932862353837,1.3681247407280903,-1.22864276567568,1.0,0.47175125278920654,0.476448716527723,0.31363727121212426,0.8356239175722656,-0.10188021397849464,0.33055523705683143,-0.42671574336457024
2.0,0.350305069449618,-0.2764368937497942,0.24476472015584894,0.030042439199909014,0.013785895994436526,0.014412335950778,0.35384773524161434,-0.5841094617877934,0.7299440095426404,-1.848455968226191,-1.8081536821893198,4.154892733544149,0.07499756111575578,1.368447831366093,-1.2287861177955923,1.0,0.47240654592399645,0.47714285791025146,0.31329738528242507,0.835582101868524,-0.10188408211221603,0.33058417395839756,-0.426774283172469
2.1,0.41612161318066965,-0.40096882981956694,0.20296902904926833,0.022818727509219122,0.011611498194919688,0.017572004257638905,0.36430454541250973,-0.6017936350129494,0.7105739648600261,-1.846701851528667,-1.8105179258811341,4.154568670851939,0.07548777772179185,1.3687481880187988,-1.228953185337433,1.0,0.47329943544825986,0.4780114785082369,0.3126009872936224,0.8356297982237595,-0.10190859249771071,0.33055839464549935,-0.4266950044528817
2.2,0.4783991190091319,-0.5457337477837618,0.11079655714167971,0.02448412962040867,0.01754215387229279,0.0071958820287689965,0.3642106569100317,-0.6016580846345437,0.7108754268326929,-1.844762085865446,-1.8124050956108655,4.154185765694356,0.07588251433369274,1.369085389986931,-1.2291321650480242,1.0,0.4736512266517733,0.47838518162845045,0.3122612561787663,0.8356769424305718,-0.10190982676742906,0.33052895059139475,-0.42662518434695645
2.3000000000000003,0.42030254841250286,-0.19755999364501758,0.015545629280216126,0.028476975464106272,0.013104114988998328,0.014722630071736955,0.3627338375053867,-0.5991864118612344,0.7137217394125185,-1.8431465813342873,-1.8148463280919087,4.153814792633057,0.07632462560620112,1.3694686193017855,-1.2293011384871817,1.0,0.4741377154991512,0.4788968115162747,0.31218001732206446,0.8355706458763515,-0.10191829316739544,0.33059281313202865,-0.42678185197249596
2.4000000000000004,0.5231339619157066,-0.6779882348522775,0.015075396593856271,0.025707977661770954,0.014936084720875204,0.015200966032192372,0.36204346502810936,-0.5979915412453167,0.7150732793622786,-1.8414430618286133,-1.8167306385436,4.1535031423978275,0.0767548225096045,1.3698278371316748,-1.229420196027769,1.0,0.47497863015134656,0.4797331708292247,0.3114951111545352,0.8356422107683928,-0.10192047817695751,0.330543030579095,-0.426679758889358
2.5,0.49255270101154314,-0.4646746119748741,0.13445521852677159,0.02673867819721791,0.009935114495905874,0.013666081050992675,0.3615661422721401,-0.5970571659156351,0.7160950815689013,-1.839805134958054,-1.8185217495198447,4.153227491122492,0.07715033220683817,1.3701392548762084,-1.2295517501661462,1.0,0.47526535874194137,0.4800532714145765,0.3113353570115488,0.8356331337280306,-0.10188261577591151,0.3305364573596393,-0.4267116693678163
2.6,0.3893075727409343,-1.296924411539043,1.2768844823663115,0.05209113881032164,0.013997403721715342,-0.005334560877495068,0.3610440414285481,-0.5961424093249633,0.7171187605016109,-1.838481079496092,-1.8205253876343668,4.15296601319901,0.07754141181703546,1.3704141408939923,-1.2296833358642247,1.0,0.47589729958853755,0.48074790205057627,0.3111157883494164,0.8355320753651576,-0.1018683732801074,0.33056874644579104,-0.4268879120266996
2.7,0.1571976521814312,-0.7034799578406086,0.28733356280276934,0.04011103399106211,0.015304482001508109,0.008908552189254158,0.3605125039833051,-0.5952317872169093,0.7181428349384037,-1.8369193449868753,-1.8222286705755792,4.15260746023577,0.07793379355538728,1.3706210350438743,-1.2297935623580547,1.0,0.47620676039360216,0.48105025562478265,0.3108181733164137,0.8355812422864128,-0.10187334751914755,0.33053948741344447,-0.4268131392832176
2.8000000000000003,0.3595826612646521,-0.41940439389470874,0.12804021957620243,0.02944625074632683,0.02011655113133884,0.01674079230118233,0.36045019982985577,-0.5951759812115706,0.7182208455071234,-1.8353967666625977,-1.8240024883476122,4.152304198430076,0.07829875843512786,1.3708948808313048,-1.2299226505962289,1.0,0.4768606726522372,0.4816762243191408,0.31042506823640753,0.8355559627244077,-0.10190090385276901,0.3305755027053526,-0.42682815741323854
2.9000000000000004,0.1560217439231853,-0.455321893867242,0.1478209603972757,0.021489604234084796,0.020495315058136062,0.021092736673910883,0.36067103766169,-0.5955793658864037,0.7177747485580771,-1.834031105041504,-1.825887730772704,4.152063846588135,0.07859813573843806,1.3711474137397746,-1.2300886765605477,1.0,0.4771354027941055,0.48196117270375893,0.31032660973078474,0.8355281676370153,-0.10188872849700051,0.3305955549792786,-0.42686994168990006
3.0,0.2544070425109522,-0.20928033835031462,0.13779646071719454,0.023134533766940437,0.012965297194761322,0.019388605460623088,0.3613078133486922,-0.5966081179168146,0.7165993577456126,-1.8327856063842773,-1.827449321183053,4.151776350371692,0.07895719003410241,1.371356514035439,-1.2301800619124579,1.0,0.4775673271624077,0.48242024588085247,0.3099223906906859,0.8355740409791248,-0.10187538935051373,0.3305773089163075,-0.42679745771987654
3.1,0.276766429679688,-0.48523155818271085,0.09086267644018924,0.026741413915111464,0.010301330067213127,0.01959736575112866,0.3616812231980539,-0.5972603215429653,0.715867559150527,-1.831134862187953,-1.8291551852292183,4.15147724802487,0.07926730983028783,1.3716136246232566,-1.2303409049168565,1.0,0.4782454951706074,0.48306855012813055,0.30945687423308155,0.8355853694647106,-0.10188505427427882,0.330570108413922,-0.4267785485181495
3.2,0.48978440486425023,-0.46881541184650644,0.13263871108219594,0.018040309689523748,0.009513368507269453,0.01729607279028227,0.36180017822571814,-0.5974930611211849,0.7156131856909531,-1.829972267150879,-1.8306790782044173,4.151224613189697,0.0795400686044381,1.37180505037455,-1.2304404426530462,1.0,0.4784674511783166,0.48331613002161966,0.30933851050350375,0.8355727997251876,-0.1018909383017731,0.3305752141056465,-0.426797798577268
3.3000000000000003,0.20678170556283074,-0.32064623772690576,0.21595002105101554,0.027933340919268173,0.018455699465058876,0.012657524902008454,0.36144748779350866,-0.5969090060671147,0.7162782295995452,-1.8287462171515665,-1.8322845905171121,4.150982245306013,0.07983503346123408,1.3720223058809853,-1.2305366425859283,1.0,0.47905177447153763,0.4838721612313614,0.30898570747085974,0.8355695629153072,-0.10189107981011317,0.3306044559652626,-0.4267814511908458
3.4000000000000004,0.4791576975178664,-0.2626364101792184,0.30197839636607976,0.020935028955338306,0.004988411941711233,0.01754173929778084,0.3612228110389817,-0.5965230297389027,0.7167135558884283,-1.8276712725387603,-1.8338318085887029,4.150769946134159,0.08011804119993457,1.3722738708030282,-1.2306163876334737,1.0,0.47928391452266866,0.48412260487704784,0.3087615674273224,0.8355938971070979,-0.10188900093162627,0.33057710490012016,-0.4267554900905004
3.5,0.22865568089729427,-0.13777449471057,0.060371158027714866,0.028978119692304898,0.01071565690078433,0.01587151081591245,0.3613457388427978,-0.5966749105308481,0.7165251137395311,-1.8262453079223633,-1.8353558965358538,4.1505066005593,0.08038071082521393,1.3725146177872685,-1.230783694158001,1.0,0.4796449599819137,0.48449013162351645,0.308455278541562,0.8356288385201301,-0.10187423642254276,0.3305547931890829,-0.4267078776945009
3.6,0.3266737359210922,-0.33614817045058976,0.04367400807622178,0.030733288189091785,0.012206644105666136,0.015337232498011258,0.3615890188594641,-0.5970651640579139,0.7160765453042984,-1.8249643444226058,-1.8366303794179297,4.150254089854395,0.08063237249340816,1.3726709222982914,-1.2308317426992887,1.0,0.48020980669061397,0.4850797450306051,0.3081422186209894,0.8356071044221187,-0.1018689924620671,0.33056221636399546,-0.4267459390862067
3.7,0.20498158526172583,-0.2562397824555199,0.10620595317039852,0.029796308537186726,0.01776986166443602,0.013300057231511042,0.36218133712487144,-0.5981467318536887,0.7148735742595596,-1.8240089677290718,-1.837911611307537,4.1500630378723145,0.08086083135456967,1.3728851937525077,-1.230951644646561,1.0,0.48040805223207633,0.4852806333871268,0.30810761450730784,0.8355616056580855,-0.101896823921518,0.3305914919891555,-0.4268057003475625
3.8000000000000003,0.22220795775803134,-0.15479573885932535,0.10695484195683513,0.02764997777308255,0.014731179117492589,0.01637251792877933,0.3620944205616716,-0.5979726549419262,0.7150635139982385,-1.8230259343704538,-1.839473386804098,4.14982271194458,0.08112327849198872,1.3731136322021484,-1.231057937305137,1.0,0.48071948762476613,0.4855853878451597,0.30790374407774346,0.8355668540164427,-0.10187223823987854,0.3305907677745002,-0.42680185544035354
3.9000000000000004,0.24973779402789903,-0.14098916826813412,0.04959568273960843,0.027798699604098937,0.014072620616850537,0.015908495412515832,0.3618983447851695,-0.5976113614777365,0.7154650126500486,-1.8219233879375782,-1.8408136918200004,4.149642728082963,0.08139769613232417,1.3732933943100756,-1.2311306269314168,1.0,0.48109331375895037,0.48595155247594346,0.30750363490887234,0.8356318004081356,-0.101878051671907,0.3305474834711595,-0.426706828988098
4.0,0.28695376455067956,-0.21536363355547536,0.00900223094522884,0.026307794360463897,0.014273150723655481,0.012739952548674115,0.36214803403927764,-0.598099291028676,0.7149304122965046,-1.8207601447377606,-1.8418339171145923,4.149415493011475,0.08159029783243991,1.3734729000184482,-1.2312015548901947,1.0,0.481528987267652,0.4863705464329079,0.3071940365875462,0.8356395200241922,-0.10189768672969084,0.3305350375698364,-0.4266966638627284
4.1000000000000005,0.5910145895069056,-0.24600166767828113,0.030276414793926454,0.023546770427429493,0.005829368720993952,0.015782547073006845,0.3626279677837703,-0.5989429877977066,0.7139801154972429,-1.8196111765531844,-1.8429619883436474,4.149211593119892,0.08178172211741166,1.37367582321167,-1.231298092567282,1.0,0.4819296591816205,0.4867669741026876,0.3071344901665601,0.8355531795407932,-0.10190398299598759,0.3306005881304401,-0.42681344113866804
4.2,0.16500113275311523,-0.286106077580696,0.012488013682977882,0.01855263410570992,0.007038113749269449,0.015592860309691745,0.3631152550976481,-0.59974977904241,0.7130539515098407,-1.8186659280193938,-1.8443884216288098,4.149024157721895,0.08199273038679211,1.3738383753435153,-1.231396657461476,1.0,0.4821280746293958,0.48698138607294833,0.30706836666146126,0.835526198713424,-0.10189733781191962,0.33060663720219646,-0.4268631575202932
4.3,-0.02436519345845667,-0.0027605729948789737,-0.10321246018328693,0.03269429572716808,0.019953569546696075,0.012452883829776641,0.36360548838902174,-0.6005417852434904,0.7121374555784435,-1.8177311736267883,-1.8457929079071684,4.148863976755184,0.08223569460509113,1.374011050983941,-1.2314889210074444,1.0,0.48258330748428524,0.48745470539809815,0.30656690257569946,0.8356174657612842,-0.10189780577362069,0.33055181642360765,-0.4267268268485875
4.4,0.17216778879784328,0.03781239851270616,-0.012845879727562029,0.031426580692518295,0.0162529742246547,0.013132814160812578,0.363597424346755,-0.6004663605092603,0.7122057042500812,-1.8167344588525334,-1.8468342108270328,4.148671738232925,0.08241662469555942,1.3741907517484058,-1.2315133253680628,1.0,0.48276606460172633,0.48765299105492943,0.3063648089784843,0.835658622066287,-0.10186855071281521,0.33052508058586955,-0.42667392332511944
4.5,0.4701501267476346,-0.5415612217821673,0.1306239074261493,0.025374473167695137,0.010678139671929503,0.01150641437051419,0.3635907765301515,-0.6004780036722043,0.712199335865576,-1.8155231828110827,-1.847877641717428,4.148446112006195,0.0826434753560053,1.37438795308639,-1.2315940322588435,1.0,0.48317753557423593,0.48806529807268584,0.30615995159088466,0.8356250008708365,-0.10189140190239915,0.3305312335574902,-0.4267295440685384
4.6000000000000005,0.24804960823270406,-0.31626258312955907,0.12806268457782938,0.0265934273293907,0.019548376463654118,0.009039751078403956,0.3638058299374872,-0.6008593557597585,0.7117675384854132,-1.8144476688798652,-1.8491626135520933,4.148253680424518,0.08282272512861942,1.3745135217919406,-1.2317177555460501,1.0,0.48336804163901936,0.48825220212908693,0.3061454460664212,0.83558103919687,-0.10188626193289303,0.33057049037862524,-0.42678644244499636
4.7,0.41103251375717703,-0.38798172288869065,-0.048867638513049816,0.02824589826915237,0.013806182611971645,0.01499603501721837,0.36402648803277,-0.6012294945192393,0.7113422585005515,-1.813429832458496,-1.8505518177054492,4.148084219606481,0.08302827030517233,1.3746699382175978,-1.2317893861123073,1.0,0.4836478794522305,0.48855813019670635,0.3060199917895003,0.8355508488118479,-0.10188418495229903,0.33059186773168237,-0.4268294845674136
4.800000000000001,0.20049396236992928,-0.21068013937305946,0.07636769990946998,0.024368971856840237,0.013496784126122369,0.01432867268831208,0.36399263111003505,-0.6011696621718677,0.7114101476185204,-1.812413215637207,-1.851840152150382,4.147879592430479,0.08325259628926847,1.3748388145943908,-1.231873807036596,1.0,0.4840290116706943,0.48893404853002553,0.30573314180295,0.8355669117406579,-0.101882560456142,0.3305869691579947,-0.42680222082600644
4.9,0.07407530909327943,-0.15032357637234844,0.09218351220456233,0.025633888589908553,0.016151077411446217,0.012423091598401277,0.36362190932003347,-0.6005398527517603,0.7121304298149561,-1.811464373777087,-1.8529690827317227,4.147703195291529,0.08345168444886496,1.3750356251912044,-1.231958427407817,1.0,0.4844266877122408,0.48934416600390657,0.30537124287277706,0.83561493253572,-0.10187522279251136,0.3305533989860604,-0.42673595339865905
5.0,0.29532731952378166,-0.17490016748693737,0.005360952851738751,0.02856607769610572,0.013067573432367502,0.01231806874392138,0.36323034323625647,-0.599880744417029,0.712885939003806,-1.810316272302097,-1.8540897829711647,4.147509668133471,0.08364900891669567,1.375186158517009,-1.2320640722857874,1.0,0.4846878706779032,0.48960901731772527,0.30519265046565375,0.8356134049325948,-0.1018839862108024,0.33055967687096216,-0.4267319895176802
5.1000000000000005,0.14038519824159212,-0.25714584181223316,0.1020565639401597,0.02233271864534306,0.015493062327133003,0.011705424523539273,0.3636113408232468,-0.6005602966264167,0.7121181435211196,-1.8092735829662865,-1.855471410283124,4.147317359833416,0.0838282776498846,1.375399161971977,-1.2321355978595179,1.0,0.4851059779571672,0.4900158716956179,0.30504897874276216,0.8355632841990411,-0.10189407770586809,0.33059578975844195,-0.42679974088672445
5.2,0.15375425138154486,-0.3932004695500422,0.01704169909338424,0.026299278212461776,0.016587915128762995,0.012677055614178954,0.36399233841023715,-0.6012398488358045,0.711350348038433,-1.8082412460862287,-1.8567530602400248,4.147112741293943,0.08400804822721407,1.3755773649231735,-1.2322076002704065,1.0,0.4852841611313414,0.49020237657357063,0.3049174141444157,0.8355677146034349,-0.10189777384501544,0.33059545558154285,-0.42679044359809065
5.300000000000001,0.3629750768375244,-0.15795265490735522,-0.0063161083008793605,0.03219693937101271,0.010819997780430525,0.014033691422403526,0.3638010297968034,-0.6009591271057778,0.711685698307651,-1.8072376643512267,-1.8579287981604897,4.146968056293244,0.08425915871863913,1.3757095884769521,-1.2323136069197755,1.0,0.48575910887274676,0.49065840405955663,0.3045372814538219,0.835602815639311,-0.10191173573765384,0.33057313062635696,-0.426735676880295
5.4,0.26737715944503393,-0.18102673855098922,0.05848573285067493,0.028114525541646403,0.011204043428820818,0.007190710313383407,0.36395630861172995,-0.6012378193028084,0.7113707983129958,-1.8060890946042845,-1.8590808617042245,4.146741642949647,0.08446084072111916,1.3758783205655458,-1.2323746331163297,1.0,0.4859202058824472,0.49081775777087866,0.30440952662715876,0.8356140333974624,-0.10191868400090923,0.3305657105005114,-0.4267177991155744
5.5,0.4160503418293054,-0.5105757444214309,0.02073807298238789,0.018724264719823455,0.014207336067533336,0.01553419478955533,0.36438537340225097,-0.6019415652047058,0.7105554810616125,-1.8049972600655646,-1.8603273958647915,4.14656285370323,0.0846296127389102,1.376033591201414,-1.232470708275879,1.0,0.48625187511550483,0.4911844810283885,0.3042724145024325,0.8355700715525574,-0.10190225835251873,0.33059161383819924,-0.42678773427567684
5.6000000000000005,0.254084815808565,-0.11502112134747106,-0.008624918084929031,0.023084114138401012,0.015733947197544923,0.00621360447327862,0.3646376224133846,-0.6023339821181025,0.7100931686521363,-1.8040147720313333,-1.8615740292002967,4.146370217131389,0.08482112002784792,1.3762484327927502,-1.2325663917501588,1.0,0.4866623955388616,0.49162022215797585,0.30399687165256717,0.8355733119210492,-0.10190348280451267,0.33058621021429696,-0.4267852835018424
5.7,0.3982322032006624,-0.23833411703352098,0.17359944179168132,0.02666346792537188,0.01172316611403856,0.014113926978231573,0.3640463635877987,-0.6012974963468984,0.71127152956161,-1.8029960426179896,-1.8627992521198897,4.1461663246154785,0.08503579826596494,1.3764290562623422,-1.2326482278929825,1.0,0.48694955472431894,0.49191729867869305,0.30378615627878847,0.8355858750891887,-0.10187573337341066,0.330576754602905,-0.4267746356301824
5.800000000000001,0.3298089623098736,-0.42676815177797695,-0.03796749242603918,0.024708688629208345,0.013442856858500506,0.011160903817136612,0.36345510476221277,-0.6002610105756944,0.7124498904710835,-1.8020008161174716,-1.8640221634363785,4.145941440810018,0.08522765218701167,1.3766301229106845,-1.2327215848936466,1.0,0.48718030405312135,0.4921600246507076,0.30361543790577733,0.8355897376915303,-0.10188179689676588,0.3305547738401283,-0.4267826510264766
5.9,0.17832374890048386,-0.32527834285565277,-0.19747313496325775,0.025657813305332323,0.023290842120028663,0.013371482141332058,0.36325686164746035,-0.599906801000944,0.7128508076781243,-1.8008511684513013,-1.8653761137656604,4.145794287989009,0.08539610049327634,1.3767999873043335,-1.232781712208883,1.0,0.4876847474815168,0.4926073018745477,0.30327325430736574,0.8356013162462458,-0.10190409055263058,0.3305700201649501,-0.4267428480763647
6.0,0.1428354979399823,-0.3040811160258054,0.11047287681470108,0.027951769135660283,0.02045960093893689,0.010413904037912074,0.36329661700147076,-0.5999657573265715,0.7127809284115687,-1.7996193984238684,-1.8665739498534144,4.145615100860596,0.08559876962546809,1.3769444271691456,-1.2328898030871984,1.0,0.48785760137446676,0.49284396465519104,0.3031741203162725,0.8355852539833318,-0.10189002147281948,0.3305647365399328,-0.4267817496170191
6.1000000000000005,0.20230784576288208,-0.5385605490249498,-0.02772673352706103,0.017591700659952917,0.016738035889256882,0.012834895315578482,0.3635352956296958,-0.6003710330074515,0.712317450229625,-1.7987432134532755,-1.8677488679780858,4.145433363318803,0.08574409272876886,1.3771119290399638,-1.2329614603987138,1.0,0.4882838610090781,0.4933008093693861,0.3029425837797944,0.8355714443923148,-0.10186038115251846,0.3305702412114675,-0.42681159742091934
6.2,0.35942056901311725,-0.2572138776936813,0.10567270270696885,0.028059003496022264,0.013750458328571063,0.014118570071593133,0.36383230871681754,-0.6008761130678295,0.7117400248070583,-1.7977255369656036,-1.8688900181931223,4.145267963409424,0.085968377956479,1.3773260116577148,-1.233022794148156,1.0,0.48847364123668247,0.4934673903101029,0.30279756098838684,0.8355786459310983,-0.10188387609173662,0.33056827290721397,-0.4267934151361963
6.300000000000001,0.18219690454981313,-0.6435431823572733,-0.04779491819512681,0.021861259416062036,0.016782960355502228,0.01346693106278384,0.3635766222424224,-0.6004042667956859,0.7122685605940791,-1.7967534440866952,-1.8703192485315023,4.1450276374816895,0.08610286800987496,1.3774932716814638,-1.2331169287311,1.0,0.488889955641342,0.49387281223519175,0.3025213933007633,0.8355791952490985,-0.10186709094028108,0.33057228263596844,-0.42679324057801027
6.4,0.3901922030048714,-0.25168548689093423,0.010156215045504645,0.028278785988659638,0.01812526632130312,0.008777181414347416,0.36359456351194747,-0.6004191592547952,0.71224697163018,-1.7954879642221968,-1.8716013248403827,4.144858016352203,0.08632797862127757,1.377627586468566,-1.233189038005422,1.0,0.4890935144416756,0.49410174612594987,0.3022725055318971,0.8356319053302195,-0.10186622242306674,0.33052688753470333,-0.4267254013297816
6.5,0.4429279443716918,0.03531872844942896,0.11766599701964131,0.03526006513826675,0.013991931916830305,0.006949958247108194,0.3637206568788628,-0.6006571740604996,0.7119818886102959,-1.7942759813723481,-1.872642720394727,4.144680564059379,0.08648398470541602,1.3778290748596191,-1.2333196611801118,1.0,0.4894617803281741,0.4944572952220548,0.30194118002762893,0.8356773769651962,-0.10187543144478452,0.3305033159678339,-0.4266524068029787
6.6000000000000005,0.2412434329234739,-0.35752739076912066,0.012178357090582695,0.02327381311552816,0.010593695693085173,0.014117126653508382,0.3637600924807073,-0.6007624767900284,0.7118728433112749,-1.7932819214966362,-1.873758590305425,4.1445002792827195,0.08655549644671272,1.3779846946970904,-1.2333564482104125,1.0,0.4898786595776794,0.4948999490364993,0.30194769587512343,0.8355604532919014,-0.10188230988915739,0.33057906938323134,-0.42682104295828566
6.7,0.03065690564345923,-0.2749377918933277,-0.055187054070818656,0.029432568401159716,0.017022411366916054,0.012970497381784896,0.3634218098356145,-0.6001928141693874,0.712525629893919,-1.7922872559273808,-1.8749825409299385,4.144282198085095,0.08672444402661128,1.3781523258241106,-1.2334392460776569,1.0,0.49008004306782094,0.49510192954459814,0.3018376900667191,0.8355562788720972,-0.10188455601073364,0.3305900436804702,-0.4268201788848026
6.800000000000001,0.14078372013771168,-0.12945801992875175,0.0894376050762237,0.03271905089783751,0.016303378272643623,0.012805797455927697,0.3633199479251609,-0.600015067864557,0.712727516756352,-1.7914145119322196,-1.8764968803809705,4.14409112957722,0.08694343740484532,1.378330230987132,-1.2334904173485917,1.0,0.49036646465125766,0.4954040930630167,0.3016443582047416,0.8355512028298613,-0.1018725403795109,0.3305939357969443,-0.4268299691686175
6.9,0.20631171206044552,-0.14057801806322112,0.030386054619743523,0.028497521916373773,0.014811577316666158,0.01600369470629922,0.3635215266191918,-0.600346513785953,0.7123434169172267,-1.7901910769150746,-1.877667794340252,4.14387603784277,0.08717946950479456,1.3784790797099677,-1.2335854780918227,1.0,0.4908333676650738,0.4958534575282466,0.30103598596860925,0.8356842455356069,-0.10188509081129435,0.3304902487684536,-0.4266467690056066
7.0,0.3234415967499697,-0.6040916696837408,-0.12696403646865614,0.01914741149417472,0.013141114895829448,0.011835060249141594,0.36559553456394006,-0.6038741678154946,0.7082796738668218,-1.788863182067871,-1.8786863995541996,4.143705992125095,0.08720559754558938,1.3786467324467493,-1.2337134271896608,1.0,0.4910536743166319,0.49605232288350004,0.30095625714346347,0.8356512679813236,-0.10188128303592528,0.3305339507242217,-0.426678415093613
7.1000000000000005,-0.11880508396648676,-0.1350836753385366,0.08306296460411619,0.026070013025533106,0.006622734974805436,0.02380886049553054,0.3663571029599893,-0.6051940720835858,0.7067689051734896,-1.788615303766902,-1.8788730106749476,4.1436028480529785,0.08722798406567378,1.3787061603937094,-1.2336932389262174,1.0,0.4913537088343322,0.49634606730896685,0.301009316111712,0.8355563931285457,-0.10189935076945696,0.3305853297157913,-0.426820074494488
7.2,0.399877954129247,-0.18533651476675184,0.11897385807074422,0.01770920340029068,0.0128235129219336,0.012880771347792903,0.36608930377047066,-0.6047804973904692,0.7072616803510605,-1.7886623661684338,-1.8789216480650843,4.143614292144775,0.08722543027231458,1.3787187188595456,-1.2337455377276334,1.0,0.4915402921247241,0.49650678800415393,0.30101718617777984,0.8355202438591384,-0.10189699038835132,0.3306274685059215,-0.42685876179449295
7.300000000000001,0.35340503243808963,-0.08997919237494786,-0.001180738211990856,0.023523474105139767,0.01630255146402019,0.009121857384108974,0.3665153368368321,-0.605491814301886,0.7064315249876117,-1.7886293872068053,-1.8790653974066185,4.143614292144775,0.08718083260036018,1.378715425896521,-1.233714682460592,1.0,0.4915490090179984,0.4965091470526034,0.30099581231960587,0.8355273295027068,-0.10189971450345847,0.3306127816299786,-0.42685561781599796
7.4,0.2055367447901374,-0.39474096955851923,0.028709055099600884,0.025315216663744936,0.013759741232447987,0.010814943489224755,0.3666403446907248,-0.605698839161938,0.7061895603151254,-1.7886623822420644,-1.8790882167339313,4.143592173087916,0.08719622714722014,1.3787371573564193,-1.2337184436056874,1.0,0.49156294335864964,0.4965490584672835,0.30085279155307265,0.8355876996114167,-0.10189734030322611,0.33057055666591323,-0.4267707058395854
7.5,0.42320866738874285,-0.4138796286250308,0.12177650981816036,0.021394609570432117,0.014017678818295395,0.008723457531488005,0.3664974836729119,-0.60545642989825,0.7064715683609524,-1.788675486449209,-1.8790890179076136,4.143601232526631,0.08720494997093717,1.378706647038788,-1.2337617584801335,1.0,0.49156828822025683,0.49654112468707623,0.3008322277950298,0.8355982676564434,-0.10189880312972369,0.33057116819842886,-0.4267491907036343
7.6000000000000005,0.4576603639133128,-0.5061178417613743,-0.01762148913469254,0.02434025143127048,0.008787139536315654,0.012129960598580049,0.366092394131399,-0.6047261151901911,0.7073061464183024,-1.7886425966098811,-1.8790664137093425,4.143610628672244,0.08722427108675693,1.3787264823913574,-1.233763803902946,1.0,0.4915589506418415,0.4965579875789172,0.3008498880532506,0.8355905677097342,-0.10188227066798816,0.33056935208306487,-0.4267696211557724
7.7,0.48659090093093876,-0.14319999062817862,0.033269607932002745,0.030061571524748892,0.007705690466311455,0.01111878052817376,0.3658639615474121,-0.6043174085858213,0.7077739877072752,-1.7886659953696302,-1.8791001641263243,4.143602476192061,0.0871686927881895,1.3787379264831543,-1.2337260132519923,1.0,0.4915752216404526,0.49654301096692177,0.30082820808520494,0.8355958259723472,-0.10188697557585355,0.33056604602225625,-0.42676076324189877
7.800000000000001,0.07231314020445051,-0.13752806469966752,0.04349815500774581,0.02872487153822157,0.0168258250364614,0.003060952282469751,0.36580876961944553,-0.6042240906287193,0.7078821844103211,-1.7886772290702773,-1.8790881543643798,4.1436028480529785,0.08719222127880855,1.378736199396687,-1.2337471565996876,1.0,0.4915553181153196,0.49655452494784136,0.3008183671753933,0.8356061610674025,-0.10188756521206804,0.3305400805091606,-0.426760498193486
7.9,0.23647601731046775,-0.12993407737980608,-0.1832666372639567,0.0328369837639674,0.015113945211716478,0.010954266191261056,0.3650972796097053,-0.6030328652591129,0.7092618807257017,-1.7886648178100586,-1.8790881733956593,4.143604537076888,0.0872032976958092,1.3787371157516781,-1.233748956290443,1.0,0.49157197441531475,0.49655186415116986,0.3008563482601006,0.835581592432295,-0.101883582815957,0.3305738429369289,-0.42678340209854054
8.0,0.35523251213492674,-0.40916738500592376,-0.01796702394574245,0.02258421830473461,0.013125802728084553,0.004722660847177029,0.3646945270162411,-0.6023618355936713,0.7100403434302999,-1.788669651537071,-1.8790855750092883,4.143607681779991,0.08719566417713377,1.3787467436350094,-1.233724872101237,1.303196762529633,0.4915574175058377,0.49655425830585825,0.30085819375601547,0.8355864596390097,-0.10188728002722751,0.3305714535228787,-0.42677484081465034
8.1,0.3541704184223732,-0.2946705766393172,0.05016031381534533,0.02675918669069097,0.011519653690809546,0.009521625023741072,0.3651320233318026,-0.6031037619006708,0.7091848317515326,-1.7886294350235097,-1.8790788442697481,4.143585995359427,0.08720239491667393,1.3787397436658875,-1.2337268034564417,2.0,0.4915678359022137,0.4965403741000516,0.30087700957757313,0.8355785764578069,-0.10189089645762756,0.3305782347347694,-0.4267841591524333
8.200000000000001,0.316017412780715,-0.04528377619569521,-0.007350315328529491,0.034164903741221594,0.011354687550896154,0.007451450081600949,0.3654180931915534,-0.6036017024780379,0.7086145642786056,-1.7886368018201795,-1.8790841351248404,4.143611208281971,0.08720414220776362,1.3787585559839768,-1.2337144056903284,2.0,0.4915653349375469,0.49655543298585164,0.3008100066837831,0.8356083091069502,-0.10188727284748939,0.3305555125865524,-0.42674440884652104
8.3,0.18412668973098306,-0.5892558482836437,0.027043831467571153,0.021772535849908955,0.015364150101809195,0.007066764289850804,0.3653877190071084,-0.6035897728969996,0.708640387030443,-1.788698150542298,-1.8790770969786585,4.143602451658644,0.08714526856459213,1.3787268787856917,-1.233749390065627,2.0,0.49157281336336933,0.496531483174195,0.3008550088579614,0.8355824478895852,-0.10190168355726112,0.33058677794560287,-0.42676738618899746
8.4,0.16490025368245373,-0.510310172179094,-0.04306321096624566,0.017782971115753284,0.012427594331847987,0.010343825279458785,0.36535734482266347,-0.6035778433159613,0.7086662097822805,-1.7886585499951544,-1.8791012071953257,4.143608441286673,0.08721050521037668,1.3787561751073694,-1.2337389927441538,2.0,0.4915843981600307,0.49653659927551574,0.3008514129377449,0.8355807944786843,-0.10191438094213717,0.3305847457758092,-0.42676916561051526
8.5,0.19147293192194723,-0.36800834610562005,0.10522201383130213,0.02316098548856002,0.016550088394584963,0.012965749707415075,0.36511347146328554,-0.6031337898362533,0.709169483007587,-1.7886904480361205,-1.8791000693638233,4.143624116271563,0.08719309075155383,1.3787503242492676,-1.2337153099419835,2.0,0.4915629213649846,0.4965555159706933,0.3008562292322865,0.8355872272535463,-0.10188862147442068,0.33056605339682266,-0.4267772004294768
8.6,0.1518901328886731,-0.44217517947757135,-0.11316337533419489,0.02143513373081886,0.009576322129294055,0.010121501790855063,0.3650104987459339,-0.6029214264344911,0.7094030349526382,-1.788642385689251,-1.8791105274516235,4.14358130741145,0.08719144384084178,1.378748769373334,-1.2337152142258139,2.0,0.49156399673314727,0.49654187476452627,0.30084035049593955,0.8355952967986683,-0.1018980983883442,0.33056302337627197,-0.42676148501138594
8.700000000000001,0.3445094793704161,-0.24890352636220725,-0.10346945552982223,0.025810886723791067,0.00839213165433484,0.014001956589803438,0.3653436853827426,-0.6034691901109784,0.7087652480639736,-1.7886429456957296,-1.8790780586292828,4.14359425044703,0.08717274930288595,1.3787617683410645,-1.2337525686156001,2.0,0.49157191010053414,0.49654195162044346,0.3008682303632822,0.8355735010872254,-0.10189973700827659,0.33058212815731336,-0.4267889694233705
8.8,0.3512311624014828,-0.12072402415702897,0.2313756340653969,0.02735250537932677,0.009303420172246595,0.002879044307669344,0.3660373666014294,-0.60462976676152,0.7074107792507388,-1.7886422946575415,-1.8791001913432432,4.14357822880201,0.08722574158569732,1.37872719998495,-1.2337055046344083,2.0,0.4915700229979607,0.4965479010537007,0.30085884940667873,0.8355909496478043,-0.10188229930199319,0.3305679832110794,-0.4267699268123037
8.9,0.07225493182944595,-0.20034996760407764,0.1554986569443715,0.024188215205171615,0.012291354670433415,0.008620066760806538,0.36759107697894683,-0.6072523266237111,0.7043465278673304,-1.7886751486831471,-1.87910938095706,4.143591403961182,0.08719106167598727,1.3787356072775117,-1.2337024847613733,2.0,0.4915611664309709,0.49655096772905427,0.3008199695966088,0.8356084110913403,-0.10188247495992869,0.3305456009157322,-0.42675303200411224
9.0,0.13095940725962982,-0.22817703108273557,0.03438424626558176,0.022732176412607448,0.015197984407497443,0.009983219333469266,0.36859302599695987,-0.6089541262645914,0.7023627847713603,-1.7886880068099533,-1.8790890179076136,4.143614292144775,0.08721451839409192,1.3787594821219769,-1.2337167536991211,2.0,0.4915595070408891,0.4965501034790513,0.3008498130770943,0.8355877369411018,-0.1018937034024593,0.33056267172117587,-0.42677760853299
9.1,0.3798051192865425,0.02375383625822672,-0.07729524446023382,0.030902668883773816,0.005597221836727562,0.008636847782316902,0.3681885402911023,-0.6083089164143162,0.7031332475448401,-1.7886544661703445,-1.8790901558785333,4.143614292144775,0.08720414220776362,1.3787140846252441,-1.2337614282723872,2.0,0.4915671636333849,0.4965460356886512,0.30084297995244563,0.8355892824681319,-0.10190400781392198,0.3305654002276467,-0.4267700087730959
9.200000000000001,0.16221375506329408,-0.38653270526371564,0.05227392863357113,0.019712272356660527,0.010797627000545297,0.012462269573587585,0.36809189461279906,-0.6081701423045804,0.7033036663910989,-1.7886321741736182,-1.8791100504002247,4.14358108512539,0.08719008616118118,1.3787026405334473,-1.2337275057977666,2.0,0.4915735189569012,0.49654552856108053,0.3008377210711727,0.8355935404564983,-0.10190709959831094,0.33057417842991405,-0.4267541338454982
9.3,0.09786596764694838,-0.2322524314097432,0.06349873516106802,0.016559797610538808,0.009870711841943502,0.010393029579013122,0.3688251901713654,-0.6093967263915598,0.7018563579941195,-1.7886790995573831,-1.8790890179076136,4.143612499941284,0.08719595503608185,1.3787131885234984,-1.233739657824715,2.0,0.4915778764737079,0.4965318836504693,0.3008313494311918,0.8355944865044853,-0.10190092306058474,0.33057660478051737,-0.4267518768259747
9.4,0.14292620990391222,-0.6188022519410094,0.045710183729114715,0.02967416960293221,-0.013040379157323026,0.007483518477067025,0.36854103635380736,-0.6088895834135334,0.7024452081268059,-1.788697506369883,-1.8791116916523003,4.143603969441673,0.08717908551210114,1.3787276037800518,-1.2337268034564417,2.0,0.4915807498525236,0.4965511720784001,0.30083922563844995,0.8355888397937594,-0.10190075757038555,0.3305755871557015,-0.42676376087405027
9.5,-0.8193928633932,-0.5893330905749862,0.029633542325719506,0.019895226165557306,-0.1073892565961227,-0.006272837644614962,0.3680664776244877,-0.6080525563890656,0.7034196056287731,-1.7886648178100586,-1.8791136125893633,4.143603570763864,0.08719068551817578,1.3787287107499226,-1.2337268034564417,2.0,0.49156017906512944,0.4965495887677321,0.30083335351113444,0.8355938080791239,-0.10188758169558446,0.33056274910550426,-0.4267671232649783
9.600000000000001,-1.993866665453198,0.04990787933492537,0.2633797443252695,-0.06845614394707761,-0.2575539242882297,-0.014004053948986711,0.36759195008475487,-0.6072112978830905,0.7043887033543895,-1.7886929554447017,-1.8790982737084831,4.14360817830915,0.08716941390033664,1.3787617683410645,-1.2337144056903284,2.0,0.49156048419900317,0.49656308633527374,0.30081591970022364,0.8356094592959398,-0.10187939668172431,0.3305469917038035,-0.42675063719047956
9.700000000000001,-2.7267761376212523,1.3306038335466237,0.26252691353108026,-0.12976191720234734,-0.3175901464615748,-0.024395915688626448,0.36584821545565716,-0.6042461927308981,0.7078372801778544,-1.7887214969265381,-1.8791235053345114,4.143647981048864,0.087144910263038,1.3787630437010319,-1.2337170074246622,2.0,0.49154443245208485,0.49656165821660875,0.3008046675941365,0.8356190530956288,-0.10186799636312269,0.3305423450516321,-0.4267381721246591
9.8,-2.8574368296936736,1.0139706988194488,0.3928284891934217,-0.12805926585462388,-0.35055728853275037,-0.032494760817893265,0.36533365492667386,-0.6033479312867182,0.708874150665398,-1.7886896133422852,-1.8791128597655238,4.143658189669169,0.0871599901566146,1.3787379264831543,-1.2337602427797074,2.0,0.4915541822117256,0.49654431221991646,0.3007929577448405,0.8356196491922392,-0.10188512061224528,0.3305394767019437,-0.42673513849139755
9.9,-3.0914212967842265,1.2540220727284892,0.7067150176362599,-0.14098329556978756,-0.4014747538981538,-0.0376563593701635,0.3652803178083098,-0.6032252123016069,0.7090060757741203,-1.7886896133422852,-1.8791247806944789,4.143640495821191,0.08716790258374019,1.3787400386994375,-1.2337716708838844,2.0,0.49153698995288636,0.49657947651284734,0.3007837152583911,0.8356271746056719,-0.10184812751326232,0.33053851256648914,-0.42672997983844213
10.0,-3.5390785113106498,1.2683721146356357,0.47583592669696373,-0.16923801103896147,-0.44811516663237666,-0.052259348147505415,0.3650027273708846,-0.6027612037815332,0.7095428274947042,-1.7887147677376378,-1.879125870219363,4.143597941110486,0.08718138987473759,1.3787195322496648,-1.2337398139102809,2.0,0.49155222299082324,0.4965635847271708,0.3008096375008996,0.8356029527700705,-0.10187572530697034,0.3305490616029999,-0.4267626504141317
10.100000000000001,-4.045087345953359,1.4986411632751602,0.7669237971266512,-0.18781083822956107,-0.48431421790920326,-0.05158603923878954,0.36463717788362576,-0.6021633310076808,0.7102383646650458,-1.788703410064556,-1.8791260060228507,4.143649355453562,0.08719099595043664,1.378703389024661,-1.233718130688579,2.0,0.4915454055370675,0.496576146280324,0.30078880361462773,0.8356188110050005,-0.10186699254514472,0.3305347949666227,-0.4267447338172665
10.200000000000001,-4.103210940178585,1.5801895589360524,0.8401640889761391,-0.18998417496120396,-0.5010514112080888,-0.048301704231869635,0.36474048007264365,-0.602376897298522,0.710004207688574,-1.78873274352965,-1.8791128597655238,4.1436528996035955,0.08717022488325243,1.3787037333802765,-1.2337398627675107,2.0,0.4915605438234889,0.49655552145665777,0.3008148946937315,0.8356047132680735,-0.10190081829026273,0.3305602658295593,-0.4267445337091582
10.3,-4.08372113627861,1.1246616884361993,0.7689687010665424,-0.17895872820570743,-0.537338648238889,-0.05690292467505782,0.3650128599929436,-0.6028724505983533,0.7094437275853096,-1.7886789941725918,-1.8791247806944789,4.143637721541634,0.08722667047397367,1.3787180779440125,-1.2337387243853968,2.0,0.4915448021927539,0.49656327489864993,0.3007986927981683,0.8356155902035886,-0.10187806761165813,0.3305480760527057,-0.42673810957808483
10.4,-4.376515225676172,0.9276067988947149,0.5621126227064474,-0.17308029177285314,-0.5490517479971728,-0.06192490660097871,0.3651049440875931,-0.6030080692198898,0.709281041559727,-1.7886688460684692,-1.8791102095955168,4.143658901276502,0.08720944254777774,1.378751596330871,-1.2337479951443449,2.0,0.49155326731161564,0.49656238933107266,0.30080890566427093,0.8356049533028858,-0.10187376811272414,0.33055447454883796,-0.4267550078697832
10.5,-3.811445035197831,0.9271588892249478,0.4541439074714018,-0.18158218772764176,-0.5263442403960371,-0.05161395312243644,0.3651388145126015,-0.6030628368159854,0.7092169767785346,-1.7886736401352175,-1.879102304340026,4.1436294209178035,0.08723580848425709,1.37873934660675,-1.2337451286803844,2.0,0.49154524211673956,0.49656763759503536,0.3008180018676392,0.8355995869832644,-0.10187123421907031,0.33056079617786,-0.42676122352240564
10.600000000000001,-0.5055188206224495,0.6726711074627081,-0.08314867272413007,-0.16055788810641922,-0.2051142215764472,0.008246130324333578,0.3648875784995015,-0.6027216295830936,0.7096359179971914,-1.788675023172511,-1.879040380517477,4.143596241496475,0.08723185509487512,1.3786182403564453,-1.2336957768184094,2.0,0.49153977258455556,0.49656732999011777,0.3008309767003919,0.8355942720790034,-0.10187435875480573,0.3305543659053717,-0.42677586468538187
10.700000000000001,-0.3366509044596158,1.862021286536259,0.30250334857974076,-0.21740180538463028,-0.15847059604519206,0.02092200606013974,0.3646363424864015,-0.6023804223502017,0.7100548592158482,-1.7886648178100586,-1.8790786041842216,4.143580573688854,0.08720558912510411,1.378686614536739,-1.2337341424804853,2.0,0.4915691309166803,0.496541163060985,0.3008616772011658,0.8355709558700937,-0.10190070022424344,0.33060050221664805,-0.42677948982378133
10.8,-1.8387142597460946,1.7371693413876794,0.21745959878833837,-0.2273302330372696,-0.22075245420100081,0.006211173128038183,0.3639600536020736,-0.6012290906674018,0.7113740620967495,-1.788671911782497,-1.879098076915938,4.1436194778708995,0.08719365223912388,1.3787384033203125,-1.2337553542033177,2.0,0.4915805328654997,0.4965255103247006,0.3008603245963092,0.8355798888255996,-0.10191832401790105,0.33058868412423376,-0.42676694641055357
10.9,-2.078673361282067,1.68981312577109,0.5671811926796846,-0.22964073590292475,-0.2643434002593203,0.0020968001741203243,0.36312206274176434,-0.5997645490310275,0.7130388644529497,-1.7886677492554173,-1.8790904272563438,4.143573711546555,0.08719222127880855,1.3787698816870382,-1.2337296221539018,2.0,0.49157193077408323,0.4965338716294674,0.3008400921961784,0.8355984184099519,-0.10189420628341146,0.33057265975730105,-0.4267488377226637
11.0,-2.1758761878569906,1.8082473543474324,0.4716242686080101,-0.22810150116747901,-0.2648459812246155,-0.0014114025093626774,0.36260037344005985,-0.5988748466883816,0.7140511350291912,-1.788686621995159,-1.8790785351263155,4.143601467431228,0.08716179177131882,1.3787617683410645,-1.2337477690190382,2.0,0.49157527706915344,0.4965457969678142,0.3008665496378902,0.8355746368334533,-0.1019027231803421,0.33057111579682597,-0.4267945626292753
11.100000000000001,-2.3404990232059992,1.8380723417088813,0.458551617643164,-0.22238186373575275,-0.27307695826431133,-0.004449623885704813,0.3625488695487077,-0.5987727551099866,0.7141633076275475,-1.7886750543196375,-1.8790783548768022,4.143614292144775,0.08719222127880855,1.3787515318314856,-1.2337050508735865,2.0,0.4915533715153561,0.4965622759032464,0.3008536513836527,0.8355833738144975,-0.10189557431052501,0.33054853567639036,-0.42679665287218965
11.200000000000001,-2.19081037158292,1.6763547423593832,0.7086139608965354,-0.2240880358252138,-0.27713984326114127,-0.0004365816139194926,0.36276076564038967,-0.5991118866265102,0.7137712412876385,-1.7886762619018555,-1.8790785882099257,4.143601416470962,0.08719960886471166,1.37877261522666,-1.2337024847613733,2.0,0.4915512308385884,0.49655924967163156,0.30083310599599394,0.8355916885187566,-0.10189124090641766,0.33055073083291414,-0.42677970833997014
11.3,-1.9201318398745335,1.4248825322052783,1.5673169862995235,-0.21136193812927245,-0.2574886503909613,0.0023210018880665804,0.3625997762694728,-0.5988473519219966,0.7140749312728665,-1.7886724423717415,-1.8790796098274176,4.143592610128586,0.08718155677423305,1.3787592554923054,-1.233703741185753,2.0,0.4915680701034739,0.4965354706318129,0.30082632478781124,0.8355951897411455,-0.10189961477707557,0.33056966663034193,-0.4267561867081102
11.4,-1.9563795019877899,1.2562543222449303,1.687754480442215,-0.1970235708241698,-0.2551817206277609,0.0005764560680688975,0.36272313366531855,-0.599050078834154,0.7138418646417309,-1.7886648178100586,-1.8790964488664526,4.1435928407516185,0.08721157316660248,1.3787379264831543,-1.233762566243307,2.0,0.49155698278909676,0.4965583650190445,0.30084036010435417,0.8355916463488435,-0.10187435099317563,0.3305648826272103,-0.42677286176068796
11.5,-1.8594941919451038,1.0327632540201206,2.3771182590408015,-0.18876210425584122,-0.26006036889083617,0.0028473828158024008,0.36307230464299733,-0.5996205377825458,0.713185540449032,-1.7886978903482127,-1.8791009388365687,4.143595910967996,0.08718911509843666,1.3787633518839992,-1.2337086362166196,2.0,0.4915670686525222,0.496551148011984,0.30083820458714117,0.8355940873276092,-0.10188499350336315,0.33057428325084376,-0.42675826011355694
11.600000000000001,-2.2388871301271687,0.6515593386796774,2.5443669365509063,-0.1801141147647522,-0.28584153302263965,-0.01010120970620233,0.3628263697890291,-0.5992119384517813,0.7136537200182793,-1.7886448772150942,-1.8791009388365687,4.143594470237347,0.08719381829764478,1.3787503242492676,-1.233740321404233,2.0,0.4915787568284318,0.4965343052903867,0.3008314416388903,0.8355919241688152,-0.10190436462699705,0.3305760635439581,-0.4267564913924641
11.700000000000001,-2.2953772054281942,0.28185545464692796,2.6966183836568542,-0.16122446446192268,-0.2920976430602604,-0.0102003251851207,0.36261565000237134,-0.5988589946607044,0.7140572703525829,-1.7886598300364513,-1.879102579551571,4.143612717058373,0.08721278170671391,1.3787584869110596,-1.2337234563978368,2.0,0.49156649582578826,0.49655406520686274,0.3008234999083973,0.8355969221678465,-0.10188535728769511,0.33056409381089125,-0.42676051541463494
11.8,-2.6265010241926654,0.32952125054012177,2.832489935953019,-0.1373995358549483,-0.29454996504095027,-0.015715628861554424,0.3627083833780983,-0.5989856424425609,0.7139039015263111,-1.788674992055262,-1.8791115370086557,4.143626689910889,0.08720414220776362,1.3787193756527167,-1.2337334172407823,2.0,0.4915567526655022,0.49654756712762604,0.30083439261464306,0.8355971403685998,-0.10189143819449847,0.33055924481463006,-0.42676239231925883
11.9,-2.294607911972615,-0.23776744057413335,2.9363077253595904,-0.135930207487558,-0.2937813583872958,-0.013336263537386837,0.36278933775469524,-0.5990974125163675,0.7137690003448642,-1.788654872129902,-1.8791128597655238,4.143637464397725,0.08721762398217735,1.3788009157908125,-1.2337729263268034,2.0,0.4915564356807752,0.49656689081045874,0.30082388028564744,0.8356022795147782,-0.10187354310234145,0.3305527188949338,-0.42676165680230616
12.0,-2.3410587359634216,-0.08108422904571966,2.8151847786506767,-0.12040599008638876,-0.2877548968546499,-0.011883612274780051,0.36275702948800975,-0.5990661238700635,0.713811677431739,-1.788696350448433,-1.8791024871871111,4.143635867107873,0.08719222127880855,1.3787586716399796,-1.2337283518069841,2.3032966720192025,0.4915744401401007,0.49655186487196074,0.3008432223885088,0.8355910295695438,-0.10188100519915952,0.33057853680440014,-0.4267619044464726
12.100000000000001,-1.881530030752431,-0.5405239720933224,3.0729453225032692,-0.1258201683832981,-0.28910931568739395,-0.01293884283235828,0.36272472122132426,-0.5990348352237594,0.7138543545186139,-1.7886879202556654,-1.8790421547771041,4.1436251177590275,0.0871952446477725,1.378709489104419,-1.233758031189861,3.0,0.49155478491559706,0.4965575958507295,0.30082421736717596,0.8356025968370848,-0.1018921519886836,0.33055111072027454,-0.42675783850308835
12.200000000000001,-2.430731796046083,-0.02757274773473939,3.3634910209643576,-0.11850870791368477,-0.32113194760561525,-0.021642306404237036,0.362544961716825,-0.5987702011657792,0.7141674283990519,-1.7892612503109846,-1.8783471443781645,4.143710068274531,0.08716545025890629,1.378607403684621,-1.2336952471152853,3.0,0.4915594987474192,0.49655238067113394,0.30085083103418303,0.835590331297572,-0.10188537540519874,0.33056838764639623,-0.4267700898720733
12.3,-2.6609343447152685,-0.4426109747917117,3.639542688864808,-0.09822712664917875,-0.34120719869373034,-0.059539667614084385,0.362303499203438,-0.5984079479506618,0.7145936204250907,-1.790465687036767,-1.8772409749735235,4.143866263012365,0.08693949758496089,1.3784671715688857,-1.233615279689656,3.0,0.49135821813613373,0.49632422831948897,0.3010259490335798,0.835560444032602,-0.10190185122846876,0.33060035769862095,-0.42679990695148473
12.4,-3.1426502046570692,-0.4856729405775349,4.157994710970386,-0.10083094134539217,-0.38791924919330995,-0.08951936486211712,0.3625758697969253,-0.5988591789582774,0.7140771446199373,-1.7916158226234498,-1.8758146328349004,4.144084846368621,0.08679361336334442,1.3783178329467773,-1.2335131245119793,3.0,0.4911692501017817,0.49611606274187897,0.30107388185583667,0.8355993728819057,-0.10190774658923402,0.33055789255412565,-0.42675517442046995
12.5,-3.180943590147877,-0.797139485434097,4.449871859639151,-0.10889957735008801,-0.408009742986918,-0.12314178181742946,0.3629433506116807,-0.5994553137550592,0.7133898720621501,-1.792527198791504,-1.8744277516768069,4.144228725028232,0.08663861333813472,1.3781401975032987,-1.2334181292991429,3.0,0.49070746592513864,0.4956441157580343,0.30138264511060664,0.8355993308693214,-0.10189720196289029,0.3305698168316181,-0.426748537997246
12.600000000000001,-3.2768202129936843,-0.31968984840203724,4.720025683505161,-0.08287851480044764,-0.41057868338743814,-0.14857745029815989,0.36303169046177763,-0.5996009903770954,0.7132225766322468,-1.7935733050739728,-1.8734293543471314,4.144469779671477,0.08645345913722603,1.3779240443403005,-1.233374835136361,3.0,0.490496212761824,0.4954677446367856,0.30161545494252606,0.8355483729950405,-0.10188811824214,0.3305912944895825,-0.4268338362338658
12.700000000000001,-3.3078651901017926,-0.8476517117138924,4.325289366688348,-0.06396302430942477,-0.4052519521241517,-0.1746307374269282,0.36284107142375427,-0.5993016991818104,0.7135710590338533,-1.794746733115073,-1.8722835979857386,4.14465856552124,0.08628834212111114,1.3777240722388153,-1.233262575360865,3.0,0.490183667413525,0.49515257347623676,0.30182057985453303,0.8355543727140542,-0.10189318112681242,0.3305924018977771,-0.4268200249352655
12.8,-3.153338463477178,-0.843827293569824,5.35160237440176,-0.06751346095123485,-0.42945140902230833,-0.2001760166070256,0.36206783123106245,-0.5980014662339955,0.7150488623862774,-1.7959692633329933,-1.8709960634340415,4.144841685311529,0.08609822987110098,1.3775624558244042,-1.2331905556840321,3.0,0.48974272253218326,0.49468362914030395,0.30196065756008367,0.8356132298185719,-0.10191046014307423,0.3305677452433896,-0.426719760580996
12.9,-3.1461576678793652,-1.5819433286068283,5.0328885559822405,-0.019005150606778883,-0.400512910513785,-0.22655060153060416,0.3607938915894165,-0.5958434527984843,0.7174935477325542,-1.7969485480231588,-1.869594947393858,4.145030070667174,0.08588502548464018,1.3773960779447718,-1.23312764317956,3.0,0.4895507653097511,0.4944824428816511,0.3020530391310434,0.8356308590136078,-0.10190270867804749,0.3305401814054641,-0.42670844133283836
13.0,-3.273514734223154,-1.2526182643729102,4.975601828285607,-0.02024811752470046,-0.40536035158496825,-0.24994515600408376,0.3590066731519799,-0.5928622990367522,0.7208447385865081,-1.7978909096261162,-1.8682716532015569,4.145247828175426,0.0857243942211976,1.377203234150042,-1.2330134000761832,3.0,0.4892293252187542,0.49414884427241024,0.3023194994907,0.8356067808630196,-0.10190575037297232,0.3305694492649132,-0.426732193570341
13.100000000000001,-3.0738438153935173,-1.128855702526302,5.090277409631617,-0.014574183083022304,-0.40759181074463957,-0.25515748504290797,0.35778905378047887,-0.5908205299540327,0.723128016232931,-1.7989374676084569,-1.8672899325027248,4.145453401476155,0.08552643059816711,1.3770408114492998,-1.2329395594458847,3.0,0.4887567641732314,0.4936548642645484,0.3028054457927936,0.8355371497770698,-0.1019074716826318,0.3306243964715786,-0.4268255463482339
13.200000000000001,-3.243747359802577,-1.2803125919317875,5.167054438407736,-0.01589518729556,-0.40711042799889613,-0.24465430371323468,0.3570744839561612,-0.5896083918620735,0.7244681510836449,-1.8000396036759518,-1.8660704625630367,4.14562803450954,0.08539227280094941,1.3768802807091525,-1.2328302378046623,3.0,0.4885722605985127,0.4935296292711664,0.30281133636343455,0.8355806765659798,-0.10189643621649697,0.3305972323560896,-0.4267640087851953
13.3,-2.932475084516435,-1.4597073616144634,4.788683092704068,0.0020291099296268038,-0.39562835853217215,-0.23718880628818292,0.35633861382929133,-0.5883600189058777,0.7258473481577953,-1.8012274618518724,-1.8647919345518804,4.145797252655029,0.08522335366017918,1.3767442563398897,-1.2327474442862083,3.0,0.48816061946683714,0.4930955150226228,0.30299759239654595,0.8356100897416066,-0.10190568471194722,0.3305661507180901,-0.4267282851473976
13.4,-3.568280223979433,-1.3158181586287137,4.140865489057575,0.006019382797813772,-0.41276686356706577,-0.2439320328953226,0.3546443534159333,-0.5854812868582289,0.7289841191170295,-1.8023398655940364,-1.8634418326523843,4.146023716454814,0.08498589574780269,1.376558780670166,-1.2326402813037722,3.0,0.4879601392258089,0.49289190278659223,0.30310841679474004,0.8356132848979689,-0.1019053618407129,0.33055473145551856,-0.42673095135285066
13.5,-3.18589584995306,-1.772538339599073,5.114644699686843,0.013362712426785467,-0.4012905714022766,-0.2348030830434659,0.3529624950538392,-0.5826235073963293,0.7320978316444917,-1.8032371433021308,-1.8623411099268372,4.146207779624329,0.08477240719641206,1.3764028984462255,-1.232592200010887,3.0,0.4876151163457787,0.4925456576251474,0.30336751681538643,0.8356017160468291,-0.1018917543944505,0.33057609763976337,-0.42674030298916094
13.600000000000001,-3.4221291070646163,-1.3449361193559883,5.574595890254556,-0.02832395100706498,-0.4331338549896517,-0.2320159195478783,0.3523155060965805,-0.5815140830639726,0.7332874700767402,-1.8042975699632688,-1.861133839003857,4.146404618906198,0.08461956205162373,1.3762154889883553,-1.2325052398734118,3.0,0.48711564207853614,0.4920897308549416,0.3037025150319051,0.8355997332201484,-0.1018753072356739,0.33055831716002887,-0.4267618851003262
13.700000000000001,-3.565591913508614,-1.4691271483890906,5.681326294085279,-0.0215224348622222,-0.4314050874731079,-0.2269978352486637,0.3516685171393218,-0.580404658731616,0.7344771085089886,-1.8052829695388075,-1.859906568279371,4.146611866884989,0.0844540660702332,1.3760560179416714,-1.2324576393050535,3.0,0.4869717537242082,0.49191505109054057,0.3037935526893279,0.8356027037252544,-0.10187208626745249,0.3305757704638027,-0.42674331810682775
13.8,-3.72111541923837,-1.2074917417826025,5.785730460800481,-0.022345382585684886,-0.45695317127319957,-0.22974123949210254,0.3512737153023444,-0.5797296619512414,0.735200776101159,-1.806484471845609,-1.8586607119250074,4.146826869367616,0.08424609562559983,1.3758764266967773,-1.2323420187193943,3.0,0.4866561074935935,0.49158668489302115,0.3040479801590107,0.8355879541593186,-0.10188850790282306,0.33057957552311074,-0.4267653302087004
13.9,-3.9556719552992035,-0.9805113736186413,5.130256179393639,-0.008361412736009039,-0.4454913361845939,-0.23276285036716743,0.35112792203555593,-0.5794836172261865,0.7354643459194693,-1.8075475692749023,-1.8574599442464523,4.146996021270752,0.084064689190861,1.3756730255523613,-1.2322786148543612,3.0,0.4861743117772562,0.4910994767404561,0.30430383756328694,0.8356045735338804,-0.1018865783000518,0.3305562361866069,-0.4267513287263597
14.0,-3.8793028154665645,-1.1686715998425188,5.699632825933426,-0.005138721146354549,-0.44261819422471765,-0.22915271544932198,0.350003735124659,-0.577571003009944,0.7374854969595406,-1.8085298538208008,-1.8561828673082787,4.147210228282623,0.083873911494873,1.3754962835079836,-1.2321956824955833,3.0,0.48598552557176355,0.4909264980268719,0.30439477972020673,0.8356123737528267,-0.10188515062621571,0.33054750287189055,-0.4267431607632364
14.100000000000001,-3.358508493729642,-1.896146504899018,5.3678765684253165,0.010370813850469037,-0.4286086437410295,-0.22847872589913837,0.3478674003946995,-0.5739343233462417,0.7413248650446045,-1.8095593143380906,-1.8548322286992613,4.147381006203306,0.08369215356703828,1.3753365949704028,-1.2320880394262925,3.0,0.4857015207389422,0.49066683558692614,0.3046025652841195,0.8356061891207814,-0.10186748773798981,0.33054992051916765,-0.42675761468281664
14.200000000000001,-3.691587861074458,-1.3741351855619386,5.327737204395743,0.0448419810032018,-0.4115177828731224,-0.22825953081701883,0.3461886412105692,-0.5711060334767787,0.7443012442542564,-1.8105849481933203,-1.8536769429954216,4.147616291264424,0.08346662654235874,1.375133991241455,-1.2320256393199773,3.0,0.4852290186514686,0.4901725049505871,0.30502607689825184,0.835548953593914,-0.10188488272081975,0.3305914769822626,-0.42683333066639284
14.3,-3.424759142995268,-1.6311423206537587,5.299057191692387,0.035920921767491544,-0.41727662859910697,-0.22779407005185492,0.34500064661919017,-0.5691447678435765,0.7463520399447473,-1.8117343085433988,-1.852564909475241,4.147808868846407,0.08327251919517639,1.3749324820336697,-1.2319187292194675,3.0,0.48499285877802983,0.4899316114137885,0.30514995952327084,0.835564536697065,-0.1018878060838536,0.33057935292554386,-0.42681151742305024
14.4,-3.2131065788397306,-1.8856841264702284,4.9827780324080475,0.046994783221778344,-0.4048832928278108,-0.23488554485156188,0.34353937549185803,-0.5667184648184203,0.7488629256701258,-1.8127167331633711,-1.851360690652426,4.14797830581665,0.08308570161326646,1.3747942983055574,-1.231825655647589,3.0,0.4847541772988222,0.4896889391263135,0.30523389705891074,0.8355927059769429,-0.10188562779948702,0.33056252540030323,-0.4267699208789307
14.5,-3.442078923720336,-1.743774407743796,5.081363146911784,0.05278982036695076,-0.4062935798116162,-0.23087518399525125,0.34177137523917095,-0.5637701977980977,0.7518902224129866,-1.8137619269549483,-1.8499059298623504,4.148167349165641,0.0828853043159525,1.3745769216907084,-1.2317743324196737,3.0,0.48434355238097804,0.4892527325772813,0.3055114695067541,0.8355847778546124,-0.10189989442846106,0.3305732328697856,-0.4267737436196673
14.600000000000001,-3.2434871589039234,-1.7876643124670168,5.382174743552472,0.048643423906723236,-0.40822074666893843,-0.22652007993389126,0.34059454878976597,-0.5618137515315224,0.7538962428842017,-1.8148241912415894,-1.848700040793037,4.14837352399789,0.08266465246166987,1.3744025013076446,-1.2316668451998773,3.0,0.4839466939084031,0.48886100148511424,0.3058427019570229,0.8355579401996377,-0.10190038098964888,0.33058508720280333,-0.4268169877624581
14.700000000000001,-3.3015462521574532,-1.6101423993987147,5.476529012910691,0.0334203701759809,-0.4062270752137717,-0.22329733264236196,0.3401040980574503,-0.5610088476325181,0.7547165219889936,-1.8159607963310378,-1.847565023766865,4.148533256505599,0.08247475571929579,1.3742347919144933,-1.2315521949082169,3.0,0.483780979123138,0.4886745871089013,0.30596038726067365,0.8355552632930707,-0.10189325573017305,0.33060899408083105,-0.4268054116957913
14.8,-3.3496411035259563,-1.4094376375917554,5.675552759847511,0.022429830840853128,-0.40918081531116546,-0.2223945852190913,0.3396409747161687,-0.5602140935853763,0.7555151825568843,-1.8170508611245761,-1.8465695632795214,4.148726867441715,0.08232262572094666,1.3740376081164545,-1.231539343571189,3.0,0.4834703701481225,0.4883587880708627,0.30607758579767397,0.835581370084799,-0.10191716108053366,0.33058461179767834,-0.42676747847870583
14.9,-3.348533762238052,-1.115898448280856,5.647799954273386,0.0011674245811980825,-0.4169748178121259,-0.2200032368991292,0.3392107095853995,-0.5594315436293144,0.7562878491894013,-1.8179443374602011,-1.8452311891448128,4.148989108523795,0.08209628304831806,1.3738597583870058,-1.2313724947491274,3.0,0.48300067281206477,0.48792496750210845,0.30619482054980385,0.8356601528792079,-0.10187273033649277,0.3305425048851411,-0.4266564287198116
15.0,-3.249180367701911,-1.242976376339689,5.833472120140835,-0.0024653969021911646,-0.40647548076110146,-0.21816092014282695,0.33765579612097607,-0.5568010008451707,0.7589114844645909,-1.8186633115122122,-1.8437647732420357,4.149138218548649,0.08174204395922717,1.3737404205755395,-1.2313009594680941,3.0,0.48280955405361725,0.4877456216532082,0.30637431247636215,0.8356349770045473,-0.10188339333807392,0.330540749377155,-0.4267045492723487
15.100000000000001,-2.9389337590050157,-1.711147550217012,5.626674832642217,0.04050729114300936,-0.38390126448988704,-0.21955934544530295,0.3348037378018689,-0.5520422368763068,0.763638734585174,-1.8196956337115053,-1.8425188718641536,4.149333477020264,0.08143546098481744,1.3735565533081766,-1.2312395602253117,3.0,0.4825286829224436,0.48743123224987556,0.3068498834349426,0.8355307667049605,-0.10189481244228447,0.3306242294007956,-0.42684119297450945
15.200000000000001,-3.4205425629533717,-1.9489471155090314,4.65579486517645,0.06978711057422861,-0.386093636161243,-0.23258893835030062,0.3331805014788854,-0.5493269182396969,0.7663097539832872,-1.820260739410072,-1.8420724224584992,4.149416446685791,0.08122378323765744,1.3734515060523504,-1.2312138716327112,3.0,0.48205384960755504,0.48695599664668937,0.307177939909471,0.8355581546093249,-0.10189915256685977,0.330590474806146,-0.4268126883534067
15.3,-3.1791601987830918,-2.0824431149612304,4.77621571001235,0.050912784239369346,-0.3857142979676839,-0.22445052982276667,0.33308023542078374,-0.5491300525227987,0.7664944497561322,-1.8201978888147592,-1.842044015923971,4.149441242218018,0.08118656798936527,1.3734799282732844,-1.231205268484757,3.0,0.4819812036686255,0.48686394328246607,0.30719054746439267,0.8355855297481435,-0.10189398575068415,0.3305884417187406,-0.426761901234551
15.4,-3.254123222328124,-1.8540857658362249,4.724083474053667,0.05928219661428586,-0.37786954973952985,-0.22384736134091987,0.33313747293232776,-0.5491941667089612,0.7664236169110309,-1.8201830792163383,-1.8420402683093975,4.149427890777588,0.0811833242883658,1.3734852932256216,-1.2312106008552959,3.0,0.48194538350687854,0.48686454975722615,0.3071754287913676,0.8356021748164153,-0.10188121976824713,0.3305609583874047,-0.42675364707359154
15.5,-3.034272990364458,-1.8915407927378982,4.889398627554498,0.062325190449870345,-0.37717260836321076,-0.22442866585433102,0.33342769878059525,-0.5496796013065707,0.7659489914396567,-1.8202602119246174,-1.8420411373202037,4.149393853746518,0.08120432987426372,1.3734728897559314,-1.2312138716327112,3.0,0.48195131073026715,0.4868669358046598,0.30717013485313266,0.8356011690775547,-0.10188632628327736,0.3305677754107769,-0.4267491167099137
15.600000000000001,-3.096121196743912,-1.5853187905112236,5.078313296773092,0.0634979529733604,-0.377857307775374,-0.22259297745523282,0.3337165532034095,-0.5501538204814376,0.7654828353448072,-1.820255842773046,-1.8419513330889299,4.149439244735946,0.08120374729143312,1.3735017437979058,-1.2312157264374919,3.0,0.48195159799625026,0.48686352753998297,0.3071861000820691,0.8355968178766655,-0.1018840573545148,0.3305637033874308,-0.4267613323793044
15.700000000000001,-3.1618825468380294,-2.041540967116094,5.2882627040325545,0.04758683830703924,-0.37609988093762503,-0.2196026752173026,0.3335782570615206,-0.5498865236385472,0.7657351547476259,-1.820287683071008,-1.841963422146809,4.149405801689038,0.08117143275204403,1.3734930482982308,-1.2312364922508119,3.0,0.48193244791421397,0.4868581378596676,0.3072013982392066,0.8355917338762024,-0.10187707524130286,0.33056649004350086,-0.4267707950157316
15.8,-2.9622291125428575,-1.9540037259066725,5.133591060448151,0.05200077805908695,-0.38200544378949136,-0.2223265019153047,0.33320251771497617,-0.5492630950567532,0.7663449587733684,-1.8202674255022384,-1.8419701578399703,4.149423869378239,0.08118168889965816,1.373452582621993,-1.231222483825676,3.0,0.4819237098572175,0.4868667209442794,0.30718349853303084,0.8356068378412456,-0.10185513813774386,0.33053937225611735,-0.42676746218101874
15.9,-2.961619374033821,-1.5960263669818406,5.065174087897947,0.05857125366422769,-0.3851620829770892,-0.2219606512936721,0.3327868931848578,-0.5485798442543012,0.7670148122742301,-1.8202836123697483,-1.841985569037719,4.149418015897646,0.08121254789947868,1.3734816117879016,-1.2312122370370298,3.0,0.4819187789199625,0.48686056596290833,0.3071941066210811,0.8356042161877733,-0.10187123630597393,0.33054101116763535,-0.42676748357740035
16.0,-2.981528899783002,-1.8981967037043217,5.192684095116222,0.05216243766655623,-0.3827119992605198,-0.2242939724415404,0.33271761169767083,-0.5484628413964854,0.7671286082214194,-1.8202753067016602,-1.8419637874000587,4.149422062806007,0.08118168889965816,1.373473510419606,-1.2311937245907325,3.0,0.48194596039218274,0.48684088049357505,0.3072143906414127,0.8355824474176199,-0.10189366889956977,0.3305706845318139,-0.4267817666371575
16.1,-2.891964817165453,-1.9738638235330708,5.1533913655422,0.050718120860623855,-0.3823036232138584,-0.21888967623657635,0.3332956517139666,-0.5494041663392326,0.7662031223957755,-1.8202850957889405,-1.8420060523369095,4.149418101690308,0.08120380679453021,1.3734556301494445,-1.2312516194489396,3.2996385195142,0.4819382096724807,0.4868484408988437,0.3072207125299418,0.8355870893928335,-0.1018795603567592,0.33056182584272964,-0.42678290794858115
16.2,-2.7613790816370414,-1.9600460685835033,5.108929094087917,0.047888824074843704,-0.38794507352921875,-0.21751565767596953,0.3337611251372946,-0.5501807711375919,0.7654439537303268,-1.8202770470828713,-1.8419554232435518,4.149406742975205,0.08119542272570811,1.3735052824764549,-1.2312175699427848,4.0,0.48193008582728547,0.48685943367512496,0.30721705275282485,0.8355890389862279,-0.10186394314628475,0.33056421166345384,-0.42678097073332794
16.3,-3.1438060245815875,-2.058898052747753,5.161977922562332,0.04666330616502814,-0.37946913245721,-0.22366963308982415,0.3340089909740627,-0.5506389479536072,0.7650063003109152,-1.8202343961813756,-1.8419856277409214,4.149441242218018,0.08118852982714928,1.3735036362598982,-1.2312087916312473,4.0,0.4819411521979657,0.48684229981303645,0.30721969230762225,0.8355838624370941,-0.10187791367775233,0.3305804046006585,-0.42677522846744637
16.400000000000002,-3.1306437547260613,-1.8148065727652674,5.0063113634350085,0.04971074168665184,-0.38272017672509157,-0.21678058437177805,0.3338949274216136,-0.5504425203576232,0.7651974073008557,-1.820298067205527,-1.8419664898646773,4.149420226024174,0.08122432580423151,1.3735089125268574,-1.2312120546431042,4.0,0.48194091816846324,0.4868452813787583,0.3072255501450748,0.8355790014951087,-0.10189610169077747,0.33056866073774815,-0.4267894999396211
16.5,-2.8541759254890025,-1.941691496195371,5.059240776644695,0.045432045980027605,-0.38642341456334695,-0.21701125950075575,0.33382304156988185,-0.5503259439080994,0.7653126439517884,-1.820286750793457,-1.8419945563944116,4.149395202781043,0.08119101187545148,1.3734729839254767,-1.2312461623679287,4.0,0.4819259814752321,0.48684308884473276,0.30722628801014706,0.8355885912788665,-0.10187410044042397,0.3305595190943248,-0.426783057442751
16.6,-2.978906253586306,-1.7502089708305355,5.102822904198129,0.05190706032177783,-0.38538178248807553,-0.2167729613840033,0.33399342183804664,-0.5506550856764831,0.7650015113042404,-1.820254355101834,-1.8419710048757034,4.149429020451453,0.08121543441176556,1.3734862472573879,-1.2312019507037562,4.0,0.48194340415250314,0.48682455695889504,0.3071967584063941,0.8355911102059348,-0.10188889558807543,0.3305742854199796,-0.42676315600075626
16.7,-3.013670525501595,-1.698379400503324,4.917909271777578,0.052870369032817416,-0.38496406405288813,-0.21751937726055418,0.334259950640234,-0.551039313908571,0.7646083269960925,-1.8202654001895624,-1.8419839344420375,4.149406540173693,0.08119847883099375,1.3735038195666263,-1.2312035523492761,4.0,0.4819246945531648,0.48684835318648434,0.30721057604080143,0.8355917220707558,-0.10187461141011202,0.3305499063659092,-0.4267842510664567
16.8,-3.0840032623554237,-1.361145827276902,5.108266346507349,0.06135421823021989,-0.38214833767483475,-0.21370807034399303,0.3339696920080053,-0.5505655785221203,0.7650759047352454,-1.8202888300423448,-1.8419500281273935,4.149416446685791,0.08121745168652339,1.3734649828173982,-1.2312075943793086,4.0,0.4819343093070772,0.48683638222899694,0.30719595993568977,0.8355929227620043,-0.10188357305725253,0.3305644482935625,-0.4267684975434707
16.900000000000002,-2.9556141979124027,-1.4674066187679942,5.17073855276803,0.06151216821245755,-0.38516758777286253,-0.21646292082163057,0.3336592655958133,-0.5500692165403552,0.7655686457618724,-1.8202770138052964,-1.8419564649889002,4.149408416801267,0.08118702359852141,1.373507022857666,-1.2312465547908258,4.0,0.48193766678625855,0.4868408595835005,0.3072257429318508,0.8355783686444699,-0.10188957774437055,0.33057207848253173,-0.4267896492749783
17.0,-2.98634220949917,-1.8475421874653961,5.149017259514069,0.04697048785643167,-0.38249343219951365,-0.21835214029466193,0.3336565768059292,-0.5500547185679983,0.7655802343545793,-1.8202770506690584,-1.8419518049205854,4.149418190653189,0.08118532216507131,1.373469847609944,-1.2312120550000047,4.0,0.481935375592737,0.48683437957181014,0.30718726823787884,0.8355987866762349,-0.1018853264922553,0.3305634958178696,-0.42675733524268805
17.1,-2.985680133970091,-1.9854936695024017,4.994997694674178,0.04530786580995296,-0.38415902636743865,-0.2194343494096108,0.3327669660463922,-0.5485332724397806,0.7670565786305772,-1.8202541033153785,-1.8419821794448374,4.149397799619593,0.08121394169212329,1.373471736907959,-1.2311833738374462,4.0,0.48193782068186597,0.4868490717083413,0.3071917052265596,0.835600554956205,-0.10187712234268298,0.3305526167471358,-0.4267642581820521
17.2,-1.7907060701835904,-1.8382679385224736,4.832381050433596,0.06579102945019225,-0.29127839248355075,-0.20804852902263288,0.3327747833328633,-0.5486076395895636,0.7670006501035388,-1.820256929688925,-1.84195529946509,4.149405002593994,0.08121267344476112,1.37347643604427,-1.2312263485042758,4.0,0.4819408899991465,0.48683587783327875,0.30719456422995634,0.8355993204743533,-0.10188177557259168,0.33056341120558913,-0.426757203338268
17.3,-1.6093242475051412,-1.3434203457520337,4.643971481514239,0.06447812450627179,-0.241200820855615,-0.20584254503515376,0.33294757413612086,-0.5489562159251297,0.7666763630461525,-1.8202780178456424,-1.8419600925841273,4.1493681477334645,0.08122539564925114,1.3734492119421642,-1.231186929123139,4.0,0.48196442709801207,0.4868089667558623,0.3072106841258214,0.8355784637216205,-0.10191051552911737,0.3305891623257322,-0.4267712309211776
17.400000000000002,-1.1731206613158935,-1.455827471970028,4.633285417769069,0.07340209112920205,-0.23933274208210706,-0.20520419400425113,0.33255703992020896,-0.5482649779367956,0.7673402035864636,-1.820307663257271,-1.8419562841901072,4.149376230409226,0.08119928508244717,1.3734616828388178,-1.2311937634944288,4.0,0.48194699127410234,0.4868169103536397,0.3072319217407265,0.8355720696754696,-0.10189219085021642,0.3305964400710451,-0.42678248749725856
17.5,-1.2633680462549803,-1.6669805270324158,4.394847506252364,0.06634042399230758,-0.23329782099289081,-0.19827861629746693,0.3323648492419176,-0.547939745671625,0.7676559278412857,-1.820286750793457,-1.8419304764903037,4.149414355044676,0.08120553075756831,1.3734831809997559,-1.231204129496585,4.0,0.48194637622126574,0.4868249532513403,0.3072097483407912,0.8355817280579112,-0.10189647526309896,0.3305766002087915,-0.42677792288157135
17.6,-1.3352064780216752,-1.41631858368799,4.420424613515301,0.07665634352003566,-0.23472323248683358,-0.1982798638211565,0.3321759366709042,-0.5476427142116986,0.7679495137702298,-1.8202680907186348,-1.8419698113730971,4.149392604827881,0.08118168889965816,1.3734911744858986,-1.231196724280356,4.0,0.48194968387398324,0.48682333893553076,0.30722555165138743,0.8355814650648901,-0.10190351987601991,0.33057649942855966,-0.4267768338399463
17.7,-1.1152240810287448,-1.6647387515898073,4.428525269337759,0.06867165072321788,-0.23712574511190343,-0.1917328591922555,0.3327234937784279,-0.548574424974813,0.7670350937646274,-1.8202706269360618,-1.8419469833275968,4.149400432103319,0.08122751850239258,1.3734831809997559,-1.2312370477051109,4.0,0.4819593052360369,0.48681100880239353,0.30721754164511617,0.8355863930996111,-0.10191213481532155,0.3305667600591205,-0.426772672025965
17.8,-1.2297514009224983,-1.7810235069218963,4.407728520688831,0.06681598728306135,-0.23552911630677673,-0.19199188324277683,0.33581974568769524,-0.553745529965171,0.761950913021643,-1.820276111274776,-1.8419694656982153,4.149424538389605,0.08119444792560897,1.3735053466636746,-1.2312484350627433,4.0,0.481950367041258,0.48682702314120707,0.3072289010198113,0.8355764601380371,-0.10189333476796526,0.33058678948713116,-0.4267810940161736
