xiamingqian9007/apple-picking-rnn/training_data/grasper_20191127_134211_noimg.csv
,/manipulator_wrench.fx,/manipulator_wrench.fy,/manipulator_wrench.fz,/manipulator_wrench.tx,/manipulator_wrench.ty,/manipulator_wrench.tz,/ground_truth.x,/ground_truth.y,/ground_truth.z,/joint_states.elbow_joint,/joint_states.shoulder_lift_joint,/joint_states.shoulder_pan_joint,/joint_states.wrist_1_joint,/joint_states.wrist_2_joint,/joint_states.wrist_3_joint,/mode./mode,/manipulator_pose.x,/manipulator_pose.y,/manipulator_pose.z,/manipulator_pose.rx,/manipulator_pose.ry,/manipulator_pose.rz,/manipulator_pose.rw
0.1,0.024245469161795596,0.30662966158541216,0.37317222508752246,0.005142209190165606,0.002113485731468123,-0.02337580024405147,0.15724935560608239,-0.34025104446527216,0.9270929720447304,-1.3208134599232475,-1.7948397382197285,4.171449248552783,-3.5177961788573207,-1.3486601858235776,2.0261238921632785,1.0,0.45733459513457236,0.4651195915276141,0.3589836577005364,0.8032516580221699,-0.1488920961807439,0.32263316274781123,-0.47804367988174845
0.2,-0.1835373506786868,-0.05148144115429526,0.30517414646365215,0.0038157267910535154,-0.013947164443750599,-0.018784646331647063,0.15757954624761147,-0.34102958791748683,0.9267510119882791,-1.3199611307057773,-1.795835069004804,4.171219864800289,-3.5177341951856826,-1.3487599428578236,2.026112203434638,1.0,0.45732703167147465,0.46514950188333737,0.35900975259884976,0.8032303228469312,-0.14887737494665532,0.3226416591239134,-0.47807837797371283
0.30000000000000004,0.1667888110181153,0.33076027369242145,0.1074147976937277,0.0005057988731709444,0.014349844624174692,0.012917012740407068,0.15735430048427584,-0.3406974401718387,0.9269114454200849,-1.3174936980255378,-1.7986378327560484,4.170571265338866,-3.517397351470039,-1.3494915850182065,2.0258597549328132,1.0,0.4577076973941654,0.46546452846549724,0.35878628932185136,0.8032576556839981,-0.14893997905091244,0.3226356826108228,-0.47801698456394814
0.4,-0.15401998342171655,0.5936104619224737,-0.05850414718783382,0.003775214560638479,-0.007210880787685996,0.009835486755835348,0.15754226637479932,-0.341013015207838,0.9267632866867274,-1.3145251168071437,-1.801956775076583,4.169972662321528,-3.5168949566283167,-1.3501153586336934,2.025584217351649,1.0,0.4581496347965729,0.4658896432898578,0.35852387444309536,0.8032868821806739,-0.14893542942274443,0.3225996681884522,-0.4779935950029196
0.5,-0.17609466508720836,0.06429316880492313,-0.08219262117793505,5.6893235050000106e-05,0.008419358672321145,0.012195404760570702,0.15783895561729633,-0.34149901765388896,0.9265339318538021,-1.3115055110254716,-1.8055130564804642,4.1693246731748825,-3.516367574731344,-1.3506682480467518,2.0253793751751936,1.0,0.45934380823203175,0.4672006639020973,0.35796902725781893,0.8032506101579134,-0.14886191099044965,0.32261081016291604,-0.47806992574647317
0.6000000000000001,-0.07342576636086313,0.43368077258347437,0.06841262220148886,0.0028580138657505103,0.0034256241225559727,0.005995662855107481,0.15778542605247375,-0.3414526821049705,0.9265601866106917,-1.3085979623599628,-1.8088580540980472,4.1685805383922885,-3.5159130699406536,-1.3512434790534482,2.0250927597339694,1.0,0.4601699468174428,0.46802378550058205,0.35750167347604933,0.8032693419167136,-0.14888108137425124,0.32263054429479004,-0.47801916262172073
0.7000000000000001,0.007440411953427477,0.06533144689503526,-0.07850742319401752,-0.001873624088152657,0.002035795282890336,0.0034430063756709477,0.15761500894620503,-0.34120010107490367,0.9266822319579967,-1.3057246349937992,-1.8119646511397998,4.1679463386535645,-3.5155178461980836,-1.3518815463773555,2.024876825882242,1.0,0.46130511222768067,0.46917924888971885,0.35689340363492933,0.8032752015481972,-0.1489010425348439,0.32263685741082804,-0.47799883718457375
0.8,-0.18039060256218092,0.1838597711220436,-0.1544146738198392,0.008564414052148068,0.009044536987941026,0.006348783153637807,0.15749794916049156,-0.3409742923093573,0.9267852513060135,-1.303029929533779,-1.8151291019950646,4.167251110076904,-3.5151461854589794,-1.352551712413374,2.02463706282417,1.0,0.4620008667952858,0.4698621642855244,0.3565328154637096,0.8032844417119301,-0.1489048844600021,0.32264252797671455,-0.4779782842643602
0.9,0.03534457237685632,0.05914986412277495,-0.1357411793515179,0.004945695965349138,0.005314845424533962,0.011550495672758036,0.15762665609988824,-0.34120741994802634,0.9266775635668547,-1.3001246415213965,-1.817927065287571,4.166554146971056,-3.514858612483172,-1.3532242313745397,2.0244331984923303,1.0,0.46290363151287506,0.47072950472193653,0.35622113827020513,0.8032202709013164,-0.14890495802929354,0.32266400512884963,-0.4780715947237609
1.0,0.19288951124852516,0.0072255107020527745,0.024893319989530177,-0.008877295885140447,-6.1870232292149385e-06,0.0043182684839883426,0.15804495987651188,-0.3421014522012004,0.9262764187343192,-1.2976520635723896,-1.8210334384508466,4.166019744450795,-3.5144754937994467,-1.3537468697464845,2.0242180824279785,1.0,0.46387315238594146,0.47170252204162205,0.35576171621004254,0.8032037044029318,-0.148896432497401,0.32264575946916124,-0.47811439585053606
1.1,0.18426322087017355,0.08707129364930652,-0.2319914901569738,0.004598395278847948,-0.003105087321938251,0.00394479345832697,0.15763659551369005,-0.341160872591458,0.9266925191810541,-1.2949438673316869,-1.8238260372125232,4.165465035028816,-3.514164640752683,-1.3541947386613595,2.0240368843078613,1.0,0.4643264376387378,0.4721257011079192,0.3555403953659324,0.803195372794437,-0.14890311536749304,0.3226485557908575,-0.47812442397511373
1.2000000000000002,0.041181109249836007,0.3481470138505597,-0.19955115468681084,-0.0011060206668993058,-0.002193882438371405,-0.001957578427373116,0.15757348977411037,-0.34104653392173967,0.9267457851947606,-1.2926478852651013,-1.8267002166848074,4.165032952391946,-3.513853671935311,-1.3546150366412562,2.023847014343894,1.0,0.46522673566243977,0.47311265662487567,0.3550410807567889,0.8032125829512332,-0.14889628764643967,0.3226587720262455,-0.47809074342475233
1.3,-0.10233358078591331,0.3628365096932696,-0.06930186435255765,0.004602279370850951,0.0007516535475217258,0.00038961209305518705,0.15775460291436538,-0.34146247711120026,0.9265618314949875,-1.2899484071091445,-1.829338251370454,4.164507003519451,-3.513567725812451,-1.3551188927924334,2.0236881298850693,1.0,0.46641659940341657,0.474376834021642,0.3542618334269289,0.8032915207705879,-0.14888881330754508,0.322630674409351,-0.47797939480705065
1.4000000000000001,0.08066945824764857,0.054065630588009256,-0.13995201487216097,-0.003401154712881839,0.0036035607054287913,0.0038661407080980772,0.15789086227157262,-0.341699415177324,0.9264512784342072,-1.2877924977600115,-1.831842178980914,4.164003584651945,-3.5132685581221486,-1.355670994140949,2.0235225894737225,1.0,0.4668620417968486,0.4748684322312454,0.35414057341877775,0.8032382667970549,-0.14888875035413793,0.32263949725597696,-0.4780629473000988
1.5,-0.09969847936300152,0.17585316685596797,-0.1199729718402057,0.0015545843740371419,0.0011036062611486396,-0.0019102078707704537,0.15777664589119364,-0.3413506838732027,0.9265991338059691,-1.285406256046425,-1.834485422736228,4.163487030643455,-3.5130630229428754,-1.3561990179930437,2.0233302116394043,1.0,0.46779600705414504,0.47580913021255133,0.3536211283042247,0.803258252559503,-0.14887231754436347,0.32260923610360737,-0.4780549064120885
1.6,-0.17928750178082525,0.48596863998205464,-0.010885427465277514,0.004560674905836767,0.005547922480993999,-0.011469518121441195,0.1575983639579575,-0.340877325575234,0.9268038515480896,-1.2831936074128538,-1.8368860734658967,4.163019671990697,-3.5127755801610268,-1.3566187114622346,2.02317476272583,1.0,0.46824683666819106,0.4762619485271557,0.35341039188378887,0.8032489052047722,-0.14886323841656118,0.32261723222741806,-0.47806804327981317
1.7000000000000002,0.01006750376129506,0.12522037728630436,-0.14932233118545452,0.006693236136647505,0.0018861813799094659,0.0020897393169413193,0.15772290956596074,-0.34116998708238566,0.9266749569425585,-1.2809780671875457,-1.8392727148941992,4.162588596343994,-3.5125954152520937,-1.357038338810822,2.023019146716822,1.0,0.46894759424045607,0.4769577600156462,0.35303661341436593,0.8032566760114284,-0.14888136252940848,0.32259974483170967,-0.4780611435464855
1.8,0.21523202276739797,0.024481235382530664,-0.019272877903283123,-0.002678500771839457,-0.0012342507070068768,0.002633326896732564,0.1579400189585176,-0.34167133345301454,0.9264531983286914,-1.2788941842647732,-1.8416841904125407,4.162095480266251,-3.5123459965952204,-1.357410732899801,2.0228623143003555,1.0,0.4699450203788334,0.4779851089250528,0.35250409104571795,0.8032691749426071,-0.14886587250564592,0.32259734815838537,-0.47804658303488945
1.9000000000000001,0.07283983659360946,-0.029917191263981284,-0.42114697409757723,0.0024136957940276696,0.005204404005844143,-0.0018168651294099454,0.15782103764720132,-0.3416079013173203,0.9264968849674864,-1.2767993391955759,-1.8435802314110807,4.161556789348764,-3.512176669554274,-1.35779550617891,2.0227432417040334,1.0,0.4703845806700166,0.4784115314619876,0.3522333204109576,0.8032986741209643,-0.1488824920756625,0.32259370462755915,-0.4779942943629222
2.0,-0.008828764364490864,0.5928896322089494,-0.09042119751397709,0.004979529705693314,0.0018979231210277522,0.0073492229200842725,0.15774812384956508,-0.34174213804646025,0.9264598094064532,-1.274707345567846,-1.8460856437420647,4.16117525100708,-3.5120441361527526,-1.358143139055516,2.022575855255127,1.0,0.47121536900734123,0.4790848965887743,0.3520225044940075,0.8031983392315503,-0.14894553860840767,0.32269658535237256,-0.47807381039568503
2.1,0.18942097706593095,-0.18116564152155268,-0.07586931999531066,-0.007865420575796337,-0.005487588847000765,0.00552628869486052,0.15767937391668224,-0.3415964660974451,0.9265251659441526,-1.272900777832518,-1.8478932504917545,4.16083901329142,-3.511889392319643,-1.3585267446953724,2.022444248199463,1.0,0.4715976286915548,0.4794699370793862,0.35183871968448677,0.8031932281741635,-0.148961853025985,0.32270684475970873,-0.47807038906782795
2.2,0.18645896177789564,0.03335420738781164,-0.0795649807492571,0.00039146856425149174,0.0010157283420364083,0.003599540182558707,0.15756458545990606,-0.3411896881045676,0.9266946484907239,-1.270828989003518,-1.849814570550794,4.160467624664307,-3.5116742086725803,-1.3588749015822095,2.0222876338704614,1.0,0.4721837649937787,0.4801877212077624,0.35136084752687363,0.8032795675697845,-0.1489091782510741,0.32264650783227683,-0.47798245149913887
2.3000000000000003,0.003748548434799069,0.027802705553784068,-0.09437660670303356,-0.006726854320430182,0.0005857502982167253,-0.0005756840181559568,0.1577375678411815,-0.34151414509963335,0.9265456854458328,-1.269116967433512,-1.852001121412774,4.160140355315412,-3.5115769904568648,-1.359246834142054,2.0221799119606443,1.0,0.4729356702787068,0.4809263160140338,0.3511967540077566,0.8031709402318139,-0.1489167171359353,0.322681915555233,-0.4781387178405504
2.4000000000000004,0.14422090806896543,-0.11207025159558726,-0.08146165801761839,-0.006861839077317904,-0.0020596027636188025,-0.000823716064360129,0.15758485390815583,-0.3410559090245442,0.9267403935097311,-1.2675372545431405,-1.8537362301006233,4.159760414747389,-3.511433809424789,-1.3596060911761683,2.0220351733360205,1.0,0.47332416031317426,0.481348486009636,0.35089749516728946,0.8032253583502759,-0.14890799594191334,0.3226457563900036,-0.47807441714774557
2.5,0.01495478574355813,0.35420938671815916,-0.10491209606187038,0.005163517282460178,0.0037719700948153564,0.002586526572167893,0.15754712304733604,-0.3409182148588309,0.926797533921287,-1.2655272225521805,-1.8556059883641314,4.1594602018210365,-3.5112667135780327,-1.3599780286696344,2.0218814114302472,1.0,0.47398928524564626,0.48202055130613364,0.3504726569177485,0.803268524513848,-0.14888644749716062,0.32261716363405224,-0.47802789563553694
2.6,0.24540031563612827,0.3559436734110042,-0.14165068377104986,0.004219218563712358,-0.002233822296396381,0.005189077380752522,0.1575651331395041,-0.34094329420503133,0.9267852111568277,-1.263874409805671,-1.8574813009057936,4.159163913667496,-3.5111471615233363,-1.3602451323792377,2.0218108878374985,1.0,0.47432088050740273,0.48237808401377696,0.35036401124205646,0.803228746870989,-0.14889793596115203,0.32262012707378296,-0.47808915326899615
2.7,-0.2087459507227717,0.25430181253875084,-0.2868440329709031,0.00046373350860894405,0.0041633503991724795,0.00318985735137697,0.15730072803789769,-0.34026497334416034,0.9270792532914005,-1.2624296017973278,-1.8591789647621944,4.158849269718666,-3.5110278550128826,-1.3605545202838343,2.0216996230001554,1.0,0.4747936073603609,0.48291825573516933,0.35019084162418207,0.803189664793003,-0.1488700176466806,0.3226386427127708,-0.4781510079922886
2.8000000000000003,0.18950685335862488,0.18821086440795431,-0.1372648164451975,0.0016730048658772697,-0.0012327841599341534,-0.0006473937505313845,0.1573631174069721,-0.3403776159772184,0.9270271594206886,-1.260655851719834,-1.860833291131598,4.158548831939697,-3.5108868265554407,-1.3608406357328846,2.021592117983384,1.0,0.47545614762532945,0.4835735082293359,0.3497077798563492,0.8032772131043996,-0.14887386460704755,0.3226055723624235,-0.47802503702725085
2.9000000000000004,0.36771366584016585,0.13125885114864821,-0.17526716156164007,-0.0003640012270435147,-0.0017057102254907325,-0.0018293022733766018,0.1576727301320049,-0.3410886305747786,0.9267132101254764,-1.2590057057312671,-1.8624273855216977,4.158225842426133,-3.5108364106144427,-1.3610695160107114,2.0215086936950684,1.0,0.4757410678869797,0.48388246526195117,0.34957298009723214,0.8032710663619478,-0.1488565586363629,0.3226160860203375,-0.4780336598374604
3.0,-0.039948202813905154,0.26212827438881026,-0.15959779746826647,-0.002372240786789406,-0.00034875913567389673,0.0012002794103893708,0.1577646528144937,-0.34136133396785373,0.9265974010575272,-1.2577131864116615,-1.8640117748297216,4.157915463220936,-3.5107044510868026,-1.3612989945472216,2.0213540694831433,1.0,0.4762123955934829,0.4843632393577712,0.3494824490978827,0.8031894857407967,-0.14888154748297802,0.3226480484749092,-0.47814137201233836
3.1,0.10908199014090386,0.3505493130883311,-0.15626830665777813,0.004986923220453025,0.0003560227566087269,0.002214943529669682,0.15768608857263958,-0.34129076796613045,0.9266367682095831,-1.2562987883752135,-1.8657258829464454,4.157709145746312,-3.510656019250387,-1.3615625299940661,2.021304829701656,1.0,0.4766795557236692,0.48479048012531256,0.34919428099057376,0.8032133301314102,-0.14889170522294878,0.32266239920689993,-0.4780884672872371
3.2,0.051683629149644084,0.17674253634841924,-0.15515377956611728,0.0002123086174969889,0.0030035765206533043,0.005879714577101678,0.1575293710956674,-0.34091530291089406,0.9268014792034093,-1.2547431239197677,-1.8670818784506118,4.157410337002866,-3.510571079080576,-1.3618483716909977,2.0212084784823587,1.0,0.4773199848693574,0.4854619240495118,0.348668538088261,0.8033099398786282,-0.14888789770120034,0.3226018577010354,-0.47796817448252016
3.3000000000000003,0.14423919276320216,0.27294855174542654,-0.21461301010503514,0.005033991818798393,0.005138093086691415,0.0016015892008972316,0.15734124903292382,-0.3403735468474119,0.9270325967520427,-1.2533529113103907,-1.868403217528121,4.157135486602783,-3.5104920965752764,-1.3620833409409587,2.021107942896084,1.0,0.47770375553228644,0.4858545312590365,0.348615222456302,0.8032551035133237,-0.14887662810472033,0.3226220482155543,-0.47805020896258255
3.4000000000000004,0.04835571870010838,0.17332228948114142,-0.2561230323262031,-0.004619563445955453,0.0038355694794883844,-0.0010631191076444523,0.15801372310922598,-0.3420585344013351,0.926297799040333,-1.252113819393211,-1.869888390701845,4.156894243159559,-3.5104510332397023,-1.3623861060467317,2.021016633906629,1.0,0.477987757880745,0.48610497680453807,0.34850040014296185,0.8032379108164066,-0.14889836740953252,0.3226408363395222,-0.4780596464210341
3.5,0.1484844909444318,0.35981184154240453,0.03006411267204806,0.002287291617554369,0.0025941207592206665,0.0020482193060075947,0.1578275226390722,-0.3416335550616668,0.9264862991690971,-1.2508325603149997,-1.8714782621540396,4.156584620970165,-3.5103801232002922,-1.362602355498796,2.0209570819743994,1.0,0.47833193883478914,0.48646756002514957,0.3483207984599026,0.8032436114551205,-0.14888556003745787,0.3226305151037841,-0.4780610226662861
3.6,0.3347922158498685,0.2612467226068432,-0.07174072522655954,0.004427225133162383,0.01005897727775538,0.005900092691418913,0.1577072139603063,-0.3413535303488829,0.9266100436583411,-1.2495520019066353,-1.8724991371826059,4.156332704060996,-3.510285920077252,-1.3627956181582042,2.0208490358391122,1.0,0.4788599037500216,0.48695708298456636,0.34786709290458523,0.803329553548518,-0.14891449013205427,0.3226005182056083,-0.4779278278963489
3.7,0.12237302335281067,0.26344936389753354,0.015170105743589526,0.003623545974013418,0.004840334936241137,0.006193425960049957,0.1576487129353972,-0.34120947561376536,0.9266730462240702,-1.248281556095146,-1.8736644328327992,4.156150426597031,-3.5102267844198014,-1.3630143604065985,2.0207808815901376,1.0,0.47914340562453944,0.4872848746123825,0.3478647143448263,0.8032613427046948,-0.1488968357818501,0.3226180982098057,-0.4780360972958959
3.8000000000000003,0.17977381425147138,0.25408312088955426,-0.04154430859638363,-6.361411637951153e-05,0.0039420740625166935,0.009084906943855416,0.15758774165009443,-0.34105949605762687,0.926738638949475,-1.2471839434345635,-1.874853812816011,4.155936016315637,-3.510201566451257,-1.3632386366473597,2.020671763339068,1.0,0.47955919587287044,0.48767286803130255,0.34776890418973044,0.8032120910241256,-0.14889848924736274,0.3226497801835367,-0.4780969525943667
3.9000000000000004,0.22789140424973517,0.2667721749701695,-0.06415987914991401,0.000682053001230044,0.002066122143895849,0.0027710503827301815,0.1570081148304776,-0.33966554189048076,0.9273480612459984,-1.2459618255477265,-1.8763252781107433,4.155708588895637,-3.5101293817258536,-1.3634300576496763,2.020574729142697,1.0,0.4798210946541793,0.4879442003781539,0.34764040016090664,0.8032121933970182,-0.14888976133359194,0.32264723349261326,-0.47810121738805483
4.0,-0.012464192043711964,0.32435347722264996,-0.12146043945086962,0.005343349060344084,0.0051104165204785,0.004460693050296439,0.15685858083838955,-0.3393361264907508,0.9274944724308332,-1.244809420190123,-1.8774987659850062,4.155481815338135,-3.5100821338880346,-1.3636446753300244,2.0205733613151766,1.0,0.48015272933038594,0.48832294810146304,0.34734824518192603,0.8032653564927609,-0.14887990733052442,0.3226148090136784,-0.47803684508297056
4.1000000000000005,0.11830597501155246,0.2964765395370894,-0.05188789491992983,0.004500451323955263,0.006190389007412421,0.0011119114390824793,0.15714782861869908,-0.3400927561893237,0.9271685185278936,-1.2437691766439138,-1.8785314545728125,4.155245366687493,-3.510034528468023,-1.3638160473874261,2.020489356547692,1.0,0.48059300116338993,0.48874308512761855,0.34710386329055465,0.8032754192520201,-0.1489144726073794,0.3226071840507845,-0.4780143151333244
4.2,-0.0336127710569164,0.14945131094269715,0.01709382606752248,-0.0011479501067383612,0.009963716422709884,0.0030606379384192374,0.15739804507516345,-0.3406465145032735,0.9269226444808897,-1.2425978179233683,-1.879563232912712,4.155062198638916,-3.5100059871648117,-1.3640413649272676,2.0204165518847925,1.0,0.4807547940873191,0.48890320048398,0.34710706518072365,0.803239431171248,-0.1489123320286296,0.3226211845498165,-0.4780660047118584
4.3,0.11679062767819737,0.16451782897883005,0.13415899142183996,-0.006182055407908391,-0.002090456824257089,-0.0004912392953341808,0.1575201114455255,-0.3409001306793944,0.9268087795790454,-1.2414225648094845,-1.880920467392007,4.154858112335205,-3.50992415625281,-1.3642091976627497,2.0203099250793457,1.0,0.48108625712284137,0.4892271563923032,0.34703697548478996,0.8031890286549221,-0.14890058599675335,0.3226606170488706,-0.4781277297373876
4.4,-0.0015496996986647214,0.43335159539723334,-0.046350947181036904,0.002325957072160904,0.0024657180668386184,0.0016573077350292152,0.15749867317659275,-0.34084914979010406,0.9268311734621356,-1.240060688544728,-1.8821310868315146,4.1546558156504405,-3.5098893239648397,-1.3643648327344435,2.0202392254835906,1.0,0.4815555414058171,0.48971735408162625,0.3467007790830888,0.8032382026069093,-0.1488925978214686,0.3226355162187951,-0.47806454361417305
4.5,-0.2204437246230793,0.6127615468855135,-0.05850918816300965,-0.003920277612344642,-0.0008202119894964127,0.005195283162702987,0.15747176589833436,-0.3408186783787301,0.9268469513911889,-1.2389991646961802,-1.8833560289613593,4.154450860595068,-3.5098411727720227,-1.3645918650843676,2.020180088922305,1.0,0.4818142726483333,0.4899827470641863,0.34657864208133765,0.803233934602398,-0.14889045834123843,0.32265609824403996,-0.4780584901285815
4.6000000000000005,0.050428016946906365,0.22521730462946454,-0.15105458516623294,0.004621911580240542,0.004770521866962985,0.005429418498450196,0.1576068973506485,-0.34118689860568474,0.926688439252108,-1.237956459215596,-1.884444060667093,4.154245647345327,-3.509804020534233,-1.3647613391663604,2.020118236541748,1.0,0.4822614336225177,0.4904332017868509,0.3463107782003128,0.8032487666514302,-0.1489201667855542,0.32263498868464235,-0.4780385621202329
4.7,-0.0552729801372608,0.448837916732799,-0.2095203153862722,0.009731399473531209,0.009870052988844327,0.004378442633695125,0.15772618934081517,-0.34149328508471244,0.9265553095195309,-1.2368994129181845,-1.885561067043432,4.154053838850387,-3.5097562891453307,-1.3649625783851498,2.0200467109680176,1.0,0.4824435957762053,0.49061149844498253,0.3462393559766375,0.8032384404122969,-0.14890354279381826,0.3226596366428849,-0.478044455745438
4.800000000000001,0.23582402446874212,0.17695740053497902,0.10527841597015793,-0.006624172095504834,-0.0010290687324521135,0.01103828486653407,0.15781835664961613,-0.34170532167358153,0.9264614343243114,-1.2355572597442714,-1.8869259186769807,4.15385142701994,-3.509698053399557,-1.3651307921169558,2.0199848862860486,1.0,0.48287015453151594,0.49104654395146674,0.34602120474442144,0.8032485135756794,-0.14890164153239338,0.3226376616156047,-0.4780429540267639
4.9,0.2976232678334143,0.3634254322994535,0.15272698712039995,0.007466301817367616,0.0026769489941912807,0.0009293063339751097,0.1571356262882855,-0.34010364839999796,0.9271638266895543,-1.2342095820896397,-1.8881274813229898,4.153646945953369,-3.5096853949230966,-1.36535717955772,2.019890308380127,1.0,0.4830966859858765,0.4912649747166631,0.3458995871010808,0.8032534446907021,-0.1489139542135902,0.32264177017839946,-0.4780280598135875
5.0,0.054882397873261934,0.2200811054064329,0.17293400196239705,0.005758365179394469,0.0054952062040405526,-0.0015219230341700961,0.15620921933551268,-0.3379138520949729,0.928123325735288,-1.233235807299658,-1.8892890179027055,4.153491205734353,-3.5096628820134725,-1.3655388990985315,2.0198290440966318,1.0,0.48340286783126213,0.49165836813544944,0.3458132033827751,0.8032108666662439,-0.14889005814018083,0.3226584435923566,-0.47809578855584306
5.1000000000000005,0.06297838747172649,0.08898440736038249,-0.05664318155093763,-0.0010845799769518896,0.0025891468791892597,0.002412992520520688,0.15621419323685412,-0.33788103858238244,0.9281344350023187,-1.232172966003418,-1.8904158139467087,4.153263717273483,-3.5096018999738634,-1.3657426631435317,2.019783175333519,1.0,0.48385862081352676,0.49210208374184516,0.3455561583576684,0.8032231911481827,-0.14889109396099942,0.3226522028765855,-0.4780789718443113
5.2,-0.00879180388822309,0.24432617985699115,-0.12028862135123324,-0.000467459138296934,0.0037988700017054966,-0.0008889126462498054,0.15590541203835492,-0.33712758274322807,0.9284595581630936,-1.2310469851928607,-1.891664388804326,4.15309457020349,-3.509578367272848,-1.3659466940291352,2.0197086675388505,1.0,0.4840825566471032,0.49235697315958776,0.3453729174220402,0.803259646564858,-0.14887943354838093,0.32260578532635653,-0.47805267674261287
5.300000000000001,-0.01935759852259812,0.18651364209463853,-0.01999981711838665,0.0003774336999281865,0.006942812495202778,0.0004892430259255428,0.15556506916542343,-0.33630163508320854,0.9288162690312447,-1.229632814078678,-1.892758689291959,4.1528092232033025,-3.509543101409789,-1.3661040714411947,2.019626100421186,1.0,0.48443537711927137,0.4926914585529789,0.34511013070628255,0.803304404263771,-0.1489010148431196,0.3225965281981509,-0.47797698884320433
5.4,0.08237457916559776,0.4946236452469564,-0.0903421426109051,0.012106956216596297,0.004500005954602441,0.002279531942659957,0.15502150103692716,-0.33503163600848834,0.9293652904548408,-1.2284239174676177,-1.8940275967805458,4.152651085586296,-3.5095205297106644,-1.3663748227125303,2.0195302076964126,1.0,0.4848381856209919,0.49313038181156377,0.3451106685605291,0.8031988859944252,-0.14886472866585554,0.3226571851014951,-0.4781246521556228
5.5,0.09244586306980965,0.2577024494280749,-0.20702640989421933,0.0015917844515699637,0.004825040795728029,0.008739059278562049,0.1541743138284819,-0.3330982229225184,0.9302016243669681,-1.2273379801729174,-1.8952016674539698,4.152413629981948,-3.5094708998952586,-1.3665332534834673,2.019506633484767,1.0,0.48508227707851304,0.4933706663139695,0.34499783223886366,0.8031958846037479,-0.14887693047008563,0.32265641411902096,-0.47812641524733085
5.6000000000000005,0.012002862373854409,0.1547589805564785,0.03864584077453089,0.001007819961646498,0.005298290935541331,0.003830909677150322,0.1546200086293464,-0.33412009068024157,0.9297606986841711,-1.2262839886018393,-1.8965458570321534,4.152209589521268,-3.509481705882133,-1.366771286735252,2.0193867683410645,1.0,0.48552118136491057,0.4937941630631616,0.3447100414128751,0.8032338236485345,-0.14887715914306565,0.3226351858767318,-0.47807693195419115
5.7,-0.0803857767588425,0.48336554852522823,-0.030243404335785075,0.007295495106041399,0.0028860284522172906,0.0019601065491170696,0.15514653959381802,-0.33531522736804514,0.929243123775932,-1.2250128410875607,-1.897650592300244,4.1520065169569955,-3.5094205523375916,-1.3669289940829559,2.0193040753324953,1.0,0.48573056417308297,0.4940038963879217,0.34449894554431915,0.8032850072123783,-0.14888101111016638,0.3225964916268087,-0.47801584211059145
5.800000000000001,0.06116671213403618,0.43831844017988325,-0.009013266485853516,0.007230076948198877,0.006169022983770605,-0.0010872841655030219,0.1555446889003974,-0.3361981127865806,0.928857622639479,-1.223698616027832,-1.8987996156302092,4.151777316144119,-3.5094010977522188,-1.3671553485892847,2.019244727819031,1.0,0.48604794014788066,0.49434528370072134,0.344293956454591,0.8032960554550352,-0.14887240372373658,0.32259072432615216,-0.47800384860231626
5.9,0.012820589425914374,0.21399708185388372,-0.1646257712961359,-0.0012983772932088243,0.007372517855644809,0.00039936670882432797,0.15520216287277278,-0.3354095337512484,0.9291996036134444,-1.2224737218726485,-1.8999020061888636,4.151597743610291,-3.509423987499627,-1.3673150298394037,2.0191662086958773,1.0,0.48648984205847867,0.4947975017215211,0.3442101375434895,0.8032342771244148,-0.14887780493378286,0.3226199394051474,-0.47808625785389025
6.0,0.26034279899264845,0.41265260231596773,0.09055689825235944,0.007108864853539657,0.0036757786002128688,0.0034873780724554234,0.15501911957486583,-0.335021052867164,0.9293705598083778,-1.2213773727416992,-1.901318689385885,4.151383885983727,-3.509389043865921,-1.3674919863326613,2.019111156463623,1.0,0.4866847726574079,0.4949820958744685,0.3441921229562917,0.8032002177617317,-0.14887340340170793,0.32264266209223635,-0.478129514404972
6.1000000000000005,0.24006951822419034,0.0405721943047022,-0.06306786966783476,-0.004149765321381951,0.0025715820371472963,0.002217555488959263,0.1553187925688953,-0.33579361344693476,0.9290417408371587,-1.2202518537332563,-1.9026600156847475,4.151178334334463,-3.509387138945246,-1.3676830102058362,2.019051559422285,1.0,0.4872093678674908,0.49549538973641793,0.34375323540631625,0.8032834537084586,-0.14889010726985888,0.3226142285837669,-0.47800364901398146
6.2,0.03438584333990337,0.13004624756374106,-0.05931909001825755,-0.00016227264490341754,3.7889140619866164e-05,0.00043414187049940745,0.15537436436789945,-0.3359114489232654,0.9289899382146563,-1.2188671828298858,-1.9035863011958178,4.1509720201203315,-3.509376123005529,-1.3678735946718181,2.018942456956343,1.0,0.4874398812572368,0.4957341763252813,0.343568220711605,0.8033190339923117,-0.14887789471358895,0.3226022288062902,-0.4779557553377951
6.300000000000001,0.2799875534473132,0.3947917105468557,0.014435578670700722,0.007213720233713726,0.004371107442153687,0.002499873011077877,0.15532961768109518,-0.33580162957939774,0.9290370894460659,-1.2177142294382053,-1.9047357056160534,4.150793999429144,-3.509397595542407,-1.3680522664778467,2.0188966003832185,1.0,0.48769709788267557,0.49600617995794977,0.3435675305895597,0.8032570392898849,-0.14888194573648064,0.32262397082570027,-0.4780440026960129
6.4,0.11301125599330393,0.3512233522269485,-0.010829536798019833,0.004626248471091616,0.010151363887386987,0.004337353942607544,0.15516944633134827,-0.3354674122453139,0.9291845986600503,-1.2164741331357904,-1.905891341719644,4.1506028175354,-3.5093990765013636,-1.3682101710068528,2.018845651099175,1.0,0.4881773107046609,0.4964907739216503,0.3434320506301383,0.8032123836812828,-0.14889429262306483,0.32264182423326027,-0.47810313697019746
6.5,0.07182061616695007,0.25583876778771764,-0.05017385547554993,-0.000385069581233014,0.006373065993352234,0.004791048641545824,0.15564032669970337,-0.33656993828225445,0.9287061745058085,-1.2152748720471744,-1.907365402284873,4.150385353567218,-3.5093890147769033,-1.3684147039996546,2.018728746174765,1.0,0.48839773220368754,0.496682522545827,0.343343493632342,0.8032053423227918,-0.1489073962452197,0.32265558910747094,-0.4781015961334021
6.6000000000000005,0.1192767277887034,0.177705179672791,-0.09401013585335596,-0.004355434361152755,0.0041377173244588825,0.0019500189452994984,0.15611902608960218,-0.3376700617071219,0.9282271949613449,-1.2140712854439872,-1.9086190203163225,4.15019115184239,-3.509384380652626,-1.3686054388629358,2.018691298435756,1.0,0.4887195688302947,0.4970452654617405,0.34307060881427787,0.8032571375143435,-0.14889269617996162,0.32262795610500544,-0.47803779975649563
6.7,-0.12895936270138392,0.6140304604563522,0.05086477019879568,0.003906732548751422,0.0015501561255211625,0.0033969345908679365,0.15627563623423832,-0.33799005730265164,0.928084374827796,-1.2129631445312206,-1.9096056020751235,4.150003689782722,-3.5093277792754187,-1.3687868935382363,2.0186085136840815,1.0,0.4891858030324116,0.4975552093627209,0.34278904189690984,0.8032668876447177,-0.1488856186954996,0.3226187262310059,-0.4780298497419492
6.800000000000001,-0.10430486834029415,0.4383531560965208,-0.08416177157331993,0.006258363019300287,0.0071828545190035205,0.0019859898613251094,0.15682677875514617,-0.33925375721816675,0.927529222077898,-1.2117797658080378,-1.9106447825883306,4.14975118637085,-3.509325755641309,-1.368966351853729,2.018527230919398,1.0,0.4894190570948152,0.49776594816369896,0.34274397112427196,0.8032302041286492,-0.14888169054004724,0.32264784650779454,-0.4780730577445972
6.9,0.5177016408571926,-0.04327170154655957,0.06905112053305795,-0.001314059361270885,-0.0020635210182034115,0.0005695400615227737,0.15707541650347726,-0.33983230970534795,0.9272757936818103,-1.210605295430059,-1.9119712896955685,4.149538842906122,-3.5092789135374964,-1.369192902241842,2.0184852139958203,1.0,0.4895537325192097,0.49788925934474487,0.34265948738046736,0.8032389105483849,-0.14889177461957837,0.32262915576811846,-0.4780679030012652
7.0,0.34594926417152116,0.05687809064489166,-0.09134860042148266,0.001112001156310135,0.0002489995445088171,0.0009508540480776739,0.15627554466431032,-0.33800562758342423,0.9280781919957629,-1.2092199325561523,-1.913236401051241,4.149342301229882,-3.5093119168731715,-1.3693484152403341,2.0184127236410734,1.0,0.4901528499582889,0.4984888243812916,0.3423416651291597,0.8032424900948941,-0.14888827977960634,0.32263663964671585,-0.4780579264146752
7.1000000000000005,-0.2100323962775789,0.3206868750965393,0.09072661491901018,-0.008336910035446574,-0.01007472369210082,-0.009457725270868229,0.15578131541516144,-0.3368915762039826,0.9285664274284567,-1.2086772918701172,-1.9137566898385239,4.149247999769268,-3.5092444262539053,-1.3694914023028772,2.0183444023132324,1.0,0.4904953298874681,0.4988394043121351,0.34223328804079395,0.8032075224929858,-0.14889537702532119,0.32265416706921546,-0.4781026364537623
7.2,0.3229704236741625,0.18382788554038035,-0.049525751001221974,0.007411379822098075,0.003973513376823794,-0.00029601913329159457,0.1562869027667965,-0.33807676917754087,0.928050565623897,-1.2087290282241971,-1.9137464962401332,4.149223669323024,-3.509260348293868,-1.3695064640736665,2.0183578051487325,1.0,0.4906564685434856,0.4989792841955857,0.34222822672397507,0.8031770765536558,-0.14890198481868805,0.32267072714726563,-0.478140548853612
7.300000000000001,0.24398663438974372,0.0972512297845606,-0.17534208293697162,0.0008204739665389864,0.0036584982473485336,0.004654619663794133,0.15642760515430643,-0.3384145619990659,0.9279040830164715,-1.2087331730697661,-1.9137541748839806,4.149226858289336,-3.5093228318053673,-1.3694924523734484,2.0183899858879104,1.0,0.4906559799512529,0.4989632694162903,0.3421605250492721,0.8032063383319274,-0.1489006419886068,0.3226495172555134,-0.4781061240912757
7.4,0.18493287947718118,0.15548309111822384,-0.10222693111012389,-0.0033576833056176425,0.002668468132100229,0.003361073820495426,0.1564350697071209,-0.33844292644595725,0.9278924793140341,-1.2087463199467652,-1.913757168420547,4.149259699073734,-3.509292560052151,-1.3694581370130945,2.0183781444401734,1.0,0.4906445822221655,0.49896272062060887,0.34215411181616706,0.8032108996605667,-0.14889426247430865,0.3226451294312316,-0.4781034090267485
7.5,-0.025170188515553905,0.5851862265338444,-0.44695987562946154,0.0016957549730588618,0.009400966584439266,0.0046711319702099725,0.15643572567881753,-0.3384495058446752,0.9278899686697402,-1.20875950050354,-1.9137480817236843,4.149270985603333,-3.509294482270712,-1.3694929877864284,2.0183459877967835,1.0,0.490651020767248,0.4989638031131354,0.3421407052243374,0.803219679277614,-0.14890258714738416,0.32265893695671183,-0.478076747775864
7.6000000000000005,0.23567363752110124,0.29144740443697703,-0.1747803712018268,0.0012280231794194502,0.0020879834521799184,-0.0016548388637745604,0.1564128505142169,-0.338380793941294,0.9279188845424889,-1.2087847639996072,-1.9137704345020774,4.1492374489825705,-3.509315249565554,-1.3694671838680044,2.0183444023132324,1.0,0.4906452107552709,0.4989560314524887,0.3421362010133026,0.8032271091020959,-0.1489012595235534,0.3226438854341136,-0.47807483651387417
7.7,0.1238191647885389,0.1738086512770899,-0.07319744060232287,-0.003844454006889749,0.00519250172388214,-0.0019525156295039908,0.15629191915520632,-0.33809777914292843,0.928042358489792,-1.2087577720117013,-1.9137600992798607,4.149250349401306,-3.509312596353146,-1.369490561247491,2.0183418455048585,1.0,0.49064658286703633,0.4989639997933507,0.3421342750236752,0.8032281663969604,-0.14890051628421822,0.3226441567305847,-0.4780731085142526
7.800000000000001,0.06169260051229146,0.24098354344045037,0.07297175342531816,-0.0009922340257321727,0.007653576026592324,-0.000806971250270334,0.15615085132511375,-0.3377720010440704,0.9281847771968741,-1.208752538498674,-1.9137721986254566,4.149283946576968,-3.509290343829355,-1.3694602908345448,2.01833757232942,1.0,0.49065046722618294,0.4989616340337597,0.3421182910736205,0.8032338327955777,-0.14890138836570888,0.3226399641193649,-0.47806614599691694
7.9,0.03609648776461976,0.11805675962099564,-0.042909412243426814,-0.0014611127212598447,0.00722703871340317,-0.004350065523398682,0.15609513756685817,-0.3376378600431896,0.9282429500284913,-1.208780063185647,-1.9137603988683836,4.14927339553833,-3.50927143284429,-1.369501341532537,2.0183796114536223,1.0,0.4906423267396823,0.4989683815035859,0.3421279814858397,0.8032260719537728,-0.14890449790655375,0.3226414065302712,-0.4780772433708572
8.0,0.034271592041860865,0.34880480294866967,-0.10658905765111114,0.0009096454594054396,0.006624947659391248,-0.0014208411117055525,0.15612112588809576,-0.3376716918256759,0.9282262684332055,-1.2087263581573615,-1.9137696468123313,4.149271294029766,-3.5092789135374964,-1.3694670836078089,2.018356081142205,1.0863226800705181,0.4906459742469432,0.4989707254454748,0.3421473530471344,0.8032186214371526,-0.1488922981340884,0.32264816254162115,-0.47808900106723407
8.1,0.19892768843195205,0.2270718498706635,-0.17797510720962545,-0.001211265725173489,0.003334644639528445,-0.0003107939399679834,0.15618462251275353,-0.33778263760775623,0.9281752221978269,-1.208758461353774,-1.9137502466190301,4.149274295629265,-3.5092798886360095,-1.369478506275409,2.018379666838743,2.0,0.4906257711961458,0.498970615619353,0.3421501611610769,0.8032234298067724,-0.14888451889227555,0.3226351074875044,-0.4780921556145707
8.200000000000001,0.0922313192373019,0.04784848728573764,-0.033983549708273164,-0.006738355340504287,0.004883894904201487,3.269158533218199e-05,0.1559786410427198,-0.33731716790009664,0.9283788876563147,-1.2087602615356445,-1.9137604263048764,4.149269296901322,-3.5092809628560007,-1.3694893529843732,2.0183597736003125,2.0,0.490645630221003,0.4989685898563101,0.3421226443343426,0.8032336914252624,-0.14890011239869716,0.32263977141350925,-0.4780669109959819
8.3,0.14882682880182177,0.3125831920577096,0.024261120108844916,-0.0029942152099415075,0.011653704071048002,0.0005800876179913272,0.15570993877483988,-0.3367288207717175,0.9286377676710424,-1.2087451140180052,-1.9137666346722009,4.149260997772217,-3.509303232232565,-1.3694806996061073,2.018345669274705,2.0,0.49064067461167493,0.4989863115478741,0.3421260590113409,0.8032302273488435,-0.14890016209276166,0.32263243124072954,-0.4780776693316376
8.4,0.29521827003820816,-0.19646282874146448,-0.1818630134238809,-0.016926987974207244,0.008479524679372559,-0.0008296594416423935,0.15577303856231037,-0.33690696772572715,0.9285625528791893,-1.2087586100409733,-1.9137813988735237,4.149282224763564,-3.509312538294957,-1.369489647589789,2.018345296872846,2.0,0.490650972910522,0.49896195039977614,0.3421393990835183,0.8032197735327848,-0.14890656753056672,0.32265469312293127,-0.4780782138499452
8.5,0.03032580248068948,0.03814961148160384,-0.02030363386172735,-0.0017026439227370536,0.004353551595905185,-0.0012318357955422622,0.1558308428828711,-0.3370649812544189,0.9284955283377794,-1.208753197264903,-1.9137941799559535,4.149283456528741,-3.50929275203422,-1.3694714634288643,2.0183581831807316,2.0,0.4906496131357267,0.4989568154414955,0.3421359439431394,0.8032228803638755,-0.1489044418534078,0.32264941474934683,-0.47807721846809315
8.6,0.09501969864308024,0.013062776153706226,-0.14738251695062088,-0.001380702878441267,0.007581565071850569,0.002872774459773307,0.155858903786558,-0.33710990997443746,0.9284745065450191,-1.2087602615356445,-1.9137484103460563,4.1492839208592835,-3.5093041892855266,-1.369457553621935,2.018380641937256,2.0,0.4906317633398358,0.49896892995365566,0.34213827079781683,0.8032263742542024,-0.14888313406323717,0.3226477124056561,-0.47807913337998065
8.700000000000001,0.020183046046312395,0.15249868835740155,-0.1883248137763277,-0.010430378903420476,-0.0037132208995813713,1.3406048947652884e-05,0.1560854335360482,-0.3376160194678709,0.9282524209584619,-1.208784533399293,-1.913758920696567,4.14927339553833,-3.509268476500657,-1.3694566465709699,2.0183459330367683,2.0,0.49064827470976663,0.4989561332088061,0.3421362104029725,0.8032267196867242,-0.14889887235526048,0.32265253080372835,-0.47807039958418834
8.8,0.3128776812826164,0.14527187959119198,-0.06912565373975016,-0.013507427998873212,-0.0015568756872394976,0.004131821893386816,0.15623362389901657,-0.33792468456003316,0.9281152740007459,-1.2087150725354188,-1.9137620153165804,4.149270900822735,-3.509292510686107,-1.3694794813739222,2.0183531539565536,2.0,0.49063775455783404,0.4989578368453326,0.3421242497904612,0.8032417070337625,-0.14888660856296654,0.32264002756391974,-0.4780574761319591
8.9,0.06596799507742629,-0.004471823529203223,-0.15524713086313055,-0.013739983452139204,-0.001406565059926292,0.0006293390499180875,0.15624183254193855,-0.33790226960978453,0.9281220332830507,-1.2087602615356445,-1.9137708349670755,4.149237911155236,-3.5092794203439093,-1.3694908954964644,2.0183813971781848,2.0,0.4906366007794675,0.4989799031599294,0.34214596924193424,0.8032215083148082,-0.1488814808989384,0.3226496036495164,-0.4780865470713788
9.0,-0.2981750888302276,-0.4378944888101425,-0.17615069858025018,0.01284513441702946,-0.021888492667582127,-0.006925816237067236,0.15610351821209362,-0.33757196900071296,0.9282653854084852,-1.2087301100232701,-1.9137703380980433,4.149246934783185,-3.509313418554313,-1.3694794813739222,2.018370048162638,2.0,0.49064659058112653,0.4989731553624528,0.3421121406564436,0.8032317834176972,-0.14889724325669618,0.32263371657082424,-0.4780750966008152
9.1,-0.21043163180550173,-1.4090339686734186,-0.16039998940618067,0.061192533152184106,-0.05339719515559081,0.002367816394212024,0.1559652038822487,-0.3372416683916414,0.9284087375339197,-1.2087367127112196,-1.9137703380980433,4.149284839630127,-3.5092929976721847,-1.3695016368632573,2.0183617917303276,2.0,0.49064114204199605,0.49896368076356334,0.34210404814944834,0.803245586893237,-0.1488910475064453,0.32263407966205365,-0.4780535887843459
9.200000000000001,-0.5611313631837881,-0.6739399766368496,-0.43849123709145393,0.0668404948854393,-0.07976961468156321,-0.0021017608304709314,0.15574818163193296,-0.3367248208812409,0.9286325547448799,-1.20875031084092,-1.9137838146489488,4.149253329096832,-3.5092789135374964,-1.3694634176257638,2.0183406741063092,2.0,0.490633464999028,0.4989765057522025,0.34212504919850145,0.8032365684335874,-0.14888084304718174,0.32263387864410725,-0.47807205529674585
9.3,-1.8274792843504608,-1.8006705962756306,-0.9926544673225466,0.1489331082960885,-0.18921973849452736,-0.013583818238072556,0.15547645966094067,-0.33607832868788173,0.9289122928552382,-1.2087488174438477,-1.9137748536988048,4.1492825818297465,-3.509327074090475,-1.3694759592053283,2.0183444023132324,2.0,0.49064828777694053,0.49897317019855003,0.3421162781085014,0.8032380188820865,-0.14889336891689722,0.32263295480688553,-0.47806634078079124
9.4,-2.122709915808916,-1.4183945783005725,-0.16388774794923036,0.09598867299823538,-0.22509400577815644,-0.03349186457417016,0.15541140737266332,-0.3358895731189849,0.9289916476333292,-1.208728691686873,-1.9137596726085935,4.1493073758309515,-3.50929382218262,-1.3695045786713376,2.018359310958356,2.0,0.4906172454739798,0.49900304222681696,0.3421205184471089,0.803234016833934,-0.14888102187948166,0.3226111839192418,-0.47809160161539105
9.5,-2.5216903439906133,-1.2589397919380803,-0.06869582213099061,0.11381549151143161,-0.26139598504246225,-0.04091715624360623,0.15533172111652074,-0.3356406480678564,0.9290948311981372,-1.208759190627455,-1.9137856056150901,4.149294141905545,-3.5092913113036097,-1.369479004536764,2.018369404321681,2.0,0.4906012780527396,0.4990060857097043,0.3421345563863683,0.8032355055737314,-0.1488652970381974,0.32261357651826483,-0.4780923824634052
9.600000000000001,-2.5864047425955285,-1.7623146908394518,0.37273901700504886,0.10544592164592968,-0.3010542978287973,-0.044329984431110636,0.15513747558438512,-0.3351277286421745,0.9293125239630085,-1.2087322123772173,-1.9138024824892688,4.149314036713584,-3.5092923046777327,-1.3694891886358118,2.018354918513613,2.0,0.49060644492274674,0.49900818274839986,0.3421084651112826,0.8032484542104654,-0.14885149041999535,0.3226096973122581,-0.47807754371894207
9.700000000000001,-2.707618838882889,-1.2913558281678263,0.5251606592550391,0.08569127716378479,-0.3030838000779474,-0.051566264229249426,0.155055756959161,-0.33501832075624133,0.9293656045054891,-1.2087585106209682,-1.9138266988862898,4.149306784663804,-3.509289414479377,-1.3694653326931325,2.018373346459438,2.0,0.4906159380110633,0.49900325537038714,0.3421087310061021,0.8032385076985722,-0.14887122747151493,0.3226224877397969,-0.4780794785241048
9.8,-2.3833920399307322,-1.0749902655523775,0.5037194824560971,0.07739820375048853,-0.2856195603252129,-0.05310456817935261,0.15487740864335045,-0.3346604447820089,0.929524214527133,-1.2087373733520508,-1.9138258146797928,4.149274489772037,-3.509295870610723,-1.3694998581584263,2.0183682441711426,2.0,0.49061042014551776,0.4990032799989027,0.34209860973156,0.8032461515781492,-0.14887019756710457,0.3226177023075032,-0.47807018565170056
9.9,-2.4254772176683885,-1.582117111879891,0.6795104348169994,0.10159556874715191,-0.2924395196752683,-0.05329979572271401,0.1551298977715051,-0.33527905263784025,0.9292582223556881,-1.20878341644041,-1.9137869916062131,4.149284839630127,-3.509295281499484,-1.369470301761675,2.0183344726467842,2.0,0.49061285223321704,0.49899461686254426,0.34208944674486946,0.8032564017323564,-0.1488772453006226,0.322618830235486,-0.47805000709671847
10.0,-2.5416183143379953,-1.0569190121300436,0.7256429123620995,0.10040042199716172,-0.29919042427518483,-0.0510408405857784,0.1557792549428732,-0.3368157843906219,0.9285946107317852,-1.2087707713959157,-1.9138199097197057,4.149296283721924,-3.5093014169384857,-1.3694914023028772,2.0183682441711426,2.0,0.4906274577450128,0.49898863330248766,0.34208664971769387,0.8032536832657589,-0.1488739383227714,0.32263674691321687,-0.4780435130294278
10.100000000000001,-2.4748110985365526,-1.0251669130639702,0.5884833892088099,0.10129782770168595,-0.2926151281803869,-0.05407844951285849,0.1557700640900158,-0.3368345400185324,0.9285893491288684,-1.2088212966918945,-1.9137827191906105,4.1492958419648565,-3.5092564705769673,-1.3695372453642487,2.018403084897785,2.0,0.4906325642554415,0.49898740647714596,0.34210848372304903,0.8032380574497365,-0.14888466973373285,0.32264528768655154,-0.47806066196280333
10.200000000000001,-2.560355975833784,-1.1966482871184416,0.5400627267973841,0.1077877757817562,-0.27703966405912683,-0.043923170424697976,0.15575856899054882,-0.33684575373920533,0.9285872080033251,-1.2087548511956918,-1.9138047482999203,4.149291548451668,-3.509271527200664,-1.3694657851262202,2.018365539001166,2.0,0.4906403245359289,0.4989834350312524,0.3420941836031122,0.8032443913104743,-0.14889763963296496,0.32263098789492106,-0.47805563106185117
10.3,-2.3642535412271726,-0.4901169035734105,0.5516069701135702,0.08392557504086104,-0.2826536809739048,-0.04557550179008152,0.1556651892949295,-0.3365889553357375,0.9286959573651412,-1.2087556746581753,-1.9138138743051976,4.14932107925415,-3.5093334650078756,-1.369478043570918,2.0183669169683696,2.0,0.4906303175553698,0.49897759580867623,0.3421147095147645,0.8032401850634283,-0.14888405153563145,0.32262863800068703,-0.4780685162604066
10.4,-2.2827347438500585,-0.46461418682167566,0.4294438801560021,0.034073769441562304,-0.2903407531360729,-0.0410195225221218,0.15546628061817871,-0.33610346993886947,0.9289049203384542,-1.208733678109867,-1.9138078275761645,4.149276710785541,-3.5093200982578012,-1.3694812080651781,2.018380641937256,2.0,0.49063427464004805,0.4989777304703723,0.34211625850804306,0.8032366260242725,-0.14888338062386375,0.32263969695009004,-0.4780672416502799
10.5,-2.4555829673883958,0.15118992780385337,1.0290025769154922,0.01331604121111321,-0.29761909330836916,-0.040709803016175314,0.15517635850080846,-0.3354220547430502,0.9291998303922989,-1.2087706481712557,-1.9138219667236946,4.14927339553833,-3.50931515316152,-1.3694794813739222,2.0183606676380035,2.0,0.4906329930037107,0.4989828172665007,0.3420860364671535,0.8032539240521008,-0.1488761762668762,0.3226309282416193,-0.47804633852484113
10.600000000000001,-2.4586168496482075,0.4147213915165721,0.9884842695299119,-0.0010083320141472747,-0.30794546969656167,-0.042995941327322255,0.1555770993196239,-0.33636799998884304,0.9287904557704207,-1.2087606963333721,-1.9138180218138636,4.149284421555389,-3.5093149441241507,-1.36945605759075,2.0183920860290527,2.0,0.49062851646934563,0.498984865252301,0.3420945948726239,0.8032488166879318,-0.14888039798506703,0.3226273895279706,-0.4780559936990777
10.700000000000001,-2.5828513106222206,0.40891020502462866,0.8988742365982016,-0.0036857863368979942,-0.31183257586869273,-0.042733071903822833,0.15573310280431202,-0.3367189403101056,0.9286374379550282,-1.208726798348212,-1.913775596066143,4.149279511555786,-3.5093014795765316,-1.3694861443347777,2.0183665616213506,2.0,0.4906303700974625,0.49898148836821177,0.34207953539267266,0.8032629643803799,-0.14888980305798516,0.32262515450198,-0.4780308005586803
10.8,-2.6300917697440918,0.022042910027874965,1.0083488881996487,-0.014434896906035576,-0.3156992589017725,-0.04553173335719439,0.15563916685148602,-0.3364622283633336,0.9287462260314273,-1.208785057067871,-1.913796104482915,4.14927139403029,-3.509303232232565,-1.3694510168388234,2.0183663966252596,2.0,0.49061451823013114,0.49899574574822014,0.34208019583547616,0.8032631452496354,-0.14887235255636455,0.3226072880221376,-0.4780479890586281
10.9,-2.5157223594803404,0.08139840149212074,0.915135932704063,-0.012735582059402718,-0.3188286275103984,-0.04519736360885259,0.15561113288380637,-0.33638293903865835,0.9287796756940325,-1.208785057067871,-1.913816076228289,4.149304790316887,-3.509303232232565,-1.3694914023028772,2.0183482934843817,2.0,0.49062820140323743,0.49898452272343846,0.3421026955990019,0.8032468141350417,-0.14888448814283478,0.3226153651019959,-0.47806619936203165
11.0,-2.635380618887467,0.6128920756482944,0.996821029012794,0.0014169481065592817,-0.3193458215056633,-0.05131353510368598,0.15565227196638817,-0.33648987876199365,0.9287340474977174,-1.208776192313657,-1.9137941799559535,4.149281306618228,-3.5093336955015815,-1.3694573353617236,2.01834623947942,2.0,0.4906205498048809,0.4989895419771803,0.34207999873043055,0.8032582686939401,-0.14888203511150117,0.3226117922826481,-0.47805012799501373
11.100000000000001,-2.5224685783000638,0.17689186784216088,1.0118584303245433,-0.010700237646241926,-0.3231262384858952,-0.03982409402057565,0.1554132785713363,-0.33598451025991044,0.9289567932409729,-1.2087645262472575,-1.91378430936912,4.149294315393487,-3.509281045893303,-1.3695012728897107,2.0183650014478323,2.0,0.4906294756334245,0.49897629461463217,0.34209574354086564,0.803250049226841,-0.1488865636025522,0.322632477214261,-0.4780485689156385
11.200000000000001,-2.760525916153839,0.29124686552589996,1.06027036075034,-0.01723695334499955,-0.3163487542965429,-0.04420408172480123,0.15516480330703655,-0.33545841646891444,0.9291886228527825,-1.2087794242579872,-1.9138143160178873,4.149303196909992,-3.509296869997574,-1.369489549404889,2.018327972047275,2.0,0.49063687894881264,0.49897911310239884,0.3420939299345545,0.8032479353150342,-0.1488938124318378,0.3226301146339316,-0.4780514576517296
11.3,-2.7677594162320958,0.3486825007009224,0.9920738807563659,-0.01720544059221335,-0.32003975007166274,-0.04657976213396796,0.15510563844537228,-0.3353289549485579,0.9292452442704674,-1.2087814174067506,-1.9138158752195027,4.149284839630127,-3.509296792449482,-1.3694670836078089,2.0183639509824207,2.0,0.4906343036414449,0.49898418650436976,0.34208988432493576,0.8032470268835301,-0.14889862829223263,0.32261979887938036,-0.47805844586879687
11.4,-2.7716676429788842,0.5301213523339348,0.9343831914318612,-0.014815335089546766,-0.3178479606925276,-0.039937926052896276,0.15545289471102666,-0.3361202144036253,0.9288999477734715,-1.2087646811453174,-1.913801851260223,4.14925080981094,-3.509280218319756,-1.3694772715690857,2.018346612118069,2.0,0.49063321325371684,0.4989827587547871,0.34207847028015814,0.8032519365840659,-0.148902940590123,0.32261713786528445,-0.4780506490040296
11.5,-2.6269148664928235,0.4253573339500871,1.109946723213994,-0.014221013423459834,-0.32105070862945567,-0.0433876378759475,0.1563125657586101,-0.3380744614252442,0.9280471154831061,-1.2087644656951597,-1.9138160005833276,4.149284839630127,-3.509303232232565,-1.3694596819770843,2.0183465043929902,2.0,0.49063263436347476,0.4989687782596564,0.3420709619656904,0.8032581001764618,-0.14890155931404042,0.3226088507371703,-0.47804631528837327
11.600000000000001,-2.5658218096721717,0.4664283713748919,1.0193817323464602,-0.01315033573403195,-0.3234722122030672,-0.04772395419654607,0.15587270714201784,-0.3370787536245399,0.9284823424263452,-1.208754987092038,-1.9137880914873446,4.149304622508964,-3.509289200634492,-1.369497153583642,2.0183568000793457,2.0,0.49062532822038374,0.49898468718754035,0.34210178979884265,0.8032473236138788,-0.14887958745340255,0.3226258041796053,-0.47805982473358694
11.700000000000001,-2.675845008673319,0.4135856617257806,0.9931293834439474,-0.015682951986124984,-0.32263049159258245,-0.047330185995199815,0.15532298862384777,-0.3358336619464425,0.9290264595815825,-1.208802221957548,-1.9137822590269984,4.149284839630127,-3.5092992878002707,-1.3694974452542963,2.0183767748467716,2.0,0.49063696843383714,0.4989786450360415,0.34209298765588414,0.8032455096168493,-0.1489004712247537,0.32262418784934815,-0.4780574592702874
11.8,-2.4499477430290613,0.2529579609856136,0.9465173017484974,-0.015998811725252308,-0.3245167610938551,-0.038664151877637824,0.15582183030203414,-0.33695704297997436,0.928535477394022,-1.2087558606495348,-1.91379693237218,4.149295112089199,-3.509264240192315,-1.3694747137473033,2.01838218031049,2.0,0.4906423022759798,0.4989742009254094,0.3421092905448256,0.8032365171957315,-0.14890361820300888,0.3226312779836864,-0.4780668032774677
11.9,-2.429741096112415,0.2479651117962801,1.0309523815976875,-0.01957785748644723,-0.3267967008790572,-0.046710736220060285,0.15628927100043144,-0.33799598125045355,0.928079827585221,-1.2087649047831162,-1.9138061008849085,4.149260997772217,-3.5093226094294447,-1.3694891699723621,2.0183351012587303,2.0,0.4906425875445254,0.498978591674806,0.34210145373387324,0.803237350463462,-0.14888282907082517,0.32263401916326123,-0.47807002803654775
12.0,-2.521218687239899,0.433572845513024,0.9087803581482171,-0.029288780502970242,-0.323969469717043,-0.04709983328622292,0.15656273592237532,-0.3385767527175412,0.9278220833996256,-1.2087623100104354,-1.9138061008849085,4.1492630462470075,-3.509282931699586,-1.3695093350988907,2.0183866297866446,2.0697563474680627,0.49063047260771503,0.498987397571857,0.34209518956140533,0.8032472285518623,-0.14887769280768046,0.3226209004783904,-0.47806388378806336
12.100000000000001,-2.5656617860710336,0.48274646141294286,1.2289057797245397,-0.028094099978067433,-0.3161622891914181,-0.04444470847877927,0.15644233630940227,-0.338309122424044,0.9279399905742999,-1.208798044629714,-1.9137756195914408,4.149284839630127,-3.5092913113036097,-1.3694686270778549,2.0183552566092997,3.0,0.49062196005918873,0.4989794554926982,0.34208919986162506,0.8032592307159684,-0.14887274802167882,0.3226233392765162,-0.4780436111069096
12.200000000000001,-2.3300391458979375,0.6451634424546098,1.9174343923081203,-0.019096761391071644,-0.3054869937348933,-0.04378914404002866,0.1561584472281428,-0.33769267930561353,0.9282120299148205,-1.2096793139444988,-1.9129606686034144,4.149303665049235,-3.5092772865843713,-1.3693911470843714,2.0183649902648924,3.0,0.4906074810534795,0.49894445399194154,0.3420999676825068,0.8032606689099472,-0.1488839734004396,0.32261862676172226,-0.47804087891436886
12.3,-2.139022177223946,0.3358874072724421,2.7297394351241526,-0.07098956434822057,-0.29495556034671505,-0.07284560230419701,0.15568813154845815,-0.33668010401182985,0.9286589578566626,-1.2109080388270754,-1.9117787929627512,4.14942081957564,-3.509282817311089,-1.3691918535575431,2.0184632297756075,3.0,0.49053946024722167,0.49883901346709497,0.3421378611210488,0.8032558618507067,-0.14888875645766117,0.3226368589111928,-0.4780351617557947
12.4,-2.1255727665885846,0.9336656265313439,3.409214674590466,-0.10168769042454412,-0.2973256171032247,-0.0870261712750241,0.15574873149693752,-0.3368003927223323,0.9286052515178793,-1.2120084762573242,-1.9105402284029087,4.149734653172973,-3.509296770620435,-1.3690112272845667,2.0185456571649274,3.0,0.49008196366102685,0.4982666046928555,0.34238305470518826,0.80325758908242,-0.14892845453461942,0.32265153105127337,-0.47800998998106403
12.5,-2.167952361497998,1.1221610671282813,3.8019112757465994,-0.09571234903777984,-0.30267006136250274,-0.11448807148901236,0.15588641240293535,-0.3370851562336436,0.9284788606174254,-1.2131324370801824,-1.9095424521613398,4.149977531217721,-3.509292989507159,-1.3688396144887645,2.018608570098877,3.0,0.48977727871755306,0.49806572555812034,0.3425368481364811,0.803249720408994,-0.14889139726698514,0.3226318455574433,-0.47804804226662834
12.600000000000001,-2.499179919731707,0.5659219789628052,4.231490708271633,-0.10351144298754861,-0.3182793452983364,-0.141601188528116,0.15585343921300127,-0.33693113992241747,0.9285402942332851,-1.2143288532588952,-1.9084322288290743,4.150198232238653,-3.509297982351185,-1.3686392943011683,2.018665151659891,3.0,0.4895359292321098,0.49789927340144824,0.34264616302347783,0.8032539064917792,-0.14885684234333074,0.3226127383253235,-0.478064664311749
12.700000000000001,-2.235154304631688,1.023562655122409,4.87240147736535,-0.11419882316206403,-0.3393969283706624,-0.16457027145173422,0.1557705115250338,-0.33672381292536335,0.9286294248527865,-1.215580130386217,-1.906938463121802,4.150403957624602,-3.5093254145683352,-1.3684204448613813,2.018766698589793,3.0,0.4892517899787453,0.4975847389066318,0.34271697705213416,0.8032915844500966,-0.14886142915428724,0.3226081025350691,-0.4780030517062825
12.8,-2.651112574976377,1.0669941612196854,5.347928415571305,-0.11732659781109792,-0.35089091414534207,-0.18867553963419018,0.15575967864359366,-0.33677080637537526,0.9286141374394893,-1.2168708647268296,-1.9056371030253203,4.150582115102672,-3.509364351456156,-1.3682285611732077,2.018803229926975,3.0,0.4888995643596842,0.4972029339118032,0.3430065750929031,0.8032276146170857,-0.14890157630267226,0.3226261162631908,-0.4780858801471302
12.9,-2.695984833334232,0.926422896340924,5.362217956564181,-0.10772376136916438,-0.3496464413205185,-0.2068503445838017,0.15597311046767776,-0.33725722432723765,0.9284017874328727,-1.2179735584976865,-1.9046091022429752,4.150779096675176,-3.509425064777516,-1.3680490583601632,2.0188727378845215,3.0,0.48837635714797994,0.4966561163870255,0.343314262845849,0.8032218259270988,-0.1488799031650247,0.32263866893356796,-0.4780938841866582
13.0,-2.6251095507167137,0.9324856372897574,5.900101939497938,-0.09961761827544328,-0.3551430650435136,-0.2228418221740867,0.15616842999861255,-0.337732987032382,0.9281958600979545,-1.2191700258660465,-1.9035454793233386,4.150975890637511,-3.5094109974303187,-1.3678632179309846,2.018985815961346,3.0,0.4882316739010615,0.49649455308120155,0.343391456631304,0.8032233334278278,-0.14890026281811733,0.32264078885100755,-0.4780835802863176
13.100000000000001,-2.7247889700465158,0.8720332371509419,6.251359658874026,-0.10399705649638254,-0.3622465565797675,-0.24355581292321726,0.15636004058307887,-0.33820656780841574,0.9279912479662145,-1.2203887788296035,-1.9023251631740732,4.151237697832093,-3.5093730604967863,-1.3676357352601594,2.0190240057468127,3.0,0.48776230418395167,0.49605907404029653,0.34346212620226274,0.8032996959177333,-0.14888525430650762,0.3226102785459243,-0.4779805307385279
13.200000000000001,-2.6652756500313672,1.297964654336024,6.681184553126164,-0.12228466313129757,-0.3809551055140553,-0.25684799819399745,0.15589266163923024,-0.33716209939739383,0.9284485120650027,-1.221558557982687,-1.9008962116637171,4.15141726828074,-3.5093990765013636,-1.3674116367900953,2.0190986137041804,3.0,0.48759172641698,0.49587516121078157,0.34354067937361854,0.8032975153673622,-0.14890293364413873,0.32260654653661675,-0.47798120704532876
13.3,-2.8633038352839963,1.095864037263674,6.753085622209223,-0.13046549604189248,-0.37931494284161044,-0.2668675778020341,0.15528215374632465,-0.3357879189417578,0.929049532088902,-1.2226165963619045,-1.899643669058263,4.1515984535217285,-3.5094109974303187,-1.367213932408226,2.019148349761963,3.0,0.4872430607638013,0.4955265940154683,0.34384359058518,0.8032247806799284,-0.14889829677766547,0.32265657801223946,-0.4780711051546858
13.4,-2.5828575593937653,0.6038995458521711,6.861117473556434,-0.1111650019357265,-0.3739365294802139,-0.26021601919712967,0.155116355113364,-0.3354388033342732,0.929203806777152,-1.2239265441894531,-1.8986521466422008,4.151824778178992,-3.50943039847409,-1.36704864018126,2.01924467086792,3.0,0.4867708848586296,0.49501235484623335,0.3442153175053248,0.8031687990537401,-0.14887465137177738,0.3227069024385171,-0.4781385505520779
13.5,-2.8605469113750353,0.9882751202152064,6.653377637615535,-0.12770196113655835,-0.3905099701025093,-0.2583997994286588,0.15499837555101093,-0.33517679163154357,0.9293179848672929,-1.2251500868681418,-1.8974897706868368,4.152029525047374,-3.5094953976073207,-1.366848042890989,2.019297898532363,3.0,0.4865422208609879,0.49477891242066846,0.3442325722901015,0.8032161930377734,-0.14890294506340668,0.3226721449408348,-0.4780735791409428
13.600000000000001,-2.9760668443186575,1.1707159802287799,6.9933296740356905,-0.13151945225530878,-0.4047240950055511,-0.25362318223967856,0.154812909155204,-0.33469894868451244,0.9295211472579837,-1.2263413465470006,-1.8962773393371302,4.1522384122134275,-3.509508976659982,-1.366655630110348,2.019391579938037,3.0,0.4861225638931444,0.4943938482233821,0.34432472022299443,0.8032790182790297,-0.14888802182249034,0.32262737353666904,-0.4780028803211275
13.700000000000001,-3.0792153780130005,1.214132075807825,6.893290596875664,-0.16054064013991065,-0.414980800801315,-0.24963794234133768,0.15476578667519705,-0.33452252633211,0.9295925020707178,-1.2274020679661486,-1.8949701576315947,4.152443252626012,-3.509530384947529,-1.3664930361814913,2.019461645845507,3.0,0.48589576178847793,0.494185701724475,0.3444378928046244,0.8032811478865666,-0.14886259835207266,0.32263139404421093,-0.47800450608649964
13.8,-3.0509771311349323,1.1785541824883548,6.992349017162827,-0.16139371857893686,-0.4099499004756677,-0.24644256968753153,0.154584951312892,-0.33417681975112623,0.9297468547473752,-1.228524846926854,-1.8937962660925742,4.152614258140002,-3.509588540567672,-1.366291348134176,2.0195272778945794,3.0,0.4855941311657407,0.4938160076616214,0.3447149477849724,0.8032214000081331,-0.14890594547078412,0.32266382530291055,-0.4780695114868959
13.9,-3.0981232440651874,1.40720127512086,6.906025522033068,-0.1536523222490189,-0.4040357167647579,-0.243594179233798,0.15431404563614548,-0.3336155683618761,0.9299933083262777,-1.2298137649843701,-1.8926443330100373,4.1528160616015715,-3.5096103689376563,-1.36610186333537,2.0196258442043233,3.0,0.48514014889356655,0.49335469638416196,0.3449930585142088,0.8032038019234256,-0.14891010040680483,0.3226652104574084,-0.47809684848685857
14.0,-2.779380661455259,1.0442220504138988,6.851821808960944,-0.15454410344969194,-0.40552526363164815,-0.23895294724184524,0.15400575810381278,-0.3328624636379449,0.9303143578205619,-1.2311698583302346,-1.8915063023457224,4.153029624587742,-3.5096536862114047,-1.3659225199254157,2.0196518898010254,3.0,0.4849341626213387,0.49315363296065584,0.3449988730074439,0.8032508309932075,-0.14889090816476264,0.322647429635212,-0.4780358105041762
14.100000000000001,-3.1239098097134637,1.2206827614619618,6.963942945724226,-0.1673576279247506,-0.4033668137616754,-0.24051072137458535,0.1539744976950725,-0.33278990266397135,0.9303454909628146,-1.2322317846749853,-1.8902607622006602,4.153216544800275,-3.509669222665373,-1.3657433340731675,2.019723415374756,3.0,0.4844864156865699,0.49269437797455257,0.34514129447646924,0.8032879487692358,-0.14889455037050905,0.3226252531699375,-0.47798726996554164
14.200000000000001,-3.0907895125632012,1.763952676556878,6.9029117137377805,-0.1762327608986845,-0.40571054702909576,-0.23746419839585875,0.15350559811192374,-0.33169231953865075,0.9308139850358117,-1.2332182262528288,-1.8891039955427242,4.153467257776816,-3.5097082294085427,-1.365508050512597,2.0198361742055297,3.0,0.48432028357426754,0.49251913558315996,0.34523697622845817,0.8032782585448054,-0.14890587269821792,0.32262052757746124,-0.4780032171553323
14.3,-3.342042984766088,1.4668574448582938,6.783387274425592,-0.18089540937688103,-0.3998339328682426,-0.23935158670531134,0.15293729926777994,-0.3303532769205425,0.9313841173200058,-1.2343878389524727,-1.8879303458998469,4.153644152926441,-3.509750739341062,-1.365355005813547,2.019901352759739,3.0,0.4839237848906025,0.49214782403718027,0.34558904873204016,0.8032013344251887,-0.1488995694508078,0.3226507900616455,-0.4781140055128652
14.4,-3.0009556611263295,1.6825471541811385,6.938865938064119,-0.16846538173226988,-0.4114791991143877,-0.234979714436817,0.15248137808212137,-0.32925201661739895,0.9318487097636441,-1.2356885466751812,-1.8866839746173805,4.1538857016739605,-3.5098089868317737,-1.3651500772589746,2.0200114250183105,3.0,0.4834880383444399,0.49172193560540284,0.3457905650834336,0.8032186480173256,-0.14888090526343395,0.32264899470855374,-0.47809194276699507
14.5,-3.223338519690397,1.4134006428257806,6.921418813918932,-0.15749427895253232,-0.4158593605751212,-0.239066975147943,0.15136396979126018,-0.3266722751815358,0.9329371003860691,-1.2369772598328073,-1.8854005932219229,4.154141802618094,-3.5098297252036765,-1.3649256865130823,2.0200476354509127,3.0,0.4832077556452498,0.4914274114906797,0.34589095949913995,0.8032359784654912,-0.14888417574203133,0.3226347897276843,-0.47807139379968533
14.600000000000001,-3.095493099828829,0.9227059562168132,6.970238322107156,-0.12368526908947886,-0.4053897755980587,-0.24551136081835592,0.1498623867420702,-0.3232153692493411,0.9343784655516707,-1.2379720123563822,-1.884327187442791,4.154360410661781,-3.5098544559874476,-1.3647257396182326,2.0200953483581543,3.0,0.48280562171554625,0.49103265516873523,0.34604330102594527,0.8032586412919664,-0.1488891654020283,0.3226165227572516,-0.47804408882412863
14.700000000000001,-2.972837758127992,0.35415852580961554,6.741605182175366,-0.08615384883561451,-0.3863231351195082,-0.24445472707641067,0.14866197587825594,-0.32044428186153323,0.9355293041795418,-1.2389816464990357,-1.883246268303588,4.1545494362588,-3.509944962036504,-1.3645538602940788,2.0202155113220215,3.0,0.482603147767551,0.49084735165369325,0.3461877799917984,0.8032394749365013,-0.1488818670384836,0.3226303713769634,-0.47806921992116547
14.8,-2.9283145854436228,0.33517832366014966,6.947262898174917,-0.10458366828633636,-0.3884111255738515,-0.23735612160634645,0.14866223628352612,-0.3204213878920803,0.9355371042800337,-1.2402294380592993,-1.8819463947286854,4.154763698577881,-3.5099596055361317,-1.3643264068311838,2.020252326799317,3.0,0.4822783029571525,0.49053837210940593,0.3464130430889168,0.8032140406240296,-0.14885528433065315,0.32265417824905823,-0.4781041628449654
14.9,-2.918587100662178,0.7358402273187402,6.9051307486123354,-0.10739326698862571,-0.3877939143694458,-0.23361895865236512,0.1482067324054678,-0.3193588304404637,0.9359711572588474,-1.241581422526662,-1.8806581511776912,4.154980182647705,-3.5100005113020467,-1.364148964721559,2.02030586856749,3.0,0.4818116640822241,0.49003946335042436,0.3465864618648009,0.8032433979623819,-0.14888578715817424,0.3226357901040661,-0.4780577506495034
15.0,-2.7930175248809643,1.0414274157650543,7.0153660941430305,-0.11209172570794851,-0.3907901088763989,-0.22946323279654757,0.14757591508184134,-0.31789635795830024,0.9365691718808075,-1.2427337718774556,-1.8794560726939622,4.1552016185949565,-3.5100461445250453,-1.3639342503082554,2.0204497120470766,3.0,0.4815343376870826,0.4897791071507058,0.3467134344142127,0.8032491237238879,-0.14886245169939247,0.3226285082167041,-0.47806031146364425
15.100000000000001,-2.9648463100610005,0.9649727222855238,6.924063316712689,-0.111036140224248,-0.3783570627780986,-0.23231238968660692,0.1468925451463068,-0.3163903429321569,0.9371861640540377,-1.243769645690918,-1.8784339354803068,4.155358791618829,-3.5100888760794,-1.3637636343585413,2.020476341381314,3.0,0.4812546657867978,0.489455718270265,0.3468765691999015,0.8032298204597649,-0.14888223887316804,0.3226440631221774,-0.47807608495332543
15.200000000000001,-3.2126134104660338,1.1922488783852447,5.785622838560402,-0.13723972471657211,-0.3800563065333004,-0.21982897994459896,0.1461123600681502,-0.31466640651851113,0.9378875910436099,-1.244685173034668,-1.8775360394242404,4.155579407611869,-3.5101651157797815,-1.3635724226581019,2.0205605828483924,3.0,0.4808250687175524,0.4890229633238136,0.3470602952699147,0.8032506894923452,-0.1488979662698016,0.3226297822756562,-0.4780457604242002
15.3,-3.048013164541125,0.5866353042092475,5.996118888032906,-0.06033904572278186,-0.366841610654648,-0.22687312270477528,0.1450302400956877,-0.3121411751443907,0.9388960548747047,-1.2446683322708563,-1.8775149320579776,4.155583951270805,-3.5101354058544443,-1.3636031387309402,2.02055683394648,3.0,0.48065815284482716,0.4888819486114109,0.34708658103896567,0.8032742238781468,-0.14888371286514648,0.32262568073133535,-0.47801342180852197
15.4,-2.8507207911829915,0.44815824143353566,5.9398607308128,-0.09045572305352245,-0.3614999678039249,-0.23728459733346124,0.14424545903688887,-0.31031261461351334,0.9396269174230335,-1.2447051985403463,-1.8773564813972372,4.1555657386779785,-3.510153432885641,-1.3635989367693704,2.0205649320060415,3.0,0.48057170362908863,0.48878869837989564,0.34716370631775856,0.8032648125208752,-0.14887158795311886,0.3226339499602017,-0.47802743184800356
15.5,-2.718267860540359,0.4810145292529436,5.856226469807389,-0.08351855663764028,-0.36858054500770326,-0.23160625147033068,0.14472033231391523,-0.31143544862942213,0.9391817426503184,-1.2448117659463949,-1.8773389307190895,4.155523750286643,-3.5101446174051447,-1.3635967413531702,2.020540209358499,3.0,0.4805619983506917,0.48877696910210067,0.3472019974545392,0.8032458326813133,-0.14888098464007885,0.3226308024377089,-0.47805852153382283
15.600000000000001,-2.8692895373319875,0.675423224815609,5.5709237706673305,-0.08819062726555345,-0.37438979763410657,-0.22595627623940562,0.14499049911426723,-0.3120680670942831,0.9389306577574962,-1.244828089850623,-1.8773380718626917,4.1555569047355885,-3.5101324186895884,-1.3635718541888338,2.0205442447265476,3.0,0.48055380821441857,0.4887300133229492,0.34723050006960593,0.8032395383347977,-0.14890202725468643,0.3226318985092489,-0.47806180395369735
15.700000000000001,-2.950661316525958,0.7443911698795196,5.3660511161457,-0.09067561728969614,-0.3756624506701171,-0.23019025849434668,0.1444473481650997,-0.3107630034726043,0.939447347731542,-1.244808417746106,-1.8773233993734055,4.1555304527282715,-3.5101324526504754,-1.3636178316507492,2.0205809875104412,3.0,0.48054276137499846,0.488726964585282,0.3472360958949448,0.8032421087856754,-0.14888395980391755,0.3226276930718831,-0.4780659503141399
15.8,-2.991394823061498,0.9075278765466943,5.298428390083667,-0.08916781071107631,-0.37363918921645306,-0.226243625306265,0.14443673669556642,-0.310783038941021,0.9394423513890952,-1.2448053359985352,-1.8773261509337367,4.155542850494385,-3.510135438798463,-1.3635938174678042,2.0205689473189072,3.0,0.4805405228407122,0.4887272072192485,0.34723327712515084,0.8032416369981059,-0.14889219624025943,0.3226199203025417,-0.4780694233219025
15.9,-2.7955520635730684,0.6671067672431993,5.229644315823498,-0.09768057409299614,-0.37980172629356673,-0.22998690538919578,0.1441445393680885,-0.31012941405128974,0.9397027913663104,-1.2448171505258103,-1.8773261509337367,4.155533524505363,-3.510153432885641,-1.3635996832413961,2.0205533227841714,3.0,0.48055584743654084,0.48872150021395555,0.34721413623131636,0.8032454266192391,-0.14889998270399388,0.3226305987944561,-0.4780534243027211
16.0,-2.8168349388980953,0.6473625917676036,5.208350684875194,-0.10084041956856396,-0.3817145349514496,-0.23028952164789404,0.14374094949704544,-0.30919974325255123,0.940071257266543,-1.2448087375084682,-1.8773172670672218,4.155527287631976,-3.5101565914305786,-1.3636114720237598,2.020547341978495,3.0,0.4805576602170691,0.4887229910285572,0.3472207986356973,0.8032414257627276,-0.14889125220722846,0.3226408311929412,-0.4780559601154994
16.1,-2.8697655456971525,0.5601835241010397,5.205567714496319,-0.10308169634721283,-0.38153579735642407,-0.22846762558833728,0.14354148166315417,-0.30870380876338993,0.9402645810485222,-1.2448024597158707,-1.8773289692920039,4.1555612262944885,-3.510120488457043,-1.3635838088255015,2.0205597176805954,3.0785669349685225,0.4805539734726656,0.488718152974168,0.34722048905992176,0.8032422721000434,-0.14888386455406316,0.32264622832511003,-0.4780531963438671
16.2,-2.5104804155837557,0.35093327487583814,5.049968092531191,-0.111912896879691,-0.38795527106350197,-0.2236748453968714,0.1433885723705917,-0.30832149215372384,0.9404134943987208,-1.2448103835016089,-1.8773306947428148,4.155540326742848,-3.510124950151286,-1.3636086622821253,2.02051227402794,4.0,0.4805452289297986,0.4887285002088159,0.34722532560909647,0.8032402581199383,-0.1488833055696217,0.3226272155764213,-0.47806958575868724
16.3,-2.777612112050123,0.7630215869367377,5.117801378032831,-0.10176854889090688,-0.3862845850013781,-0.22609621429249505,0.14352083202801055,-0.30863507989307826,0.9402903958723086,-1.2448193959438136,-1.8773018322386683,4.15556503017313,-3.510107225221589,-1.3635967413531702,2.0205480664504627,4.0,0.4805459276080325,0.48874004615215183,0.3472255533836955,0.8032354727197472,-0.14888770607542928,0.32262835955662056,-0.4780754835317169
16.400000000000002,-2.833269129524777,0.7107947220024537,5.100728677107801,-0.09883591596297052,-0.4030470906343316,-0.22697784271091617,0.14365658045109436,-0.30895636539370663,0.9401641971370678,-1.2448242474673838,-1.8773170588814057,4.155554294586182,-3.5101325330594197,-1.3636058334055012,2.020538806915283,4.0,0.480541659190942,0.48873241872406664,0.3472332226502728,0.8032337703029065,-0.14888702732868664,0.3226308339104883,-0.47807688539441767
16.5,-0.45819188763504004,2.08799887855848,4.643669405874029,-0.19011806886055282,-0.19274888313969166,-0.18098168841040882,0.14381528792801654,-0.3093283087293682,0.9400175963833942,-1.2448441770240275,-1.87730736021679,4.155481815338135,-3.510141988793844,-1.3635513989851165,2.020541408316752,4.0,0.4805420271584087,0.4887323714554718,0.3472277717915928,0.8032389778024454,-0.14888188090746912,0.32263247983818744,-0.4780686279497941
16.6,-0.08371672365829964,2.651130891099614,4.315245771031726,-0.24234280718154347,-0.14970157979853077,-0.17298638120424645,0.14393410854229335,-0.3097080129809398,0.9398743647104851,-1.2448236846923828,-1.8773079071440637,4.155485286712646,-3.510153432885641,-1.363579575215475,2.020559425354004,4.0,0.4805553901872191,0.4887213080085712,0.34720244230012354,0.8032499799316302,-0.14889285450892675,0.32264466377597995,-0.47803850111984114
16.7,-0.36552230838769023,2.886797366369323,4.172808266423302,-0.24592134551264344,-0.1397142157746314,-0.17455197350483231,0.14397851507996662,-0.3099458648002506,0.9397891136245989,-1.244833228358633,-1.8772877970023507,4.155481637225598,-3.5101360427524626,-1.3636064189402681,2.020552842151601,4.0,0.4805758147918184,0.4886716858884429,0.34722679727574046,0.8032421537412443,-0.14891611580320202,0.3226741902309293,-0.4780244762206523
16.8,-0.5061515572903013,3.042217578199182,3.9686013729039367,-0.24661630412350014,-0.12987048502770002,-0.17551469032296949,0.14362930842346094,-0.3090374531371173,0.9401414772743913,-1.2448216357292807,-1.8773168146810697,4.15549811506888,-3.510123935215697,-1.3636205832110804,2.020518045815418,4.0,0.48056419242684006,0.48869433849616395,0.34721195924743864,0.8032487552134502,-0.14890306630736888,0.32263164301256736,-0.47804616620083634
16.900000000000002,-0.3829004257166486,3.026035902870646,3.8105915110561397,-0.251401929040133,-0.13492410394846333,-0.16729066893482572,0.14351371749517294,-0.30874341806828526,0.9402559787072547,-1.2448301315307617,-1.8773315706696305,4.155498287351234,-3.510129591027731,-1.363602161089064,2.020581547732368,4.0,0.48057049772108135,0.4887001825262543,0.3472065613853964,0.8032441823883899,-0.14891254862554396,0.3226293241966925,-0.4780524610222582
17.0,-0.4599144035147295,3.0295328047500627,4.153571923306273,-0.25527475738506367,-0.12745044118837248,-0.17680460868157105,0.1435433444611413,-0.30882772952798243,0.9402237678451683,-1.2448415756225586,-1.8772911136605137,4.155485453475097,-3.510159333978608,-1.3635967413531702,2.0205682899992343,4.0,0.4805611490162694,0.4886956749430695,0.347232448423598,0.8032420542155959,-0.14890766977239642,0.32264317062052117,-0.47804821166321937
17.1,-0.4315561446813386,3.242874431103006,3.889133703932737,-0.25476649625589093,-0.12907869321695,-0.1791633168496086,0.1434693996311895,-0.30860453925928455,0.9403083225820178,-1.2448269258000721,-1.8773048072024014,4.1554951667785645,-3.5101448512594877,-1.3636267830559332,2.0205502490834877,4.0,0.4805540121236392,0.4887174035868718,0.34724789232489744,0.8032328559636303,-0.14888776900499923,0.32264752731448537,-0.4780669246654413
17.2,-0.501519154361381,3.179235489908689,3.8272358107088866,-0.26140281934523324,-0.13021921527523064,-0.17663109215639722,0.14345078164184366,-0.30854968042950953,0.9403291791770376,-1.2448186874389648,-1.8773186150541923,4.155499376425999,-3.5101569728519446,-1.3635870129489205,2.0205025672912598,4.0,0.4805518528625299,0.48871077553385484,0.34722435962837817,0.8032441531556853,-0.14889335085610422,0.32264192625770843,-0.47804998474297916
17.3,-0.3950821987378898,2.833584123225953,3.865936707602771,-0.2640543478842795,-0.12443516333941577,-0.17505046810071553,0.14342700471739167,-0.30851004688627215,0.9403456878415477,-1.2448246821797702,-1.8772899113097132,4.155524208206599,-3.5101328381790005,-1.3635815732729457,2.0205655548663652,4.0,0.4805556939660382,0.4887004425037313,0.3472544295022052,0.803229330154485,-0.14889972892497613,0.32264461454401167,-0.4780710894954767
17.400000000000002,-0.27609080210864767,3.2119530861141965,4.106685610091503,-0.2605962297933194,-0.12732699771963393,-0.1794038715602489,0.1428936797203861,-0.3072766275124215,0.9408302324431427,-1.244815804831281,-1.8773183267128801,4.1555464703653255,-3.510129591027731,-1.3635941675963095,2.020557501259472,4.0,0.4805533188717918,0.4887018990494231,0.3472267800841714,0.8032362483124338,-0.1488992762628597,0.322641179011011,-0.478061925415262
17.5,-0.2999766894891286,2.9674553348472856,3.9410264372315416,-0.267092407263116,-0.12625797196010521,-0.18020820728841072,0.14260395631945322,-0.3066532409113476,0.9410780402305954,-1.2448685018186998,-1.8773179854192503,4.155485720969182,-3.510129591027731,-1.3635885758386839,2.0205807824011113,4.0,0.48056558619131445,0.4887056095302018,0.3472393817802205,0.803231450718496,-0.14889549019942513,0.3226408954593283,-0.4780713567576876
17.6,-0.4282044984019081,3.048462680145716,3.854086847126643,-0.2676452792190703,-0.11959092992651933,-0.17920253748663947,0.14252746286150636,-0.3065486986644804,0.9411236493197316,-1.2448401122841113,-1.8773195681443122,4.155499899006634,-3.5101321791468587,-1.3635814644923516,2.0205323532001613,4.0,0.4805661958347725,0.4886935272153181,0.3472059103840301,0.803243579312465,-0.1489225678771976,0.32263646363846615,-0.4780455348615087
17.7,-0.32479568440601203,3.0545849458202117,4.007292360606326,-0.26668090860379107,-0.12244363312035106,-0.17708619943344006,0.14295450084634273,-0.30745585730185243,0.9407626501061354,-1.2448308754221824,-1.877298043461999,4.155503084926843,-3.5101480827854528,-1.3635848204242151,2.0205679988733816,4.0,0.4805576628871739,0.48870997164678964,0.3472274405408122,0.8032365244061855,-0.14889958609834875,0.3226411253809086,-0.4780614012159451
17.8,-0.4936927614948858,3.308404512225344,3.8351175132385205,-0.2626533471592522,-0.12137469155771656,-0.1761760298861131,0.14293867037221403,-0.30742072967672257,0.9407765689877416,-1.2448354322027488,-1.8773018322386683,4.155497817114558,-3.5101391175965175,-1.3635995021198302,2.0205348018798164,4.0,0.4805594365232993,0.4887098231523967,0.347226087004979,0.8032303683902523,-0.14890889211541752,0.3226382858281689,-0.47807076219162303
