xiamingqian9007/apple-picking-rnn/training_data/grasper_20191123_161304.csv
,/ground_truth.x,/ground_truth.y,/ground_truth.z,/joint_states.elbow_joint,/joint_states.shoulder_lift_joint,/joint_states.shoulder_pan_joint,/joint_states.wrist_1_joint,/joint_states.wrist_2_joint,/joint_states.wrist_3_joint,/wrench.fx,/wrench.fy,/wrench.fz,/wrench.tx,/wrench.ty,/wrench.tz,/manipulator_pose.x,/manipulator_pose.y,/manipulator_pose.z,/manipulator_pose.rx,/manipulator_pose.ry,/manipulator_pose.rz,/manipulator_pose.rw
0.0,0.006645955776774348,0.3490927267509672,0.9370646185836853,-1.3873262405395508,-1.9017306766905726,4.120742321014404,-0.30061037958178716,1.414492130279541,-0.7330954710589808,-7.820204069552323,-9.361258646454669,-6.794935046034921,-0.28282867062401285,0.3445756640715606,-0.0008899615317092644,0.5299497575751873,0.5380986877814757,0.43471545185142363,0.7874376493844568,-0.3064643357472386,0.2050695179627436,-0.4939312219827911
0.1,0.006638124848684177,0.34940588889140994,0.9369477997983495,-1.387434959411621,-1.9013905732676484,4.120754718780518,-0.30067027247167527,1.4145048351668252,-0.7330600281900019,-7.8512096419932105,-9.51106542767545,-7.228607422167489,-0.2836084287348492,0.3366065582820341,0.006298678541633092,0.5299262860437999,0.5380121022327441,0.4348260157388605,0.7874013720449916,-0.3064727689094676,0.20507947163561188,-0.49397968736810105
0.2,0.006630293920594005,0.34971905103185275,0.9368309810130139,-1.3883519963955422,-1.9000487504484938,4.120811537811916,-0.3005741399577637,1.4143738454302588,-0.7330265011507866,-8.246613765159285,-9.78491232731004,-6.623248809841535,-0.287397865577612,0.35354846469527584,0.012042180236301728,0.529785880396154,0.5378177296912875,0.43507532844935554,0.7873326251307364,-0.3064514280668359,0.2051054890122109,-0.4940916898892372
0.30000000000000004,0.006622462992503834,0.3500322131722955,0.9367141622276781,-1.3897055444252313,-1.8992867748853304,4.120911120286257,-0.3005201355363178,1.4142756544985327,-0.7329456229098115,-8.188832306129823,-9.912645668852,-6.030350873293428,-0.31809569992670317,0.42776754404654577,0.027509781133150557,0.5295276880774797,0.5374207348157786,0.4353159935913489,0.7872534292202119,-0.30651719836913904,0.20514601332616053,-0.4941602558900642
0.4,0.00662229867550991,0.35007892858986295,0.9366967725707834,-1.391156239281507,-1.898188309792871,4.121100867550418,-0.3004500922827211,1.4141782975753767,-0.732902334506431,-8.366177257862965,-9.391354043000632,-6.612979503807146,-0.316249124685234,0.4670224984247708,-0.012240225224737245,0.5291293920412095,0.53711352037534,0.4350805049768452,0.7874364786032717,-0.30649205747360136,0.20509157130674058,-0.49390673031394294
0.5,0.006630112620955011,0.34984836610009556,0.9367828538831118,-1.3925770742664556,-1.897014572041986,4.121291831876121,-0.3004041035477522,1.4140289364134737,-0.7327860132133219,-8.38757601802328,-9.571692378239181,-6.85003799879144,-0.26812723656919074,0.4695501030492566,0.007038329398376914,0.5288369133728039,0.5368850423118012,0.4350835855851308,0.7874744166355122,-0.30649392329012576,0.2050434740068946,-0.49386505433971606
0.6000000000000001,0.0066686836707260345,0.34872312225846536,0.9371994719172869,-1.3936536386213263,-1.8957051165299397,4.121414045372885,-0.30032189310107427,1.4139276617163787,-0.7327961328274192,-8.776561553377388,-9.46105672079607,-6.1783393178069135,-0.2540995151179278,0.4621773971988193,0.021940771859300327,0.5284042590593849,0.5363698453704158,0.43538708051359565,0.7874164021681389,-0.3065058498229838,0.20508263901354298,-0.49393388707003555
0.7000000000000001,0.006740629449421762,0.34662705400904964,0.9379747574441623,-1.3948250090289818,-1.8944081952774863,4.1215655595185785,-0.30025539516696814,1.413778829448266,-0.7327102817499462,-8.458748519522661,-9.679766710200505,-6.347507984702944,-0.2543616756796684,0.5076518727374191,0.028475097694884093,0.528223727119404,0.5361693402721759,0.43555760999177395,0.7873864602441744,-0.3064844334660982,0.2051078786546125,-0.4939844252412405
0.8,0.00681257522811749,0.3445309857596339,0.9387500429710376,-1.3962374692034718,-1.8933191864576742,4.121735309427884,-0.30025079643879143,1.4136520608054672,-0.7326648043429279,-8.247697381794277,-9.079973096117463,-7.300282971872342,-0.2101014657143301,0.4694759609700044,0.03230037187004344,0.5277420066615228,0.5357168229530854,0.4356554540095343,0.7874314489162066,-0.3064731511841645,0.20507396885426546,-0.49393378924642467
0.9,0.006882533650351045,0.34254954037608953,0.9394675958823674,-1.397648811340332,-1.8921223772989624,4.121859993253436,-0.30017551771742473,1.4135084118161882,-0.7326010045498429,-8.27407504623098,-9.527588315341042,-7.154642779908491,-0.22072788827444376,0.5006558852949008,0.037524176833762905,0.5275311408434089,0.5355061436062516,0.4356908183679816,0.787466362247507,-0.3064656931750601,0.20506608511407548,-0.4938860273093326
1.0,0.006952435100688146,0.3405713809063558,0.9401834937626761,-1.3988313674926758,-1.890906952187665,4.122049645015172,-0.3001307330281166,1.4133782386779785,-0.7325080076800745,-8.280529967842172,-9.45002581460058,-6.878795908636508,-0.1977917382423189,0.5119260729697936,0.04218577442656496,0.527226843313659,0.5351550553263786,0.4357017080238759,0.7874923291620585,-0.3065094376970675,0.205052654943614,-0.49382305010410266
1.1,0.007022336551025248,0.33859322143662207,0.9408993916429848,-1.400015625915709,-1.8896785404807683,4.122169048087353,-0.3000944417766114,1.4132524270767948,-0.7324717097952718,-8.36101088189558,-9.532176117939509,-6.609308031268906,-0.19910994763728176,0.5230219772198856,0.05085255934500999,0.5269009069760663,0.5348225424351895,0.4359811702885532,0.7874428221783867,-0.3064804675834406,0.20507658807448342,-0.4939100300796714
1.2000000000000002,0.007092238001362349,0.3366150619668883,0.9416152895232935,-1.4012314675045505,-1.8885602873790186,4.122300820298016,-0.30004833769352557,1.4131377320363294,-0.7323902141653091,-8.4291061493548,-9.279741318801175,-7.0259099863312535,-0.18293397492182317,0.5270407902427361,0.05828728170438506,0.5264080501091489,0.5343089169890773,0.4361941549524847,0.7874363981597658,-0.3064957445893861,0.20506154501617638,-0.49391703772734047
1.3,0.007171344554383482,0.3341822278022816,0.9424810387245356,-1.402551693192725,-1.8872860916396772,4.122453390784976,-0.3000251796453915,1.412965009532692,-0.7323461712125681,-8.235021101225913,-9.004300255972467,-7.199724381737791,-0.12902439269626656,0.5107599254880699,0.03623344060001911,0.526220876570658,0.5340948942302892,0.43623340560124463,0.787460934132355,-0.3064941752277857,0.20507295369131456,-0.49387415545982816
1.4000000000000001,0.007335974235160116,0.33008517706122015,0.9439119709565237,-1.403803825378418,-1.8860137914586492,4.12260103225708,-0.29998572290454106,1.4128768432131071,-0.7322705403892478,-8.535012491202233,-9.107702943754894,-7.264956222521987,-0.1397368529989903,0.5305846474177602,0.05071065527085877,0.5257672750777034,0.5336515124444021,0.43648079375497617,0.7874354924489864,-0.30646855533846024,0.2050648335875851,-0.49393398733644084
1.5,0.007504741540226598,0.3259081219368679,0.9453700818543451,-1.4049997569826957,-1.884797389515285,4.122746824891958,-0.2999169148067226,1.4127528433859773,-0.7322443167315882,-8.548004720386345,-9.043460001721348,-6.737335904666545,-0.15683014535737727,0.5473412410550061,0.06109900802748307,0.5254990309771947,0.533359782136059,0.43670399476390387,0.7873903614711456,-0.3064665467031847,0.20507981505466297,-0.4940009553344087
1.6,0.007559992100392132,0.3248228204688149,0.9457438960303663,-1.4062730606101834,-1.8837449438385871,4.122878334990864,-0.2999228666129531,1.4126091215221555,-0.7321599165545862,-8.6026312393484,-9.608292565415704,-6.701654366040121,-0.16878053235708487,0.5807356347478014,0.06415068881439494,0.525095835998796,0.5329671475224677,0.436708951392352,0.7874568024902346,-0.3064715554892541,0.2050591368470936,-0.49390051658545303
1.7000000000000002,0.007605652843772909,0.32399870823001065,0.946026109562699,-1.4075491177861483,-1.8825519520326266,4.123058307529623,-0.29988739932852326,1.412468433380127,-0.732086436071509,-8.66684372219105,-9.63973261772709,-6.55429933054228,-0.1910721673183754,0.5815818764071148,0.06657530806987157,0.5249000449481749,0.532768752840795,0.43671024774138945,0.7874921982498696,-0.3064825415264194,0.20504371006571198,-0.4938436659486312
1.8,0.007651313587153687,0.32317459599120635,0.9463083230950314,-1.4087067481100115,-1.88115922054871,4.123187458890721,-0.2998417180827637,1.4123265452465996,-0.7320185484559365,-8.70535563525723,-9.63976682161173,-6.418556777186535,-0.20087936579112994,0.5838353393019106,0.06213921169893917,0.52444031602137,0.5322276148996152,0.43711707633024505,0.7874068386509498,-0.3064731825961092,0.20508734364458803,-0.49396744859548736
1.9000000000000001,0.007681699327077381,0.3218736864486547,0.9467508759857108,-1.4099241142029764,-1.8799468624496336,4.12335495930829,-0.2997945112041016,1.4121813373129046,-0.732002625993935,-8.63596353130263,-9.924234816811662,-6.409151300572811,-0.2089486292166181,0.5975893572133127,0.057997905943599354,0.5242197575034016,0.5319852930693697,0.43724727016136883,0.7873875140341545,-0.30647104650304735,0.20510298972361227,-0.49399308092814087
2.0,0.007700731400121271,0.3210152034220063,0.9470427278481012,-1.4112679756664461,-1.8788726710907842,4.123472585168293,-0.29976233910978894,1.4120378653457757,-0.7319081306155488,-8.650426340672446,-9.92310453360442,-6.19061013341325,-0.2250919057274347,0.6104879527642919,0.05229652513042884,0.5238917467684994,0.5316500279909337,0.4373721812959723,0.7873852024143119,-0.30647663642030676,0.20509112616419628,-0.49399822298887847
2.1,0.0077051972763263026,0.32087673070806655,0.9470896211704527,-1.412555101232201,-1.8778723600912495,4.123608112335205,-0.2997037091566114,1.4119357630360576,-0.7318371710708452,-8.894611673712435,-10.006542936316325,-6.154926353679524,-0.24101114775255794,0.6221635818783524,0.05446483763692032,0.5235847130115182,0.5313389406852586,0.4373135630749989,0.7874724276964705,-0.30648091274466926,0.20507193749653244,-0.4938644816064828
2.2,0.007686338234811683,0.3210555577973419,0.9470291303615733,-1.4137645983187883,-1.8764713371518487,4.123769059789916,-0.2996743482402344,1.4117901514438704,-0.731784935702489,-8.561420835273701,-9.768100750846848,-6.461601218363015,-0.23231878076221865,0.60509888758359,0.04817930314164852,0.5231018303488544,0.5308440909726846,0.43754403564125394,0.7874564838943616,-0.3064787205508888,0.20507898511001263,-0.493888337267106
2.3000000000000003,0.007664798835178927,0.3212708470561157,0.9469562996194363,-1.4147822211992622,-1.8751102131210071,4.123910502632065,-0.29968153856688734,1.411688251873054,-0.7317189177218081,-8.69752838826319,-10.023284497442955,-6.415842297864454,-0.2220197623964156,0.6016228420425543,0.0486302732372847,0.5229409346798348,0.5306182955988722,0.4378105745065691,0.7873656946099801,-0.30648531151582137,0.20510888161853266,-0.49401656192640797
2.4000000000000004,0.00769548911584803,0.3203780324814884,0.9472543763962991,-1.4162073135375977,-1.8739244394550953,4.124057119110022,-0.2996709234660217,1.4115743189005163,-0.7316534285784692,-8.198867534792054,-9.019309059371098,-6.979218592665817,-0.18052336866986365,0.5538031152967801,0.05661044321270372,0.5226193626026753,0.5302802121076288,0.4380155284409038,0.7873460597894467,-0.3064680165712532,0.2051199704536269,-0.49405397951440316
2.5,0.0078078541738110145,0.31775240749545375,0.9481324641714268,-1.4176464719286468,-1.8729183834270564,4.124185397914191,-0.29967303061220046,1.4114164325374339,-0.7315622605640162,-8.664174512235405,-9.391008765851877,-6.721171347968257,-0.16115757041076884,0.5513769322115301,0.04998184355295118,0.5221063744485025,0.5297617071418698,0.4379025060598727,0.7874839432279153,-0.30649154297429193,0.20508192674577627,-0.4938353739513722
2.6,0.007920219231773998,0.3151267825094191,0.9490105519465545,-1.4188206176892915,-1.871719178398808,4.124374866485596,-0.2995780309219543,1.4112953361667562,-0.7315365347804328,-8.347225793682792,-9.207121443598496,-7.481628402538652,-0.13174977588031003,0.5312148019801154,0.033681925812734055,0.5219302094208168,0.5295929297640793,0.4378765084489001,0.7875266943087669,-0.3064907052145981,0.20506240789757932,-0.4937758218416646
2.7,0.008068496480420427,0.3114304755526614,0.9502174875676924,-1.4197921752929688,-1.8703809080248213,4.124495029449463,-0.29957591079359674,1.4111676712587293,-0.7314634168123189,-8.417787201595525,-9.115925181418614,-7.318106166334546,-0.09169902969262274,0.5121101497086256,0.02134611945330806,0.5214491653656949,0.5290929004156013,0.438349042273866,0.7874128093807369,-0.3064676896268711,0.205080687406958,-0.4939641024311307
2.8000000000000003,0.008275049814725403,0.30599673200260524,0.9519580571687689,-1.4209469476574468,-1.86903258131343,4.124626636505127,-0.2996141554296972,1.411044538553412,-0.7314046064959925,-8.580941992693145,-9.099169573372473,-7.438210575122162,-0.10554954547274853,0.5158556596917556,0.02705701078577033,0.521244890094249,0.5288539173047715,0.43855935203006935,0.7873622787825798,-0.3064550224036335,0.20511290818722522,-0.4940391240467402
2.9000000000000004,0.00848160314903038,0.30056298845254914,0.9536986267698455,-1.4223643832299502,-1.8679716412673095,4.124766348073763,-0.2996189475950135,1.4109488292284678,-0.7313372090502823,-8.340559178857234,-9.36668881550239,-7.163773173991571,-0.1449880575045417,0.5466391585701507,0.021750506543856837,0.5208738781504632,0.5284641288714231,0.438759015232584,0.7873593504892276,-0.3064382170884973,0.20509296565163404,-0.49406249376472877
3.0,0.008640887592725854,0.2965246569484876,0.9549854344068189,-1.4237771502350411,-1.8668867550291957,4.124903668579762,-0.299565143406834,1.4108266271092926,-0.7312620309955804,-9.01877141176304,-9.52698850831577,-6.950693964967677,-0.1557914941051347,0.5599400379118951,0.01419642274124434,0.5204768383153457,0.5280454169292377,0.43855243164903446,0.7875144220864145,-0.3064739500699454,0.2050434434323562,-0.4938136685429306
3.1,0.008719784030072553,0.2948594378861644,0.9555005501512857,-1.4249971710350988,-1.8656758097917718,4.125036260914215,-0.2992878889976778,1.4106850624084473,-0.7312122199768245,-8.951363080343745,-9.42990132645933,-6.776711312119519,-0.16514099057909576,0.5764200511248135,0.018363594523130293,0.5203020272939614,0.5278440018492301,0.4386366074440098,0.7874961754402734,-0.3064768762279894,0.20505949189510742,-0.49383428676854363
3.2,0.008757800432715604,0.29310399108144053,0.9560386854338798,-1.425040586693788,-1.865561147729391,4.125093621562348,-0.2992304128459473,1.4106497764587402,-0.7311771551715296,-8.240769544452771,-8.990206998939076,-7.005258272840932,-0.16411589413758107,0.5515309917139043,0.019135214646135202,0.5200562653677014,0.5276240191029073,0.4388010758553795,0.7874290065009623,-0.30645935875686764,0.2050636532629094,-0.4939505230908317
3.3000000000000003,0.008789269585409562,0.29133409361428153,0.9565805074714128,-1.4251127243041992,-1.8655847587127128,4.125093475170989,-0.29925356208009274,1.41062593460083,-0.7311893162100565,-8.586074024725223,-9.152642663029752,-6.6815181188807955,-0.16884260018687752,0.5627718971483773,0.020651320661385832,0.5200457878484858,0.5276069438211272,0.4388554597798026,0.7874041594415817,-0.30646480423725575,0.20508121419568184,-0.4939794621661324
3.4000000000000004,0.008820724053897434,0.29083281343368955,0.9567331609513384,-1.425185759060931,-1.8655129871764125,4.125058728955129,-0.2992304128459473,1.4106493003084388,-0.7311672380417594,-8.379905373560973,-9.182233537918236,-6.8586797344855395,-0.17567970330865243,0.5771115976665331,0.022050323394131214,0.5200429849425168,0.5276041515575774,0.43882258552370756,0.7874196195347882,-0.3064568733440537,0.20506633522354617,-0.493965915534524
3.5,0.008852176025450992,0.29054725169339013,0.9568196393640102,-1.425237105379765,-1.8655015430846156,4.125094017885668,-0.2992343064463861,1.4106299839452865,-0.7311812888996071,-8.576173555943008,-9.295570100759926,-6.3208784002307015,-0.17154032478391135,0.5589561504149032,0.01826260615431765,0.5200343713368275,0.5276006670437912,0.4387991238607225,0.787431032820875,-0.3064596710972449,0.2050700282298485,-0.4939444524067734
3.6,0.00886613460235007,0.29054740041134947,0.9568194191517639,-1.4251737687001222,-1.865502193702176,4.125082805124798,-0.29921946784333286,1.4106386446633723,-0.7311903903479567,-8.742565884876669,-9.16455234376458,-6.42558604308331,-0.17307035873770205,0.5600812397180227,0.02127117010134787,0.5200368437854118,0.5275934470018931,0.43879258250507913,0.7874352756081284,-0.30646258653929903,0.20506720471747372,-0.4939370519903881
3.7,0.008845159363334198,0.2911181048591099,0.9566460642299436,-1.4251902611345126,-1.8654951515040994,4.125099598114235,-0.2992719459353234,1.4106383323669434,-0.731189058434282,-8.67299305288752,-9.06870419558892,-6.699734859980124,-0.17893709374579178,0.5635363027754501,0.021044003123645613,0.5200475470896971,0.5275765227527669,0.43881194533826395,0.7874212425520659,-0.3064768511323948,0.20507207277319922,-0.4939485514365195
3.8000000000000003,0.008833806299655732,0.2913748154056641,0.9565681305615992,-1.425196647644043,-1.8655253849425257,4.12509358344088,-0.2992419655673134,1.4106501593946328,-0.731166721801234,-8.584166092273211,-9.099294858086626,-6.790115114904553,-0.17702231963157983,0.5634887020016409,0.019387648383290535,0.520031223111996,0.5275927138512859,0.4388018778060449,0.787427827828257,-0.3064640176544115,0.2050650194676671,-0.4939489443611706
3.9000000000000004,0.008842307078982347,0.29098364900126894,0.9566870836178702,-1.4252084257955417,-1.8655134640135707,4.125104187941599,-0.2992423337749024,1.4106612674913768,-0.731213096527962,-8.570259244734908,-9.077754537630314,-6.5162184710925,-0.17826303148130687,0.5573055573599631,0.01728306420209061,0.5200449182539898,0.5275785766024554,0.43879712286125877,0.787424205332001,-0.30647295302003813,0.2050812953785872,-0.4939424179095016
4.0,0.008846861206045721,0.2908102747361633,0.9567397899571339,-1.4252172574539992,-1.8654923228877367,4.125082492828369,-0.29920998089298717,1.41062593460083,-0.731205211118625,-8.758645240949392,-9.230109705036003,-6.34849780330674,-0.17198335384206387,0.5520371551186456,0.019015393504137872,0.5200294411120975,0.5275928394326711,0.4387839543341563,0.78743904321709,-0.3064668635703445,0.20505881116233343,-0.4939318765937266
4.1000000000000005,0.00884251899449297,0.291127836203373,0.9566431663865413,-1.4252214689825478,-1.865525371501756,4.125033896298173,-0.299266135310503,1.41062593460083,-0.7312014330066576,-8.65316962096759,-9.158531654626485,-6.578475197285817,-0.1711271580467342,0.5575632681692744,0.019757787517433532,0.5200276592823497,0.5275959984382368,0.438790187644828,0.7874418627750858,-0.3064620571722037,0.2050580654673819,-0.49393067332355317
4.2,0.00883817678294022,0.2914453976705828,0.9565465428159488,-1.4252329245042266,-1.8655134252259038,4.125093974156326,-0.2992423725625692,1.4106146456597004,-0.7312133560078863,-8.178720258372367,-9.2159107446066,-6.7956123547144935,-0.17633227247813707,0.5681020734088059,0.015788856658687327,0.5200220429913026,0.5275950447248554,0.43878406764225525,0.7874469727737973,-0.30645574089016653,0.2050566691631886,-0.4939270253555076
4.3,0.0088372880732646,0.29151973837698686,0.9565238347309459,-1.4252180594423014,-1.8654999162894386,4.125093936920166,-0.2992320396411243,1.4106497764587402,-0.7311701796999127,-8.47000029254674,-9.188812854275989,-6.630769404106242,-0.1769992797970274,0.5597508726869396,0.01480322348875737,0.5200366755868687,0.5275703490590485,0.43882139859169295,0.787424241692382,-0.30647092090225425,0.20508081204720763,-0.49394382146814986
4.4,0.008844495251463306,0.29102390768107317,0.9566744033676015,-1.4252408983605214,-1.8655134640135707,4.125092220420495,-0.2992079536921891,1.4106497764587402,-0.7311890761004847,-8.390747234426351,-9.259690831856584,-6.835030967081547,-0.1734675840409103,0.5667624649901759,0.0166924913957738,0.5200435531796828,0.5275615258905663,0.4388064205035177,0.7874290944518025,-0.3064767889071895,0.20507936078097624,-0.49393304693411516
4.5,0.008851702429662012,0.29052807698515953,0.9568249720042571,-1.4252638503490918,-1.8654875197830596,4.125070095062256,-0.29926308390839956,1.4106715571670418,-0.7312004020688014,-8.767955348781442,-8.965605717971197,-6.5868752897999565,-0.18132913799983894,0.5559546679744025,0.022325233421581533,0.5200458699095227,0.5275637665340794,0.4387984242748141,0.7874362141504372,-0.30646669358707346,0.2050852741061928,-0.4939255052242404
4.6000000000000005,0.008858909607860718,0.2900322462892459,0.9569755406409127,-1.4252328872680664,-1.8654772243895472,4.125089092820946,-0.2992253669092598,1.4106533514547193,-0.731201473866598,-8.595993120601817,-9.049076468931874,-6.56018618857636,-0.17784090736469158,0.5530817042677137,0.017207316536568547,0.5200349868800808,0.5275781382324248,0.4387820853109139,0.787445316119965,-0.30645849082646764,0.2050675893307392,-0.4939234265826755
4.7,0.008861821475564491,0.28979739579764174,0.957046885693562,-1.4252348103451258,-1.865505549495156,4.125072178395737,-0.2992304128459473,1.4106621742248535,-0.7312273189297783,-8.711643080776735,-9.253701229025786,-6.695821184948033,-0.17528174408594327,0.5588655500733852,0.019473929444965857,0.5200483859655127,0.5275808642867497,0.4387909872844937,0.7874266174326029,-0.30648364261076766,0.20507493554702602,-0.49393458046695593
4.800000000000001,0.008854137660853231,0.2902063319111589,0.9569228018157762,-1.4252214431762695,-1.8654776118335676,4.125082295307888,-0.29926560586219425,1.4106734359900526,-0.7312128250249348,-8.842562464802464,-9.209416726676636,-6.408708193514055,-0.17413590647570795,0.5519259123245052,0.02114619072324433,0.5200274028748291,0.5275757266890158,0.4387954928113048,0.7874421347238132,-0.3064586556069676,0.2050661241991889,-0.4939290045857774
4.9,0.00884645384614197,0.2906152680246761,0.9567987179379903,-1.4252328872680664,-1.8654778803824585,4.125057697296143,-0.29926491410798317,1.4106504324516516,-0.7311995563488572,-8.595036254709822,-9.041084687864409,-6.856772148694259,-0.1816542258263817,0.5644871763909616,0.02139490369693766,0.5200555818134329,0.5275676151566918,0.43878351237645863,0.7874400335405735,-0.3064764927787391,0.20507694662354153,-0.4939167935140786
5.0,0.00883877003143071,0.29102420413819324,0.9566746340602045,-1.4252223624767422,-1.8654900818058968,4.125058175332389,-0.2992540248787393,1.4106490961763904,-0.7312019335168343,-8.660168768818423,-9.09172735892071,-6.8221766884501,-0.18159834036366865,0.5580116834699584,0.017044599542167527,0.5200494218921827,0.5275679665561643,0.43879191812462115,0.7874256777717643,-0.3064898783797557,0.20507097925827883,-0.49393385174787413
5.1000000000000005,0.00883749644768774,0.2910675969528823,0.9566615112345603,-1.4252443313598633,-1.8654896347812748,4.125093949040756,-0.29920614515836114,1.4106621742248535,-0.731201473866598,-8.765460834204966,-8.985840561210532,-6.786132396934756,-0.18031934919806575,0.5590112137534461,0.022606815690652877,0.5200472679543314,0.527573086224719,0.43876071441798076,0.7874484021344776,-0.3064855635798211,0.20505810696098975,-0.4939056448984894
5.2,0.008852809729427516,0.290165124079459,0.9569355069316031,-1.4252446840140238,-1.8655015430846156,4.125082818355287,-0.29924165559382454,1.4106490982776623,-0.7312007956855201,-8.67450657393599,-9.083727476251438,-6.6398852013629694,-0.1815412344573914,0.5536459401310779,0.018780703644786734,0.5200460122040171,0.5275744608916413,0.43877253285371826,0.7874358456496262,-0.3064800451020655,0.205066550667217,-0.49392558218596466
5.300000000000001,0.008859487003955436,0.2900793860232832,0.9569615511602348,-1.4252557462791227,-1.8654547239847754,4.125057378535001,-0.2992423337749024,1.4106389964526553,-0.731167239781425,-8.747911705524725,-9.142543714376998,-6.722872882075168,-0.181686380007543,0.5538073391090457,0.01958021730252354,0.5200316543551792,0.527588304445075,0.4387800828139436,0.7874468952927256,-0.3064546660072993,0.20506583632726538,-0.4939240098918062
5.4,0.008863553726820302,0.2902405361856017,0.9569126429134529,-1.4252328872680664,-1.8654896221556605,4.125069625731638,-0.29921939447587326,1.4106603691070916,-0.7311890761004847,-8.47465285099131,-9.191531583119728,-7.061053825141109,-0.18285966183028476,0.565292518811708,0.018220723554699614,0.5200391414690713,0.5275758276285768,0.43879528824791103,0.7874329268069629,-0.3064789099504715,0.20506372915065235,-0.4939321112487216
5.5,0.008867620449685167,0.29040168634792024,0.9568637346666711,-1.4252218433848598,-1.865500692641361,4.125093536711575,-0.2992304128459473,1.41064937625015,-0.731166068010471,-8.703678848663447,-8.955839213009257,-6.476839872308207,-0.17838215297356969,0.5489825066329689,0.018879422373625367,0.5200228997477593,0.527568905134128,0.4388030408231873,0.7874382776505243,-0.30647249198054405,0.20505631798562046,-0.4939306398718259
5.6000000000000005,0.008874976286163965,0.2902962258256444,0.9568956488375506,-1.42520816290523,-1.8654896221556605,4.125082492828369,-0.2992541862717515,1.4106497080266343,-0.7311777004407938,-8.541505017594442,-9.023659542460312,-6.601343994991676,-0.1799572358573761,0.5529574567233771,0.01684669096228799,0.5200466948840146,0.5275735720572629,0.43879917091894877,0.787431673719515,-0.30647534454462155,0.2050820277084181,-0.49392872392739323
5.7,0.008883392823940328,0.29010478642507864,0.956953627308223,-1.4252324922601265,-1.8655019545512197,4.125070095062256,-0.2992764506953509,1.4106383323669434,-0.7311780270166278,-8.485365744126698,-9.178736552773906,-6.734835132333645,-0.1824477852402541,0.5532944654114235,0.01602950488158917,0.5200321782251026,0.527586923844688,0.4387843331162098,0.787438231405129,-0.3064631295739674,0.20507549214310092,-0.49392856209735153
5.800000000000001,0.008886898186057257,0.28997059680796755,0.9569942920357458,-1.4252102366629342,-1.8654776600778633,4.125070095062256,-0.29926449990852,1.410660498500561,-0.731178469870834,-8.492493952754465,-9.066272390951477,-6.766155857562017,-0.18148608180313233,0.5511525716803884,0.01677886455368805,0.5200239303825474,0.5275781144852076,0.4388332561901101,0.7874140500201166,-0.3064681865877558,0.20507130052757525,-0.4939657135272231
5.9,0.008874958447645272,0.2900164513843516,0.9569805069691628,-1.425267883114522,-1.8655002993070477,4.1250931186454505,-0.2992534364291418,1.4106621742248535,-0.7312129856581951,-8.804208515900342,-9.118889439467782,-6.24314978700876,-0.172625016467751,0.544895167301251,0.021464362258182962,0.5200472713998777,0.5275601683594241,0.4387895934674501,0.7874340423502622,-0.3064771641900796,0.20507492640352448,-0.4939267671816558
