xiamingqian9007/apple-picking-rnn/training_data/grasper_20191127_132849_noimg.csv
,/manipulator_wrench.fx,/manipulator_wrench.fy,/manipulator_wrench.fz,/manipulator_wrench.tx,/manipulator_wrench.ty,/manipulator_wrench.tz,/ground_truth.x,/ground_truth.y,/ground_truth.z,/joint_states.elbow_joint,/joint_states.shoulder_lift_joint,/joint_states.shoulder_pan_joint,/joint_states.wrist_1_joint,/joint_states.wrist_2_joint,/joint_states.wrist_3_joint,/mode./mode,/manipulator_pose.x,/manipulator_pose.y,/manipulator_pose.z,/manipulator_pose.rx,/manipulator_pose.ry,/manipulator_pose.rz,/manipulator_pose.rw
0.30000000000000004,-0.3278466030396807,0.1362457370658296,-0.16957332338595027,0.009261020703310013,0.0011657594540663459,0.028700604345285877,0.07698861645055553,0.23457649118689058,0.9690441100424702,-1.247614977190169,-1.8054416790239394,4.159937581725243,-3.436868061517639,-1.3472120314371874,2.702757575196956,1.0,0.4745971539099094,0.47912695732714,0.40525294871216977,-0.664358732516467,0.3985431915525249,-0.15048612727038696,0.6141210992104096
0.4,-0.40857751221683314,0.29921983391869655,-0.13048559859086434,0.0012926660887003522,0.006283914170603187,0.09160819206958529,0.07681209851830002,0.23422172657858398,0.9691439353592338,-1.244060689207381,-1.8091477059600396,4.159219310842284,-3.4370238689075068,-1.3478123895535756,2.7026247519628925,1.0,0.4752794647074982,0.4797363000271375,0.4052142247599212,-0.6642330776385855,0.39857870544818663,-0.15051833261114608,0.6142260705000893
0.5,-0.4585847227998275,0.2754745817465911,-0.136609437854592,-0.0024466574504027686,0.005748034934945265,0.1558030714526729,0.07683189124959738,0.2341915931664663,0.9691496704570755,-1.2403483086490796,-1.812614626254314,4.15865605696047,-3.437155067660617,-1.348605060342831,2.7024346996578124,1.0,0.4759048297134369,0.4802806221840531,0.4049909755455933,-0.6642527450878778,0.3986125005150476,-0.1505694461971565,0.61417034033584
0.6000000000000001,-0.3803513854139794,0.2882485440175765,-0.08057490391896777,-0.0022070521525923903,0.006293840079083745,0.20370817471582411,0.07701140467549883,0.23442558356304583,0.9690788526318627,-1.2367104845653116,-1.8162944064587114,4.158056735992432,-3.4372874699034632,-1.3493255139630924,2.7023253130078513,1.0,0.47677312537418787,0.4813212425027262,0.40457808159624403,-0.6643639428910166,0.39855685137204344,-0.1505153632179013,0.6140994325401127
0.7000000000000001,-0.5756365846522342,0.3516991262537602,-0.02712770037125186,0.001215221131922449,0.012778938203260821,0.24606417644084283,0.07711332020311701,0.23427602470325543,0.9691069169834474,-1.232920719952152,-1.8194370909332043,4.157339081819539,-3.4374409049821484,-1.3499931870169586,2.7021847158020442,1.0,0.4784258361203398,0.4831889375815325,0.40400817983179593,-0.6644571203553766,0.39845824299884,-0.15041840874383922,0.6140863669764126
0.8,-0.16745971349210698,0.15345142915004142,-0.045985359650910745,-0.018416210086017848,0.00878401610482557,0.2618044228266668,0.07715261034237202,0.2343603410847747,0.9690833325008162,-1.2295657042280996,-1.8228888247109172,4.156653066086051,-3.4375506889679115,-1.3505231781118274,2.7020373344421387,1.0,0.4791180672266369,0.48380330900808316,0.4039749323049444,-0.6643426027270428,0.3984718634859862,-0.15042621985766036,0.6141995055282928
0.9,0.09539159866863778,-0.005690352166758174,-0.19475925970120408,-0.006801938885491069,-0.0010783926354583466,0.2737518654607123,0.07719358365579693,0.2349494995428891,0.9689375008595744,-1.2261618989792389,-1.8260703108895129,4.156018020996237,-3.437762337357757,-1.351049455613154,2.70188263196194,1.0,0.47984088756837445,0.4844250795640644,0.40368802435435125,-0.6643640936160428,0.39853005215096377,-0.15047982057817885,0.614125371764629
1.0,-0.16655888103031344,0.3507205055790462,0.047401153150768816,0.0006378582958135983,-0.0010022236759984298,0.2595013666475099,0.07701888942260322,0.2346586891133028,0.9690218415135885,-1.2228111216554076,-1.829188520890715,4.1554094735227265,-3.4379539359243214,-1.351626347707298,2.7017687227957605,1.0,0.4806730140613852,0.48522272861650406,0.40353084161032576,-0.6643094699485811,0.39853155215552827,-0.15052684675209893,0.614171961652444
1.1,0.05963846748949249,0.034669184490522933,-0.06697601004230452,-0.013428174202396635,-0.006884775080420961,0.25964185063300227,0.07691316430986922,0.234426145253453,0.9690865441106556,-1.2195737081712879,-1.8322632900620122,4.154832589193211,-3.438114418568062,-1.3522147559404272,2.7016417856653794,1.0,0.4820614399626717,0.48657015214986765,0.40308552422099553,-0.6643296247334931,0.3985648253948206,-0.15053130295237593,0.6141274757661574
1.2000000000000002,-0.07812094761984302,0.19103843856539554,-0.06072975828620641,-0.006979365048548732,-0.006933452845936745,0.25448563802086455,0.07687425721078094,0.23425013105843576,0.9691322018511348,-1.2164552693637862,-1.83526681115594,4.154363468049224,-3.438329502082294,-1.3528162638923569,2.701557315765945,1.0,0.48254563338188594,0.4870651466693496,0.4029446152229217,-0.6643360491876791,0.39855041001933866,-0.15052233997680436,0.6141320782950763
1.3,-0.23015428457524414,-0.1361116945404146,-0.07472096477247993,-0.011153208551285335,-0.005118068263379251,0.2503439322390482,0.07692980704401933,0.2342042548561399,0.969138880215433,-1.2133433849326183,-1.8379426684380598,4.1537792002274685,-3.4384984830573586,-1.3533544189391902,2.701449196877362,1.0,0.48362446739027054,0.4882255166892213,0.40253074596135135,-0.6643912562679388,0.3985378700686232,-0.15047010492869253,0.6140932927810102
1.4000000000000001,0.11953516692761765,0.21983053576367304,0.17863541952373055,-0.009126021616596387,-0.008440600471100953,0.2459633166956871,0.07701488174792934,0.2344528705371021,0.9690719225947931,-1.210469999916219,-1.8410152010053107,4.153370380401611,-3.4386893315317666,-1.3537629666716884,2.7013657068531605,1.0,0.48417256173282214,0.4887491909315062,0.40237053639825965,-0.6643913274771092,0.398539562651464,-0.15048283784776606,0.6140889972048575
1.5,-0.1544533656923373,0.08465495800862088,0.14497509132735317,-0.0018375922628611902,-0.000907225183474844,0.24344028646439572,0.07713013139699013,0.2350024621824807,0.9689297076823823,-1.2073462311698908,-1.843376265891349,4.152950763702393,-3.4389284008875785,-1.3541825590393428,2.701233058179565,1.0,0.4849652828480675,0.4895518394560688,0.4021147835515364,-0.6643979513940265,0.398559208827902,-0.1505048410798353,0.6140636872942671
1.6,-0.09255355598553859,-0.040935112489426315,0.05206340913771437,-0.01609702842381167,-0.00406399755558924,0.24015332892479052,0.07740299843540645,0.23551969311027732,0.968782350061073,-1.2047622941419494,-1.846220238062753,4.152483449565744,-3.439168071071394,-1.3545908894663128,2.701102122977994,1.0,0.4858806886015768,0.4905833308903544,0.40198783542359245,-0.6643433618615275,0.3985030538031815,-0.15047522441671027,0.6141664436427661
1.7000000000000002,-0.3221406599097454,0.16357046935232708,0.08167450680876964,-0.0018119830500691447,0.0012955744520200172,0.2431068439337879,0.0772752806086236,0.23523728022719392,0.9688611610242804,-1.2018075123499006,-1.8484594200329123,4.151979672229589,-3.4393018617692843,-1.3550358639246087,2.7011005441533644,1.0,0.48636710290645063,0.49107529170936887,0.4017642284851126,-0.6643768873140359,0.39853278827823696,-0.15048076229396865,0.6141095247995367
1.8,-0.04789846844152559,0.06421899270759447,-0.15608956048167721,-0.003738448965124493,-0.005585430687905433,0.24187504013131106,0.0770107041511876,0.2343635351567799,0.969093699712749,-1.1994381589668828,-1.85090864559402,4.1515489692333,-3.4395163135569295,-1.3555625209726079,2.7009813945238252,1.0,0.4870269265860013,0.49168438905124395,0.4015932963144484,-0.6643570823186654,0.39854398426242327,-0.15051104889167674,0.6141162625617326
1.9000000000000001,-0.33709465174679953,-0.22329208208295076,0.12701113098932393,-0.010553866274989162,-0.0007991209552784596,0.24297350775103135,0.07668001892671107,0.23327753938906645,0.9693816566318914,-1.1965314195406809,-1.8534603049713565,4.15110445022583,-3.439755483906479,-1.3560080458060546,2.700849718328212,1.0,0.4880714223205462,0.4927803425470565,0.4012446989288374,-0.6644055237678441,0.39851349763235255,-0.15046605760272125,0.6140946650974101
2.0,-0.11355310508809988,-0.1320928670519187,-0.1516402594190769,-0.007366588383343433,-0.004275685223969214,0.23938732443032307,0.07627596417737374,0.2319624127992892,0.969729481581462,-1.1942819452955382,-1.855632136456612,4.150720059915727,-3.43997124176712,-1.3564273190522023,2.7008254790605655,1.0,0.48847177521245944,0.49313851660810426,0.401148451688348,-0.6643817874662865,0.398526594048979,-0.15048230564275805,0.6141078651240856
2.1,0.06987099822172788,0.10052043834762481,-0.06776329991110279,-0.006464189803287789,-0.005767046039821109,0.24849154125962383,0.07626883544590517,0.23181467610385229,0.9697654421486679,-1.191651369473779,-1.8579689464964808,4.150290031492211,-3.4401751574683583,-1.3567984739886683,2.7006936073303223,1.0,0.4893214620215003,0.49400203044441576,0.40090260328081556,-0.6643931564559576,0.3985155722957713,-0.15046295665572385,0.6141074588104926
2.2,-0.028157404769999797,0.2642905995714567,0.06659743786670641,-0.0027441531399216897,-0.004233352118616767,0.24534907881897358,0.07628291707392572,0.23172932070419408,0.9697847377572567,-1.1893903221839888,-1.8600569461132974,4.149895030083086,-3.440330703326697,-1.357134178058378,2.700633504427719,1.0,0.48965254939122793,0.4943745381525563,0.40076455011564954,-0.6644128355662158,0.3985171234868047,-0.15044145887804533,0.6140904279284191
2.3000000000000003,-0.06227342427261791,0.2907466452522848,-0.14395382160984033,0.001274703870792193,-0.0011434504079965812,0.24059045899275375,0.07618561839456552,0.23159756215716965,0.9698238447952269,-1.187018814258625,-1.8621679225012342,4.149498462677002,-3.4405330579087443,-1.3574815146934203,2.7005607308326978,1.0,0.4903685331262608,0.49498921280165803,0.40060994207754846,-0.6643706067772297,0.3985445789506492,-0.15049043760331168,0.6141062966860619
2.4000000000000004,-0.2764724413701658,0.2792466791020033,-0.1122444481324105,0.0048104402153176205,-0.0008561404798881179,0.23752902669482687,0.07608135070404345,0.23146290018799148,0.9698641914246091,-1.1847804538427793,-1.8641574167207844,4.149150748626637,-3.4407384180025224,-1.3577702681170862,2.7004769237364274,1.0,0.49114475875286334,0.4957827580683455,0.40039064941286867,-0.6643439383038074,0.3985586309348686,-0.15048673762351558,0.614126934066355
2.5,-0.06064057244669044,0.3517208124217923,-0.005958407257196985,-0.002368645559866404,-0.0035863584167436747,0.24024928450426647,0.07619536576902208,0.23193723231001326,0.9697418318006763,-1.182526805533626,-1.8662681111674784,4.1488518714904785,-3.4409238817523775,-1.3580798181393738,2.7003918521157937,1.0,0.49150836306450346,0.496124908464055,0.40031434373571406,-0.664344435259343,0.3985420241491986,-0.15051492130983765,0.6141302669549007
2.6,-0.14976981185172,0.2568605012761569,0.05216626135060138,0.002960397592566965,-0.003269772966950317,0.23758515612168807,0.0763040649145762,0.23231138972318402,0.9696437960239316,-1.180483258748701,-1.8680612788885003,4.14851533821533,-3.441145025634055,-1.3584077908679144,2.700302041555098,1.0,0.49231208852496067,0.49697244961697645,0.4000372493975363,-0.6643636102323359,0.3985499801160675,-0.15051111113666038,0.6141052940440644
2.7,0.17850388353422028,-0.2880031380520958,-0.06455388888478025,-0.009815848810302367,-0.011459708408224866,0.24320471811319264,0.07638240933819754,0.23248035451631882,0.9695971366628677,-1.1783802552493958,-1.8699027908466719,4.148217211481217,-3.441371519076404,-1.3587659041034144,2.7002605781036046,1.0,0.49261974984719903,0.4973024922703694,0.39995380179702855,-0.664365584327381,0.3985402119282443,-0.15049895093269694,0.6141124779758877
2.8000000000000003,-0.13819024706646105,0.19966008009958003,-0.11561416993336557,0.0016149434223872317,-0.002095863933187748,0.23979277548804115,0.07614930205493715,0.23168707282711637,0.9698050722722834,-1.1762666979325862,-1.8719516668859477,4.147917864231905,-3.4415409988211274,-1.359064145963611,2.700212672541869,1.0,0.49330202947570184,0.4979762901107125,0.3997705061313385,-0.6643694787909074,0.3985352964999924,-0.15050276521240974,0.6141105199865734
2.9000000000000004,0.3073071254241614,-0.511297167607351,-0.343819577677363,0.022661657258902863,0.012512271615706262,0.23327496202473122,0.0759524066894438,0.23103209211190004,0.9699769898585078,-1.174688427821589,-1.8732582170422278,4.1476424620772185,-3.4417634621172155,-1.3593510193914076,2.7001076887480693,1.0,0.4936620214948634,0.49836463277110904,0.3996206113988167,-0.6643858742365201,0.3985495992646484,-0.1504879391567353,0.6140871332386973
3.0,-0.24985300753023199,0.15868727501226254,-0.18792838418045726,-0.00043229932299643724,-0.006561827155594392,0.2419178660102451,0.07586037293796406,0.23074160156305457,0.9700533496386023,-1.172694528539977,-1.8747986185579468,4.147376174637708,-3.4419126761861656,-1.3596501952480433,2.7000729533853716,1.0,0.4940479199285191,0.49873888081238826,0.39946267491638093,-0.6644332773076265,0.398557359498216,-0.15048842045168181,0.6140306885702169
3.1,-0.12610437614447417,0.33663603434627243,-0.05865283970525639,-0.003827455014234138,-0.004491750954352904,0.24310259800277742,0.07604728890289422,0.23124508664721066,0.9699186939605519,-1.1708240523402509,-1.876773033751958,4.14706563949585,-3.442091519081223,-1.3599174735198087,2.7000447401871455,1.0,0.49444230572628917,0.4991267311821799,0.3995433960740408,-0.6643161678618161,0.3985091619045654,-0.1504831772003104,0.6141899464947405
3.2,-0.08389494899829811,0.42358629192467534,-0.1510320406743913,0.0017820475224623617,-0.00661665353062631,0.24145862495151105,0.07614141565204685,0.2314512450426425,0.9698622068083653,-1.1692658791684818,-1.8783185399616806,4.14683549008398,-3.4422951845119356,-1.3601813505618767,2.6999597825604287,1.0,0.49499749272936355,0.49969365816787426,0.39927564955413003,-0.6643637675971386,0.3985290167598433,-0.15048158159408065,0.614125964852091
3.3000000000000003,-0.044003946100663244,0.06030856377321961,-0.0922001305134684,-0.007313743027663794,-0.007318794520856606,0.24152869163199764,0.07601837719950444,0.23098354661742637,0.9699833812010005,-1.1673044644510482,-1.8796145097369275,4.146550442640199,-3.442465461885365,-1.3604098259001072,2.699904223500162,1.0,0.49563066773401837,0.5003649188054023,0.39899002982790915,-0.66442314391874,0.39854238455285285,-0.15044797060443316,0.6140612849553951
3.4000000000000004,-0.007456125180204232,0.22339754471790738,0.018590403102851965,-0.002531223618746463,-0.0062272678639668224,0.23640942586303418,0.07596110233026981,0.23082017972833796,0.97002677260075,-1.165513038635254,-1.881236486495303,4.146334171295166,-3.4426208406413163,-1.3606738297929453,2.6998861975412813,1.0,0.495963519881515,0.500681738449828,0.39910466292764163,-0.664321862036935,0.39850467404772466,-0.15047319344067467,0.6141891454899393
3.5,-0.03957145238609541,0.19246166399055706,-0.1103897537798895,0.0021868286284926937,-0.0020807547025786695,0.23639378730214078,0.075914512294013,0.23070625861865887,0.9700575263331812,-1.1641423695210449,-1.8827253844612366,4.146082594002201,-3.4428274603707503,-1.3608536899085941,2.699805736541748,1.0,0.49623899725833925,0.5009748376852057,0.3990507124503697,-0.664314223499218,0.3984837738707253,-0.15048707297746824,0.6142075669389377
3.6,-0.11588347495845497,0.06124982987710753,-0.22785792061122212,-0.00041782628395915355,-0.0050963011178398404,0.24177223469750714,0.07604186139428508,0.23126776296767892,0.9699135726587453,-1.162496512586164,-1.8841795038238867,4.145832690335392,-3.4430124255857497,-1.3610683773419707,2.6997784267608265,1.0,0.4966858549122863,0.5013822301587617,0.398740969668618,-0.6643802459288811,0.3985596395492755,-0.15049178278564448,0.614085764251077
3.7,-0.08190402870214847,0.19977614122194148,0.04867174337793076,-0.0012408965486581573,-0.008713702519273572,0.24077762307612044,0.07620128813525895,0.2319538284454786,0.969737399660141,-1.1608692140144596,-1.8852811327810934,4.1456377043941375,-3.4431449375548304,-1.361274829042773,2.6997431784110777,1.0,0.49723117867808203,0.5019277958197711,0.3985766953770692,-0.6643798474026187,0.39856876613062536,-0.15050126819452447,0.614077947252809
3.8000000000000003,0.17901217895875954,0.30079368104928594,0.059362015760425324,-0.009683910546049293,-0.010281989929876932,0.23648604537880266,0.07615424928760625,0.23182653084983676,0.9697715891586731,-1.1594412151413174,-1.886786346140926,4.1454127010268955,-3.4433505505162376,-1.3614782805386494,2.6996486999041696,1.0,0.49744634634950124,0.5021442236075814,0.3986429968612999,-0.6643206741629503,0.39853795747144877,-0.15050949239013545,0.6141599392948328
3.9000000000000004,0.2030535419916381,0.08902858385360692,0.011008431719773266,-0.012565855964871744,-0.013128227246634587,0.237860770205152,0.076158685408924,0.2318162619352021,0.9697736458551888,-1.1580653635222902,-1.8881075954947921,4.1452202796936035,-3.443514158334453,-1.3616983482682012,2.699626565071924,1.0,0.497960803994281,0.5026578709409043,0.39844336631048843,-0.6643410660862439,0.39855726719611007,-0.15050482613318295,0.6141264934744157
4.0,0.24953172304186244,0.11317905479235248,0.10095916425161064,-0.001623393980817376,-0.016500305767721404,0.2406903452038739,0.07635791519252305,0.2323926070167821,0.9696200528017564,-1.1565743937432524,-1.8893004856505335,4.14500423393971,-3.4436944586209037,-1.36192023728446,2.6995790896113103,1.0,0.49815621053891734,0.5028919933698749,0.3983051868971064,-0.6643852182862376,0.39855825201786316,-0.15048814023237758,0.6140821778236316
4.1000000000000005,-0.31068771406821033,0.3599875452309974,-0.1453811719572271,6.675756126718193e-05,-0.001292077608184377,0.23476615762867953,0.07635481686466854,0.23230068751489202,0.9696423539345485,-1.1551057845398496,-1.890511022467562,4.144786618659583,-3.443802073184982,-1.3621367293043172,2.6995506509997864,1.0,0.4984652753404944,0.5032044964968092,0.39826408123167945,-0.6643653121405646,0.3985397601691999,-0.15049558464546048,0.6141138905698744
4.2,-0.26232098805230336,0.1972943206958483,-0.006730166291033712,-0.0009503162338134437,-6.809968165622296e-05,0.23556081517564478,0.07637057207588566,0.23231880381292055,0.9696367087593357,-1.153710573570699,-1.8918317542397016,4.144620418548584,-3.4439839110695356,-1.3623395816507209,2.699494318947135,1.0,0.49898691949105667,0.5037547093838626,0.3981347341459259,-0.6643561688066381,0.398526201263731,-0.15048202404014363,0.6141359037832325
4.3,-0.03486192007950284,0.018068024464687443,0.06443159151973497,-0.0006069534435495703,-0.007306639046445618,0.23642855433780594,0.07653640050626179,0.23294177135657163,0.9694741833487688,-1.1521607228672215,-1.8930445821135475,4.144405530779147,-3.444150446048956,-1.3625440506967696,2.6994499087825603,1.0,0.4992179640590156,0.503938694691658,0.3980410170259892,-0.6643719810837387,0.3985408002529882,-0.15050530521590863,0.6141036186071878
4.4,-0.06592634066880837,-0.007160224212864701,-0.04117641484798383,-0.007185075630108067,-0.007586058585883493,0.2357009565300537,0.07664648248504771,0.23323795375225845,0.969394316599998,-1.1508445739746094,-1.8943034575136284,4.144154069407347,-3.4443189118385837,-1.3627479688110538,2.6994333088959728,1.0,0.49949644494438467,0.5042792963270607,0.3980176501699781,-0.6643514421414906,0.3985006046857051,-0.15048612272680056,0.614156621926609
4.5,0.09117122391068547,0.30508312749372657,-0.22709007855224775,-0.0028805308297432334,-0.009572747454648098,0.23888648573373206,0.07668003566776581,0.2332972667034686,0.9693773843208353,-1.1494257380706001,-1.8955782213076828,4.143959657372205,-3.4445083501150244,-1.3629533529018631,2.6993807710533333,1.0,0.5000154487865182,0.5047415862193259,0.3978440219045271,-0.6643530582677064,0.3985347628565451,-0.1504851405982902,0.6141329491440237
4.6000000000000005,-0.13205507088870072,0.33107881401265804,-0.1694247458636764,-0.002626963289703441,-0.006216589597673409,0.23547253382590957,0.07655818463848267,0.23297526663372883,0.969464456522508,-1.1480317161089153,-1.8969646892943324,4.143791545300302,-3.4446675844869543,-1.3631453719653388,2.6992981456521137,1.0,0.5002049753178625,0.5049242476543274,0.3978060361128886,-0.6643497559970994,0.39853652834601355,-0.15049446758069326,0.614133090224021
4.7,-0.04490472943621986,-0.01391222182249327,0.008075137526643603,-0.003370682248087548,-0.002651863860997873,0.2382667213826657,0.07658893058695036,0.2330725629765615,0.9694386315815396,-1.1463817120556374,-1.8980939578644127,4.1435638213385175,-3.4448349910036824,-1.3633690049083473,2.699301242828369,1.0,0.5006786385025944,0.5054518920122345,0.39755284228058374,-0.6643927672848766,0.39854511685517924,-0.15048176888659884,0.6140840967190044
4.800000000000001,-0.0398564853238616,0.2503629752161149,-0.07236816931544576,-0.00015616059404617057,-0.007480887351781469,0.2341503157796872,0.07666486343298927,0.23329402104478453,0.9693793756270884,-1.1450209185326388,-1.8992956824978884,4.143337726593018,-3.4450316452435286,-1.3635555964112531,2.699235525758209,1.0,0.5009215723214346,0.5056910717467765,0.39759053691174223,-0.6643385491558187,0.3985279090231991,-0.15048821411827354,0.6141523387943999
4.9,0.28403286031950564,0.17929479601787784,0.14048014264126624,-0.00815031129188647,-0.011646108496194782,0.23912263170935102,0.07655820444566543,0.23298692327246667,0.9694614902887255,-1.1437463760375977,-1.900603658120669,4.143114300624242,-3.4451949109709594,-1.363774500667152,2.6992088373657057,1.0,0.5012684077465365,0.5060023991871629,0.3975159236235829,-0.6643418550470375,0.39852940649102403,-0.15049786050676153,0.6141454272218108
5.0,0.16249961937179846,0.0362069325228652,0.015694753699259687,-0.008089815268252722,-0.008548793969100403,0.23519603811893666,0.07639457965020209,0.23251492431016277,0.9695877103807332,-1.1421362415234406,-1.9021574459471644,4.142942905426025,-3.445397516290182,-1.3639572302447718,2.6992091075606397,1.0,0.5017075805157831,0.5064863436207665,0.397263931364629,-0.6644124224278827,0.39853629251861983,-0.15048315139050555,0.6140682190250595
5.1000000000000005,-0.021132192800106475,0.04140193069664144,-0.010402053027325487,-0.007420449406958593,-0.003884947476008737,0.23830711450666958,0.07628022735168721,0.23217447299560057,0.9696784723844516,-1.1405139903538917,-1.9032568250646098,4.14276033889285,-3.4455852448595587,-1.3641400041473186,2.6991242741442596,1.0,0.5019695494251756,0.5067354928929372,0.3970784075386594,-0.6644582628717584,0.398570875064978,-0.15049576200118614,0.6139930781947505
5.2,-0.10327847008282956,0.1575715577115124,-0.25910441057289085,-0.003794160802013162,-0.005335280398849521,0.23023047559935267,0.07631230249395342,0.23222495347042457,0.9696638604484518,-1.1392590596964771,-1.9043732436128253,4.142566729597521,-3.445780416528219,-1.36430287257596,2.6990918953967267,1.0,0.502436586018015,0.5072074069882514,0.3971618446640011,-0.6643396072425383,0.3985335331732375,-0.15049882489933306,0.6141449445279235
5.300000000000001,-0.057920798478568986,0.2228117071563385,-0.09177969350653212,-0.0018764012110362544,-0.005867112024811338,0.23276422442140957,0.07656080508087104,0.23298167048002144,0.9694623852405573,-1.1378776542647384,-1.9055519489908017,4.142364226487189,-3.4459885455025563,-1.3645106900072588,2.6990132331848145,1.0,0.5026441731866685,0.5074062713332298,0.39712745023928925,-0.664324868530546,0.39854407240062517,-0.15049093913867378,0.6141559807112185
5.4,-0.045432203882280434,0.38007257214912055,0.10541966383839088,0.003655790548416423,-0.006578257107399765,0.23227852990849507,0.07676129439677563,0.23360967991700568,0.9692956730573634,-1.1362126964144923,-1.9070068681339918,4.142155567632046,-3.4462102218473563,-1.3646989210322178,2.698997509270692,1.0,0.5029432181392114,0.5077338547759318,0.3969623039163603,-0.6643777000965732,0.39854079588509306,-0.150480086840828,0.6141036142981421
5.5,-0.259736771635918,0.443255207483521,0.11720425407506738,0.0004606660692567534,-0.004303425307175453,0.22639345512080675,0.07656412388740631,0.23303091089166506,0.9694505633265638,-1.1347098747981204,-1.9084974386324316,4.141934592460531,-3.4463476418738317,-1.3649025665351813,2.6989393366738366,1.0,0.5033196457498206,0.5081138701375082,0.39690973785263567,-0.6643466033020268,0.3985320596428301,-0.1504956620897157,0.6141391078657024
5.6000000000000005,-0.07011823927627997,0.13605837576757007,0.04664760260387519,0.0053401197092446066,-0.005468265742381789,0.2279436630636566,0.07646793899653805,0.23281419493137964,0.9695102882770558,-1.1333762514434527,-1.90949558122041,4.141698666856887,-3.446579807705553,-1.3650607196745115,2.6989065515838337,1.0,0.5038572748387661,0.5086276805045922,0.3966521454696628,-0.6643900942990912,0.39855681978474894,-0.15051454145044055,0.6140713613353709
5.7,-0.01172945410003677,0.3622676326252228,-0.16750308927333737,-0.0009805235275217718,-0.005048530041665739,0.23134412409841362,0.0764170402002384,0.2327309227550858,0.9695342957657876,-1.1319384010862281,-1.910601102398806,4.141537807995253,-3.4467764413787956,-1.3652655491626045,2.6988904925469024,1.0,0.5040676309261904,0.5088043703089034,0.3966196027181926,-0.6643778914417604,0.39856829036637953,-0.15050764333513586,0.6140788097431187
5.800000000000001,-0.028298568888491037,0.08112082336610461,-0.0836922830497738,-0.009111631096666021,-0.009345696385516345,0.23126752052859856,0.076391943401924,0.2326355707484195,0.9695591567960185,-1.130283501648818,-1.9119715706823892,4.141340414502018,-3.4469558930911535,-1.365477253997982,2.6988293718358376,1.0,0.5044838071207153,0.5091951363933052,0.39661522469228294,-0.6643268006816648,0.3985659574081668,-0.15051204988850728,0.6141345148497473
5.9,0.0608217483892835,0.40316620200517744,-0.15884003929873203,-0.004520784856772389,-0.007208181428285775,0.23172020558108486,0.07643093865859152,0.23272753329384127,0.9695340050264964,-1.1288363165927655,-1.9133241761090336,4.141145724600012,-3.4471957480093,-1.3656358362094614,2.6987600142305546,1.0,0.5046974963084652,0.5094232214231271,0.396584688915023,-0.6643156359137224,0.3985470602844031,-0.1505055622813097,0.6141604451131591
6.0,-0.05010027655923498,0.3284441737788672,-0.29202892036657774,-0.0010546958213620305,-0.007982913902074614,0.23140426894418228,0.07638690703876572,0.232548448819545,0.9695802060990225,-1.1274845038816368,-1.914605568954274,4.140953829794219,-3.447359218801487,-1.3658402657400586,2.698759169011683,1.0,0.5050570027481872,0.5098289913292054,0.3964211758781106,-0.6643390345909308,0.3985552832284007,-0.15050231576435083,0.6141305938308941
6.1000000000000005,-0.13557169008749595,0.36408853058885743,-0.14397022908878684,0.0015464503117596199,-0.0020796611286129107,0.23157833071988354,0.07605415680310508,0.23147820412648923,0.9698625086347002,-1.1259439911165239,-1.9157945850629747,4.140770964335743,-3.4475304715956705,-1.3660300413714808,2.698680411379902,1.0,0.5055113794333712,0.5103077134392757,0.39617603717677147,-0.664401573124777,0.39855356441222267,-0.1505027223522831,0.6140639514644917
6.2,-0.13339828885705668,0.046874053200973376,-0.23840149565863414,-0.010248170502310354,-0.017733101148398038,0.24406886013479126,0.07639673903675748,0.23263509927693102,0.9695588884163672,-1.1244098508548148,-1.9169612049931979,4.14058992598162,-3.4477573833861292,-1.3662514211804277,2.6986629698048623,1.0,0.505745292485745,0.510510220535377,0.3961904578515368,-0.6643432148637501,0.3985490781910445,-0.15052063328293447,0.6141256093778129
6.300000000000001,-0.3982281864869615,0.2845209736929828,-0.1560489071048818,-0.006566684473609502,-0.03367096018295066,0.2550287437874269,0.0765010817715718,0.23281657388271043,0.9695070959755199,-1.1229852032005436,-1.9184432629906565,4.140413761138916,-3.4479654694007835,-1.366437368404882,2.698586172104742,1.0,0.5062206180980409,0.511037464167353,0.3961329072286953,-0.6643137558283243,0.3985240751525375,-0.1504879843330908,0.6141817010563274
6.4,-0.3233904776587412,-0.4570658619980328,-0.33155216526733,0.035531603610099244,-0.02466785569701364,0.2462756827330226,0.07644867766020597,0.23260886606216297,0.9695610713237993,-1.1214275525712878,-1.9196950932886032,4.140197277069092,-3.448173334532889,-1.366652790700094,2.698579718147576,1.0,0.5064427842430476,0.5112644799438953,0.3959860356886651,-0.6643482714559488,0.39854446063338406,-0.1504920308552065,0.6141301456214421
6.5,-0.20938594373828168,-0.6852462947335488,-0.4922880590510822,0.04055414322660392,-0.02356114759102331,0.24688183897921895,0.07640749090657507,0.23241769652058406,0.9696101824893473,-1.1199451926697002,-1.9209122616697982,4.140023171232146,-3.4483575284795855,-1.3668111916963326,2.6985459327697754,1.0,0.5067595070811399,0.5116207741323807,0.3958834345800579,-0.6643658557224376,0.3985186130294634,-0.15049027533149392,0.6141283268584157
6.6000000000000005,-0.5667023966010987,-0.40025338333572225,-0.7158798033171295,0.03189330734834727,-0.024231326412582955,0.2535011570585397,0.07640432899447373,0.23231687158197653,0.9696345898245121,-1.118524484898962,-1.9221294781074232,4.1398282974216825,-3.4485837421812953,-1.367058592031925,2.6985197196362742,1.0,0.5072242811940479,0.5121008344757763,0.39576558168359366,-0.6643483934690873,0.3985292370110276,-0.15046952146949688,0.6141454082309757
6.7,-0.4997185620936815,-0.8337437259057097,-0.571061801803667,0.043192566740909794,-0.03466999138669847,0.2763237643347279,0.07634440145659988,0.23208639931562122,0.9696944934377726,-1.1170594371912563,-1.923491166348815,4.139622211456299,-3.448796892521231,-1.3672415984991086,2.698466266760275,1.0,0.5074072216414578,0.5122758886397483,0.3957353700984809,-0.6643458373185913,0.39852038203868806,-0.1504626167640266,0.6141556109763388
6.800000000000001,-0.3302753642408645,-1.1184312130804435,-0.8192037736226604,0.04578752816580596,-0.03395908674552545,0.26946284579847685,0.07651911970853963,0.2326299513546474,0.9695501550222512,-1.1153501677660205,-1.924711701984462,4.139388173757304,-3.448993072891031,-1.3674180356755872,2.698420990752066,1.0,0.5079144865926549,0.5128004053209073,0.3955077356206644,-0.6643849327353436,0.39852055484653237,-0.15046953023346565,0.6141115118530065
6.9,-0.20389722945596614,-1.3088606986830822,-0.9211288829512756,0.07151916805447962,-0.025748441930796284,0.2694095283503746,0.07678265646252458,0.23349077706916463,0.9693226914679484,-1.1139289055639625,-1.9259964428343714,4.139199370059171,-3.4493059132869317,-1.3676024751436149,2.698359491899994,1.0,0.5080912385185862,0.5129836165421604,0.3955283289488242,-0.6643385591796075,0.3985242594205334,-0.150461484661924,0.6141612451741061
7.0,0.025290787452502357,-1.1210692212240274,-0.9851214896265171,0.050882498089480074,-0.007503471984810142,0.2514589303832623,0.07674752978404185,0.23352933408180537,0.9693161845350409,-1.1125773516975397,-1.92735506285034,4.139004948386062,-3.4495080450529385,-1.3678119385032097,2.6983331906232904,1.0,0.5086000484521881,0.5134423216584356,0.3954176786222062,-0.6643371759692356,0.39852466536248043,-0.15049253728232648,0.6141548696748009
7.1000000000000005,0.0971640843786045,-0.7998644782204795,-1.0199400284166418,0.03885510355788068,-0.007809489179064917,0.2474085586044122,0.0766898622157651,0.23341796686904034,0.9693475511261471,-1.1126201472826451,-1.9273762547581472,4.1390073542626915,-3.44953031554435,-1.3678337022442795,2.6982833063842464,1.0,0.5088051633328232,0.5136433443239343,0.3952695023426114,-0.6643848411470987,0.39852621433839647,-0.15050168686000676,0.6141000582896438
7.2,0.1931584257490691,-1.5676744144876014,-1.2186043298667233,0.08002721881846295,0.0044377810893673035,0.248383275961119,0.0766182342040592,0.23321374579440207,0.9694023742530993,-1.1124935150146484,-1.9273468075943259,4.138985269856079,-3.4495049915709437,-1.3678258101092737,2.698297901303356,1.0,0.5089610150945811,0.5137751801297121,0.39513991666827614,-0.6644171326393301,0.3985656020921822,-0.1504830071324568,0.6140441346097207
7.300000000000001,0.288395291219142,-1.7406812391135544,-0.9543832972750952,0.09629470757522382,0.01541824333753283,0.23321548061634886,0.0766682931492125,0.23338827991891534,0.9693563370227458,-1.1123991012573242,-1.9273306697603496,4.138969933064202,-3.4494930706419886,-1.3678076554569365,2.6982787960062042,1.0,0.5089575380064479,0.513772995642473,0.3951734044862605,-0.664417214824214,0.39854137350152996,-0.15049536069742148,0.6140567438448186
7.4,0.1861873136071917,-1.0705882697778817,-0.5996535436214392,0.0855990849900739,0.005086006529370491,0.2274689997036138,0.07679741706025622,0.23380890670343626,0.9692447667154228,-1.1123991012573242,-1.9273581779182116,4.138981789675626,-3.449527514757367,-1.3678285001991064,2.6983192705327816,1.0,0.5089797883007376,0.5137647398542085,0.39527977853307616,-0.6643425486430493,0.39854361117046966,-0.15049666592819091,0.6141357517700448
7.5,0.024034658140787674,-0.9604550259809835,-0.530795649967691,0.07568094763212363,-0.0007745316218803217,0.23056094577573058,0.07680230226295705,0.2337827451152621,0.9692507249157684,-1.1123893401333365,-1.9273653279483318,4.138965017661883,-3.4495117341588766,-1.367836412717166,2.6983383942387165,1.0,0.5089648675661549,0.5137843883342224,0.3952573201503825,-0.664372149875774,0.3985335852485369,-0.1505001497733747,0.6141093818014681
7.6000000000000005,-0.036459457334403825,-0.8673931839631618,-0.5082275211860061,0.07894508068400549,-0.010131972383681374,0.23652153631944028,0.07673313683966489,0.23349110824572442,0.9693265323040474,-1.1123834037117721,-1.9273467152682922,4.138965070532206,-3.449518689450421,-1.367838207875387,2.69829942252379,1.0,0.508966485956868,0.5137953835357822,0.39523919186826034,-0.6643750464191214,0.3985254296079908,-0.15048798162454158,0.6141145227381685
7.7,-0.13386746356456047,-0.6523148922086565,-0.4051046361546436,0.057653690399245526,-0.006599445718075849,0.23245128741195917,0.07677351449605387,0.23360198321617648,0.969296618228262,-1.112410545349121,-1.9273528687975092,4.138952859084208,-3.4495188686024556,-1.3678581375281837,2.6983038650189255,1.0,0.5089615161299513,0.5137978401367538,0.39523278862068884,-0.6643782431836265,0.39853067359623096,-0.15047959399551153,0.6141097165638392
7.800000000000001,-0.19686018890002052,-0.6873231419503644,-0.43774134857001484,0.07452553921439542,-0.008316724054039326,0.23801057089511757,0.07670170611309912,0.23336949015772052,0.969358191374216,-1.112400531016438,-1.9273325405516566,4.138953922548962,-3.449528833428854,-1.3678396972077973,2.6983150259433337,1.0,0.5089708021077542,0.5137932059507867,0.39523128017743986,-0.664374835695413,0.39853677521224923,-0.15047907978085243,0.6141095692516296
7.9,-0.15244560856856437,-0.8340237640035146,-0.4730265590257071,0.07978584911729834,-0.006122709106526392,0.23784942756394264,0.07654804264489995,0.23288646308058544,0.9694865169822238,-1.1124203526741894,-1.927356859246725,4.138970437175135,-3.4495049915709437,-1.367850128804342,2.6983196413748827,1.0,0.5089721778715768,0.5137924243428669,0.3952338992187815,-0.664367858899412,0.39854086576980596,-0.1504797801707645,0.6141142907738125
8.0,-0.2919674006963168,-0.7589350201165709,-0.47987982562231823,0.07915291016745875,0.0008114719371228492,0.2271690947536861,0.07646438410745798,0.23266406834046527,0.9695466099445309,-1.112408469551655,-1.9273412761993263,4.138969046911133,-3.449480040229214,-1.367839979818817,2.69833752188801,1.8848671064323965,0.5089704602572648,0.5137907427169616,0.3952391801433639,-0.6643623768739708,0.3985422452566606,-0.1504861003046952,0.6141177774297312
8.1,0.04306459216956393,-0.5646743332193078,-0.275379919600564,0.07499963199424639,0.012962791398145827,0.22030796091473023,0.07674641774944535,0.2336233619372321,0.9692931622903086,-1.112406094364701,-1.9273495747598741,4.138957926414169,-3.4495003551288392,-1.3678306320090623,2.6982963339578325,2.0,0.5089707231195316,0.5137838487880594,0.39524444442792966,-0.6643642375437482,0.3985402474789977,-0.1504968928954629,0.614114416245951
8.200000000000001,-0.040262097503408985,-0.9454537875956308,-0.4569788299989725,0.07440910512831216,-0.006094978265360046,0.23417919864658548,0.07719086728708068,0.2350733983467363,0.9689074409713152,-1.1124012409934836,-1.927388164249925,4.138948296213083,-3.449510225824401,-1.3678161180721513,2.6983362245311224,2.0,0.508970190346729,0.5137769211353584,0.3952477776152302,-0.664370337837232,0.39853624077733885,-0.15049563142729952,0.6141107260994613
8.3,-0.031700735269016664,-0.8518014017373441,-0.5521908325883143,0.08154567103173858,0.003872377898494846,0.22951094924807908,0.07715703894765027,0.234973281378187,0.9689344200394535,-1.1123789200555712,-1.9273590776748373,4.138950824737549,-3.449519959716405,-1.3678576128770727,2.698333885556176,2.0,0.5089752939295832,0.5137809027478162,0.39525368619890855,-0.6643580868087646,0.39854404127716264,-0.15049335181112822,0.6141194759286807
8.4,0.20816160323114313,-1.4196106061603064,-0.5837478688162666,0.07946714974213796,-0.007197265777191639,0.2323341657451249,0.07687608201026364,0.2339858435757806,0.9691957121097967,-1.1124032700637292,-1.9273492808244417,4.138950824737549,-3.449498477810936,-1.3678403791287228,2.6982825684383,2.0,0.508983147008815,0.5137786774606216,0.3952473045285076,-0.664357337636973,0.3985497997755592,-0.1504953401799818,0.6141160620036625
8.5,-0.2668294576202698,-1.5706043225073016,-0.8024598209128508,0.1104075227845091,-0.0059302114419214165,0.2286412183895686,0.0766859761623268,0.23321386191446716,0.969397006181216,-1.1123514751679675,-1.92736878017568,4.1389994021001195,-3.4494930706419886,-1.367813919194102,2.6983180646357208,2.0,0.5089576377924313,0.5137930134644021,0.39528241726022256,-0.6643444438464639,0.39853927266019573,-0.150460388582397,0.6141454058652956
8.6,-0.1892870299627149,-2.0961717841203877,-0.8849248303314666,0.10996790532796556,-0.01004495575147553,0.23182070221005172,0.07665508990228291,0.23318438138307293,0.9694065398664504,-1.1123903571385647,-1.9273471533762652,4.1389587923866715,-3.449485579830024,-1.3678213799922831,2.698318284805135,2.0,0.5089750790221061,0.5137861248532273,0.39528358787198,-0.664342860114567,0.39853493262301415,-0.15049768534343338,0.6141407968863781
8.700000000000001,0.16900902444934765,-1.1792026794269885,-0.5386554588638266,0.08890658670007956,0.0003632635389584412,0.2278521091023235,0.07662668008295757,0.23316214740130467,0.9694141316733604,-1.1124207186676303,-1.927358844829987,4.13895151307308,-3.449482473435208,-1.367835533956594,2.6983418464660645,2.0,0.5089768575550188,0.5137805043709629,0.3952555093253811,-0.6643601891879939,0.3985387161584053,-0.15048396650147453,0.6141229572088038
8.8,0.0834924929496782,-0.7259106885404292,-0.3410944015253315,0.064853806597936,0.004417177157815688,0.2333719199971946,0.07686678980286858,0.2339256383138343,0.9692111701548477,-1.112383488097971,-1.9273449383177699,4.1389532749330495,-3.4495049915709437,-1.3678429197898108,2.6983202663270776,2.0,0.5089664535127081,0.5137851277921289,0.3952518775952534,-0.6643564413776643,0.3985458225016856,-0.15047752132117354,0.6141239791308406
8.9,-0.27132421022261416,-0.7555643913614537,-0.31477514267674345,0.07133445583291044,-0.023962683313859503,0.2470704539982915,0.07681942054026192,0.23378845631695544,0.9692480135183642,-1.1123825610809612,-1.9273671193757147,4.138942702245682,-3.449501669971013,-1.367850128804342,2.6983418464660645,2.0,0.5089763445417446,0.5137781566841956,0.3952520661326815,-0.6643572169981103,0.3985509117425814,-0.15047983712243074,0.6141192698420153
9.0,-0.16546897983146452,-0.9309369027534955,-0.2231537525196512,0.0711456224368092,-0.04949565633602673,0.25260262139657463,0.07677205127765527,0.23365127432007654,0.9692848568818807,-1.112377621280367,-1.9273655921417672,4.138964880281296,-3.449503397553987,-1.3678187349918662,2.698329448699951,2.0,0.508966843722319,0.5137803589259239,0.3952658014219389,-0.6643575304004374,0.3985420349343957,-0.15048490450985658,0.6141234498903636
9.1,-0.1666980095270033,-0.9018783026442939,-0.4184577458985131,0.07079023864967698,-0.011574911633620781,0.23219075260642985,0.07653779248214436,0.232951318772681,0.9694716850967696,-1.1124198255415876,-1.9273665261138775,4.138998290015548,-3.4495231982743477,-1.3678053944253035,2.6983306208120883,2.0,0.5089853924253017,0.5137801132544644,0.39525895799566235,-0.6643532820940812,0.39854373835130846,-0.15050054910317523,0.6141231064790093
9.200000000000001,-0.07090850217232328,-1.5495606499526429,-0.6012145653615626,0.1088675266129745,-0.006861580295499288,0.22683886416164672,0.07651733287906529,0.23287084633462588,0.9694926823453328,-1.1123502833024288,-1.9273374083428214,4.138996980508661,-3.4495049915709437,-1.367828291728299,2.698289018947435,2.0,0.5089844527784324,0.5137827694846754,0.3952380236554896,-0.6643678528865692,0.3985403787398026,-0.15049926705007866,0.6141098380438257
9.3,-0.23602182839173405,-1.987875344658861,-0.42892855848399214,0.14124970534238965,-0.01649859609061146,0.21896847377063575,0.07672733943401375,0.23345833917668676,0.9693348762503777,-1.1123694979081131,-1.9273665971905445,4.138968983994963,-3.4494952536271244,-1.367835937570846,2.6983489245875902,2.0,0.5089507267541827,0.5137956548731486,0.3952633045658276,-0.6643587936132006,0.39853513220599057,-0.15048045688441175,0.6141276527255756
9.4,-0.07812949567449085,-2.994811826968637,-0.5864245998345063,0.19496582696851095,0.011342262610676182,0.22535997907352748,0.07623999908804174,0.23197586886796057,0.9697283717174041,-1.1123476682261655,-1.927356859246725,4.138953321290073,-3.4494811497130335,-1.3678234095780009,2.6982890625992,2.0,0.5089725316041029,0.5137827370606919,0.39524848008313046,-0.6643643746828112,0.398538819392762,-0.15049127914456836,0.6141165703600358
9.5,-0.019776059842513294,-3.0323751667323453,-0.5928644975939813,0.21260943414794925,0.01719202258252886,0.23077773471208943,0.07602751353578328,0.23131850853279898,0.9699027918769811,-1.1123586853726095,-1.9273449383177699,4.138984641751204,-3.449490547089521,-1.3678164127327859,2.6983180046081543,2.0,0.5089940635669455,0.5137679090613152,0.3952425644338016,-0.6643551415027732,0.3985542700585193,-0.15050867842073112,0.6141122678281197
9.600000000000001,-0.41076176350722066,-4.580936882329857,-0.843067921355219,0.2984642950514919,0.010384625621348058,0.21662466387944604,0.07620095356484728,0.2318188195498758,0.9697697748921309,-1.1123577466026557,-1.92736878017568,4.138935215636027,-3.449452764374214,-1.3678331912107158,2.6983418464660645,2.0,0.5089707084380034,0.5137875002019209,0.395276703512838,-0.6643447113194444,0.39853177785133564,-0.15049401270214147,0.6141417415591822
9.700000000000001,0.10198602226168907,-4.600592930565265,-0.7440213568528882,0.3336299750356293,0.07141029445438897,0.1977432930079412,0.07564040168094732,0.230069825340831,0.9702278034235289,-1.11237036270563,-1.9273400416239859,4.138915538787842,-3.4495004347937757,-1.3677905241595667,2.6983014664259333,2.0,0.508975980602755,0.5137827284727745,0.3952920660684753,-0.6643313408258693,0.3985311289759195,-0.15049754612078886,0.6141557599219456
9.8,0.9883527705424363,-2.5700416023965458,-0.285216173182068,0.26400701070732974,0.12529783315003612,0.17695519508539348,0.07501782084661637,0.2281307445110606,0.9707357806428922,-1.112378407226722,-1.9273449383177699,4.1389328316140706,-3.449505468408102,-1.3678113396698421,2.698301709301255,2.0,0.5089896641518169,0.5137622461575216,0.39529032128471747,-0.6643312459617866,0.39855045152934626,-0.15051412657981142,0.6141392602045002
9.9,1.1256435953298702,-2.0167875572385707,-0.576646975698003,0.23403083921477574,0.14912835055185852,0.1638491685022297,0.0732283091473174,0.22226649654798264,0.9722194919674136,-1.1124004086977406,-1.92736878017568,4.138948391941217,-3.4495356860321187,-1.3678356737125419,2.698301663872266,2.0,0.5089846864252705,0.5137683921364535,0.39528269123791127,-0.6643360476552574,0.39854311670710485,-0.15049667455600696,0.6141431029155682
10.0,0.844709089011209,-1.7060730298293487,-0.937980668164073,0.18349439831586276,0.10378924433813844,0.1921258959166907,0.07169513209456602,0.21725782941336108,0.9734762189426438,-1.1124081898108522,-1.9273374791132518,4.138953376570673,-3.44952392605746,-1.367838207875387,2.6983320317232775,2.0,0.5089851880242641,0.5137744518110957,0.39526047086053456,-0.664360094786386,0.39853837482691923,-0.1505123995058934,0.6141163129576682
10.100000000000001,0.0032377410135309703,-1.0153127657336107,-0.9955377106662274,0.13268889489605284,0.0169489897126327,0.24576864234080495,0.07114792461146652,0.21544377770894957,0.9739208898554051,-1.1123911780518665,-1.9273449383177699,4.1389473142199416,-3.449528833428854,-1.3678832818628555,2.698323224064858,2.0,0.5089949964517095,0.5137760143189996,0.3952583240586188,-0.6643555966572897,0.3985446314760551,-0.15050189831324276,0.6141196923368135
10.200000000000001,-0.25131590904086787,-0.6117659940924423,-0.49603341965153,0.10012411280125678,-0.015530951214445664,0.28573316217514977,0.07128205031174212,0.21574995608064418,0.9738433176025248,-1.112421989440918,-1.9273584705060225,4.138972268850437,-3.4495359205799168,-1.3678631841554365,2.6983798626261,2.0,0.5089722790981351,0.5137736722127705,0.3952802744895119,-0.6643513417416385,0.3985405566934228,-0.15047983533094675,0.6141323461236614
10.3,1.0841421849776438,-1.2392726522276098,-0.679234649477263,0.11746295691778674,0.06889199117196267,0.24249293545142203,0.07109571863165416,0.21514339035639726,0.973991096489587,-1.1123736472303523,-1.92736878017568,4.138951867354229,-3.4495165695338854,-1.3678613500826302,2.6983418464660645,2.0,0.508968762063119,0.5137865301754733,0.39527105800549556,-0.6643617189713422,0.3985306018361621,-0.15048690213697458,0.6141258487075485
10.4,0.8686163384589728,-0.7629242023161575,-0.7923520669787263,0.11499132446263811,0.08621052572086713,0.24214176232490803,0.07093011546111495,0.2146509784747266,0.974111825096934,-1.1124043023987942,-1.927371489103529,4.138976228650177,-3.449535336502111,-1.3678165981081676,2.698350689987126,2.0,0.5089786549613211,0.5137799473506758,0.39529184582159216,-0.6643438813199213,0.39852875767975654,-0.15049621277821176,0.6141440601311942
10.5,1.3555199173748471,-1.0801859730309749,-1.0974457957914752,0.12413637781702892,0.10611923867073526,0.2486846011989316,0.07108004255502721,0.21522282226263734,0.9739745547986713,-1.1123794902726536,-1.927364336959546,4.13897043572222,-3.4495144199289585,-1.3677994756804233,2.6983242987666447,2.0,0.5089681562104635,0.5137798617893552,0.3952517966095112,-0.6643643594049699,0.39854129121431225,-0.15049698026470418,0.6141135856507803
10.600000000000001,1.4393549501288903,-0.7844847802006665,-1.0364887609971511,0.12486394748212404,0.13252456436796758,0.24402407818123542,0.07127829619347757,0.21592033170784022,0.973805691507831,-1.1124019185037315,-1.927365845544006,4.138946481482671,-3.449506458886781,-1.3678214081617626,2.69831506997648,2.0,0.5089904275930869,0.5137683653715444,0.39526384417109806,-0.6643357150722765,0.39856068609132317,-0.1505024145852076,0.61413065416558
10.700000000000001,1.5868665794512027,-1.2989490413099065,-1.116034314426792,0.12046444998976258,0.1308316060572811,0.2631474670147199,0.07148167594597496,0.216569607002919,0.9736465190007247,-1.1123991012573242,-1.9273353922410572,4.138969916890974,-3.449508686472782,-1.3678175840821567,2.69832612095491,2.0,0.5089848088719701,0.5137781622659877,0.3952639354080499,-0.6643520749646094,0.39855023328908745,-0.15050199360177777,0.6141198433183238
10.8,1.9626665615930685,-0.1924196205206985,-0.9012078662155404,0.06291447617263295,0.15231516037828452,0.26723181078782005,0.07152311971185292,0.21670422878951284,0.973613510603104,-1.1124353408813477,-1.9273354321955267,4.138957661650066,-3.4494775700644733,-1.3678104207488302,2.6983235654617506,2.0,0.5089729402653954,0.5137826514013882,0.39523190697802146,-0.6643754202176532,0.3985455856147775,-0.15050470222982648,0.6140969400707857
10.9,3.271105978717282,1.8995602277416301,-0.4311537855533302,-0.04609138352580313,0.2670419666093365,0.2437741467054897,0.0712643998798932,0.2158848918423406,0.9738143592610504,-1.112421989440918,-1.9273715789293062,4.138927936553955,-3.4495561999548405,-1.3677991694977374,2.6982873624913832,2.0,0.50898102778492,0.5137789553647711,0.39524861214692936,-0.6643637543744951,0.39854590744234125,-0.15049880760690956,0.6141107965532645
11.0,3.4732804427029818,2.0963302446534495,-0.32557268824366653,-0.11845002753339776,0.30755807745361663,0.2378884404843964,0.07129237583880627,0.21597345931601142,0.9737922251821558,-1.1124057815188453,-1.9274023455080975,4.138960937151037,-3.449488421121172,-1.3678143660174769,2.698281764984131,2.0,0.5089893254417429,0.5137628555210493,0.3952108233865333,-0.6643840998343569,0.3985613297004007,-0.1505038563571018,0.6140775387330014
11.100000000000001,3.5534968687409783,2.3776730650656686,-0.41578693984131504,-0.12900331736540752,0.3382261776491451,0.243160417804164,0.07187343595282143,0.21781352634252443,0.9733399200908699,-1.1124439891773366,-1.9273926220335902,4.138948028941741,-3.4494447548007474,-1.367838207875387,2.6983086356208332,2.0,0.5089832096649193,0.5137796059069009,0.39520043831444374,-0.6643853563208587,0.39855381999668815,-0.1504948949180515,0.6140832496299321
11.200000000000001,3.732792756409218,2.4208764934154403,-0.28984349854353486,-0.14879940294105065,0.3556837534681578,0.2413531157117841,0.07219429499719184,0.218835977694265,0.9730871873515051,-1.1124326618772196,-1.9274006790142837,4.138938144182308,-3.449504128906038,-1.3678058837189353,2.698360536392959,2.0,0.5089832271737323,0.5137771651959261,0.3952376282940775,-0.6643568867358117,0.3985493807457385,-0.15049622114745081,0.614116605844709
11.3,4.115493528138166,2.8197662619976898,0.028774330980847862,-0.1812490617424262,0.35926423269536784,0.24042933054555346,0.07196222161321703,0.21805462524839253,0.973279708048224,-1.1124191878617986,-1.9273746167988457,4.138963222503662,-3.4494989072651543,-1.367832254519758,2.698332974798853,2.0,0.5089908311505787,0.5137927809002372,0.3952348696608007,-0.6643493295788293,0.3985430758077674,-0.1504926580141734,0.6141297459801741
11.4,4.087668951234192,2.3954183521971,-0.1231491357149593,-0.17042898359459013,0.3853965622962698,0.243643336458793,0.07190900167662653,0.2178986658993223,0.9733186867130036,-1.112410545349121,-1.9273903016042,4.138950824737549,-3.4494953910713786,-1.3678258101092737,2.698368618738176,2.0,0.5089845510441132,0.5137755931954547,0.39524842285292616,-0.6643603085545913,0.39853857242311025,-0.15050063488011228,0.6141188367155667
11.5,4.129718160890554,2.233417930779342,-0.12622346814597737,-0.15433058565373647,0.3986032510524504,0.23668772581084502,0.07159109601105962,0.2168688013582513,0.9735719155039317,-1.1124062727517008,-1.927385151726948,4.138950824737549,-3.449484169397363,-1.3678064188736765,2.698347885834723,2.0,0.5089917485281878,0.5137713101090601,0.39523070938837457,-0.6643609688782216,0.3985515434196337,-0.15049454000515608,0.6141111981536038
11.600000000000001,4.151468788241093,1.956501532009686,-0.22923943436891597,-0.1250790395047463,0.38142489769303944,0.2271034227059519,0.07191997336027271,0.21789682597273757,0.9733172914259096,-1.1123982070454184,-1.9273866329814153,4.13890936963599,-3.449487258546252,-1.3678079573035384,2.6983418464660645,2.0,0.5089862374502824,0.5137852325140636,0.3952411645890694,-0.6643587807456159,0.398542105021233,-0.15049570121576672,0.6141194060498479
11.700000000000001,3.767517120564756,1.5366957496589984,-0.712516244666704,-0.10075623163939078,0.3588884921404588,0.2383991237660322,0.07228034803736598,0.21905300992854446,0.9730320000120606,-1.1124192283397516,-1.9273478144648182,4.138927043376035,-3.4494926543012263,-1.3678410840224353,2.6983418464660645,2.0,0.5089649667730993,0.5137796488984618,0.3952574483828081,-0.6643650003934849,0.398533072129291,-0.1504939016457062,0.614118980523161
11.8,3.651799629393825,1.2703158549946554,-1.0086732974555432,-0.08012847975338765,0.3500852105306647,0.23227627693589756,0.07213789762419247,0.21867544580028656,0.9731274945367605,-1.112416180678849,-1.9273236450196125,4.138957117563123,-3.4494960960388994,-1.367838207875387,2.698300213544066,2.0,0.5089768771496631,0.5137779275340454,0.39525854576847796,-0.6643512035183418,0.39854248253814806,-0.150502591736341,0.6141256694494257
11.9,3.571850483088517,0.5461657908719282,-1.4744256436264305,-0.05261660925148421,0.3409770515440406,0.23545474679042594,0.07203798870479529,0.21834381679373466,0.9732093511447624,-1.1123771652118375,-1.9273449383177699,4.13897800932023,-3.449502012938923,-1.367807925515405,2.6983327914247215,2.0,0.5089788803484024,0.513773207158949,0.3952401361167629,-0.6643654778030175,0.39855001006654384,-0.1505133428519444,0.6141027072103326
12.0,3.776200320218846,-0.3688206473989044,-2.083401311484495,0.012658819556258718,0.36730906074970326,0.2357976516910105,0.071880080090879,0.2177916765694134,0.9733445929019849,-1.1123828074427229,-1.9273325405516566,4.138966410075682,-3.4494573078551234,-1.3678227451361782,2.6983265063257793,2.0,0.5089794357645919,0.5137657115642152,0.3952718791499711,-0.6643435999975713,0.3985506413860374,-0.15049100448017572,0.6141314394847351
12.100000000000001,4.0126043636805235,-0.05166105499844034,-1.7402759086482062,-0.00026697497899257425,0.3909796134026462,0.23727873752442286,0.07166343415905188,0.2170532790329733,0.9735255293366066,-1.1125027466563662,-1.9271577450580841,4.138954912528485,-3.4494748996372118,-1.3678230504442825,2.6983142602886425,2.96567845173496,0.508978052759067,0.5137820398512642,0.39526689685023253,-0.6643421823969166,0.39854753719944547,-0.15048837400656467,0.6141356320628355
12.200000000000001,3.837803164732429,0.28379616351283843,-0.10639375887593805,0.022696064398618224,0.3631845435786642,0.23557139155392154,0.07193132166511922,0.21792974981426613,0.9733099267878588,-1.113519438699548,-1.9260944903402706,4.139099066421516,-3.4493153799939895,-1.367749697112652,2.6983292188203976,3.0,0.5089767507015176,0.5137580785460847,0.39527563969188645,-0.6643524264540814,0.3985361454692312,-0.15050532802525537,0.6141277883756052
12.3,3.3287020917116625,-0.07208864846688573,0.9091272979399998,0.06248494729194275,0.3826362570769415,0.22257370972359494,0.07188166516189175,0.2177544085090647,0.9733528845483543,-1.1149404851864158,-1.9249972585349555,4.139260681296438,-3.449087138695217,-1.367488563379387,2.6983511837528904,3.0,0.5086483658323765,0.5134275828916913,0.39555146598817825,-0.6642715579330274,0.39849288298264185,-0.15048351881480332,0.6142486712224344
12.4,3.555596861331842,0.12127346239707754,1.6977537331428896,0.07802827162100355,0.41715776101404295,0.16985384609748386,0.07163721985020727,0.2169677164827456,0.9735462459806327,-1.1167823135554984,-1.9237774787049635,4.139470724217301,-3.4488445721068324,-1.3672707403721325,2.698485851287842,3.0,0.5084915854398658,0.5132451633070226,0.39557423377184,-0.6642781728130008,0.39851432092682576,-0.1505123992741374,0.6142205327121479
12.5,3.708639734816068,0.23523938723139753,2.531008012211881,0.07588818441868365,0.4412568738272298,0.17435472018511558,0.07112161436393699,0.215400503658712,0.9739318921180253,-1.1183544013982791,-1.9225129077193397,4.139672535465031,-3.448617931656694,-1.3670351037359543,2.698474407196045,3.0,0.5079810204948534,0.5127387380634155,0.39546289412555413,-0.6643883188534718,0.39858052865256316,-0.15049713117046287,0.6140621609084549
12.600000000000001,3.7274288148335493,1.289936247443092,3.168251643523373,0.023899103632630186,0.4668733438752841,0.14485547021721365,0.0708146258750745,0.21446101431779804,0.9741620227695894,-1.1197176315202122,-1.9211536208462203,4.139890606966927,-3.4484104891152008,-1.3668394237634174,2.698498249053955,3.0,0.5077323798996531,0.5125403470455105,0.39547719854639435,-0.6644251873122831,0.3985648589278592,-0.15049608076350268,0.6140326973115344
12.700000000000001,3.8448977561653974,1.0475473181862371,3.38071681040278,0.034152587737905596,0.4624989424768674,0.12070996817946733,0.07039353946685178,0.21317749830090038,0.9744739697955896,-1.1212095176657426,-1.9200022061491904,4.140100872732544,-3.4482219471665423,-1.3666752020465296,2.698570977078649,3.0,0.5074335281696196,0.5121713201699599,0.39569614940813674,-0.6643484237592815,0.3985672559322846,-0.1505316852359592,0.6141054682114373
12.8,3.868738707802277,1.4402967087653713,3.2703750003501137,0.043398714731464096,0.4642562556853876,0.11983193126146646,0.07017284443042529,0.21239247805028516,0.9746615130530419,-1.1227486485596327,-1.9186144283491469,4.14029802018148,-3.4480456282791,-1.3664639568471193,2.698596340698211,3.0,0.5069294351488404,0.511735486698115,0.39579463195610426,-0.6643697085689642,0.3985598851656136,-0.15049758811648584,0.6140955823354237
12.9,3.988102752060936,1.0908528196407843,3.30674925391947,0.031134919325269093,0.4516277045038456,0.11449257513431312,0.07009423681050346,0.21201608710915215,0.9747491817917621,-1.1242188326700118,-1.9172588950612732,4.140519512377751,-3.4478208774381076,-1.3662825184898413,2.698635364934945,3.0,0.506731956556046,0.5115227333476559,0.3958392279410325,-0.6643804616880828,0.39857934361255226,-0.15047961057280304,0.6140757247883805
13.0,3.5474074234115314,1.1534127480968295,3.522101058463887,0.04349787509783501,0.46294709422716845,0.10360001858821286,0.07015127419955496,0.2122365854449266,0.9746970842370958,-1.125652370848201,-1.916015930254324,4.1407151222229,-3.447644116021672,-1.3661208064098416,2.6987036289790964,3.0,0.5062438121894473,0.5110042183901228,0.39610029277537034,-0.6643302664242321,0.3985380779681541,-0.1505154526413219,0.6141480245334479
13.100000000000001,3.8013416056766656,1.0178775854327162,3.7035044959806624,0.05555975474470252,0.4626351819836377,0.07979038089430396,0.07006887764257803,0.2119664264465031,0.9747616962063524,-1.127169442413512,-1.9149125109410836,4.14092239187963,-3.447459205655163,-1.3659244991944834,2.6987624168395996,3.0,0.506033797358873,0.5107902343977099,0.3961311646685101,-0.6643500677385992,0.3985423144406255,-0.15050585280924758,0.6141262080111786
13.200000000000001,3.924605414767494,1.0922041545786163,3.637528153082403,0.03295139825381667,0.4652359805983767,0.07810112498024065,0.0699101105273656,0.21141136282268227,0.9748937426302867,-1.1286387066662447,-1.9135864248661196,4.141144812088533,-3.4471865606707124,-1.3657368108377097,2.698746838073566,3.0,0.5057179520247281,0.5105046771422893,0.39615095478760215,-0.6643825614404756,0.3985464087517381,-0.15050094156563726,0.614089601534452
13.3,3.9166692814496677,1.4839285151691368,4.023696010216236,0.024732763156645465,0.4694057509207906,0.06821549650231401,0.06991441973922058,0.21127091357235478,0.9749238768205024,-1.1300622804324065,-1.9122067868872634,4.141356595054061,-3.447027779328364,-1.3655233362951693,2.6987862586975098,3.0,0.5051774649693931,0.5100023127131533,0.39632154237550166,-0.6643775879408259,0.398523988449935,-0.15048561171124053,0.6141132891737321
13.4,3.567815209070928,1.022727378536358,4.067736756382731,0.04910405443694138,0.46153379661751853,0.05237579818162707,0.06998241022276516,0.2114035809673928,0.9748902090516635,-1.131594121830423,-1.9108656601190468,4.1415432210463585,-3.44680044858882,-1.3653487184516129,2.6988538511132387,3.0,0.5049315262043129,0.5097729651154159,0.3964793888298344,-0.6643456358723865,0.3985056093278522,-0.15047665925414902,0.614161974116977
13.5,3.529078998611029,0.8524565025340551,4.059748050220746,0.07804986042978775,0.459037036040191,0.04008521672994143,0.07007029441680493,0.21165308875905306,0.9748297567851236,-1.1331290905969513,-1.90979160312685,4.141756534576416,-3.4465815029540003,-1.3651742386384618,2.6988971130736497,3.0,0.5046252185214003,0.5094495419947902,0.39655672841615613,-0.6643465463645661,0.39851126724603597,-0.15047412920721503,0.6141579378716538
13.600000000000001,3.6524908298957186,0.9434670961029261,3.947575500118869,0.0807730182591521,0.4507467083769999,0.03503558604498739,0.06982801971760816,0.21089350696456535,0.975011621622719,-1.1344534881976474,-1.9086282534073402,4.141946094577052,-3.4463925482159925,-1.36497921829605,2.698919264208369,3.0,0.5041355561978206,0.5089711700726146,0.39657211661008945,-0.6644018045784746,0.3985298498486274,-0.15046816919435552,0.6140875596458504
13.700000000000001,3.527757909156391,1.3360732482286126,4.028898846656981,0.0565922690492407,0.4560141472589005,0.0268736418991174,0.0697287419325322,0.2106130710592571,0.975079500300531,-1.1358486014413416,-1.9071907164709418,4.142125696392171,-3.4462495344365855,-1.3647728655039997,2.698913584818993,3.0,0.5039353280740994,0.5087943389084684,0.39658937538350897,-0.6644303206463054,0.39851797178936144,-0.15047994375895543,0.6140615292403875
13.8,3.296134450167893,1.248125335398709,4.218629070670813,0.060350208656796904,0.446896137355515,0.0054302993364424915,0.06973979873402937,0.21069860624496478,0.9750602327485027,-1.1375119992568752,-1.9056900172681377,4.142326059562617,-3.446042064830137,-1.3645972348876454,2.6990462256583836,3.0,0.5034792620849884,0.5082720040954221,0.3968954506269816,-0.6643462993132707,0.3985094848209176,-0.15049380644335858,0.6141545402573512
13.9,3.235228900533719,0.8750669788145452,4.2004235485082155,0.08907360797069036,0.4455631600427002,0.00501752722113191,0.06972960297878406,0.21064605867421332,0.9750723139341003,-1.138930842884919,-1.9046161435803695,4.142506536033836,-3.445870493443105,-1.3643686788592249,2.69904211506846,3.0,0.5032212059789871,0.5080195353928473,0.3969882106484595,-0.6643418367265292,0.3985097542759334,-0.15047911587495982,0.6141627922686683
14.0,3.294680545076463,0.7615136384448387,4.344508540577617,0.08508542851726363,0.4465870235673081,0.0034578458933589183,0.06970426452464686,0.21054971562686564,0.975094906826159,-1.140207370791938,-1.903484590940925,4.142734701230026,-3.445697598460203,-1.3641704923245064,2.6990676640758373,3.0,0.5029074837230966,0.5076827584724117,0.3970627988031746,-0.664337906606778,0.39852398887143337,-0.1504810549892813,0.6141573318203069
14.100000000000001,3.2981395998674983,0.5882542114862137,4.364277149854265,0.0907677407399307,0.4368450580124448,-0.018843418739345603,0.06933386933534998,0.20944793999048156,0.9753584364391312,-1.1417660207008273,-1.902244209909324,4.142918312777163,-3.445481307766048,-1.363956692563022,2.6991467475891113,3.0,0.5024517577948945,0.5072338489913932,0.3971435057018342,-0.6643655538168614,0.3985306315886771,-0.1504938148707738,0.6141199868696557
14.200000000000001,3.103158661765328,0.912034350336028,4.711776687775366,0.08524398296870261,0.43448863523487163,-0.016369617492081764,0.06861927463944528,0.20712714518940434,0.9759030156516441,-1.1434394993346346,-1.9007544236573675,4.143103007034341,-3.4453028445860006,-1.3637798858784766,2.6992058753967285,3.0,0.5022486694775478,0.507032679261659,0.397176997176007,-0.6643702239031241,0.3985326828794934,-0.15048827699171238,0.6141149605373993
14.3,3.0508640892183876,0.8621512995846444,4.475719836294075,0.07133469637965983,0.4412129550179432,-0.02102169824768029,0.06846874578779492,0.2066428192497415,0.9760173882503983,-1.1447207928935417,-1.8994123307471764,4.143302404323523,-3.4451488821551224,-1.3635512035277177,2.699230670928955,3.0,0.50184904868162,0.506604418560624,0.3972981406246239,-0.6643653736658266,0.3985466724592732,-0.15049286576838994,0.6141100043952428
14.4,3.1723521002737463,0.664269381466433,4.8727480018629095,0.09365174547033,0.43708688950675123,-0.025492574670684998,0.06882403205432118,0.2078066726024948,0.9757456812623813,-1.1460798831055592,-1.89835137522571,4.1435322761535645,-3.4449692167295987,-1.3633645651324482,2.69927081220089,3.0,0.501367741734934,0.506099620622704,0.3975764621176781,-0.6643050799320835,0.39852376883492874,-0.15050172156191682,0.6141879177067322
14.5,2.767878902572113,0.642173889069606,4.697465990737051,0.11501636761713477,0.44351308904067177,-0.01691434532959678,0.06865106152954326,0.2073518430599608,0.9758545590578968,-1.1476141193598537,-1.8971535798179566,4.143742740904373,-3.4447551851335945,-1.3631399313556116,2.6993374824523926,3.0,0.5012363857064172,0.5059299241949785,0.39754078995677705,-0.6643311550958171,0.39855243189008444,-0.15053457219377084,0.6141330621111322
14.600000000000001,2.850898609035778,0.225857939234657,4.817514664580025,0.11597333057167225,0.4354363140378503,-0.013377164973667706,0.0686137084440514,0.20720187877898236,0.9758890941189657,-1.1492509841918945,-1.8957924074373895,4.1439494981060925,-3.4445962995068613,-1.3629413509757196,2.6993584462713036,3.0,0.500725413942157,0.5054746396578491,0.39760016041313245,-0.6643762179037719,0.398552114887192,-0.15048724435431074,0.6140961179566865
14.700000000000001,2.9159437779528212,0.7768429449136305,4.627765041978719,0.0836573082877925,0.44240347495622523,-0.01445454105671616,0.06870883285010176,0.20734972122051576,0.9758510077013683,-1.1504978728580948,-1.8944575200190013,4.144167645270325,-3.4444378651127527,-1.3627414187183027,2.6993899589716586,3.0,0.5004658966186353,0.5052371863699534,0.3976388656078365,-0.6643953751472058,0.39854976242204565,-0.15047291945053562,0.6140804286641672
14.8,2.9265621328492952,0.19174979788286917,4.721103548684202,0.09415628811510432,0.436158979535281,-0.013190889945899295,0.06882521449060487,0.2078139045778957,0.9757439969761459,-1.1518714228499765,-1.8933103723897735,4.144363089559064,-3.444296894591094,-1.3625371954381054,2.699434757232666,3.0,0.5001490770459124,0.5048833103975302,0.397848273217076,-0.66433966885239,0.3985352361522105,-0.15049941790757188,0.6141436274550774
14.9,3.2741888383878157,0.15773150117155382,5.107045130563844,0.0909610544967388,0.4242949771354829,-0.009617981047686266,0.06894768976423558,0.20825855695578793,0.9756405522294117,-1.1533436615457302,-1.8920355163619633,4.144559580884976,-3.4441419212813336,-1.3623444682294077,2.699493885040283,3.0,0.4996643822533614,0.5044218321553003,0.3979841818587164,-0.6643484887196562,0.3985357543189159,-0.15050193759737887,0.6141331328342381
15.0,2.9473698785688778,0.41290759943550437,5.12543731610703,0.10138450224802908,0.42640870325830543,-0.010049567901594001,0.06907648558549512,0.20868156814299602,0.9755410989100761,-1.1548368028927332,-1.890831448070655,4.144759051644644,-3.4439506658352164,-1.3621528649729095,2.6995150410353346,3.0,0.4994775741836869,0.5042187910667754,0.39807423575089224,-0.6643247360917011,0.3985430351207611,-0.1504985409275027,0.6141549343220455
15.100000000000001,2.8304594803679675,0.727120795198467,4.725716350977929,0.10443257268783035,0.42142728753166686,-0.006872364453495243,0.06882024605230042,0.20781205199245056,0.9757445599041807,-1.1558693526243298,-1.8898023795549872,4.144920825958252,-3.443770305330367,-1.3619709878577215,2.6995791090010015,3.0,0.49899876336857,0.5037377005052123,0.39808409807940287,-0.6643940424500299,0.39856184158262237,-0.1504884656858856,0.6140702211365445
15.200000000000001,3.0085971854273157,0.3991422827854817,4.187350553880433,0.10685721225216487,0.42286832720419854,-0.00566418736357649,0.06871593846901529,0.20744773356254848,0.9758296597968217,-1.1558276059433403,-1.8898182509890047,4.144928926544466,-3.4437830254878437,-1.3619992570578523,2.69956636428833,3.0,0.49881998846906545,0.5035763245470519,0.3982076132910437,-0.6643657225646135,0.3985179845567272,-0.15049540851658147,0.6141276208423381
15.3,3.1189419364635054,0.22710893582493885,4.128466539296997,0.10452210427731244,0.4256453349478106,0.002584670720908229,0.06879347598283479,0.2076883843272576,0.9757730211510793,-1.155840831038418,-1.8898334530526717,4.144955838826493,-3.4437665966683944,-1.3619686155393727,2.6995669531311055,3.0,0.49875104932249287,0.5035137817578212,0.39825053579895986,-0.6643407832606718,0.39852869849171557,-0.15049490450377417,0.6141477704050519
15.4,3.0172921243099697,0.5461326142053031,4.136655520635769,0.1161345758127737,0.43036874799209407,-0.0019140513395011502,0.06848205652271024,0.20664885806208028,0.9760152349610609,-1.15588346312375,-1.889810212965954,4.144941163272536,-3.443767221652984,-1.3619591195825258,2.6995619060703877,3.0,0.49874788401300907,0.5034992441435109,0.3981993619138237,-0.6643612546793883,0.3985446381158502,-0.15049252833948173,0.6141158633547301
15.5,2.998946206219003,0.23836847327876692,4.132374555168548,0.12098513493976772,0.41847778375220585,0.004094745207154724,0.06832925899944443,0.20616546928759283,0.9761285230336152,-1.1559273108463732,-1.8898144164347073,4.144949088953063,-3.4437711983608916,-1.3619711735507483,2.6995619431514295,3.0,0.4987396075369178,0.5034985284658552,0.39819088390923857,-0.6643627929521911,0.3985541963375105,-0.1504697439562676,0.6141135791335837
15.600000000000001,2.881049567310036,0.05960581634962425,4.248482945272552,0.11063559450849397,0.4234016818474808,0.0004791102696191736,0.06837072889762735,0.20636344665627293,0.9760837891032516,-1.1559228897094727,-1.8898102245726527,4.144968896557127,-3.443778878711906,-1.361983115179974,2.6995859861062463,3.0,0.49873283093620063,0.5035000970955953,0.39820509329713877,-0.6643635108477581,0.39854602837706904,-0.15050080794742612,0.614110491301099
15.700000000000001,3.100960971042523,0.2432893147992804,4.08405086322598,0.11785084369871969,0.4220958036646297,0.009437294270699951,0.06838996819340436,0.20648904404346705,0.9760558822813797,-1.1559114456176758,-1.8898102245726527,4.144948795569612,-3.443793881119054,-1.3619645595687317,2.6995751967971806,3.0,0.4987502358591023,0.5034813508110951,0.3982182054400567,-0.6643439442424818,0.39854868638816116,-0.15050278571675785,0.6141294487468494
15.8,3.0893169154017506,0.20099157024469466,4.108817051926522,0.11374870052743795,0.4222345401803653,0.0042982636279240375,0.06838833732520533,0.20647644583219996,0.9760586624778389,-1.1559074029564242,-1.8898060134671824,4.144932544889949,-3.4437833420807107,-1.3619673887835901,2.699593940414552,3.0,0.49875226635069264,0.5034888305022619,0.3981883331495967,-0.6643615082380948,0.39854793525279,-0.1505012693966212,0.6141113071645458
15.9,3.083870299350913,0.3735360178743722,4.085449019083043,0.12000917501071263,0.4215511889610697,0.002856771916156911,0.0677954762710947,0.20449708834102728,0.9765151856444407,-1.1559624739825525,-1.8898305383247782,4.1449490084720315,-3.4437962523345083,-1.3619877025357157,2.69956636428833,3.0,0.4987452396531106,0.5034877953674926,0.3982124436807834,-0.6643506446251866,0.39854720725431186,-0.1504992122254734,0.6141240360834279
16.0,2.756977049903467,0.3333956254099041,3.907940140575668,0.12282557629244129,0.42641142877853416,0.00225485267782994,0.06766826554832658,0.20405556311590664,0.976616822182538,-1.155935287475586,-1.8898311961236018,4.144929551691413,-3.4437910519041957,-1.3619854900275783,2.6995633791690907,3.0,0.4987302201699759,0.5034986928844243,0.3982118991803151,-0.6643630276934109,0.3985336934958461,-0.15049126281370612,0.614121358038734
16.1,2.8201941677737974,0.5447465840517725,4.090779596169351,0.12802588577707344,0.425096346671215,0.0001820378506389342,0.0682537393081065,0.20596873471371577,0.9761750683680684,-1.1559476852416992,-1.8898102245726527,4.144957065582275,-3.4437697471623565,-1.3619741339957603,2.699575372748699,3.9657471408676463,0.4987315864456242,0.5034891503380113,0.3982062797118132,-0.664368834178237,0.3985353615590426,-0.15049686541656263,0.6141126209901916
16.2,2.8655626785107917,0.13697902343373702,4.059538127024671,0.11554324811708462,0.4237402417583339,0.0021297967384893207,0.0684724913450891,0.2065907112108024,0.9760285027518517,-1.1559271270246207,-1.8898023838691802,4.144949538506942,-3.4437791309752406,-1.3619793097125452,2.6995895727706083,4.0,0.4987231219180143,0.5035034269395094,0.39818402519849333,-0.6643789758373497,0.3985369519349722,-0.15047648194514257,0.61410561208078
16.3,2.898252439403507,0.43604929448784124,4.290836223476117,0.12411496739206783,0.42501125541879886,0.009634648512566166,0.06854250388620224,0.20677721990515088,0.975984153214018,-1.155936937224269,-1.889795816399366,4.144933223724365,-3.443770745578335,-1.3619779953797384,2.69956636428833,4.0,0.49872132933530255,0.5034803421778281,0.3982613967852218,-0.6643359600314984,0.3985309304472486,-0.15047854995875212,0.6141555468187105
16.400000000000002,2.935638464291067,0.18076989449830583,4.204960749239253,0.11475156627435028,0.4234447215233581,0.008929021481142566,0.06844429770336907,0.20650406536673038,0.9760488900082045,-1.1559582859864697,-1.8897983036436976,4.1449456214904785,-3.4437794083920257,-1.3619793097125452,2.6996013839179236,4.0,0.4987210091235241,0.5034891396816192,0.3981831651209769,-0.6643809771899652,0.39854556251707446,-0.15047787782909006,0.6140975167105867
16.5,3.193985046018834,0.3249719009457244,4.167129446551389,0.11920993870568726,0.41371440432888024,0.013202005134403935,0.06829047923341118,0.20607714056814408,0.9761498311697594,-1.1559474612969058,-1.8897900780887518,4.144976630151613,-3.4437950596042644,-1.3619797271160088,2.6995578097111865,4.0,0.4987297846116741,0.5034984036016544,0.398217378469151,-0.6643556898754779,0.3985325895153252,-0.15049458946339,0.6141291972920134
16.6,3.010590130876578,0.20213755198454425,4.181899463868502,0.11740594901716617,0.41960266351026215,0.01060475459191055,0.0681057334569006,0.2055186264826501,0.9762804066847305,-1.1559415127418213,-1.8898128076022545,4.144954077454482,-3.4437848266379603,-1.361946535053473,2.6995715831138916,4.0,0.498747620098744,0.5034816696054069,0.39821302804975656,-0.6643574464571408,0.3985413332933499,-0.15050527020759144,0.6141190052697004
16.7,2.7729497801484433,0.27947686929119786,3.987532154025482,0.1193581411227429,0.4256466105339193,0.010367290362503702,0.06788192901626412,0.20477765548322197,0.9764517628478456,-1.1559190597919502,-1.8898059884284037,4.144949310187138,-3.4438036897265105,-1.3619835458567942,2.699561651306923,4.0,0.4987293505304221,0.5034775998133522,0.3982244479047174,-0.6643547526427718,0.39853943593449626,-0.15049925488788327,0.6141246249127025
16.8,3.1476005024355427,0.38688637999199743,4.306613130679575,0.12041115135079238,0.41788049740532,0.012733168024374103,0.06819523655909825,0.20575635140739132,0.9762241171148989,-1.1559510086170812,-1.889778782289662,4.144929271503323,-3.443783191333448,-1.361999091212248,2.699549743749681,4.0,0.498734592009851,0.5034898993633824,0.39820757594510026,-0.6643586886455431,0.3985423837387402,-0.15048644326059546,0.6141215934811224
16.900000000000002,2.9238134514345826,0.4100390040870151,4.189390284394924,0.11937724802048058,0.4226679245466012,0.0090611726824246,0.06804135097645579,0.20520390819237036,0.9763510089676494,-1.1559276790314532,-1.8898102245726527,4.144957065582275,-3.44379677302432,-1.3619879577758194,2.6995605122535786,4.0,0.4987461923771618,0.5034806304473759,0.3981998627005133,-0.6643642562579389,0.3985437225416952,-0.15050390155373672,0.6141104231704158
17.0,2.983418829709345,0.32409599986632276,4.116723140599094,0.11550892930953345,0.4184295308841262,0.013770828773505705,0.06782294236689698,0.20446682985958672,0.9765209401310667,-1.1559476852416992,-1.8897983036436976,4.144941890887251,-3.4437707971647735,-1.3619673887835901,2.699583031909264,4.0,0.49871997352406267,0.5034997221175054,0.39819132148516034,-0.6643834974160424,0.3985323822410733,-0.15047921888664845,0.6141030152586343
17.1,3.0311428889948813,0.2922197809407808,3.9497006777006103,0.11600152560942102,0.4228432050982061,0.015114267472757383,0.067642727694117,0.20390181212330144,0.9766515160415397,-1.155935287475586,-1.8898020469093013,4.144941263161288,-3.4437791309752406,-1.3619991318519942,2.6995858478170494,4.0,0.4987318511906164,0.5034922405668809,0.3982101438445726,-0.6643594366991631,0.3985378140658674,-0.15048604235014484,0.6141238480031216
17.2,3.2278415176712163,0.28053026367906764,4.130532241509309,0.11427520814016912,0.4145893343807201,0.01427569804286658,0.06752396929014601,0.20353795431201066,0.9767357956612501,-1.1559633645348253,-1.889814636240704,4.144969793734048,-3.4437590437477823,-1.3619874760110484,2.6995748872539966,4.0,0.4987323209946633,0.5034929776676855,0.39821531520476333,-0.6643566688345837,0.39853687484823985,-0.1504861394258551,0.6141274279837338
17.3,2.9649859696020093,0.3417849685983859,4.167350722455915,0.11763063369773509,0.41895303063458017,0.013559469371452276,0.06752305556802927,0.2035598281408311,0.9767313004210212,-1.1559287631371808,-1.8898188833324052,4.144971902330043,-3.443787789734993,-1.3619825718817478,2.699577808380127,4.0,0.4987216097521775,0.5034926083167455,0.3982119403216261,-0.664368042422456,0.3985348052885627,-0.1504894046080275,0.6141156668593325
17.400000000000002,2.900187761009601,0.3824604934805609,4.1221448164270615,0.11638198597488558,0.4185245687528097,0.015573669050165141,0.06825528580578671,0.2060125395883263,0.9761631411001068,-1.1559586589464168,-1.8897944330383074,4.144972695842326,-3.443783156137023,-1.3619912306415003,2.6995621781200763,4.0,0.49874812004834773,0.5034789781073611,0.3982135862896287,-0.6643440813245524,0.398551465763007,-0.15050583472840848,0.6141267495068913
17.5,2.9628246149192496,0.4045310619174219,4.06124584612275,0.11804373659018612,0.4172508594912278,0.019479694269423677,0.06832939238095452,0.2062679909523495,0.9761030294624956,-1.1559683528747928,-1.8898175193547324,4.1449456214904785,-3.443776817901803,-1.361993543714938,2.6995824345270023,4.0,0.4987442822249346,0.5034810279837791,0.39821367207188485,-0.6643468410780276,0.39855380556695574,-0.1504960962290357,0.6141246321696958
17.6,1.6961190317644532,-1.4931389921207399,1.9250047702418451,0.22696255807992474,0.31936816997644596,0.026214912088760083,0.06742691085248713,0.20322284589623385,0.9768063091607682,-1.1559153604021914,-1.8897703834110102,4.144937302099143,-3.4437791309752406,-1.3619953080677973,2.6995740437264866,4.0,0.4987233047397437,0.5034993283459114,0.39820048636620375,-0.6643579848332177,0.3985452446502934,-0.1504809951257173,0.6141218332391041
17.7,0.9272756611910782,-0.2957858412023234,1.5140632393517772,0.16157153632181334,0.21839274099174802,0.029970951206837595,0.06820312087788444,0.20567089354603435,0.9762384119591155,-1.155939365704077,-1.889718301677403,4.144953150527693,-3.443759367299187,-1.3620233920370326,2.699582363399142,4.0,0.4987180622406847,0.5034877605759761,0.3982701409585039,-0.664328565934529,0.3985270427843098,-0.15048703989050152,0.6141639874479449
