xiamingqian9007/apple-picking-rnn/training_data/grasper_20191123_161212.csv
,/ground_truth.x,/ground_truth.y,/ground_truth.z,/joint_states.elbow_joint,/joint_states.shoulder_lift_joint,/joint_states.shoulder_pan_joint,/joint_states.wrist_1_joint,/joint_states.wrist_2_joint,/joint_states.wrist_3_joint,/wrench.fx,/wrench.fy,/wrench.fz,/wrench.tx,/wrench.ty,/wrench.tz,/manipulator_pose.x,/manipulator_pose.y,/manipulator_pose.z,/manipulator_pose.rx,/manipulator_pose.ry,/manipulator_pose.rz,/manipulator_pose.rw
0.0,0.01200720376435449,0.40079962164120725,0.9160870539146517,-1.4962263107299805,-1.9190823040404261,4.137908458709717,-0.05637915552172856,1.386314868927002,-0.722630802785055,-6.386500625490705,-8.29345006986964,-3.8657520275553843,-0.31673897990438604,0.31107660768107676,0.009578582904578251,0.5220158139488833,0.5391485683962398,0.40962164576730653,-0.7526460242571777,0.3046474997451617,-0.21899841510157111,0.541067054302778
0.1,0.012000431036698022,0.40091825345135523,0.9160352259302312,-1.4964262714780914,-1.9189381437894815,4.137932300567627,-0.05640347421679692,1.386297476218522,-0.722623608083907,-6.815363156895043,-8.527112536232117,-3.9333652526644314,-0.31960192268097054,0.32171354998731333,0.006428365328617932,0.5220183341044532,0.5391504237385976,0.40961306955290383,-0.7526498780014096,0.3046513932019874,-0.21899824269482449,0.5410595710835635
0.2,0.011977537970226973,0.40081448463660846,0.9160808482355743,-1.4974111760481799,-1.9178393917607774,4.1379410849728115,-0.05639107645068364,1.3861470222473145,-0.7226409911980306,-6.813951512193432,-8.737535424741814,-4.063590592814647,-0.30887494143322847,0.3271096991787284,0.003362509084006594,0.5219797722608435,0.5390838088018232,0.40958914822978315,-0.7526794669274743,0.30465296474969894,-0.21900103231326434,0.5410163943733279
0.30000000000000004,0.011937912134654524,0.4004798659404061,0.9162276230797217,-1.4985874144252795,-1.916666646996969,4.1380455938991565,-0.056370358484307055,1.3860226367054849,-0.7225609906478345,-7.1873328593347425,-8.990296166664871,-4.2720665037486745,-0.2886895066658812,0.33120855046076747,-0.009289442806460936,0.5217864953195102,0.5387484592397755,0.4097357198571499,-0.7526520857723873,0.3046982440991024,-0.21904329171046855,0.541011879889935
0.4,0.011898286299082073,0.4001452472442037,0.9163743979238692,-1.4999240341866162,-1.9155135393707179,4.138329895598601,-0.05623601721530037,1.3858944190399476,-0.7224530579027614,-7.682862663061827,-8.85767766818006,-4.588065467298237,-0.23381804549350169,0.34313704959617514,-0.0209660886386051,0.5215896803724338,0.5385080343783981,0.4099119038032969,-0.7526209152796209,0.3046956857928489,-0.2190544509579013,0.5410521642673872
0.5,0.011904915698412644,0.3988030680619484,0.9169555869543307,-1.5011944330123592,-1.9144582284721192,4.138541345786067,-0.05628689056117113,1.3856589149085423,-0.7224177868018626,-7.861327459549034,-9.014135422834801,-4.882170602109397,-0.21115392904321453,0.337760332357189,-0.034730703895334475,0.5211963372435912,0.5381579666107539,0.4100130986819454,-0.7526521337618439,0.304685038828074,-0.2190388401689619,0.5410210524143347
0.6000000000000001,0.011961516609117614,0.39637237813286075,0.9180060922361982,-1.5023512363780964,-1.913065174333969,4.138734865153886,-0.05629523218188481,1.3855473461789838,-0.722355482668083,-7.859805722861857,-8.607226322182363,-5.805654251726423,-0.10633907210356892,0.287712706020571,-0.00842876696266462,0.520732339707453,0.5377986526984226,0.4101166371106048,-0.7527084084564015,0.30466507999312176,-0.21899005585580422,0.5409737482614915
0.7000000000000001,0.012018117519822583,0.3939416882037731,0.9190565975180659,-1.503586321817,-1.9118438255928472,4.1389288902282715,-0.05631723911270738,1.3853778954967768,-0.722330395375387,-7.631239600374593,-8.82490446049224,-5.858411637992716,-0.09040541012623829,0.296522052798941,-0.026248215297155576,0.5205149709787239,0.5375142728641009,0.4103234757971254,-0.7526532907347304,0.30469999068582276,-0.21901439000860146,0.5410209206596369
0.8,0.012092838812336103,0.3884587107748335,0.9213571651016795,-1.5048569413264055,-1.9106463334639625,4.139083117564974,-0.056261231284737916,1.385168174513301,-0.722221065714881,-8.474251656225023,-9.258282953218108,-5.901675458977763,-0.07530506955718123,0.3097236644533344,-0.015146957872421152,0.5201465309966251,0.5371543776057016,0.41053155708180283,-0.7526455659517728,0.30466450098204556,-0.21902381170828353,0.5410478387344977
0.9,0.0121680759725209,0.38288883802209495,0.9236933206069698,-1.5061155504745865,-1.9095168416080783,4.139242939575426,-0.05618402008523049,1.3850425286495056,-0.722176431492684,-7.742360573272963,-9.447985019075082,-5.580489492835619,-0.22140567537470981,0.41629637982077144,0.02446497061808808,0.519703624823482,0.5367420728456724,0.4107118548171568,-0.7526737646991728,0.3046599577094983,-0.21899552640610218,0.5410226183036484
1.0,0.012257834127745728,0.3753401646248914,0.9267627397840352,-1.5071687698364258,-1.9084283564882343,4.139490689298763,-0.05618746698413091,1.3848648669534944,-0.7221731915339137,-7.685321245097241,-9.926079093728639,-2.770705695122402,-0.3047644968880431,0.5296068423434478,0.08020690582104467,0.5194385572522596,0.5365089466335211,0.4108050662401664,-0.7526822878337185,0.3046611903869019,-0.21897882653124054,0.5410168261564848
1.1,0.012364510262348197,0.3654860494584954,0.9306864626533246,-1.5083567180169752,-1.9070708039615698,4.139598993255012,-0.05622439414501429,1.384664810102399,-0.7220771172134076,-7.844547156360288,-9.451094362555338,-5.002610996155731,-0.14714754860572143,0.4345463034936622,0.058647508454700126,0.5190825112638442,0.536125726204678,0.41101337205367133,-0.7526571290741009,0.30464456468317647,-0.2190202787409087,0.5410444092338308
1.2000000000000002,0.012437800886396622,0.35826446366926423,0.9335255627234413,-1.5097475900044777,-1.9056825219196194,4.139791213327848,-0.05621392857012072,1.3844965483066762,-0.7220027357610923,-6.852146631769746,-8.659494490232047,-5.884260231739158,-0.057126227086677306,0.31475355101754,0.10980355435995852,0.5188558233804853,0.5358647720548837,0.4111837995443552,-0.7526318635070876,0.30466184350652287,-0.2190271857492056,0.5410670300876209
1.3,0.012470969759743853,0.3542065763118183,0.9350611941680661,-1.5111152071519007,-1.904635025324095,4.139961774527815,-0.056243460208755376,1.384353297638176,-0.721974948415411,-7.36042349670325,-9.278571570104583,-4.99782971496416,-0.11353401850947326,0.38168342021284063,0.10578852934876436,0.5185369834778482,0.5355199585969715,0.4114228140875822,-0.7525976057755156,0.3046587175756392,-0.21902784725103078,0.5411161721060529
1.4000000000000001,0.012504138633091084,0.35014868895437234,0.9365968256126909,-1.512181282043457,-1.9036444032927253,4.140115354202749,-0.056186990146972704,1.3842195569107156,-0.7219345309909366,-7.867082541538026,-9.46259007858566,-5.121787911774321,-0.08318345761154633,0.40167697451835305,0.09889145378724341,0.5180367440754657,0.5350207722181926,0.41147113299524374,-0.7526882151578207,0.3046804111489342,-0.2190084436833335,0.5409857663747307
1.5,0.012527928629400964,0.34690878873608266,0.9378138285831343,-1.513226486178008,-1.9023943428201657,4.140322750270778,-0.056189168428724096,1.3839770281335158,-0.7218620271751757,-8.212021162337388,-9.673461172964151,-6.0314584533900995,-0.0594969004050078,0.3834505665480389,0.0872131689102754,0.5178515731857783,0.5348504909059584,0.4115129856886377,-0.7527070694283904,0.30467220067459466,-0.2190152754742927,0.5409613913002885
1.6,0.01253972357369064,0.3447150476951617,0.9386233237988967,-1.5144202940596618,-1.900979253920812,4.140462397697058,-0.056177859313389554,1.3838523383228964,-0.721805766862005,-8.111465727968234,-9.99058161641003,-6.9640017530013045,-0.01949085742240315,0.36840788931703866,0.07106252224896498,0.517546232755431,0.534539571148561,0.41171886046459605,-0.7526798761610284,0.3046855679105369,-0.21900727677202175,0.540994936621551
1.7000000000000002,0.01262684307442092,0.33999222332542106,0.9403356516042864,-1.5158307054019715,-1.899709783044029,4.140654433087102,-0.05621198757446414,1.3837164524352459,-0.7217078346335597,-7.9353063275604026,-9.120802036042178,-6.956053049698829,0.022082033242425105,0.3359927528216209,0.09877595184092912,0.517011799046095,0.533970897612217,0.4121373478630713,-0.7526106944371985,0.3046567599192533,-0.21902515276749965,0.5411001605150692
1.8,0.012714920543617446,0.33414622833927127,0.9424151135816362,-1.5171056930419295,-1.8986978539846289,4.14083878614071,-0.056186990146972704,1.3835886360377407,-0.721682227059596,-7.590300091089387,-9.434155638045,-6.692753032287154,0.02399347065527334,0.3414011134762918,0.10165369903637884,0.5167371401822439,0.5337061178117152,0.41224308133213255,-0.7526230531566157,0.30465325365597506,-0.2190140378464206,0.5410894437338882
1.9000000000000001,0.012796566276042342,0.327014669840446,0.9449069571719844,-1.5181595709701616,-1.8975585788188887,4.141002759115727,-0.05619620482874212,1.3834171295166016,-0.7216108481036585,-8.140376047056908,-9.325943702201133,-7.753200666230317,0.0855214537345065,0.2897460917826125,0.08769456737339372,0.5164819604996862,0.5334578254238652,0.41227854165639277,-0.7526576281219203,0.30467033032517127,-0.21900003929792755,0.5410373992959657
2.0,0.012864690404028056,0.3216476615045361,0.946769167662017,-1.519304893382163,-1.896329233264872,4.141185742505092,-0.05621130884204106,1.383274767971793,-0.7215534866123648,-8.63768152225483,-9.562508560326743,-7.746136488558856,0.10755893709674091,0.2627703501545905,0.07623018857908809,0.5161011451673467,0.5330730745440955,0.41245080481195,-0.75266433651951,0.3046539540908068,-0.21901135447177167,0.5410327082542444
2.1,0.012912698504879371,0.31890576612151994,0.9476946759590795,-1.5205917358398438,-1.8950456854293622,4.141373352510138,-0.056222754064595044,1.3830944114497499,-0.7214922013398317,-8.742362046892541,-9.954347162074763,-7.704360508537551,0.10849573082118265,0.2679120947285918,0.06526873662331358,0.51582745421484,0.5328379076805271,0.4126131723626439,-0.752653136383485,0.30464135374205203,-0.2189882787365639,0.5410647240934394
2.2,0.012960585412224343,0.3165237712612219,0.9484951898966598,-1.5219699720938726,-1.8938577550801354,4.141565445979491,-0.05617576308016499,1.3829741477966309,-0.7214557393185879,-9.07805981863391,-10.164446711851062,-7.927653801688982,0.08545293546969814,0.27669412404177895,0.06419042126883466,0.5154892910150068,0.5325029179819998,0.4127913898998057,-0.7526512025685294,0.30461975478272757,-0.2189776831691615,0.5410838627626257
2.3000000000000003,0.013008281960450884,0.31470707357150546,0.9490993747007888,-1.5230598449707031,-1.8925970157828012,4.14169497836601,-0.05616314828906255,1.3827842117500566,-0.7214188056338436,-8.469044370633325,-9.388149067844111,-6.834274431481312,0.07789022223187611,0.27705166357073613,0.06699941307006144,0.515155888726325,0.5321275242138989,0.41292884748916064,-0.7526553143049564,0.3046410881746729,-0.21897664993778773,0.5410665504596291
2.4000000000000004,0.013026330666168852,0.31275042812552684,0.9497437475524582,-1.5241872397027392,-1.891364562018351,4.141866122264782,-0.056150391959823666,1.3826053161252747,-0.7213241506975459,-7.3731859132459565,-8.592884125641262,-5.7026990618916376,0.061952137977661303,0.29764671938675913,0.05756060871611903,0.5146466215023054,0.5315820384995948,0.41324458396518005,-0.7526236367306816,0.30463006656645497,-0.21899642764555002,0.5411088140628351
2.5,0.013040275843891272,0.31077441265167627,0.9503936827912767,-1.5254442024610977,-1.8902829410321318,4.142019357700275,-0.05617727915657686,1.382483959197998,-0.7213024662165276,-8.434838572142635,-9.195917162064262,-6.821765950453495,0.05169182628666413,0.3106378191442704,0.044743951451836274,0.5143963629095653,0.5313243567045566,0.4133794769345681,-0.7526189036491635,0.30462603355174706,-0.21899629865145953,0.5411177198442334
2.6,0.013023751084461018,0.31135111827625794,0.9502051580324025,-1.5267277417734142,-1.889090370306454,4.142170338837324,-0.05616747251439274,1.382310083477942,-0.7212448070088466,-8.40615028097009,-9.1417213462792,-6.424880214360028,0.028351658107503896,0.3202326238880541,0.05308521260304749,0.5141763865296441,0.5310932561112822,0.4134513732024643,-0.7526353669394543,0.3046292670601297,-0.21899315037441172,0.5410942747538654
2.7,0.013002640293603413,0.31231203405276775,0.9498904366266258,-1.5280056264910906,-1.887907326956186,4.142357349395752,-0.05616314828906255,1.3821585244664005,-0.7211543289458316,-7.766720327192683,-8.97854805647026,-6.358086031071236,0.024101350018334418,0.3249355407590502,0.04908628661962537,0.5138460383261102,0.5307214343818986,0.413526528698045,-0.7526763001114353,0.30464421924157536,-0.2189828578813091,0.5410330811395788
2.8000000000000003,0.01300148053218125,0.31223680266122666,0.9499153120111623,-1.529083018051016,-1.8865883786018154,4.1425134679675795,-0.05615363590376589,1.3819908852185485,-0.7211296692970774,-7.597536219444735,-8.732252786525208,-6.238133307668146,0.0485816321684933,0.3062541731565468,0.03718772548272355,0.5134182383156103,0.5302848363267199,0.41371741895000835,-0.7526769924775347,0.3046454232512538,-0.21897683771659338,0.5410338766017136
2.9000000000000004,0.013000204298106043,0.31222559128928135,0.9499189655146978,-1.5302613572684305,-1.8853887901472437,4.142680644989014,-0.0562088074162559,1.3818179559592925,-0.7210477034198206,-7.938298719783417,-8.91340759770483,-5.840364461258028,0.02026701337128699,0.34807000825105927,0.02627404940543457,0.5131923777124626,0.5300394435264687,0.4138823997499648,-0.7526498763688871,0.30464283332351233,-0.218992439761445,0.5410667417554431
3.0,0.012991994025845138,0.3126866327979065,0.9497673753556712,-1.5314006525134738,-1.8842963206568004,4.142861250395758,-0.056320027714111376,1.3816554893302886,-0.7209943070009414,-8.37569865320905,-9.000313958006117,-5.445048663600266,-0.01207408342532967,0.38898799000049666,0.025854194510037166,0.5128473658802747,0.5296875231614754,0.4140978057019766,-0.7526264191654988,0.3046310647030313,-0.21900905698710713,0.541099270512939
3.1,0.01298021705299147,0.31277571527976605,0.9497381751442626,-1.5316067734090537,-1.8840911827822584,4.142891887561597,-0.056320647636363685,1.3815875053405762,-0.7209653536765456,-7.977894217582019,-8.880577437387595,-5.453134680497359,-0.010187890060488109,0.4009977341601562,0.009831250382477539,0.512511835953027,0.5292987161889108,0.41421455271805213,-0.7526640593163471,0.30467251096326126,-0.21900680854534926,0.5410244843697564
3.2,0.012961319694136277,0.31212223701719544,0.9499533082170984,-1.531630516052246,-1.8840889459719161,4.142897148884348,-0.056350356935873536,1.3815875053405762,-0.7209761778460901,-8.008287846795154,-8.885199556886084,-5.773705203294876,-0.032008707691255286,0.40082978632292626,0.019508343239188042,0.51241114753468,0.5292296144696799,0.41421937409093285,-0.7526878241039239,0.3046677990733125,-0.2189899162300452,0.5410009133477338
3.3000000000000003,0.012949662244871435,0.31174451195057856,0.9500776968116127,-1.531641960144043,-1.8840416184964748,4.142895334952714,-0.056319720740716755,1.3815876185830853,-0.7209880987750452,-7.9620890425076105,-8.93650005333864,-5.735351764290858,-0.01684727441445366,0.4045920536006128,0.021631033683562673,0.5124176732395088,0.5292307281252286,0.41423177093999125,-0.7526806377884862,0.3046633304915391,-0.21899342945478573,0.5410120057889222
3.4000000000000004,0.012952946772683351,0.3119358959151399,0.9500148037974271,-1.5316461350576596,-1.8839655741906303,4.142887952532025,-0.0563238997453037,1.3815883281342485,-0.7209837499066947,-8.282178793042345,-8.904984634939904,-5.653165564585125,-0.024119231879463292,0.3925152076225182,0.016051164649638024,0.512394680873772,0.5292309956630714,0.41426016747821903,-0.7526722784740855,0.3046636681141882,-0.21899022095461823,0.5410247440497374
3.5,0.012956231300495266,0.31212727987970135,0.9499519107832416,-1.5316738099476757,-1.8839699230589808,4.142866990031904,-0.056304518918168,1.3816299206710527,-0.7209907329677171,-8.249590824898677,-8.96744610756708,-5.817769194519135,-0.032210283417485525,0.40131358382755744,0.01598656439952098,0.512402922436873,0.5291968521905454,0.4142888165885873,-0.752658219207907,0.30466446007399256,-0.21899528458791492,0.54104180721536
3.6,0.012960257388602268,0.3121419537224533,0.9499470019254389,-1.5316781997680664,-1.883942692742078,4.142903412881369,-0.05630715311083989,1.3816024734297254,-0.7209761778460901,-8.212708584743643,-9.01487149401876,-5.826052032562778,-0.03396018773065555,0.3998598936977567,0.014296634473986571,0.5123984486488503,0.5291925191874316,0.4143183891925945,-0.7526481381654757,0.3046592751518513,-0.21900658021199448,0.5410541784367245
3.7,0.012965875274738,0.3117773100297092,0.9500665590974925,-1.5316607353741256,-1.883964178192553,4.14287735451338,-0.05630077564687047,1.3815814850384323,-0.7209708641757616,-8.253731548369814,-8.988177911504291,-5.722731504707345,-0.031188774276626592,0.39794717517047173,0.01308298831798513,0.5124015718642716,0.5291879762850508,0.41429319638408324,-0.7526546215248816,0.3046630522454199,-0.2190117746393949,0.5410409299332583
3.8000000000000003,0.012971493160873733,0.31141266633696507,0.950186116269546,-1.5316561544858491,-1.8839690183714777,4.142889065414305,-0.05632113992713031,1.381609965673825,-0.7209834953418223,-8.57674602419115,-8.985766997166646,-5.460122189007384,-0.03204228500287233,0.38980802192103625,0.015181360131083765,0.5123896723300075,0.5292002339410136,0.41429913822090125,-0.7526535438436741,0.30465661733317506,-0.21899816425048757,0.5410515617846257
3.9000000000000004,0.012974694356374746,0.311213686636316,0.9502513779586258,-1.5316574420585485,-1.8839458078376212,4.142910751797546,-0.056315513054244565,1.3816150744194482,-0.7210037841632594,-8.21539453764155,-8.958522459831812,-5.6310376414270324,-0.028149572130736537,0.3997501663552588,0.011266665121220326,0.5123958567900373,0.5291976025051562,0.4143055324202198,-0.7526440797731391,0.30466123993385996,-0.21899986862097334,0.5410614342275782
4.0,0.012972479549364813,0.3113859735695794,0.9501949590039797,-1.5316601088080168,-1.8839415794552095,4.14290141054606,-0.056346091203098574,1.3815970044742178,-0.7210067242761773,-8.328088332145871,-8.904623208144402,-5.684856787915401,-0.03787092240436923,0.39552497415617954,0.010854241848011138,0.5124061810034326,0.5291923479458293,0.41428613220989746,-0.7526541008053917,0.3046654357878411,-0.21899419789685065,0.5410474268163068
4.1000000000000005,0.01297782012819522,0.31139575166385525,0.9501916685118649,-1.5316760332351171,-1.8839788774173665,4.142914407301754,-0.05632978211011711,1.3816262346980108,-0.7210000197040003,-8.17891921523011,-9.045067673079867,-5.4870021659473185,-0.03425630816708702,0.3948872687082676,0.007333284337306904,0.5123792561053961,0.5291965632080498,0.4142947215287067,-0.7526594217192905,0.3046578934414731,-0.21899408360406838,0.5410443181546238
4.2,0.01300081532914988,0.3110257963858315,0.9503125229608368,-1.5316896438598633,-1.8839478177699107,4.142894388157162,-0.05632970050569141,1.3815998524481699,-0.7210000197040003,-8.198489441851777,-8.869891759696891,-5.817432300380089,-0.03938369281514646,0.3961012504740826,0.009787905051096005,0.5123811848355908,0.5291950109503751,0.41432968726417774,-0.7526434050695912,0.30464221358361615,-0.21899401939481877,0.5410754531277755
4.3,0.012971299797243213,0.3124960244934239,0.9498301014212152,-1.5316516073248525,-1.8839699230589808,4.142914076249134,-0.05630715311083989,1.3816017000176768,-0.7209833032760248,-8.303455114113088,-8.8691893196125,-5.673110884554883,-0.03774613635966475,0.3956938101406703,0.010805623592214575,0.51239582534961,0.5291922353685655,0.4143330581692067,-0.7526381620031044,0.30464363134644257,-0.21901975486411954,0.5410715312746578
4.4,0.012967752684875183,0.31258071107768237,0.949802467753127,-1.5316770780906368,-1.8839487991117656,4.142906148104727,-0.056295771449879836,1.3815880230378514,-0.7209767171140852,-8.286470070198,-8.735556340416887,-5.431012568120991,-0.033895668321017966,0.3951327591025457,0.013460063557124985,0.5123883542360609,0.5291974128529991,0.41429404995293106,-0.7526716881903941,0.30464481430629403,-0.21900014538158386,0.5410321646961027
4.5,0.012975842682657618,0.3121189971411256,0.9499541261450167,-1.5316636789949067,-1.883955850433695,4.142883777618408,-0.05631737049133807,1.3815996953537677,-0.7209888160071555,-8.132062814842309,-8.771905794764836,-5.760999581265555,-0.043173668120650155,0.40205480037726804,0.00817835697175413,0.512380269474238,0.5292057282471889,0.41430352618930194,-0.7526588711062882,0.3046554923456379,-0.21899071684466082,0.5410477988722499
4.6000000000000005,0.012983932680440053,0.31165728320456887,0.9501057845369065,-1.531678759064037,-1.8839925997169522,4.142918457664147,-0.056318944972985,1.3815995553363412,-0.7209880987750452,-8.117492087891936,-8.957967159022548,-5.834252688618403,-0.0439186129693696,0.40391486247281555,0.009854412315423111,0.512374410521591,0.5292095611624453,0.41432823007948594,-0.7526293528370193,0.3046540207364994,-0.21900259643178258,0.5410848802668135
4.7,0.012969567255692196,0.31163945297886836,0.9501119053294895,-1.5316782631741719,-1.883981645843856,4.1429065389897906,-0.056331405757881654,1.3815990181223208,-0.7210477813268982,-8.084112028863213,-8.998618220604161,-5.003120226578723,-0.07353460499016672,0.4317162152948135,0.011303749763266396,0.5123885219110438,0.5291975509988166,0.4143182132204963,-0.7526438237661576,0.30465413122845714,-0.21901048953575772,0.5410614940516452
4.800000000000001,0.012961526822825135,0.31139781221660784,0.9501906809721238,-1.5316729926327592,-1.8839326664163427,4.142938837351567,-0.05625946939501958,1.381597973094503,-0.7209761778460901,-7.965999779350759,-9.183548612084904,-2.901358642894677,-0.20230169134661685,0.5439175910203363,0.04619532744832186,0.5123724755287609,0.5292109819456371,0.41428624386447144,-0.7526685023020321,0.3046356117968735,-0.2189935817876209,0.5410444351468642
4.9,0.012991880965198025,0.31010973144055687,0.9506104416050162,-1.531676443889397,-1.8839217625060023,4.142905855396462,-0.05630803105017455,1.3815875053405762,-0.721000897643335,-7.904503834690866,-8.85547222692967,-2.983307736647894,-0.18323073212469948,0.5516224820344005,0.0020542627794042714,0.5123685187209751,0.5292074062451193,0.41433084868954484,-0.7526359572331747,0.3046420793338426,-0.21900502368469257,0.5410814347025065
5.0,0.013022235107570914,0.30882165066450584,0.9510302022379086,-1.5316658020019531,-1.883957146948975,4.142918219789479,-0.05630715311083989,1.3815995195530735,-0.7209659786816502,-7.404374443744553,-8.229771062779363,-4.119801826057572,-0.14653366090854064,0.5290490040473256,-0.008809821192768559,0.5123717926016783,0.5292126131064071,0.4143351728943751,-0.7526297537160584,0.3046441655050619,-0.2189979046174811,0.5410917704217854
5.1000000000000005,0.013015993654888402,0.30816222610809735,0.9512447564860993,-1.5316829362105964,-1.8839098415770472,4.1429155755904965,-0.056293737812306024,1.3815716195968442,-0.720982885495357,-6.736408127979682,-7.394793472486834,-2.4223512919525025,-0.18301256019160178,0.5494747851272662,-0.007292475826060514,0.5123920540231349,0.5291878945621407,0.41432182872725104,-0.7526384442686984,0.3046605217157936,-0.21901119140802117,0.5410650947480286
5.2,0.013018222194270408,0.30829765783407637,0.9512007654898679,-1.5316682910102473,-1.883932305716916,4.142929021130018,-0.05630826440109267,1.3815875053405762,-0.7209660870702925,-7.028122558293006,-7.547848232986403,-2.6439652482293985,-0.1781889751244997,0.5521119444483763,9.26821615029956e-05,0.5123745579491562,0.5291882827370705,0.41436176725859597,-0.7526182591728472,0.30464909879005453,-0.21901717430271778,0.5410971815917116
5.300000000000001,0.01302975869648476,0.3086575665584882,0.951083873456426,-1.5316658020019531,-1.8839222393431605,4.142919063568115,-0.05634509262632778,1.3815899514491887,-0.7209673145529006,-6.821395476315776,-7.478544227561947,-3.3940912427287544,-0.19409601303090085,0.5637431938416966,-0.0038526701046222873,0.5123610934861853,0.5292020665484983,0.4143536602604311,-0.7526328150571459,0.3046445015934289,-0.2189896317702387,0.541090671260541
5.4,0.013035269408570683,0.3091381875471475,0.9509276463771437,-1.5316630363215937,-1.8839248986511983,4.142928695653869,-0.056357972971856206,1.3815831918708978,-0.7209842621425251,-6.82116048466022,-7.308463652773409,-2.7722085562891925,-0.1817764340781597,0.5593233290148595,-0.00701844761287313,0.5123705532449586,0.5291976741271024,0.41434554425292125,-0.7526462022855439,0.30463843856139833,-0.21900375819939644,0.5410697458096891
5.5,0.013015669410286307,0.3101218414395522,0.9506075020484309,-1.5316543055079206,-1.8839460812010707,4.142872662431794,-0.05630715311083989,1.3816223753185537,-0.7210340754764436,-6.88683556472267,-7.3304885373949284,-2.720868905825332,-0.19045171510833775,0.5581928206011615,0.003051862270538119,0.5123684064690912,0.5292205659265432,0.4143222944422581,-0.7526586333479839,0.304631134379854,-0.2189975995234047,0.5410590587137185
5.6000000000000005,0.01299079064777579,0.31046258089397205,0.9504968297760009,-1.531677002590251,-1.883933009139601,4.142905560714788,-0.05632912349557828,1.3815898076056055,-0.7209784801111195,-6.593484620700305,-7.297192773898712,-3.0274750017916836,-0.1839986257572983,0.567308574087015,-0.008082094012992189,0.5123884469645008,0.529200603082866,0.4143281984311451,-0.7526411228904906,0.3046550365682851,-0.21901114093525514,0.5410644776493427
5.7,0.012963391631307433,0.3104963720575665,0.9504861662852265,-1.5316901818102866,-1.8839000103785823,4.142906665802002,-0.05633095454588593,1.3815890364302423,-0.7209995024439779,-6.90558840068111,-7.340905864992962,-2.680668771980692,-0.1902898018508607,0.5572658667247878,-0.009179445115883322,0.5123969600615144,0.5291911175552714,0.4143341490046786,-0.752636335622006,0.30465641635553126,-0.21901961775332612,0.5410669286826453
