xiamingqian9007/apple-picking-rnn/training_data/grasper_20191127_112846.csv
,/manipulator_wrench.fx,/manipulator_wrench.fy,/manipulator_wrench.fz,/manipulator_wrench.tx,/manipulator_wrench.ty,/manipulator_wrench.tz,/ground_truth.x,/ground_truth.y,/ground_truth.z,/joint_states.elbow_joint,/joint_states.shoulder_lift_joint,/joint_states.shoulder_pan_joint,/joint_states.wrist_1_joint,/joint_states.wrist_2_joint,/joint_states.wrist_3_joint,/mode./mode,/manipulator_pose.x,/manipulator_pose.y,/manipulator_pose.z,/manipulator_pose.rx,/manipulator_pose.ry,/manipulator_pose.rz,/manipulator_pose.rw
0.30000000000000004,-9.070750936290464,-3.310237746428927,-12.068334796495026,-0.13948446926302274,0.2544932170491391,0.2514268883534016,0.004744034216764737,0.01306555142095803,0.9999031717607347,-1.9461610457449021,-2.120838781396383,4.1669354660241185,1.1601276002353293,1.3319698446684554,-0.10400476959467486,1.0,0.45526663402450857,0.4503319028366813,0.27475182055167285,-0.44888372697904017,0.4304689649480564,-0.02065093545166683,0.7827984470698234
0.4,-9.348637605567264,-3.3613302483098635,-11.912469472717973,-0.13357135449813812,0.2447042791232116,0.2200130911323142,0.004987450977223664,0.013317404785833138,0.9998983136547769,-1.9414404742524092,-2.1221358912017796,4.166059322559877,1.1571841575402826,1.3327934283827183,-0.10374671617616826,1.0,0.45554799986336386,0.45067592807919427,0.27469632429374047,-0.4489906343975697,0.4304855409972785,-0.020655749502675055,0.7827278896449461
0.5,-9.29642163668769,-3.8661735549886127,-11.818970795105248,-0.13149745456469117,0.24270566359036627,0.21276609284191142,0.005985396070206025,0.014451171488613416,0.9998776255872623,-1.9368614037530019,-2.1235650695729613,4.1652607917785645,1.1541320877990044,1.3334907286533595,-0.10356015295941054,1.0,0.4568986505599123,0.4519206363241511,0.2752891575857809,-0.4488677195859697,0.4304483314641313,-0.020647746918123842,0.7828190562324361
0.6000000000000001,-9.22526228272937,-3.7843478842033136,-11.749864244648734,-0.13027179214637624,0.23928829497830134,0.21344249991973124,0.00652920371586352,0.015091515181299076,0.9998644551842327,-1.9325487981044305,-2.1254029585930962,4.164575411731332,1.1513372649638804,1.3341487757379726,-0.1034005323993128,1.0,0.45749373457965303,0.45249365757349125,0.2755494867673023,-0.4488300883218392,0.43043873033225516,-0.020660758349453374,0.7828455686221846
0.7000000000000001,-9.266905784543699,-3.872072076561239,-11.851174241814581,-0.13610939315205503,0.2451571366080411,0.21377106046860103,0.007063090256520759,0.01572107953499491,0.9998514490124049,-1.9282576801423332,-2.126883386296789,4.163853536783195,1.148465511563361,1.3349510119211965,-0.1032304856816576,1.0,0.45860528160929853,0.4536685210191342,0.27578375148843215,-0.44890939711267386,0.4304995568706815,-0.02068062185891305,0.7827661187082713
0.8,-9.586510181056422,-3.720748515036032,-11.711699591504109,-0.13207994571264217,0.2429429827592382,0.21628260530707658,0.007281443938953337,0.015801905995669645,0.9998486041157525,-1.9241703162982533,-2.128075153646111,4.16310232866258,1.1456136161383716,1.3358720648461635,-0.10300759900845897,1.0,0.45985482063462946,0.4549067931817924,0.27621800449598755,-0.44890748503639366,0.43047403864575484,-0.02066171961529952,0.7827817481730472
0.9,-9.665486593046646,-3.6641786169311192,-11.803776354496197,-0.12105486950369725,0.25308742580796284,0.21721005183732842,0.007490072220265494,0.01586581917463537,0.999846072411449,-1.9202087197310516,-2.1295487936029827,4.162314075189399,1.1430817554534458,1.3363809261834605,-0.10287245143343705,1.0,0.46031975461050917,0.45539621604766384,0.2764898234782751,-0.448898605790713,0.4303992448898113,-0.020590746664226257,0.78282983647102
1.0,-9.14091369938921,-3.78319206184037,-11.853599756510105,-0.13615423151284417,0.24765605059304055,0.21697743703081596,0.007082806195916932,0.015641295251910787,0.999852449098632,-1.9161473575125256,-2.1311446470039273,4.161557910495983,1.140651322212106,1.3369807326011671,-0.10270007450661241,1.0,0.4614013006317881,0.4563479988988433,0.2768398877940775,-0.4488578471023861,0.4304470926533478,-0.020659332652345437,0.7828250925304137
1.1,-9.369524671072067,-4.011740085138201,-11.727936409539142,-0.13716982291417412,0.24385837685062,0.21842526025578607,0.006632830759060464,0.01539676955445724,0.9998594435414322,-1.9123292358908823,-2.132487055194392,4.160857613661435,1.1381206406933595,1.3375479066798157,-0.1025488693356211,1.0,0.46266754948013333,0.4575268239579743,0.2771232358785505,-0.4488548338040851,0.4305074124853257,-0.020715330641503556,0.7827921697630286
1.2000000000000002,-9.31999062438781,-3.746874659369658,-11.755833378465155,-0.13343862433076492,0.24345866594489876,0.22269165793773976,0.006368377127530501,0.015084223466934419,0.9998658640384442,-1.908766610507123,-2.1335500667582794,4.160345123641209,1.135651037082684,1.3382251598756465,-0.10241962657108412,1.0,0.4632022800770536,0.4580277925203314,0.27727701189293835,-0.4488712266770015,0.43052878808051176,-0.020739711275757442,0.7827703679059448
1.3,-9.432959634768276,-3.5473651693840824,-11.810130701745521,-0.13063550616169498,0.25017752716556735,0.224988897163596,0.006119022333840056,0.014766141486541056,0.9998722378244276,-1.9051228939683784,-2.1349122211495057,4.159726619862519,1.133471856544499,1.3388966496049353,-0.10228854814638311,1.0,0.46404467572893465,0.45890360703815075,0.27768491587222505,-0.44885660182694254,0.4304837824728815,-0.020701471663617122,0.7828045178045226
1.4000000000000001,-9.552194590059647,-3.8296699520102218,-11.853487323499989,-0.13375160967431904,0.2519919739670764,0.22272242472417114,0.006027314103396874,0.014549800853935719,0.9998759552723214,-1.9017190855721684,-2.1363153293238732,4.159197629412588,1.1311420393937988,1.3394481892392578,-0.10213166872133428,1.0,0.4651892302062651,0.4600872666395841,0.2780762791830846,-0.4488718703627196,0.43042788920158365,-0.020647810767987416,0.7828279147456563
1.5,-9.545682656385152,-3.788583925663982,-11.965505005921642,-0.13020216044382502,0.25332093599700345,0.2225928037134564,0.005950207196994459,0.014342883569082449,0.9998794266885074,-1.8983612847883922,-2.1375134121141524,4.158751313893608,1.1289813044563162,1.3399593971643153,-0.10199063705507017,1.0,0.46560762361143687,0.46052997965930687,0.27815550312843995,-0.44891289443957183,0.43045423160706,-0.020638885266243117,0.7827901405309271
1.6,-9.428473016387198,-3.5505278551795545,-11.966286825099997,-0.12832043894049944,0.25019267520036137,0.22523592756514016,0.006004995740707348,0.014441256099210006,0.9998776669412243,-1.8951919871167051,-2.1386533553792724,4.1582436818172335,1.1270262264560784,1.3404404407835604,-0.10185035214269728,1.0,0.4666286830876512,0.4616347947469461,0.2785080300778098,-0.44889039256874996,0.43044389972173785,-0.020615981967505855,0.7828093292362654
1.7000000000000002,-9.73529312816771,-3.5569652685228847,-11.74978306050302,-0.12418758925292188,0.24902837365353084,0.2158322335851066,0.006073519979558793,0.01457142174899269,0.9998753624164938,-1.8919610837198073,-2.1397806861642503,4.157648576382668,1.1248475628271128,1.3408499138970529,-0.10174969716211738,1.0,0.46709876833265107,0.4620996066828612,0.278696374022365,-0.44885114291373224,0.43043167089456785,-0.02060368935158996,0.7828388826451139
1.8,-9.446094947928676,-3.5041125660811843,-12.024405695307756,-0.12609772560036728,0.2503500874548695,0.22292633047014132,0.006142044218410238,0.014701587398775376,0.9998730578917633,-1.8890978006702481,-2.140888193764305,4.157155673386472,1.123053422005202,1.3413644635090323,-0.10161583651120532,1.0,0.4680125040398412,0.46292170529934,0.27900039083074785,-0.4488336712954062,0.4304628782844574,-0.020646021776927936,0.7828306251772055
1.9000000000000001,-9.579617598820327,-3.4396284620751905,-11.753469271297677,-0.12076707128674666,0.25057912589994025,0.22579647033107203,0.006631676456656538,0.015280213160761754,0.9998612219068247,-1.8859771458996468,-2.1419211789894335,4.15663934943327,1.1210821605525658,1.341915724397468,-0.10153022302923347,1.0,0.46846944374755906,0.4633346998456256,0.2791485978991888,-0.4488119375388456,0.43045916297041886,-0.020663514209348532,0.7828446671709235
2.0,-9.393716461911296,-3.593505670672369,-11.627406461998017,-0.12384931430116865,0.2514612252083381,0.22239316243615193,0.006084741828893693,0.014650066320022952,0.9998736099031172,-1.883305565124719,-2.14301167905642,4.156125598142958,1.1192599598670152,1.3424477499693788,-0.10140024581526368,1.0,0.4691717941783757,0.4640727288010396,0.2793788249545651,-0.44885818350235807,0.43045691913580386,-0.020642961241370647,0.782819928222489
2.1,-9.411151860253197,-3.7984640723099568,-11.625490005101677,-0.13450405981078267,0.24954834257885042,0.2247468966433952,0.005392399367549532,0.013851037137938886,0.9998893910409922,-1.8802713935841933,-2.1439691794809743,4.155672550201416,1.1174467617947055,1.3428750563674736,-0.10125336850154483,1.0,0.47002849035004074,0.46482323195279335,0.2795866211486849,-0.44888324982153505,0.43047310776800046,-0.02066610867640831,0.782796042063571
2.2,-9.76748545654972,-3.640600370574976,-11.699609060498645,-0.1273761514749671,0.2572746389096135,0.22146257824731833,0.0059534843663787565,0.014470566759737426,0.9998769486178144,-1.877764742195481,-2.145111700097555,4.1552396319011855,1.1156741815754394,1.3432364463806152,-0.10120055190693335,1.0,0.47048862007131903,0.4652890944256566,0.27977688615581875,-0.4488709924280744,0.4304610122637503,-0.020656742766117238,0.7828099693129855
2.3000000000000003,-9.4349215566352,-3.830652986445636,-11.832096578789928,-0.13378902155471514,0.24730373411125706,0.22773858092887067,0.0067041830657780625,0.015304690518673543,0.9998602366425289,-1.874982165690488,-2.146092947897506,4.154831560002933,1.1140542517879415,1.343609892947119,-0.10108940105990973,1.0,0.47104413114854393,0.46583869923723237,0.2798960824786192,-0.4488840939996127,0.430483028091692,-0.02065992913666726,0.7827902656569139
2.4000000000000004,-9.129720040733186,-3.4567925442269924,-11.921172702731074,-0.12744083662202207,0.24688077669965244,0.23450552053912324,0.0061403094374569865,0.014716899590146942,0.9998719443779954,-1.8724684544375145,-2.1469470634090637,4.154460941754606,1.1123971444330798,1.3439683478049735,-0.10099653163884029,1.0,0.47187847417454387,0.46667040737739574,0.2801929842593064,-0.4488519387947895,0.43047236019345947,-0.020684096514143335,0.7828139321071288
2.5,-9.625006633427768,-3.2890794889860056,-11.67743617160916,-0.12153693374451109,0.2548639703461624,0.23032835692812373,0.005363910881051589,0.013899229855926107,0.9998882466852907,-1.8700323606906637,-2.147763346708587,4.154041630850125,1.1108266550251464,1.3442804204298349,-0.10092465760368598,1.0,0.47231972333143635,0.46709935100174677,0.28035281273134005,-0.4488537698863893,0.4304817823956883,-0.020687493725580042,0.7828076110306806
2.6,-9.845097604289245,-3.4582259301350784,-11.750311180701914,-0.12357083215153077,0.2623362759248623,0.22803409323830368,0.004664692584766304,0.013150764472092173,0.9999024413843661,-1.8676264398391647,-2.148674665231913,4.153671752793657,1.1093989174888965,1.3446998842173035,-0.10081454426173109,1.0,0.4728956782140118,0.46768760861501507,0.2806203943918383,-0.4488273928159799,0.43046463511688654,-0.020685819694023604,0.7828322082255444
2.7,-9.547495559887036,-3.5335807163112447,-11.83945429371766,-0.1272950884518885,0.25677823887794315,0.23330702386342958,0.00410772422779832,0.012529848731492273,0.9999127515779875,-1.8653441571641243,-2.1496477686740607,4.153347601835755,1.1077778130444644,1.3450827598571777,-0.10070979512444132,1.0,0.4732340865954135,0.46800147698233563,0.2807422520787581,-0.44878001585177113,0.4304536321842179,-0.020682869846420694,0.7828654972640029
2.8000000000000003,-9.325137980802172,-3.4879467215540267,-11.976978873184896,-0.13344817792011532,0.25788412467245,0.23796801779877075,0.003916014707054329,0.012280206430140677,0.9999167915588479,-1.8631594109138185,-2.150595569817206,4.153059349491937,1.1064422624745227,1.345419172454026,-0.10063809437573543,1.0,0.4738726920472853,0.46868187853258136,0.2808698743074267,-0.44887224977463297,0.43046630567499433,-0.020667250551096188,0.7828060601550298
2.9000000000000004,-9.278340468120138,-3.7189758485089652,-11.790646412976693,-0.1365238966452175,0.2534979728093942,0.23536720561236182,0.00442639982496855,0.012744219940287575,0.9999087790379583,-1.8607926095599558,-2.1513138485435066,4.152723789215088,1.1049718341313748,1.3457807538780704,-0.10052718309835179,1.0,0.47450714553113815,0.4693711402864679,0.28096061567159514,-0.44893852998515493,0.43047949295075094,-0.020654546982067187,0.7827611335091939
3.0,-9.528518053047927,-3.610039259282001,-11.872051875516402,-0.12871842323052385,0.2590443008320714,0.23154091909482524,0.004808010893062268,0.013106270025346213,0.999902534711523,-1.8588928284457111,-2.152057565211941,4.152342480014592,1.103684133822087,1.3461239837403742,-0.10047246388110645,1.0,0.47482867625194275,0.4696850090458176,0.2811666583055818,-0.4488737720073818,0.43044385605387736,-0.020625691172431036,0.7828186280697421
3.1,-9.53873022981896,-3.6894998323592594,-11.832529039250502,-0.1333284188577728,0.26127784234378243,0.23400365493134925,0.004932730016275867,0.013264912804242837,0.9998998177643458,-1.856723117596801,-2.152745126257067,4.152032513215155,1.1023976994838853,1.346396255261596,-0.10040641305502834,1.0,0.4754676363109053,0.4702806190055344,0.28135574525014123,-0.4489038939015691,0.43046353279724875,-0.02065889134903521,0.782789659602086
3.2,-9.631615239744619,-3.620289748082874,-11.996911589109768,-0.13248624037083814,0.26086240117501003,0.2377745910622633,0.0050574491394894654,0.013423555583139464,0.9998971008171686,-1.85471750825267,-2.1533789598961537,4.151739040110566,1.1010319269151683,1.3466680773407933,-0.10033757693525897,1.0,0.47567654383176317,0.470470042632801,0.2814281442531426,-0.4488897298687169,0.43046422608956636,-0.020649940475704488,0.7827976369623576
3.3000000000000003,-9.520315391424209,-3.634193324699748,-11.959925071067117,-0.13093278950359438,0.2598121557673784,0.2347417499619986,0.004473253973581688,0.012818985061941691,0.9999074922961015,-1.8530408648714274,-2.1541186936271863,4.151395679992328,1.0999522027554949,1.3469793523551816,-0.10027713260275069,1.0,0.4761626161383409,0.4709628475309265,0.2817188071222383,-0.44883613998288774,0.4304241258263686,-0.02065792838011636,0.782850203644931
3.4000000000000004,-9.425937350453399,-3.157600203189453,-11.733592980802674,-0.12485581182814172,0.2609897912995984,0.24248673966331646,0.00422857480108508,0.012578866176881545,0.9999114342614533,-1.8509875749369458,-2.1549573692528368,4.1511274202594395,1.0987301565706882,1.3472899977254955,-0.10019903614399102,1.0,0.47677026804275213,0.4715271749614347,0.28185589583624016,-0.44884761861871375,0.43046311604973553,-0.020657851425467024,0.782822185528454
3.5,-9.344506178556749,-3.4886330791551767,-11.737621661426909,-0.13031449707324885,0.264304343107598,0.24200362348476262,0.005177612440681166,0.013621376957125847,0.9998928991940398,-1.8491405779880477,-2.155705770378251,4.150866661381822,1.0975265283597428,1.347492992554997,-0.10010007096609047,1.0,0.4770574146117064,0.47184548079577626,0.2819197067801078,-0.4488814244462502,0.43044297952313687,-0.020659341350718854,0.7828138346895156
3.6,-9.590286230824521,-3.769130389727172,-11.734933437208127,-0.13482442814628268,0.2640159952415728,0.23813111721055266,0.005850507867964401,0.01436803644682823,0.9998796582248578,-1.847605433692243,-2.156399523157643,4.150626048705049,1.096553328134006,1.3476972579956055,-0.10007521710087908,1.0,0.47761507507632855,0.47238474665155145,0.28203104386045097,-0.44890162764491515,0.4304768450966735,-0.020685830291034567,0.7827829270995447
3.7,-9.350337701857748,-3.8634478129291683,-11.732752454383702,-0.1368753729634098,0.2595800824313158,0.24264693093902656,0.005836240175914427,0.014378487973377133,0.9998795912975016,-1.8458297510568327,-2.1568918557773387,4.150396254331206,1.0954351989190412,1.3479613931904542,-0.10002867794923796,1.0,0.47783333530182864,0.47261481449167897,0.2820229138435776,-0.4489378320392043,0.43052133805110343,-0.02066826835180829,0.7827381574511135
3.8000000000000003,-9.369704376524247,-3.7780982739771467,-11.863747775007571,-0.13722862947853123,0.2568502857391952,0.2451796682792583,0.005768830938070442,0.01433006331980402,0.9998806635795419,-1.8440967264957624,-2.157521737911669,4.150109230893128,1.09429895349757,1.34822225000857,-0.09995299404728722,1.0,0.4782193338076683,0.4729552796654714,0.2822327516032676,-0.4488713177030126,0.4304809142696297,-0.02069252626596898,0.7827978934245268
3.9000000000000004,-9.423984841210679,-3.8023950781477445,-11.838071176559014,-0.13731308039690862,0.2588949074510798,0.2461808677917843,0.005562785803723596,0.014128042230675212,0.9998847078360257,-1.842581157470666,-2.158042974851741,4.14986678870418,1.093404964344435,1.3484524216682232,-0.09989445264556757,1.0,0.47859720197578953,0.4733262368536231,0.282411984013867,-0.4488473865956142,0.4304809993627835,-0.020679807708085862,0.7828119047939058
4.0,-9.553718580387384,-3.874201164267703,-11.871429018816283,-0.13546876931273233,0.26013566188783005,0.2389955348416449,0.005117850705975701,0.013652756794468597,0.9998934213349716,-1.8410125450188903,-2.1585874438292985,4.149607181549072,1.0923968988605957,1.348681762199779,-0.099846089131631,1.0,0.47907244415102546,0.47380694114539357,0.28258815477101223,-0.4488458259848449,0.430464964479082,-0.02066227005164691,0.7828220803275275
4.1000000000000005,-9.693557183544472,-3.7987430400878885,-11.882335954174845,-0.13601897666512372,0.26415706745105483,0.2376993856772513,0.0046000002244331786,0.013094064025191587,0.9999035600072538,-1.839427545044105,-2.1591937932645635,4.149369578433333,1.0913631180250511,1.348934444166432,-0.09975442923298115,1.0,0.47930578582564537,0.4739896059041404,0.28270600815185604,-0.448808878894488,0.4304564191152825,-0.020675469811121675,0.7828476137895616
4.2,-9.52444152407209,-3.6478080631541827,-11.961180633224307,-0.13224738187635063,0.26219067376813254,0.24006212419967876,0.00457386416825088,0.01303254778064294,0.9999045920225097,-1.8379207364472172,-2.159888351676639,4.149159634522974,1.0903269643466136,1.3491935619349178,-0.09970913289220847,1.0,0.47964592702849507,0.4743151149598145,0.28282981482720626,-0.448804452783761,0.4304473403636878,-0.020690892347804888,0.782854735764655
4.3,-9.54060390404214,-3.611792164650197,-11.99877492517298,-0.13231945112535803,0.26217887601406353,0.23932236147426547,0.004711545397596106,0.013136668549182412,0.999902590106367,-1.8362251026114238,-2.1604079085873567,4.148914039257876,1.0894614401562273,1.349432696509607,-0.0997026376245514,1.0,0.4799921379035379,0.47468723236360477,0.28289480906878134,-0.4488405725143222,0.4304551548634363,-0.02067670669770793,0.7828301053974915
4.4,-9.55803283887641,-3.6619207446929907,-11.927717261393155,-0.13205031165281061,0.2636470739053984,0.23817316144730682,0.005029167546952276,0.013454543183636801,0.9998964603264591,-1.8347037950228393,-2.1610905675715495,4.14867529584938,1.0884693184373657,1.3496073217588043,-0.09961191528482598,1.0,0.48044356148322426,0.47515189005472136,0.2830631720404347,-0.44881575760186826,0.43042264615090886,-0.020657357514135888,0.7828627178434566
4.5,-9.26314476379005,-3.9167188209240615,-11.80228157953118,-0.14186165110677748,0.258756966547606,0.24051002676112695,0.005913027473705559,0.01444505811546403,0.9998773409919596,-1.8332075289228145,-2.161732879753336,4.1484746159531,1.0873691498916251,1.3498598701997693,-0.09956778215397069,1.0,0.48082291394812054,0.4755434514056448,0.2831373100360017,-0.4488491760656732,0.4304476702836565,-0.02065710015450888,0.7828298055808462
4.6000000000000005,-9.504777682999807,-3.50701205410519,-11.820597227641203,-0.13367601223697395,0.2631377198997094,0.24019088534044836,0.006607539755781038,0.015213511788489257,0.9998624343872178,-1.831543701826697,-2.162325521508688,4.148229488835136,1.0864724534094605,1.3500622601364054,-0.09954361722422725,1.0,0.48102371230591534,0.4757189585765812,0.28312600173571756,-0.44890289480123496,0.4304944613534487,-0.02068827645025746,0.7827724477781479
4.7,-9.609053839550715,-3.610036057786929,-11.762721670313573,-0.13110096533305457,0.26389733096816353,0.2377170253869909,0.006676582027130872,0.015248432925839276,0.9998614436467652,-1.8298762063491476,-2.162868307130895,4.148002407978787,1.0854382272461232,1.3502628584396708,-0.09947759309877569,1.0,0.48149739760500804,0.476228709105392,0.28332563503531877,-0.4488592584761847,0.4304655613190036,-0.020646292088049342,0.7828144717757459
4.800000000000001,-9.419311859775533,-3.578127486365773,-11.884828006107957,-0.1334252940896812,0.2614598442772399,0.23719812461316692,0.006684407213771905,0.015273478564082942,0.9998610099183478,-1.8284359555076357,-2.163437663586755,4.147813350710518,1.0844569187317477,1.350444944743839,-0.09940559068788701,1.0,0.4816928300189333,0.476431834309039,0.28345848100781196,-0.4488214637350367,0.43042607868650873,-0.02062162969087248,0.7828585011776953
4.9,-9.598889559782165,-3.55564981196714,-11.968306951706941,-0.13527805186731637,0.2700448306598695,0.23944455158005007,0.006371858054702106,0.014961889766426819,0.9998671598494195,-1.826942880591115,-2.1639660886559584,4.147555702195053,1.0834317174560892,1.3507184129955117,-0.09934598604311162,1.0,0.48204817505848746,0.4767560091040814,0.2835071532332415,-0.44886659920939653,0.4304789052032354,-0.020678496277840984,0.7828020746529113
5.0,-9.493027427652345,-3.784575575993409,-11.844914373357895,-0.1368384086222671,0.26385410392037617,0.2429947659234701,0.004962460313114753,0.013420132192609393,0.9998968496200314,-1.8251144005888973,-2.1645049911579353,4.147320230341775,1.082484483218765,1.3509021181373366,-0.09928403740910047,1.0,0.4825405116672186,0.47722709369623395,0.28369989770625026,-0.4488594857988275,0.430475568678323,-0.02068125892512606,0.7828079153334861
5.1000000000000005,-9.473097643710268,-4.159342432912094,-11.84527447231928,-0.1495473736221417,0.2640514503971255,0.2416243400202821,0.005214509908004773,0.013719871423433786,0.999891339821878,-1.8236008677336362,-2.165112521980937,4.147135370438395,1.081434492581799,1.3511465522998425,-0.09924134028395934,1.0,0.4827158587641039,0.47745497760359495,0.2838630058552064,-0.44879163610585787,0.43041094782507694,-0.020642929203258716,0.7828833583795579
5.2,-9.566366727969692,-3.7188405267451063,-11.886961507668703,-0.130528604724505,0.26655363669721754,0.24046887148925092,0.006163378333624429,0.01479194307914473,0.9998710671589555,-1.8222243401102216,-2.165813521447308,4.146862506866455,1.0803752826916857,1.351338991120074,-0.0991990563247495,1.0,0.48321120725048106,0.4778950427714843,0.2839651680240245,-0.4488152648814692,0.4304630997104364,-0.020679806882243877,0.7828401646468921
5.300000000000001,-9.373129565793612,-3.8333637002394076,-11.787938632720206,-0.13387035269797404,0.2648855471543879,0.24271442761391615,0.0061911936251990655,0.014811793420115744,0.9998709222879643,-1.8205202506786364,-2.166453023950094,4.1466744367804615,1.0795591308386188,1.351559448471804,-0.09914048644917176,1.0,0.4833998962551548,0.47810310428153746,0.2839272428093475,-0.44890256111609844,0.43050655674937144,-0.020687995748489542,0.7827659944396654
5.4,-9.507172177506979,-3.586694345213554,-11.835786353776768,-0.13428228664043926,0.26374775094051794,0.23862706784693571,0.005817831507788625,0.01437333424003626,0.9998795443546417,-1.8188295364379883,-2.167037317284536,4.1464277315701805,1.0785408826898,1.3518209867536108,-0.09905017918938244,1.0,0.4839035405363615,0.4786193032643622,0.2841307311275286,-0.4488307303831195,0.4304794710240037,-0.020661735151105906,0.7828227725297694
5.5,-9.691750386973087,-3.733709007725154,-11.749542820666946,-0.12961200083779573,0.2700163407169935,0.23802597955429286,0.005488365257191348,0.013983230505807862,0.9998871606513634,-1.8174183383919078,-2.167676111260885,4.146191120147705,1.0775082417477968,1.3520202241705719,-0.09902077322589133,1.0,0.4841567054202968,0.4788886878256054,0.2842410346672653,-0.4488217108485338,0.43044480809946895,-0.02065199787659976,0.7828472609870405
5.6000000000000005,-9.438442905250751,-3.7838979776344455,-11.77501010606539,-0.13868036416622806,0.2630845493089469,0.2425059198703865,0.00534825489729413,0.013801720181029703,0.9998904383057569,-1.8159461889436854,-2.1682749513913504,4.145991412179769,1.0765115652333301,1.3522476663435543,-0.09899494709332274,1.0,0.484480976420306,0.47922009609864546,0.2842645925498622,-0.44889946721366797,0.4304776996285203,-0.020659424222609083,0.7827843934626015
5.7,-9.59355270968382,-3.5419448855054028,-11.826257548543515,-0.13006371178532414,0.26707420962951667,0.24449012299153738,0.005463709698878846,0.01392149928713214,0.9998881283265031,-1.8141626176982548,-2.168820890935379,4.145764450103417,1.0756332117268066,1.3524746380158912,-0.09891190641904364,1.0,0.484797571334536,0.47948360584519895,0.2843424582562237,-0.4489129413777754,0.430504849628128,-0.020689848777106824,0.7827609313626973
5.800000000000001,-9.384900460751659,-3.6020103847238505,-11.650833239139097,-0.13537382290133068,0.2648294819745423,0.2399638603271231,0.005559892901595864,0.014028571514787258,0.9998860116630365,-1.8125888718113528,-2.1694203634855684,4.1455196076291,1.0745286767684812,1.3527154741485112,-0.09886726868631153,1.0,0.4852983712418052,0.48001801534502136,0.2846453007642324,-0.4488076412285088,0.43042704609097077,-0.02063173449661967,0.782865627486585
5.9,-9.40183236222984,-3.5406509646989313,-11.854459325360743,-0.1351352410536192,0.2677398348860905,0.2416518795049176,0.004955197336508577,0.013359407838927537,0.9998980792497391,-1.8111162185668945,-2.170051420081923,4.145327636969804,1.0734686959282527,1.3529302314195708,-0.09882560476604219,1.0,0.4854812628850052,0.48022372984420625,0.2846968300256759,-0.44884493540242876,0.4304182240654818,-0.020636215479358996,0.7828489783902104
6.0,-9.594033629195213,-3.6535620266620894,-11.803435758791348,-0.13650757994963522,0.2670215633925506,0.24259833414180773,0.004519080911440372,0.012869255497305278,0.9999069249593328,-1.8094754577848309,-2.170657507246809,4.145102762476806,1.0725493628494371,1.3531738325909448,-0.09872419038881475,1.0,0.4859914703972376,0.4806887531520664,0.2847835504461865,-0.44890906993736346,0.4304735393232414,-0.02067378386830927,0.7827807953259068
6.1000000000000005,-9.446944298271074,-3.5707936033929326,-11.806116844007173,-0.13054154112012825,0.26443982823026796,0.24243391785631316,0.005011335548498049,0.01336492466645709,0.999898027682022,-1.8078620306934368,-2.171211444728273,4.144855550398133,1.0715552620972755,1.353398260282612,-0.09867959342722217,1.0,0.4861558219751296,0.4809058196391836,0.2848282068142184,-0.4489071145305079,0.43046696773647475,-0.020630482793226292,0.7827866729776235
6.2,-9.29585073739018,-3.7151165784567692,-11.88974529300322,-0.1339494957363554,0.2621815746187789,0.24693712210959087,0.005035376415990713,0.013385724446568038,0.9998976972342766,-1.806322589454987,-2.171825045563959,4.1446530512456174,1.070525436616604,1.3535876274108887,-0.09863707049872766,1.0,0.48664833608911406,0.48135358689451135,0.2850480567459325,-0.4488595573899197,0.43044975487268194,-0.020642005533164573,0.7828231050993207
6.300000000000001,-9.441800179714466,-3.602323422517674,-11.833166189021236,-0.13138268845144765,0.2641739048622703,0.2453766731079971,0.00490016675143041,0.013254872019789667,0.9999000722533214,-1.8046310746349281,-2.172447089988412,4.144411405292887,1.0695331441698652,1.353810533323474,-0.09859358537991977,1.0,0.48687612277326686,0.48158531934528614,0.28511286040337674,-0.4488827800105506,0.430459071657241,-0.020648251965201796,0.7828045012190257
6.4,-9.48653708632596,-3.7829462880811455,-11.923614673673942,-0.13758211666121753,0.26601403332875256,0.242384406267313,0.005390362187648397,0.013821418537701557,0.9998896714144195,-1.8031314720923632,-2.173026482841502,4.14418316796532,1.0686418253132324,1.3540310859680176,-0.09854644748003343,1.0,0.4872266742558985,0.4819373820859207,0.2852439149483916,-0.44886235806537167,0.4304463937245805,-0.020639396218049125,0.7828234162090782
6.5,-9.628445805796787,-3.2828751711959927,-11.97857564952153,-0.1278571689566925,0.26974831778973984,0.2452812880008928,0.005745532142832464,0.014237368668820558,0.999882071303492,-1.8016288558163318,-2.173648608695386,4.143965818795813,1.0675725457535876,1.3542301233513767,-0.09852058092226201,1.0,0.48771293855375103,0.48237624811672947,0.2853824655551423,-0.44885216717039766,0.43045800063802503,-0.020653484626186932,0.7828225056077192
6.6000000000000005,-9.515009542580874,-3.5405739405895,-11.906579376993983,-0.126543549056501,0.26594505548516656,0.2428039415145095,0.0051583636145813095,0.013602311466697138,0.9998940173828963,-1.7998288068838124,-2.1742449490986204,4.14371988277336,1.0665778068719929,1.354438304901123,-0.0984351643143462,1.0,0.4878957711474953,0.4825433882809195,0.28539166974395497,-0.4488966901874819,0.43048421537217324,-0.020674418306442857,0.782782006871529
6.7,-9.636454965624187,-3.6544448369212614,-11.856263135223987,-0.13380985273411913,0.26951083908297535,0.2413295689275516,0.005049319209096653,0.013516372506938285,0.9998958729462842,-1.7982668028408644,-2.1748284891015386,4.143508608336641,1.0656415549310048,1.3546374378094517,-0.09839881340593365,1.0,0.48841977270275305,0.48307566805662383,0.28565010929733237,-0.4488235288815746,0.43045054805536176,-0.02065628120913209,0.7828429495420768
6.800000000000001,-9.429285584258981,-3.5287178762510285,-11.723526750318571,-0.13154104639870448,0.26677074532160133,0.24012518171648192,0.005203333401997123,0.013726421388244304,0.999892244838519,-1.7968593666982555,-2.1754992123249806,4.14329063036097,1.0645991998859863,1.3548167305094647,-0.09833586184676574,1.0,0.48865245413557934,0.4832848798857602,0.28574173814685033,-0.44880298668363333,0.43044223263290754,-0.020674616772991497,0.782858814685725
6.9,-9.485453429882293,-3.7068910965948767,-11.844937147287837,-0.1369956085118567,0.2630602493984482,0.2497261432853069,0.005070701463030269,0.01355500795524078,0.9998952459436852,-1.7951786884048824,-2.1762221117088516,4.143062114715576,1.0636246420875994,1.3550257682800293,-0.09828330220085156,1.0,0.48895220784514726,0.48358147817411506,0.28576067933037497,-0.4488466552520453,0.43047561952951846,-0.020686824164610547,0.7828150971753874
7.0,-9.72688107735739,-3.662138161456446,-11.992827217584606,-0.133838568962898,0.2720049024035314,0.24084970313021958,0.005011783993115142,0.013467887732751307,0.9998966823169028,-1.7934085449968389,-2.1768342462251242,4.142881870269775,1.0626231856948127,1.3552541732788086,-0.09825116843166716,1.0,0.4894665997649977,0.4841258740396073,0.2858882848873687,-0.4488664829821003,0.43047499523740357,-0.02067116172320554,0.7828044851708824
7.1000000000000005,-9.449468799161517,-3.664528581331474,-11.76540194969232,-0.13416631845190138,0.2587145921480951,0.24254673112918215,0.00563980079182029,0.0141662835108382,0.9998835371837964,-1.793229103088379,-2.1768986879855037,4.142834856264087,1.0625182825275878,1.3552770614624023,-0.09820964301035792,1.0,0.4896731398977659,0.48433459269563356,0.2860105824389243,-0.4488292920778717,0.4304584024850337,-0.020663546329036643,0.7828351347225144
7.2,-9.565194259386107,-3.778042023842958,-11.76388974777385,-0.14093768744816168,0.2665694942243219,0.24565384056766654,0.0060123132169748695,0.014578289382189082,0.9998756274395634,-1.7932216595818016,-2.176939390625976,4.142847537994385,1.0624853166767578,1.3553210522819967,-0.0982298868986809,1.0,0.48982849082051044,0.484486409495609,0.28602986957279286,-0.44885100511901965,0.430470967104449,-0.02066220396788271,0.7828158116766648
7.300000000000001,-9.673240984210114,-3.524131633858704,-11.960274802188028,-0.1310157132160301,0.26779933861994015,0.2451388576938299,0.006188013733673169,0.014769692594868936,0.9998717504516443,-1.793219681005825,-2.176917079539981,4.1428263911516146,1.062491745654538,1.3552977314680146,-0.09819193892163756,1.0,0.4898246625684799,0.48449010654499447,0.28603972688532503,-0.4488469243050118,0.43046370822237334,-0.020661551519044495,0.782822160349463
7.4,-9.420792582202687,-3.568887668138127,-11.854206838618687,-0.12874343776115085,0.26483025548689965,0.24190469430539838,0.006418525165549404,0.015007839791795343,0.9998667126060733,-1.7932458892585665,-2.1768743307676957,4.142847537994385,1.0624766604843354,1.3553188859218355,-0.09819876673596614,1.0,0.48982808374525744,0.4844884856627751,0.2860102856336298,-0.44887082767164926,0.4304869526989179,-0.020672809578636472,0.7827953746449282
7.5,-9.39911233183529,-3.5832613399762363,-11.917567879124643,-0.13007535608128618,0.2642818254153186,0.24610507683771304,0.006693484797921006,0.015283893416246233,0.9998607333780517,-1.7932362606910546,-2.1769182558403832,4.1428276843921505,1.0624591547199707,1.3553124147949291,-0.09818584123720342,1.0,0.48981562670387824,0.48450304135941774,0.2860278273781191,-0.44886499749457465,0.4304711484914078,-0.02064679383796916,0.7828080954134905
7.6000000000000005,-9.693994327463557,-3.4441774098858677,-11.974537576458394,-0.1278589066877936,0.27494896469730834,0.24801035962352289,0.006468130039128606,0.015032836483271052,0.9998655472410841,-1.7932519912719727,-2.176910520616252,4.142807190689568,1.0624674067045,1.3553128242492676,-0.09822590190862412,1.0,0.4898204254160995,0.4845014841032886,0.28604247145963674,-0.4488481398403082,0.43046657924308146,-0.020647233643243237,0.7828202624226944
7.7,-9.537009899052757,-3.4531892937768025,-11.838223979504308,-0.1262364939057097,0.26980131912392935,0.2504611180974792,0.005776375039830443,0.014290399539849478,0.9998804225781663,-1.7932405471801758,-2.1769178592445217,4.142822742462158,1.0624591547199707,1.3552932718858361,-0.09820648803116049,1.0,0.489810315451964,0.48451132877758823,0.2860060030776942,-0.44889214724788273,0.4304785722466477,-0.020653551548865758,0.7827882662534559
7.800000000000001,-9.649333041568918,-3.5360312336510424,-11.96460156088844,-0.12726814774320436,0.27383813949845065,0.2465478716099911,0.005085645526528055,0.013549039660739677,0.9998952736719994,-1.7932184716903745,-2.1769100628294886,4.1428351402282715,1.0624368227993914,1.3553062869565495,-0.0982135727504383,1.0,0.4898343423356916,0.4844829819296976,0.2860198073218089,-0.44886981336116477,0.4304822302731276,-0.020666640636203108,0.782798716169745
7.9,-9.741712757565299,-3.6629891863575086,-11.925926027473245,-0.1331320950856183,0.27450524875185195,0.23987506667486416,0.004751073720556971,0.01318175096105966,0.9999017049335921,-1.7932443808483207,-2.1769300698335736,4.142843067752909,1.062458806791306,1.3553131721779321,-0.09822208086122686,1.0,0.4898319923018798,0.4844911439953996,0.2860151066311256,-0.4488837267230318,0.43048393725802514,-0.020668453556816468,0.782789751257412
8.0,-9.6583113742712,-3.571724670387403,-11.945123876412577,-0.12934065676157105,0.27162772694725756,0.244598962548588,0.004416501914585886,0.012814462261379644,0.9999081361951849,-1.7932553175591768,-2.176894677018029,4.142826684181821,1.0624676107664215,1.3553018355819626,-0.09821408023926795,1.7880652228744949,0.4898350765798908,0.48449246485128966,0.28603435827430557,-0.44886223063570124,0.43047538327888546,-0.02066808600717149,0.782806791309605
8.1,-9.600243276204324,-3.7490149675735145,-12.021511628409995,-0.1331326636957122,0.272245813282189,0.24769082464325784,0.005219910585328062,0.013693187360617542,0.9998918867089475,-1.7932346695816934,-2.176892343469998,4.142817175968844,1.0624769662101234,1.3553136251543092,-0.09822731032394257,2.0,0.48983818748863833,0.4844879901302284,0.2860403280100903,-0.44885365985451264,0.4304698417272706,-0.020667381729725817,0.7828147716611801
8.200000000000001,-9.4774908458569,-3.705550964968877,-12.050060153926031,-0.1326625917194207,0.26872813267620277,0.24868845866506478,0.0060308214324697245,0.014580126849739063,0.9998754876990804,-1.7932358553932701,-2.176876250924404,4.142830057459124,1.0624492165129453,1.355308132462362,-0.0982480690920386,2.0,0.48982892669410844,0.48449662885485717,0.28602393302318563,-0.44885728112889206,0.4304731189064988,-0.020659015593373905,0.7828111139676049
8.3,-9.37392259913373,-3.8540622449174897,-12.18892565207693,-0.14045445474464216,0.27026108371107005,0.25159044791527335,0.005489799864479488,0.013983034954044495,0.9998867995319475,-1.7932415995231483,-2.176911159020085,4.1428438183079725,1.062426028231231,1.3553128242492676,-0.0982350979807784,2.0,0.4898377942966846,0.4844891489061082,0.2860115675380175,-0.4488663644676092,0.43048821122461944,-0.02066471166411308,0.7827974556282731
8.4,-9.609298299648094,-3.5858110807903065,-12.129974760338525,-0.14182008535043203,0.2777399924618665,0.245932924723404,0.004920893803431059,0.013355333937372526,0.9998986829191268,-1.7932405471801758,-2.176919009213537,4.1428339394906315,1.0624545026002654,1.3552936345110627,-0.0981982390033167,2.0,0.4898275741488334,0.48449521060690043,0.28600488529915136,-0.4488792217009608,0.4304824028637204,-0.02066676908068728,0.7827932228919608
8.5,-9.753642412734283,-3.69550072036459,-11.986770390764208,-0.14429213996156787,0.27021734830370825,0.24584857032761073,0.004997236810709684,0.013422751808321021,0.9998974188760393,-1.7932264883681837,-2.1769041087232166,4.142811298370361,1.062478345762455,1.355314617093683,-0.09822487903684647,2.0,0.48983193800366615,0.4844921629363116,0.28603562385136333,-0.4488654414896475,0.4304722538017788,-0.020678013811329412,0.7828064089466433
8.6,-9.722292938674844,-3.9028281420996507,-11.970348891629772,-0.14092265514009142,0.27304046372571505,0.25279366445253715,0.005349990456288129,0.013809998603899528,0.9998898684915937,-1.7932476663600716,-2.1769100628294886,4.142822742462158,1.0624543282693306,1.3553111139288945,-0.09820752063916303,2.0,0.4898218927120317,0.48451215782224416,0.2860046037298016,-0.44890032755047293,0.43046342307926494,-0.020671995801494196,0.7827914191568167
8.700000000000001,-9.565116704493477,-3.6372697800032157,-11.93076035370499,-0.1387995393694617,0.2733499536999462,0.25291790045784246,0.006001797986046369,0.014545185686116178,0.9998754600956989,-1.7932660784136814,-2.1769127159020565,4.142813845320027,1.0624661502407016,1.355310648013858,-0.09819756678637477,2.0,0.4898130498537992,0.4845104844782413,0.2860182439256587,-0.44888078707667484,0.43045536435197385,-0.020657142257579527,0.7828074480788904
8.8,-9.525551137516056,-3.5662691456116766,-11.841228929433846,-0.13375193159154347,0.2717763494521554,0.25197282135518295,0.006653605515804599,0.015280372768332814,0.9998610516998042,-1.7932405471801758,-2.176926989723627,4.14280466000514,1.0624758050155583,1.3553013801574707,-0.09820686272706948,2.0,0.4898244807231636,0.48450116198543214,0.2859809498960176,-0.4488863233871676,0.43049173427629933,-0.020675183147064707,0.7827837965859863
8.9,-9.606145023383922,-3.50008280328934,-11.817597764628314,-0.13133802714006193,0.27488000283314934,0.24996008733639974,0.005414233642908144,0.013911488261216874,0.9998875148390693,-1.7932441559538468,-2.1768952068002174,4.142848528707384,1.0624467569538574,1.3552854910216992,-0.0981928032463422,2.0,0.48982996155615177,0.4845019702292991,0.28600650442620873,-0.4488815387310395,0.430478569212265,-0.02066408691885963,0.782794073270375
9.0,-9.263852077995491,-3.792676322846081,-11.973527207033001,-0.13565297829930983,0.2735111167090809,0.2538405980608778,0.004281112480615242,0.012656860088641154,0.9999103323969006,-1.793229103088379,-2.176923622546252,4.142822742462158,1.0624623858084008,1.3553046112459008,-0.09821366221503719,2.0,0.4898313137888978,0.4844835667161315,0.2860329177726349,-0.4488612473163128,0.43047190656334855,-0.020679632557627434,0.7828089620811973
9.1,-9.605946591055991,-3.6928066577742,-12.035166277688687,-0.1353002711049396,0.27211459000693566,0.2507058063229018,0.0034075433624773323,0.011685975154805897,0.9999258256462352,-1.79324952183994,-2.176884509418404,4.1428382607133445,1.0624812165625792,1.355307923748893,-0.09820646417628015,2.0,0.48982248594946176,0.4845052961444481,0.2860257374881771,-0.44887086021659905,0.43046826535955934,-0.02067069176278646,0.7828056884494328
9.200000000000001,-9.902732476336462,-4.202647584240669,-11.767688540805208,-0.11499532059236647,0.2544927189119415,0.2455060916622111,0.0038089731518619174,0.012182537546347065,0.9999183704949113,-1.7932405471801758,-2.176904682447701,4.1428201598789,1.062495394343994,1.3553252220153809,-0.09822208086122686,2.0,0.48983934294812803,0.48449268615358476,0.2860177460630846,-0.4488686412784911,0.43048139726283086,-0.020685997368464618,0.7827993350791209
9.3,-10.554939316345184,-5.217763747444197,-11.772611899079621,-0.05318400335276971,0.20226991258109825,0.23969461886984372,0.003913412562807174,0.012314848528314477,0.9999164074934145,-1.793258495592834,-2.1768672536950238,4.142831895386422,1.062453803301457,1.3552939367994545,-0.09823400179018194,2.0,0.4898408532991726,0.48448600651361196,0.28601632807855665,-0.4488546185883344,0.4304829215066426,-0.020682143737797268,0.7828066393391383
9.4,-11.322474792688089,-6.0145001723002665,-11.660062719167716,0.00667099096529054,0.14951441497078322,0.2288151198665537,0.0034810113406153007,0.01179853929651351,0.9999243080243571,-1.7932396425583002,-2.1768862209715785,4.14281889187881,1.0624720179633795,1.3553013801574707,-0.09820539336718498,2.0,0.4898336260273505,0.4844957952759109,0.2860272394163184,-0.44885661087933826,0.4304759225900776,-0.02066771621815634,0.7828097268471192
9.5,-11.573936852088293,-6.277926147781287,-11.39912927849528,0.04057672038814722,0.12111371953275854,0.23143573583927937,0.003589098497463411,0.011922970901404383,0.9999224615068817,-1.7932328204942483,-2.1768862209715785,4.142841913239883,1.0625075022036095,1.3553139925112367,-0.09823469321499295,2.0,0.48983643832926305,0.4844760895244576,0.2860379625678998,-0.44883775073131277,0.43047467562144487,-0.0206693686582908,0.7828211828804427
9.600000000000001,-11.661936533632241,-6.02068522975221,-11.598370615013266,0.033320381120789624,0.09201616514739813,0.2290147402303226,0.003814423649663451,0.012159992847761779,0.9999187643430127,-1.793229103088379,-2.176868297053001,4.142810936720944,1.0624817512357105,1.3552889823913574,-0.09819738544801529,2.0,0.4898302426786685,0.4844901786938258,0.28605556639785396,-0.4488436405113094,0.4304619557344745,-0.020669761893764967,0.7828247900910272
9.700000000000001,-11.22389260638258,-5.055971887687542,-12.364198480413705,-0.031130957918304572,0.11802123704826833,0.2324159577041832,0.004122711898348833,0.012489198687033059,0.9999134619939712,-1.7932408478604915,-2.1768862209715785,4.142824322553799,1.0624467569538574,1.3552950184059096,-0.09820348497204852,2.0,0.48981936772374735,0.4844929384967884,0.286054286512426,-0.448844489175502,0.4304540077694388,-0.020662996035842245,0.7828288525130084
9.8,-10.982565995861936,-5.044180779360174,-11.823849558238857,-0.034996314872094515,0.1310383307274375,0.22499716913241716,0.004409873095535515,0.012841929173397406,0.9999077987747279,-1.7932224532964776,-2.1768743000426234,4.142847107457786,1.0624347897243425,1.3553252220153809,-0.09821001504082356,2.0,0.48984171321737013,0.48449654558209726,0.28602288556538213,-0.4488647342563428,0.4304750333333212,-0.020688524646907167,0.7828050082655278
9.9,-10.89843580308346,-5.141775029598929,-10.59100009185928,-0.0021771992187894426,0.16065539793221997,0.23523018691664832,0.004514058816728895,0.012928951999476036,0.9999062235672735,-1.7932105917254217,-2.176880180660031,4.142817733600745,1.0624171163968619,1.3553013801574707,-0.09823416148432143,2.0,0.489823947426595,0.48450001138219373,0.2860190287619724,-0.44888227774867084,0.43048100893392915,-0.020675694470200602,0.7827920013187194
10.0,-10.4637659744603,-5.454314662961811,-10.204665278311117,-0.006153720673395841,0.18972672325189832,0.24040261660196124,0.004595648064083821,0.012983161377950664,0.9999051532069904,-1.7932232179883705,-2.176863191387732,4.14283020880258,1.062440287595467,1.3553138212312983,-0.09821097220633532,2.0,0.4898198383723906,0.4845083033946166,0.2860444151075137,-0.44886504261520555,0.43046664184780975,-0.02065590708731236,0.7828103073393449
10.100000000000001,-10.167602130997253,-5.138340334022843,-9.99718110001096,-0.011544268257227373,0.20713891144322716,0.24334792712991254,0.004214737706101181,0.012589662078755911,0.9999117532287997,-1.793234737720866,-2.1768797452793853,4.14282340141059,1.0624463927313095,1.3552952759722765,-0.09822813238134137,2.0,0.4898464732064181,0.48448464831035887,0.2860346236704405,-0.4488678209229057,0.4304865398400276,-0.020684827951636973,0.782797008329167
10.200000000000001,-10.251425991586375,-4.868476526030614,-9.530792950562958,-0.018844060707270707,0.20815181588888185,0.24601050404813593,0.0035396895028604754,0.011870882910418393,0.9999227443294962,-1.7932278879033694,-2.1768862209715785,4.142830041784795,1.0624467569538574,1.355307222900612,-0.09819801361874796,2.0,0.4898306308614543,0.4844909479807374,0.2860527520758977,-0.4488601945713813,0.43046887483667273,-0.02067678859195273,0.782811308004499
10.3,-10.488410051029287,-4.578206580921459,-9.164758479528619,-0.036104002892829286,0.20283702691262007,0.24913527304487215,0.0024726587304446813,0.010704327097769776,0.9999394155086903,-1.7932332057744165,-2.1768934455261446,4.142854473566768,1.0624441276464733,1.3553347868951482,-0.0982027475227302,2.0,0.4898459745454999,0.48448218716221764,0.2860465128658065,-0.44884745296974166,0.4304706698055064,-0.020680153672784873,0.7828175379000171
10.4,-10.493276112340107,-4.277615950483335,-8.999096278287478,-0.0410806328051062,0.18835623810949803,0.24683221901736918,0.0022620633023473467,0.010472739472125266,0.999942594510202,-1.7932229436026426,-2.176902719594086,4.142836098949446,1.0624591547199707,1.3553066597166732,-0.09822278272687661,2.0,0.4898354229752537,0.48449606182450383,0.28602034273152926,-0.4488746474729611,0.4304785934804205,-0.02067428702412298,0.78279774224712
10.5,-10.794083773953895,-3.887722856549991,-8.719495101087512,-0.038328025349767716,0.18699905781505557,0.24516156756719892,0.002186975865167393,0.01038908555967123,0.9999436387353959,-1.7932381418639762,-2.1768798975966304,4.142811298370361,1.0624645283718173,1.3553140269073674,-0.09822258278000813,2.0,0.4898316142020584,0.48449059287215684,0.2860344923038302,-0.44886044456855445,0.4304832204048693,-0.020678473129707695,0.7828032313427152
10.600000000000001,-10.824934714779884,-4.0176163431105385,-8.68347857672925,-0.04872825017154085,0.17633872476343362,0.24624048435980797,0.0018031040166729526,0.009946708681960155,0.999948591441789,-1.7932405471801758,-2.1768862209715785,4.142841794994644,1.0624397023259577,1.3553194790156404,-0.0982163378614864,2.0,0.4898236412192667,0.4844947026464992,0.2860380005212628,-0.448851887911128,0.43048043909441747,-0.02065815649544335,0.7828102035908217
10.700000000000001,-10.851433230311802,-4.114654885718468,-8.747859319977215,-0.04978861846356247,0.17217788416263302,0.2457855827508252,0.0013672961468314826,0.009443996363408824,0.9999542015355228,-1.7932043075561523,-2.1768862209715785,4.142841978571835,1.0624591547199707,1.3553303537900423,-0.09822208086122686,2.0,0.48982106971512307,0.48449416931794403,0.286031863061618,-0.4488681233997156,0.4304687540307123,-0.020655619096253755,0.7828073869085641
10.8,-10.775288924520575,-4.109739674903105,-8.781757034768532,-0.04906148106301507,0.16830512256015334,0.2505591638952024,0.0010912935864634957,0.009133122146347606,0.9999576960668777,-1.7932337253019424,-2.176888465010471,4.142847537994385,1.0624705988117675,1.3553366661071777,-0.0982317577512894,2.0,0.4898201639755296,0.4844942047157522,0.28602421762012536,-0.4488707737784811,0.43046996132889787,-0.020672269909195413,0.7828047637168583
10.9,-10.642956529205689,-4.096211348664073,-8.727268966833476,-0.046442693813966394,0.1647334496503914,0.24646301892034062,0.0011156092328082655,0.009182764578004193,0.999957214873634,-1.79321456267556,-2.1768761630660056,4.142827816610908,1.0624658656797332,1.3553080911172333,-0.09822289073266206,2.0,0.4898302621533043,0.48448712713980835,0.2860672843475076,-0.4488281453051476,0.43045810660405714,-0.020659478608272244,0.7828360622661845
11.0,-11.03507382103025,-4.008918495380893,-8.887724140462788,-0.04453973632029835,0.17233525082425896,0.24560106410468635,0.0009496023688321678,0.009017167866598485,0.9999588521846389,-1.7932132912676952,-2.1769015559551037,4.142824926326601,1.062465696138966,1.3553096968848426,-0.09819605513887332,2.0,0.48982916115938935,0.48449726442160307,0.2860406481992558,-0.4488659477209995,0.4304602693284341,-0.020675114319923384,0.7828127855075435
11.100000000000001,-10.754595854341938,-4.265518326147887,-9.00632670226572,-0.04985822148860192,0.1650980821254517,0.24843988369960573,0.0007464121039286538,0.008809519779670953,0.9999609033888438,-1.793229103088379,-2.1768981419005335,4.14285244197355,1.062475911455863,1.3553079202701026,-0.09823400179018194,2.0,0.48983380941888466,0.4844826813724751,0.28604672688877103,-0.44884577693839517,0.43046730983871334,-0.020682296501323652,0.7828202899109228
11.200000000000001,-10.774087399268709,-4.137441180505006,-9.014782807673564,-0.04637552890902293,0.1662998551214146,0.2494740746872729,0.0005214665694783234,0.008561550730820808,0.9999631553844608,-1.7932255603644958,-2.1768909367006875,4.142849476044763,1.0624685861781884,1.3553177286075409,-0.0982048927828034,2.0,0.489841341018971,0.48448610947816523,0.2860319471997222,-0.4488537350110652,0.4304753355476635,-0.020681951750542646,0.7828113226848036
11.3,-10.771871114294024,-4.437664792790686,-8.882018158490018,-0.0499273692967719,0.1646400146096387,0.2494870234101732,0.00029194841097987154,0.008305106834084548,0.9999654495833534,-1.7932192216392253,-2.176884111939382,4.1428564657692215,1.0624829965778808,1.3553081145388235,-0.0982122689644683,2.0,0.48983595762038634,0.4844835484562398,0.2860432176967508,-0.4488400092406457,0.4304809029399451,-0.020666299469338446,0.7828165445205604
11.4,-10.548341470013607,-4.197466059708004,-8.88886451604684,-0.048314778719385505,0.16276405521261417,0.24765229774868142,0.0002934069617783846,0.008279193824633,0.9999656828484339,-1.793229103088379,-2.1768981419005335,4.142821228363404,1.0624754867642883,1.3553083122930947,-0.09821457104763434,2.0,0.489821355805658,0.4844993028773101,0.28602116631807056,-0.4488827059850582,0.43047256954080243,-0.02068438957984258,0.7827961670627802
11.5,-10.679151980637142,-4.1856143233958685,-8.841617312426111,-0.05572525492236452,0.16400758516411457,0.2500061450785045,0.0011273732703469177,0.00916941247596147,0.9999556598794186,-1.7932177057714032,-2.176864680556796,4.142825325163837,1.0624523410029492,1.3553174078492218,-0.09820968309511358,2.0,0.4898255782172319,0.4844923215549641,0.28603854061070677,-0.4488597435878017,0.4304705352514276,-0.020663124259974342,0.7828110143338936
11.600000000000001,-10.774238056175726,-3.9821874567411766,-8.813115767838118,-0.05008931139783144,0.16629460997673493,0.24480231488104465,0.0028727635771632234,0.011078968076644201,0.9999344287032853,-1.7932376516251791,-2.1769086266696935,4.142857844669028,1.0624663245433674,1.355290119808511,-0.09819220659707344,2.0,0.48981941357932424,0.4844985221450252,0.28603863684667274,-0.44886440042908904,0.4304653951333517,-0.020656196662351838,0.7828113534942938
11.700000000000001,-10.763326538254177,-4.050391048595426,-8.857040130956028,-0.05454392860034865,0.1664509206430829,0.2501812803388888,0.0025603890642497615,0.010737586967257792,0.9999390173124595,-1.7932313732174956,-2.1769012417115268,4.1428351402282715,1.062460767360617,1.3553128242492676,-0.0982371016011752,2.0,0.4898287408667888,0.4845031866594343,0.28604311639046276,-0.4488615984716943,0.4304686779367186,-0.020660550490476985,0.782811040025803
11.8,-10.587482584283274,-4.231773296103674,-8.768088945613217,-0.05804021151690938,0.16105554368293162,0.24965285154556052,0.0029440711877640963,0.011168641562269205,0.9999332428077089,-1.793236366221429,-2.176883010373346,4.142871379852295,1.0624742862471581,1.3553128242492676,-0.09822643602658816,2.0,0.4898330352713109,0.48449166757580286,0.28603381954668644,-0.44886108894491433,0.4304748492747797,-0.020667169853510386,0.7828077637985505
11.9,-10.439055768639665,-4.479001243868784,-8.979147203859327,-0.05612330578107204,0.16198824415536414,0.2521399052587541,0.003035637934957619,0.011271161014693887,0.999931870584107,-1.7932478302123904,-2.1768938074634687,4.142827250276706,1.0624591547199707,1.355289761313921,-0.09820240006289883,2.0,0.489812638785662,0.48449913755632623,0.28603740972220637,-0.44885942522309297,0.43046246276811495,-0.02064825179027719,0.7828160283451082
12.0,-10.519654494170965,-4.511578985821124,-9.030338195897198,-0.054533418691510425,0.16383685997310726,0.2516240155050042,0.002783087942933755,0.011002867408374984,0.999935250297847,-1.7932130706358147,-2.1768946470097155,4.142807943275176,1.0624675807581077,1.3553208404755497,-0.09822208086122686,2.0,0.489829152156368,0.48449361358193127,0.2860299051637588,-0.4488658027851609,0.4304761003239587,-0.020666151798876174,0.7828043997766847
12.100000000000001,-10.670852679747817,-4.243960196362459,-8.53241318281181,-0.041858583389446063,0.16976427666975316,0.25309887078491133,0.0017604929950497462,0.009918709921149892,0.9999488908299907,-1.7933068790991462,-2.1768655470137146,4.142826681991173,1.0624879228242377,1.3552653225787952,-0.09823400179018194,2.756559091087654,0.48984466577042435,0.4844699034570285,0.2860462005248177,-0.4488421848916878,0.4304830825659587,-0.020683527769938807,0.782813643445971
12.200000000000001,-10.663504334330806,-4.371448072008667,-8.159569200027937,-0.05492513676174478,0.1498416174559811,0.26146265443637906,0.0017316276572371147,0.009871591879403254,0.999949633160119,-1.794452628439255,-2.176590198792079,4.1428840162285345,1.0631849908904667,1.3551958154340524,-0.09824141235621815,3.0,0.4898028001224715,0.4844528071784164,0.2859901745477737,-0.44889396106308005,0.43047761634261406,-0.020691559659767725,0.7827867480405667
12.3,-10.630735346071212,-3.852063251817753,-7.075035666860792,-0.07436521102807528,0.15998913609285478,0.28817168345459093,0.002063218164493067,0.010200639472554566,0.9999456969214896,-1.796067607981991,-2.1758982143797816,4.143064673269086,1.0641336715024847,1.3550113119305636,-0.09830428191643131,3.0,0.4897109210713544,0.4843105742724502,0.2858670617186503,-0.44893456367032,0.43052853665321267,-0.020699423222625815,0.7827352493325146
12.4,-10.57505023787245,-3.628503683426482,-7.161797143325136,-0.10002170117904288,0.16516482133514687,0.29104460201073523,0.0024056255501401416,0.010553101521541618,0.9999413721445619,-1.7975702285766602,-2.1752227632728096,4.143379937953896,1.065097517261063,1.3547913511348582,-0.09834938638697112,3.0,0.48927381230787265,0.48387284518220997,0.2857657732411008,-0.448913605390283,0.43050506155086316,-0.0206598864983595,0.7827612253838714
12.5,-10.742472353591884,-3.5809067577450566,-6.884460436548844,-0.11735377458071088,0.15810239126213543,0.3045250681823982,0.0027853146396509616,0.010986264376901355,0.9999357082225266,-1.799024956574637,-2.1746123293163224,4.143631166732454,1.0660405764435334,1.3545284250784362,-0.09838534650206099,3.0,0.48904996322330857,0.4836650550977854,0.2856962858486938,-0.44893054508153724,0.43050737987539217,-0.02067955442127395,0.7827497158061164
12.600000000000001,-10.965871119741802,-3.642429533717368,-6.725290250840014,-0.11719527003859533,0.14079182316539246,0.32610215071663345,0.002878164116369099,0.0111067921287006,0.9999341746706059,-1.8006996525333459,-2.174060233364399,4.143854749519645,1.0671797598954025,1.3543125025821365,-0.09846504158242027,3.0,0.48866118817736426,0.48335922186416574,0.2857054244721449,-0.44884029051492136,0.43046320141304123,-0.020653277940246056,0.7828264609414013
12.700000000000001,-10.862024988049198,-3.685227364669887,-6.895087057115927,-0.11829269510480948,0.12588500152135448,0.33730270966200987,0.002845904906963778,0.011090960168318825,0.9999344426312907,-1.8025103826364417,-2.17344473041894,4.144106388092041,1.0681062128380236,1.3540525436401367,-0.09848054281864284,3.0,0.48834325471866,0.4830023435245989,0.28556146718951936,-0.44884005425596046,0.4304613245048325,-0.02068217449119226,0.7828268655707771
12.8,-10.99249342295785,-3.387311183143003,-6.760079296299768,-0.1267683774230044,0.12346051849880008,0.3590869522289608,0.0029113546014193437,0.011178851177302088,0.999933156494368,-1.803913122451366,-2.1727682552733363,4.144320414741999,1.0690502759544147,1.3538513811440365,-0.09858359666121969,3.0,0.48778750046622615,0.4824618761686329,0.285272948437075,-0.4489283489046204,0.43051981714723936,-0.020691481394255626,0.782743819644071
12.9,-10.92710867992899,-3.2731137857742456,-6.716250752493165,-0.13719167929178347,0.11479267388735022,0.37209786297581177,0.003541526325705298,0.011866223333707246,0.9999228882368725,-1.805450289362245,-2.1722229275984293,4.1445317747235535,1.0701410252818206,1.3536141562576705,-0.09865385559731941,3.0,0.487596031373284,0.4822928314511939,0.2852788467359436,-0.44888921348609195,0.4304866598468981,-0.020657586585428017,0.7827853944895524
13.0,-11.03102571572154,-3.4813996383059913,-6.679491594398671,-0.1406767136389619,0.10770024813332224,0.39069023583315426,0.004030835113437737,0.012403537383579029,0.9999148838447518,-1.8071826946787186,-2.17154131228169,4.144754886627197,1.0711057370798263,1.3533956381734704,-0.09865492605010635,3.0,0.4871437768350365,0.4818245720863189,0.2851556572669159,-0.4488514286102152,0.43047434778655913,-0.020669309110953916,0.7828135222344984
13.100000000000001,-10.980601236567164,-3.407781185464444,-6.744674641671523,-0.1419987354590422,0.09621174665546513,0.40287290633254325,0.0035802019749446605,0.011939552517272467,0.9999219856404838,-1.8087243898978143,-2.1709691351919025,4.145012142799354,1.0720979477776553,1.3531527519226074,-0.09869176883294029,3.0,0.4869554303401829,0.4816285328405451,0.2850812958136617,-0.44883982399103123,0.4304959502028329,-0.020670793449651902,0.7828082572104245
13.200000000000001,-11.000890671085077,-3.414334108858615,-6.543175477426876,-0.14154266959700176,0.09024395268987764,0.41445716442809966,0.0031295688364515917,0.011475567650965914,0.999929087436216,-1.8103026187953664,-2.170368810693258,4.145197707819899,1.073058132917565,1.3529639288046664,-0.09876384695041796,3.0,0.48658955340443105,0.48125409223137766,0.28498498046743953,-0.4488359998769923,0.43049020836487145,-0.020681047136222347,0.7828133366299654
13.3,-11.026936431164415,-3.265982010543183,-6.4196080685805885,-0.1367507574799831,0.0873027885008629,0.4240646546644679,0.0026338427330143397,0.010932326552032044,0.9999365991689589,-1.8118770346802442,-2.1697720563377874,4.145438025531822,1.0741737009319485,1.352711754574789,-0.09879943894025028,3.0,0.4862410065952643,0.4809088468060046,0.284849365535437,-0.4488648452851823,0.43049938622924644,-0.02069214436814201,0.7827914564459679
13.4,-10.987881157842589,-3.0625159036933898,-6.461434499941289,-0.1324886290040388,0.08199601589198542,0.4307212458301337,0.0021777064235008513,0.010417500346058583,0.9999433637220057,-1.8134043499173662,-2.1691731626055706,4.145628034228757,1.0750727683631245,1.3525224248040257,-0.09888122724543473,3.0,0.4857873363072058,0.4804665080240113,0.28472285155853,-0.4488317486356738,0.4304737257897292,-0.020680077664620943,0.7828248636886398
13.5,-10.957943350140745,-3.3422696348126193,-6.4556829349245435,-0.1306362873488527,0.0744379172510193,0.4303679502777463,0.002260085390325019,0.010518456907724398,0.9999421216023414,-1.8150779937959054,-2.168567213850237,4.145860301219241,1.0759784418293457,1.3523229492080044,-0.09892494689163783,3.0,0.4854171065536958,0.48008130150860756,0.2845961180204442,-0.4488421080517082,0.4304929523187199,-0.020693272069770265,0.7828080023445452
13.600000000000001,-11.22674018931966,-3.2119857187920604,-6.231790081273015,-0.12962208967001984,0.0758788185926656,0.4168343236078338,0.0022421790949281313,0.010486557068774218,0.999942494814235,-1.816718939432691,-2.16796981234094,4.146135368939824,1.0770494601735487,1.3521100702348372,-0.09900027910341436,3.0,0.4851978159287938,0.4799048245423006,0.2845265836858913,-0.44886974585682954,0.4305109097972886,-0.020668202371140434,0.7827829413130324
13.700000000000001,-11.053297078917787,-3.078961162314097,-6.301413396946801,-0.1437880904730154,0.08055709501736326,0.4192501516048275,0.0021221377616978255,0.010329070986967231,0.9999443563418569,-1.81817909539761,-2.1672998691647685,4.146366561065335,1.0780894308577547,1.3519171574824471,-0.09908088216144524,3.0,0.4848242769411728,0.4795286635564297,0.2843749319465526,-0.4488762218717455,0.4305040080112016,-0.020676799109133656,0.7827827965042665
13.8,-11.001146984967127,-3.2819966206757893,-6.29370332358173,-0.15254861918720752,0.07499672973614345,0.41658266988185844,0.001632476929954115,0.009782912698479383,0.9999505422676784,-1.8196544570490847,-2.1666529140643127,4.14658784866333,1.0790186639289137,1.3516919173960333,-0.09913837118943053,3.0,0.48436067970095625,0.4790619157998625,0.2843340612354312,-0.44881523272870993,0.4304479453937249,-0.020671007940796307,0.7828487482315508
13.9,-11.19659837255853,-3.5919759159987414,-6.211696041629695,-0.14267100562377377,0.07171501258963756,0.41279790830420865,0.0011896896996782922,0.009288657997450864,0.9999561472572466,-1.821399870614008,-2.166150628472488,4.1467943697398315,1.079954045242896,1.351444417150192,-0.09915525117983037,3.0,0.4841573462186336,0.47888098545386626,0.28431347004804697,-0.44878757500081934,0.43041956703859574,-0.020672284323752507,0.7828801731402001
14.0,-11.059922990192007,-3.054448978800288,-5.875675747371728,-0.14115435077854424,0.07354529159024044,0.40763180357890966,0.0013428430101210323,0.009454293959974937,0.9999543663525358,-1.8230185513495445,-2.1654983959593714,4.147052814759771,1.0811109538591968,1.351229322264133,-0.09922725359071904,3.0,0.4836433434880724,0.4783779342748565,0.28401527182327074,-0.4488915736541033,0.43048741380120265,-0.02067658513740846,0.7827831248105379
14.100000000000001,-11.20603878323691,-2.675469627476312,-5.728900861613882,-0.16042651079382703,0.07468091265430675,0.40502482075558977,0.001495996320563775,0.009619929922499012,0.999952585447825,-1.8244028091430664,-2.164922940355537,4.147286115221101,1.0819819231939207,1.3509914621173522,-0.09928468708258309,3.0,0.4834236833197946,0.4781603605535289,0.28394476323623763,-0.44888546929806167,0.4304746910312439,-0.02069441402004556,0.7827931508789413
14.200000000000001,-11.158006825683566,-2.9465068001556745,-5.696129348694366,-0.16000503419302003,0.06260302530840757,0.40880899634585594,0.0014218306856755448,0.009529436256758702,0.9999535035537138,-1.8260950014328916,-2.1644293179434775,4.147537877094326,1.0829999990901318,1.350774030406106,-0.09932262102235967,3.0,0.48313248709252726,0.47786052624753755,0.2839427687012379,-0.44880748217824473,0.4304292161021017,-0.020683900713245294,0.7828631490355382
14.3,-11.021044901726986,-2.9333992759547547,-5.543359949515095,-0.15870432470398052,0.05552669885460736,0.40742720648491715,0.0011732761388398736,0.00924245141371904,0.9999564922196307,-1.8278493655677932,-2.1639563808346556,4.147763901198124,1.0840636122711962,1.3505357666309818,-0.09940352888814381,3.0,0.4827726978717796,0.4775288316871606,0.2837088351579064,-0.4488884540574125,0.4304821192367515,-0.020679914847415697,0.7827877374827006
14.4,-10.968710655625706,-2.6235152846988714,-5.382470623563616,-0.16486199136517096,0.05878917273149913,0.40573550379107676,0.0009756885273375146,0.00901348452280886,0.9999588376903572,-1.8291642556418477,-2.1632186375060023,4.147982952133384,1.084991495738853,1.350300913560912,-0.09942591860786944,3.0,0.48243767311056257,0.4772009577659846,0.28351825663221714,-0.44892989199656097,0.43051656479017986,-0.02068303404581135,0.7827449467201171
14.5,-11.121471715132794,-2.493497206560593,-5.42560267558315,-0.1776219968229523,0.06582149752655896,0.4119807955866944,0.0017243110000200617,0.009861631078286135,0.9999492421296848,-1.8307311164866253,-2.1625557718651245,4.148222031595468,1.085939969466273,1.3500631785424937,-0.09949892078289758,3.0,0.48202330978558466,0.476781482385238,0.28344154694794027,-0.44887778630027775,0.4304946082544657,-0.020681241001895435,0.7827869515395731
14.600000000000001,-11.12638928180641,-2.4990407172319307,-5.447999522712819,-0.17354416714660936,0.059154021348228635,0.4082834235838855,0.0024594081621411882,0.010694631336548664,0.999939768444343,-1.8324815249179038,-2.1619446368661395,4.148437520937674,1.0868805313555776,1.3498009116361505,-0.09954461064437019,3.0,0.4815506890792006,0.4763148066959265,0.2833824645106361,-0.4488541278761511,0.43048063697942973,-0.02067501610976313,0.7828083652996982
14.700000000000001,-11.145849132539377,-2.4158578863508184,-5.299860503483799,-0.1768624327834906,0.06149103663663379,0.40753230132079327,0.0028896381410309004,0.011186226571445784,0.9999330418891691,-1.8340363499618462,-2.1612961977125473,4.148676347357626,1.0879925917278577,1.3495903015136719,-0.09958762291253363,3.0,0.4812259426455354,0.4759846534210702,0.2832295330097987,-0.44888976058335706,0.43050411666909216,-0.020677928604641738,0.7827749431624664
14.8,-11.05014015269248,-2.503140939234529,-5.343600489762766,-0.1803443020475577,0.06140000282906975,0.40787965317768626,0.0033160979268551027,0.011671529472166643,0.9999263819756397,-1.8354989958738694,-2.160697222948518,4.1489064169859295,1.0889055533637289,1.3494121844079772,-0.09968566522111504,3.0,0.4810343667354956,0.4757673468125019,0.28317696511232104,-0.44886233898615274,0.43050747665745864,-0.020678277455752014,0.7827888106145686
14.9,-10.913381589753909,-2.665589894590274,-5.121144107719273,-0.17972519265185757,0.056987785684627666,0.4062753868341159,0.00363355433344205,0.01197490914599045,0.9999216487975077,-1.8370943576376282,-2.160135872605262,4.1491519004042186,1.0898881602300587,1.3491505846584921,-0.09972514457919956,3.0,0.4805581219612892,0.4753462966819069,0.2830803520896139,-0.44884604472674294,0.43046635292818314,-0.0206592830995985,0.7828212702473524
15.0,-11.122077560669066,-2.574740116921967,-5.0471466314572915,-0.1742625993264125,0.0535937480215747,0.4027576291437811,0.0037730657210280983,0.01208575305015574,0.9999198435980321,-1.8387582190532772,-2.159618641748895,4.149392072055839,1.091015024776123,1.3489769735354846,-0.0997536818133753,3.0,0.48042515551564174,0.4752095564091728,0.2830586412032801,-0.44883986688814803,0.43045897802067545,-0.020669290291217595,0.7828286035730188
15.100000000000001,-11.305287503505763,-2.932242227551983,-5.017296258180953,-0.17383765777633198,0.05139643083216064,0.4061521354946443,0.003750152594430895,0.012020854306253284,0.9999207109966066,-1.8402529421114269,-2.159105440179342,4.149619431269734,1.091988956514389,1.3487505912780762,-0.09983297642000977,3.0,0.4797895916787284,0.4745531066078632,0.2827214062307219,-0.4488858568364003,0.4304842707383348,-0.020679210427019454,0.7827880622718069
15.200000000000001,-11.466467224454586,-2.909903866017881,-5.678405959565989,-0.16998314621081734,0.02979926709251475,0.39985527325689263,0.003725161301671536,0.011954244280065765,0.999921605490317,-1.8409001481062364,-2.1588910100859815,4.149740276289196,1.0923790520849257,1.3486792123321765,-0.09984904924501592,3.0,0.47951887964581785,0.47433085153834964,0.28263783375207396,-0.44889304776440725,0.43046425460256,-0.02065065093881509,0.782795699907739
15.3,-11.358513018444238,-2.5816535774476286,-5.631858868742486,-0.158491831469752,0.04227885087648657,0.39994124953678134,0.003507849213332436,0.011729266180853803,0.9999250074630559,-1.8408663953299131,-2.1588691869447896,4.149705037931057,1.092415600274319,1.3486557006835938,-0.09985852260010096,3.0,0.47936677106793557,0.4742141619317779,0.28254620797618224,-0.4489246459044033,0.43046969454401557,-0.02064261656434495,0.7827747995178216
15.4,-11.175280976119893,-2.9714475922106067,-5.9182144063555935,-0.15368076105313225,0.02478979769993615,0.39685984581078043,0.0032901855975052013,0.011503881238099731,0.9999284144524015,-1.840888991375301,-2.1588699322532996,4.1497179356790355,1.0924397998803141,1.348644797383585,-0.09986991649523708,3.0,0.47938909353091647,0.4741985059617046,0.2825948945226826,-0.448874158774736,0.4304636970764211,-0.020652013299789277,0.7828068021103531
15.5,-11.524104805613618,-3.004741881081094,-5.8167082043392435,-0.1414842339944265,0.021572697622764675,0.3963539788728736,0.0028219522788073496,0.010988497166110344,0.9999353972920241,-1.8409399939041426,-2.158820798293645,4.149741168067961,1.0924279577939455,1.3486661659258903,-0.09989523793129501,3.0,0.4793700463066501,0.4742082376168196,0.2826008702594297,-0.4488725075105643,0.43045604743090327,-0.020641822573872443,0.782812224222496
15.600000000000001,-11.609320882446184,-3.128964106401713,-5.9526933801471715,-0.14353407744307423,0.020076978074855218,0.39414705408920286,0.0023537189601094896,0.010473113094120946,0.9999423801316466,-1.8409624099731445,-2.1588198147215785,4.149715827007657,1.0924628553331894,1.348656177520752,-0.09983657500652178,3.0,0.47937230176628204,0.4741890582417127,0.28262030562711715,-0.4488597941181025,0.43044874109492054,-0.02065368603784166,0.7828232187199758
15.700000000000001,-11.458323533313239,-3.3603197091051573,-5.916545389877365,-0.14970294798243416,0.01728497325069924,0.3974698548184311,0.0015748278845834267,0.009646092033102365,0.9999518822654948,-1.8409624099731445,-2.158822153097995,4.149669374317409,1.0924762577666285,1.3486334932749293,-0.09987228914464062,3.0,0.4793855125548408,0.47416591338655106,0.2825939119004461,-0.44886742170828925,0.4304727529193817,-0.020683499250765194,0.7828048540867039
15.8,-11.471963799452377,-3.1704834578213172,-5.928490308824406,-0.14326829768437882,0.020613053974331046,0.3908448962173839,0.001785503233187661,0.00990528362373275,0.9999482709501134,-1.8409733282553182,-2.158845776571719,4.149714235357336,1.092509674714758,1.3486323356628418,-0.09982584789539665,3.0,0.4793738549753689,0.47417268034944177,0.2825849196174249,-0.44888314360681425,0.4304675922685525,-0.020666190040927748,0.7827991338660077
15.9,-11.570394451383809,-3.0452792434635185,-5.933794761281581,-0.1396610602406013,0.021760958641047528,0.3871738927034608,0.003201282873696061,0.011486893054428552,0.9999287107903121,-1.8409624099731445,-2.1587968690387416,4.149681488994268,1.0924498744582793,1.3486314036407656,-0.09987289110292608,3.0,0.47937931489116337,0.47416005763836283,0.28261296025793836,-0.4488550769522165,0.4304766619031995,-0.020668550169131873,0.7828101778112012
16.0,-11.348606137219624,-2.8454104309168855,-5.562273223747174,-0.13474574410230275,0.01592157021488353,0.3914437179077071,0.004047062108944888,0.012372657500863698,0.9999148985563722,-1.840960131249517,-2.158819065141438,4.149691308983091,1.092475100154541,1.3486557877390788,-0.09981280962099248,3.0,0.4793662867884146,0.4741659516981991,0.2826228110138828,-0.4488566153284663,0.43046543376539464,-0.02066183461869587,0.7828156473903888
16.1,-11.446749189391268,-2.98242418137684,-5.72392287204694,-0.1367369808644055,0.01807533326954194,0.3905167206038691,0.004412531321412366,0.012752102793116669,0.9999089283700678,-1.8409835829239571,-2.1588201743671616,4.149704096683762,1.0924506642678975,1.3486441394002218,-0.0998370111244858,3.8054938449337667,0.4793633905523464,0.4741886459806578,0.2826161386685354,-0.4488771558629605,0.43045963634019985,-0.020643118500472908,0.782807551116376
16.2,-11.627520968343147,-3.216919499557286,-5.8231626844202,-0.14123480647369394,0.023437740332950107,0.39091410542843075,0.004189579968770698,0.012518922747649631,0.9999128522985173,-1.840928152364577,-2.1588204797399224,4.149668529655131,1.0924627023884277,1.3486323356628418,-0.09983632548951842,4.0,0.47937033020848147,0.4741673571628636,0.2826045765813097,-0.44887192822604305,0.4304719371711527,-0.020657032244058418,0.782803417453972
16.3,-11.79725790193418,-3.163081728049206,-5.8602304287506435,-0.14089381127389247,0.02791375035147047,0.3943988863034211,0.003637366331603668,0.011904589271685653,0.9999223022379736,-1.8409735584017264,-2.1588085220769555,4.149679660797119,1.0924391561937326,1.3486673259493338,-0.09986081363862918,4.0,0.4793607283593192,0.47417078416203773,0.28263680803605024,-0.4488488574799274,0.43044610345511586,-0.020641685385981576,0.7828312563916299
16.400000000000002,-11.299985239197087,-3.2562336805807814,-5.9001335486514614,-0.1434823602138761,0.015184544239762216,0.3917078724485829,0.002956592215020032,0.011162559365719794,0.9999330008657354,-1.8409975751345937,-2.1588434123957088,4.14969135167996,1.0924858373630653,1.3486437797546387,-0.09981316306262873,4.0,0.4793776257283439,0.4741621615198802,0.2826023328937463,-0.4488646284017912,0.4304652149325503,-0.02065825012412858,0.7828112676786173
16.5,-11.312202447409586,-3.49296898456459,-5.9051647392764375,-0.15015293241940644,0.01406222280675742,0.39306307493020326,0.0021037680338841314,0.010257627237836695,0.999945026739244,-1.8409490585327148,-2.158784561305902,4.149657526482885,1.0924505694953326,1.3486564220189228,-0.09980139806322638,4.0,0.4793819624079651,0.4741450082418388,0.2826145249243881,-0.4488545428920007,0.4304660376095404,-0.020670537286256375,0.7828162738971721
16.6,-11.493635560767185,-3.1863378422760396,-6.174839593921395,-0.13966698169598651,0.017219835498807366,0.38876077255776526,0.0031077298135763344,0.011361089422741643,0.9999295813289765,-1.8409851029717639,-2.1588320173027173,4.149679660797119,1.0924503713961216,1.348656177520752,-0.09984911088237627,4.0,0.47937329209917506,0.47416410602123066,0.28260708342678614,-0.44886843513381,0.4304683991442056,-0.020663951100591816,0.7828071834134267
16.7,-11.145961359934198,-3.404237219520026,-6.142616367636681,-0.1457182479514367,0.011769694457594747,0.39229333128038424,0.003693346451205311,0.012013010680108172,0.9999207679217458,-1.840962318660706,-2.158807863755637,4.149715871585635,1.092438951842956,1.3486675615385761,-0.09983656136794362,4.0,0.47938863028125583,0.47415529103743326,0.28262839344177165,-0.4488461894997118,0.4304663895840168,-0.02065985190065864,0.7828211520708503
16.8,-11.56546659790035,-3.288434245315068,-6.2049576833451034,-0.14344130066799807,0.019138938691642855,0.3867952199711634,0.002943155465211236,0.011221831028030198,0.9999325348068339,-1.8409626686363494,-2.1588322124876917,4.149679660797119,1.092475100154541,1.348656177520752,-0.0998248652703668,4.0,0.479389558949447,0.4741474895764562,0.28260905574325823,-0.44885292457008713,0.4304777955465418,-0.020672319249104253,0.7828106890322415
16.900000000000002,-11.611047591517012,-3.2097819648412216,-6.099355453736274,-0.13971034925695877,0.019097227343629807,0.38842265756654726,0.0018018517428190467,0.009946036654983014,0.9999479140511776,-1.8409490610704085,-2.158819817078008,4.149715893533117,1.092462700031998,1.3486075493750704,-0.09984904924501592,4.0,0.47940010728776367,0.4741424259343837,0.282617632079626,-0.4488285399183873,0.43048297480789854,-0.020678807628405745,0.7828216508696844
17.0,-11.355025280418621,-3.23850935026299,-6.225696906997628,-0.14029717507767547,0.011809527773045067,0.3889886059695937,0.0010189475087205304,0.00905228745746591,0.9999584539006451,-1.840938543791491,-2.1588081261302667,4.149679902428268,1.0924507878846124,1.3486564005648896,-0.09987218479649058,4.0,0.4793838611049955,0.474162893436391,0.28260184212941597,-0.4488723632518442,0.4304736064294112,-0.020665824986519254,0.7828020179802729
17.1,-11.322090330359273,-3.4682510013447265,-6.222635661358069,-0.14503368587019835,0.012156903139635964,0.3881361006005498,0.0014084630399227903,0.009453514031979821,0.9999542771017637,-1.8409632727390026,-2.1588665448995816,4.149691218501739,1.092475100154541,1.3486788841604276,-0.09980174010571323,4.0,0.4793784865653803,0.47416751741723867,0.28260616657418247,-0.448870650207452,0.430474805640916,-0.02065046399108356,0.7828027461804843
17.2,-11.5311242444933,-3.449521254008265,-6.347090742588722,-0.14237078996817498,0.017077271882249546,0.38467019655541224,0.0018941849845359837,0.009961435141392534,0.9999484314821416,-1.8409841562169142,-2.1588192199612535,4.149669406225972,1.092474481603803,1.3486432087847267,-0.09984783593395292,4.0,0.4793746615099849,0.4741730217598985,0.2826211949314083,-0.4488665369093256,0.43046355413659754,-0.02065524346891265,0.7828111659400097
17.3,-11.446323096994247,-3.291224711163074,-6.21560913239431,-0.13659473988907203,0.014301366073739497,0.3866864290558745,0.0021126391620959906,0.0101919249977566,0.9999456001044079,-1.8409617119376316,-2.158806647300636,4.149702561661525,1.0924859459301839,1.3486437797546387,-0.09981405611297996,4.0,0.4793650496431102,0.4741767901480234,0.28261014018215896,-0.44888132188693824,0.4304509451042162,-0.02065588771158335,0.7828096045800462
17.400000000000002,-11.609598479218054,-3.3818728616312463,-6.3616364795179585,-0.1407039142282123,0.01861598186684317,0.3809100279409748,0.0015024317130806486,0.009556618731942405,0.9999525949940435,-1.8409169320115342,-2.1588090187272706,4.149679660797119,1.092475100154541,1.3486670922315385,-0.0998934022719791,4.0,0.4793813601916484,0.47416301640467856,0.28260346306335044,-0.44886745948988016,0.43047121535005,-0.020655847195829496,0.7828064080874494
17.5,-11.389567352719041,-3.278467022486763,-6.145383180079284,-0.13796863183445496,0.014705155879512022,0.387798405468666,0.0008922242640653285,0.008921312466128234,0.9999595898836792,-1.8409490585327148,-2.158797137502303,4.149658496278705,1.0924633080005177,1.3486328946893866,-0.09985932869817792,4.0,0.4793832049381278,0.4741543348539974,0.2826219079553439,-0.44885956139259864,0.4304600708355367,-0.02067586914058031,0.7828165366150556
17.6,-11.608230864204915,-3.1741774072856495,-5.96942143836537,-0.13804172132113152,0.018055489882151603,0.3849967253561325,0.0011539166639168957,0.009209577076876122,0.9999564960825419,-1.8409721397541767,-2.158841627885529,4.149679660797119,1.092475891374894,1.348645428130374,-0.09987453947866132,4.0,0.47937620447599405,0.47416981683316484,0.2826264521343296,-0.4488489557780217,0.43047284144876485,-0.020671177336591632,0.7828157191188265
17.7,-11.556915433654847,-3.2161528004880573,-6.037311524214875,-0.13801017529461868,0.018855595983383204,0.3871943308429352,0.0017007194073441541,0.009799848403504645,0.9999501032900168,-1.840982969439317,-2.1588078937926234,4.149679660797119,1.0924190135228111,1.3486450411432418,-0.09982134825153718,4.0,0.47938277857969475,0.47415987317731706,0.28261641189804715,-0.44884698776325294,0.4304687692139988,-0.02065766194436267,0.7828194436204505
17.8,-11.532787321900697,-2.9489726388956243,-6.052952802703521,-0.1308177306314102,0.017349212674828786,0.381780765259773,0.002052216058616879,0.01018394808186753,0.999946023508868,-1.840950204163249,-2.158804825139407,4.149681788396682,1.0924958324438583,1.3486571594897812,-0.09982988588735144,4.0,0.4793785696001022,0.4741627740448742,0.2826134937292747,-0.4488562979985371,0.4304734385785138,-0.020649355344791502,0.7828117567776327
