xiamingqian9007/apple-picking-rnn/training_data/grasper_20191127_133555_noimg.csv
,/manipulator_wrench.fx,/manipulator_wrench.fy,/manipulator_wrench.fz,/manipulator_wrench.tx,/manipulator_wrench.ty,/manipulator_wrench.tz,/ground_truth.x,/ground_truth.y,/ground_truth.z,/joint_states.elbow_joint,/joint_states.shoulder_lift_joint,/joint_states.shoulder_pan_joint,/joint_states.wrist_1_joint,/joint_states.wrist_2_joint,/joint_states.wrist_3_joint,/mode./mode,/manipulator_pose.x,/manipulator_pose.y,/manipulator_pose.z,/manipulator_pose.rx,/manipulator_pose.ry,/manipulator_pose.rz,/manipulator_pose.rw
0.2,1.1826153151797636,-0.9900180973550361,-0.4098811308466232,0.024214079663383,0.04251691906936505,0.016651922671082287,0.05226421060629364,-0.06261468552752021,0.9966683755222601,-1.2618873727230626,-1.8038370644786754,4.173605164498773,-3.5242954693236292,-1.348542316142727,1.8965191841125488,1.0,0.46096693624449253,0.47388969346279425,0.38420770188567605,0.7987121340718594,-0.09718520476120726,0.3596071575085987,-0.47254275481747054
0.30000000000000004,0.5658647139430711,-1.0042948094493416,-0.17318164835627534,2.628232953369447e-06,0.005283838909495872,0.07213749591524063,0.05188489858884056,-0.061963078827036534,0.996728612974608,-1.2593444096108344,-1.8063812269480963,4.172932147979736,-3.524149589452578,-1.349144510552305,1.8964206193010147,1.0,0.4610281724685869,0.47395601397988557,0.3842619077032362,0.7986756708499296,-0.09717361965923424,0.3596310406676658,-0.4725885896030807
0.4,0.4173087606236048,-0.2861193038525712,-0.054953310819060665,-0.027864385872060315,-0.0020291061999172973,0.1656186245965139,0.051499665770271964,-0.06130123354888432,0.9967897964951593,-1.256509091633254,-1.8101881502363322,4.1722493171691895,-3.5238616209506994,-1.3498399079882473,1.896170887334135,1.0,0.46196818897486613,0.47487211020435594,0.38395582847731174,0.7986358015811821,-0.09721198328821024,0.3596386974036238,-0.47264224744279965
0.5,0.7580931462325847,-0.7389206785561855,-0.31166662801242434,0.00622166606851451,0.021515637592834827,0.23253536540020073,0.051099069303531724,-0.06061998233522611,0.9968517779762732,-1.2531085943303126,-1.8133055601071284,4.171647844164988,-3.523491596614435,-1.3503934176663237,1.8959435213422418,1.0,0.46246959547964944,0.4753866825559909,0.3835405189984528,0.7987328051390853,-0.09718883046339688,0.35956570827429724,-0.4725386107621346
0.6000000000000001,0.8303726541078487,-0.5730969428307797,-0.058427569327662535,-0.005830304266602144,0.0049386954344208655,0.2627984071489127,0.050697863460966115,-0.05993796141454038,0.9969137911072837,-1.250008232873093,-1.8169169698225436,4.171003818511963,-3.523274378574294,-1.3510033943655724,1.895703043178562,1.0,0.46386255807930027,0.47687789995358015,0.3829360128916285,0.7987056914909774,-0.0971892610083497,0.3596034093205994,-0.47255566225532797
0.7000000000000001,0.6662455522943167,-0.8699173480303595,-0.32750172462582217,-0.006326296049904022,0.010788496313178755,0.2477143580003224,0.05076887180027571,-0.060092977585081093,0.9969008510575977,-1.2469811170252605,-1.8199247169875545,4.170427684331466,-3.5230344909285183,-1.3516043972987726,1.8955607414245605,1.0,0.464487882557473,0.4775533830578713,0.3824592132662723,0.798803224761618,-0.097170905595964,0.3595547507636207,-0.47243158702547733
0.8,0.6497866174070499,-0.6259143311552056,-0.3469294836927874,-0.00018545266027984383,0.010540756015792612,0.2428528346480297,0.05086419529152675,-0.06029109429100381,0.996884051534717,-1.2439185804921418,-1.8231301742066222,4.16981544635566,-3.522819157992317,-1.3522399351853422,1.8953441859466102,1.0,0.46527343205438243,0.47835022847443104,0.3822678432354529,0.7987168962408495,-0.09718787809956843,0.3596155706546491,-0.47252775299723815
0.9,0.5616174281309585,-0.6180095174721878,-0.1336754713610192,-0.013048248139047473,0.0034167642286486504,0.23925735227321598,0.051177653636127585,-0.06067339791010739,0.9968446828829536,-1.2409967546005447,-1.826306207928145,4.169190681225807,-3.5226613583226793,-1.3529473247481398,1.8951759297130406,1.0,0.46662392919243095,0.4798179638332307,0.3817179079449472,0.7986783629162998,-0.09713871219506667,0.35960327882944443,-0.47261234120316487
1.0,0.6333229900445835,-0.7938902602206589,-0.1751912273748987,-0.004540627145088126,0.006346546842063289,0.2325115080431705,0.051504233651868694,-0.061066781097954756,0.9968039566091387,-1.23808906378426,-1.8292481116245742,4.168581171425254,-3.52249491137327,-1.3534873167621058,1.894960880279541,1.0,0.46706153618506246,0.4802262132588006,0.3814810738440235,0.7987137026387952,-0.09712948161739976,0.3595782657953153,-0.47257354537193
1.1,0.7216566030686535,-0.8156999630014212,-0.07752676346029402,-0.004660937882037762,0.008306776266087989,0.23032191241118485,0.05188891606842561,-0.061711573369220465,0.9967441516356365,-1.2354638075614788,-1.8321814550315525,4.16799313766972,-3.5223271023278993,-1.3539078181609892,1.8948261590810571,1.0,0.46792404622742,0.481113592466535,0.38110384993203666,0.7987102014418122,-0.09712758509620925,0.35957141284703553,-0.4725850668285504
1.2000000000000002,1.0132813617034349,-0.817316018960143,-0.21350769591624982,-0.0073404755972824726,-5.5323410103982375e-05,0.22911591515727558,0.05164909419578464,-0.0614025472471301,0.9967753739049802,-1.2324993669216278,-1.8351974047799915,4.16739385098324,-3.522137043413137,-1.3544224555048419,1.8946261073335497,1.0,0.46931688522939835,0.4824949009590359,0.38048232989574,0.7987045351218982,-0.0971711861571087,0.35958955526927544,-0.4725718759064889
1.3,0.9050566702092029,-0.48564144618417676,-0.19765008484919538,0.0010696702831043247,0.0014773238546111774,0.22742708958846827,0.051135365716630535,-0.06073289787630852,0.996843242066803,-1.2301042540891463,-1.8377398991259286,4.166783947181422,-3.5220514736571253,-1.3548553212104275,1.894446045128201,1.0,0.46972777802923066,0.48289371406898546,0.38029202709774007,0.7987077066862304,-0.09719326916540955,0.35961246773498895,-0.4725445383860815
1.4000000000000001,0.8418046837735851,-0.6101338770416627,-0.2858418058989439,0.0042409615301883755,0.004830715520078684,0.23034372444005743,0.05142743420926331,-0.06139723012678223,0.9967876056996341,-1.227292314908967,-1.8405634759919123,4.166350457169847,-3.5219618210647763,-1.355430281839619,1.8943086200877461,1.0,0.470841518823909,0.4839560761045365,0.37978916338904656,0.7987127308791444,-0.09722003316565353,0.35963876157742175,-0.4725105288286252
1.5,0.7122767191060533,-0.4430614661484604,-0.23778617641520056,0.004540391883016869,0.0028318465506093436,0.22654352757096866,0.05144037027571608,-0.06133515938960085,0.9967907886872667,-1.2250182791070623,-1.8429082390092675,4.1658854484558105,-3.521857655596219,-1.355887910660387,1.8941544120197285,1.0,0.47121082664635244,0.4843457212307105,0.37963549072217573,0.7987149917376503,-0.09720848117657245,0.35963405642321966,-0.47251266503814476
1.6,0.7465426573923506,-0.762079310601372,-0.39904923883369975,-0.009398201575871469,0.0015626977305421325,0.23053057496554155,0.05146279976981804,-0.061249178596113264,0.9967949221364459,-1.2224719899390566,-1.8454175760938696,4.1654538358262325,-3.5217631603620525,-1.3563675986603083,1.8939912098728542,1.0,0.4719531520728007,0.48518444688032036,0.37921440360402003,0.7987614994476817,-0.09716999539342033,0.35957449293022514,-0.4724872940400676
1.7000000000000002,0.5787230790323057,-0.5853140606457872,-0.366553146460921,0.0022678841238696545,0.0077160362746154666,0.22484892213888996,0.051594347396100186,-0.06133628287303446,0.9967827434457383,-1.2202470725121182,-1.847893854180807,4.165057952245374,-3.521713894344224,-1.3567995144723737,1.8938355445861816,1.0,0.4725870006561387,0.4858526953535361,0.3789949281632487,0.7987277533808562,-0.09715479743628698,0.35958431867913093,-0.4725399867464654
1.8,0.7379723930962339,-0.7938334888934157,-0.4338912477977621,-0.007788978292172044,0.003996328713824711,0.22995532194933752,0.05180892830680607,-0.06158040748135761,0.9967565754466734,-1.2178557287967509,-1.84999217850777,4.1646504402160645,-3.521595479681113,-1.357193973524437,1.8937271894780967,1.0,0.4735519056880493,0.48691000140014296,0.3785247665503692,0.7987411557201973,-0.0971265116222939,0.359560329242088,-0.4725414019259787
1.9000000000000001,0.5381087009529351,-0.6362152851815576,-0.3730506621933928,-0.0058037499990271,0.008638262939117937,0.22583111408639125,0.05116131174070112,-0.06050446364840586,0.9968553196386087,-1.2156653700552462,-1.8525284881940318,4.164195681241933,-3.5215597827096206,-1.357531951007044,1.8935827616290095,1.0,0.4738935580003842,0.4872627425980615,0.3785090969579876,0.7986778407539783,-0.09711120237581351,0.3595997858902016,-0.47262153468648466
2.0,0.9156683940198089,-0.40994255206613905,-0.421508421062159,0.008093523858809997,0.002829162232113573,0.22446868853795418,0.051613545088583734,-0.06135084857745235,0.9967754176189255,-1.2134268872815044,-1.8544910757860213,4.163763741888017,-3.5214759403232665,-1.357855589019392,1.8934404864007945,1.0,0.4748204818060003,0.4882034755002788,0.3778948420884363,0.7987804313075846,-0.0971271049000979,0.35956511004209013,-0.47247124747884345
2.1,0.6041339695770594,-0.5892899685697033,-0.3103310373126993,0.00021851537926363858,0.003143065516865621,0.22077548979956216,0.054118135802291516,-0.06574148193025972,0.996365627940358,-1.2113946411497614,-1.8566959338241886,4.1634421236929775,-3.5214404868358886,-1.3582618601815246,1.8933552207380706,1.0,0.4751596913622883,0.48849634153600296,0.37786155353852663,0.7987257874012165,-0.0971693777357704,0.3596062976568556,-0.4725235859259086
2.2,0.6594909795827278,-0.9123676730008016,-0.359496667637863,-0.011509215954891315,0.006009756191390578,0.22929418576450739,0.053184517306402584,-0.06409123732737596,0.9965232952241276,-1.2093136307920778,-1.8587574252335146,4.163069486352381,-3.521438756906131,-1.3586567556217661,1.8932578756319767,1.0,0.4756995622015294,0.4890990663857405,0.377611457799964,0.7987271344288952,-0.09714474778947839,0.3595972749348222,-0.47253323963862526
2.3000000000000003,0.6071121660178207,-0.9900565843038037,-0.37002018949864834,-0.008614002554151418,0.006753409190467493,0.22733813321677393,0.0529225225414014,-0.06358206383397975,0.9965693168709212,-1.2072338040313302,-1.8607185876801313,4.162625526918313,-3.521370159135273,-1.359017513159831,1.8931487275239294,1.0,0.4762913437096927,0.48970655383914785,0.37737448234837534,0.798722008041111,-0.09712978787305203,0.3596067717932618,-0.47253775283985544
2.4000000000000004,0.6963296958392853,-0.7919138063241313,-0.33581697690076673,-0.0047210466350188765,0.003497184296680724,0.22750222798158368,0.05488273181145763,-0.06690603796807972,0.9962471175133575,-1.2054940246254333,-1.8627214636510658,4.162266682450467,-3.521367475159553,-1.3593437819274166,1.8929864839861363,1.0,0.4770769965846431,0.4905005557281487,0.377039420273912,0.7987127071485718,-0.09713710582174537,0.3596055436846105,-0.47255290398353356
2.5,0.9394737719997188,-0.9892067720622508,-0.32582744505588235,-0.010219556802347964,-0.00329116203523882,0.2189533395732421,0.055129849806821216,-0.06737429799112064,0.9962034929024107,-1.2034235548909995,-1.8646117893226541,4.161858081817627,-3.521332403222555,-1.3597270204404048,1.8928811268534602,1.0,0.4776919546302476,0.49109005135284517,0.3766526247523966,0.7987722504029368,-0.09714679790375341,0.35957049101087435,-0.4724769345031292
2.6,0.7920890459607163,-0.6893210679459656,-0.285217868761482,-0.003176556422688815,0.0036419238967326066,0.22029884549529358,0.05438035411554142,-0.06615648393507248,0.9963229420772911,-1.2016174826045385,-1.8665427562092822,4.161508650852234,-3.5213123637698014,-1.360039644710254,1.892794132232666,1.0,0.4779909544448882,0.4913496734478065,0.37661801110305776,0.7987255951359089,-0.0971781833579402,0.3595879762212023,-0.4725360427641248
2.7,0.6241618778672879,-0.77441360539649,-0.4888266463885627,-0.0046197955568821735,0.008258243499265532,0.22148045064158672,0.052271841676930886,-0.06262393284749923,0.9966653989452772,-1.2000417709350586,-1.868198165544588,4.161281699197228,-3.5213316754398876,-1.3603253875023875,1.8926639807423367,1.0,0.47856937871781596,0.4919370910418688,0.37635250811452553,0.7987257174388117,-0.0971866871446713,0.3595947656261939,-0.4725289204672469
2.8000000000000003,0.8769860413478212,-0.5727090510092456,-0.48302278629798134,-0.003603938861222982,0.0026753781489470517,0.22651319999436206,0.04380621622129877,-0.0481900686569757,0.9977695098861861,-1.1980879835805702,-1.8698693064047291,4.160923480987549,-3.5213537091892273,-1.3606468749870786,1.8926360390506167,1.0,0.47919673980027183,0.49263540803788103,0.37602592113950023,0.7987514618032495,-0.0971451295408704,0.35956664413254324,-0.4725153484289377
2.9000000000000004,0.59714733300529,-0.7242652107680468,-0.3286094941746356,-0.006095832205080925,0.0028000765912291996,0.22362310776212224,0.03262533407717601,-0.0291917220246379,0.9988354389331702,-1.1964484635984285,-1.8717974074231685,4.160661789937578,-3.521306943111953,-1.3608671650464226,1.8925201068774717,1.0,0.4794771646162673,0.4929245534122592,0.3759948936812791,0.7987048867942583,-0.09714903110910028,0.3596045429597274,-0.47256443184846186
3.0,0.7786190103697405,-0.5377859893150374,-0.37581688013817843,-0.007641230790987964,0.0010378036817603902,0.22763216688958438,0.0184327198932476,-0.005230923356778681,0.9994609391695113,-1.1949935767610194,-1.8731372196279183,4.160349453332638,-3.5212961635985316,-1.361094838842183,1.8924464769571225,1.0,0.4799495552280289,0.49340356489142423,0.37568735650570856,0.7987538962784384,-0.09716075434027514,0.3595852944331676,-0.47249382749773
3.1,0.8581179991569023,-0.6054502948144617,-0.3889473757367651,0.003598663326825447,0.0036206731565595193,0.22360778141670043,0.008282716769967034,0.011899680181958833,0.9998944472263954,-1.19325793009241,-1.8745418385300752,4.160096289925174,-3.521318158344722,-1.3613591643745429,1.892341530523223,1.0,0.480549040423706,0.49399633544354493,0.37541081109601854,0.7987603060177323,-0.09717813841687244,0.35958672736572994,-0.47247832590151084
3.2,0.8221869989738991,-0.7696406040123326,-0.36379954311191043,0.002032158978639704,-0.00035538085465166647,0.22282146346076023,0.007479358721712825,0.013238655808105631,0.9998840632710021,-1.1917033811460918,-1.8763520135070708,4.1598687171936035,-3.5213313677731524,-1.3616310550368844,1.8922786096681172,1.0,0.48086185553943983,0.4942943072712285,0.3754069420042992,0.7986924667279801,-0.09718674711811161,0.35963554826879746,-0.47255407330587723
3.3000000000000003,0.5342236921090805,-0.645474756514109,-0.342781224368423,-0.0023573761012463407,0.00771581080890218,0.22099987444871227,0.00833888883372029,0.011810973656148733,0.999893689297393,-1.1902991329008568,-1.877848735663708,4.159607287049495,-3.521332403222555,-1.3618624270179467,1.8921874801857541,1.0,0.48139547095802704,0.49490217858599367,0.37504694593583876,0.7987522352230136,-0.09717187250540452,0.3595879492209323,-0.47249232871562835
3.4000000000000004,0.6527709281136295,-0.5975438456829237,-0.3370445348704214,0.006985650442037222,0.00874065822122436,0.22241305340989878,0.010466314271557744,0.008270781857278508,0.9998992332151121,-1.1888914108276367,-1.878988108688017,4.1593870740109535,-3.5213330866014596,-1.3621123472796839,1.8921338290898284,1.0,0.4816825217555683,0.4952042766201878,0.37486947849909874,0.7987818803416378,-0.09715525356430135,0.3595747568689053,-0.4724556683599014
3.5,0.6893484953501102,-0.5751112386969068,-0.379560704462039,0.002010291414536819,0.007515002744254257,0.22045133686017404,0.014694039979686432,0.0012285535658483494,0.9998813346554735,-1.1874455825809274,-1.880320459400904,4.159171839146177,-3.5213462505646045,-1.3623643942415438,1.8920614143508756,1.0,0.4820325386241383,0.4955647040805738,0.37483219367384324,0.79872360205531,-0.09715367371634212,0.35958575945616283,-0.47254613827598235
3.6,0.6207963783531014,-0.535367196083937,-0.24627175126877454,0.007251113171396548,0.00993667580297917,0.2242614294798828,0.015901963908760888,-0.0007889302960276472,0.9998730702954013,-1.1861025205027487,-1.8818311162072683,4.158935639317815,-3.5213347181130756,-1.3626049820478372,1.8919680885365726,1.0,0.4825323324647461,0.496069788981275,0.3746782148976335,0.7986889511795826,-0.09716498758243002,0.35960659017558283,-0.47258652620875125
3.7,0.8604583248893738,-0.6848924074017336,-0.19310142869855412,-0.0033101104247070003,0.006911329951527262,0.22295407529622172,0.016209895912252567,-0.001308888907709209,0.9998676772171066,-1.18479785494933,-1.8831608996076157,4.158695299028504,-3.5213820723682465,-1.3628159725908606,1.8919381444960819,1.0,0.4828081954593579,0.49639671396394913,0.37447866394055535,0.7987223758885977,-0.09715391829999515,0.3595766755538279,-0.4725550727814576
3.8000000000000003,0.9864815854996325,-0.7410516781669778,-0.19014835565259608,0.0007021376299075188,0.008211259044291493,0.22232131583932246,0.016878524708401052,-0.0024591130563603398,0.9998538305002399,-1.18341186423111,-1.8843153155163548,4.15848970413208,-3.5214160143019178,-1.3630239269133964,1.8918473297770575,1.0,0.48326135384491686,0.4968569057776309,0.3742439158226626,0.7987482381812426,-0.09713030713353465,0.3595904953542354,-0.4725056942401876
3.9000000000000004,1.0611083536697432,-0.7555105315282341,-0.3197608579925928,-0.003801676934952843,0.0024584719260456658,0.222750232182372,0.017365539088883993,-0.003286923144098932,0.9998436533632626,-1.182225191267386,-1.8854052995369237,4.158285549865627,-3.521466451802029,-1.3632272212245722,1.8917756080627441,1.0,0.4834909176108542,0.49708626576932635,0.3741820826057723,0.7987257063852394,-0.09714651209135444,0.35958493682682297,-0.4725446797448196
4.0,0.9099606723688094,-0.8246471843512723,-0.3581917197730022,-0.003797268273584016,0.0042436733782782125,0.22135295164492733,0.016970066270945702,-0.002557525568488831,0.999852400463229,-1.1810055232270698,-1.8867727670270449,4.158073968534451,-3.5214649995786242,-1.3634093370782157,1.891705949363704,1.0,0.4837642505938904,0.497360051950165,0.3741139704984876,0.7987143622991738,-0.09714352512531013,0.35958142599979565,-0.4725671392079711
4.1000000000000005,0.7035010900470686,-0.822502865396352,-0.34177888687192826,-0.007753037542686712,0.005284458090004286,0.2200528166725014,0.01701615358986452,-0.0026079498502497773,0.9998505263909856,-1.1798573480605723,-1.888015133126989,4.157870523614048,-3.521468319917679,-1.3636215368853968,1.8916573524475098,1.0,0.48427884358246803,0.4979297471758449,0.3738075896253981,0.7987395676582383,-0.09713029505044624,0.3595529748867301,-0.4725489044433884
4.2,0.5972020905512838,-0.4930880455588772,-0.25431659452881195,0.0025347245148460975,0.004587437716932753,0.22354920649507767,0.018451745208134206,-0.005112322604935231,0.9998152295452223,-1.1784604313688458,-1.8891774978313658,4.157625364987355,-3.5214867680063637,-1.363821129223815,1.8915891874061441,1.0,0.4845161573407589,0.49814830273255767,0.37364876219553717,0.7987667373805497,-0.09713149300847954,0.3595592086419355,-0.4724979870868876
4.3,0.7386522531030265,-0.813223465789257,-0.33112552331876144,-0.0028569563553836443,0.006694043934373998,0.217246773039695,0.016860260857129487,-0.0024329506207540525,0.9998517844080875,-1.1770979229186902,-1.8903087278977777,4.157459735870361,-3.521481620414403,-1.3639947575628057,1.8915208071939165,1.0,0.48496940448532816,0.49860427839998167,0.3735600897356547,0.7987072672138236,-0.09714853142742708,0.3595936882105592,-0.4725687712285343
4.4,0.7113069945956817,-0.8529654009172093,-0.2895475383139472,-0.008532513790937845,0.010408859419473495,0.22047053527866486,0.017830993163755634,-0.0040911531117375655,0.9998257077384509,-1.1760492415593482,-1.8915797099555212,4.157189016063387,-3.521503592300569,-1.364207147957784,1.8914552926530974,1.0,0.4851731927227159,0.49879489399155846,0.37356566115221385,0.7986619079656399,-0.09715194389371205,0.3596362692250044,-0.47261232571768275
4.5,0.5524371339472237,-0.7270526902003333,-0.3535555689107153,-0.005668915028544758,0.006953625206302605,0.2205387570340275,0.019794474896921488,-0.007444287350162305,0.9997763390549778,-1.1749391687404487,-1.8927130464692894,4.157001111402028,-3.5215442085081965,-1.3643878906241929,1.8913761845371329,1.0,0.48547272362655364,0.49910502533690354,0.3733258598425607,0.798714277367462,-0.09715600448273873,0.35959408188067465,-0.4725550869461863
4.6000000000000005,0.9459493461569486,-0.8772908488147121,-0.26760685257595107,-0.009897339435306891,0.0030820165699606984,0.2218936275257847,0.01959207600453203,-0.007150377242117587,0.999782463917152,-1.1734810516600043,-1.8940275767233186,4.156775895267648,-3.5215635689985723,-1.3645556608783167,1.8913322697346415,1.0,0.48599141827493025,0.49961380303633435,0.3730287012014019,0.7987600825373243,-0.09715505294235771,0.3595802840932259,-0.47248835490853053
4.7,0.8531036951379807,-0.6471214875229041,-0.17369548435028695,0.0005758690989926905,0.005381855677604207,0.21963196645679853,0.01962769389954574,-0.0072345506594180455,0.9997811593560968,-1.172099735629174,-1.8952385406386452,4.156570911407471,-3.5216635568796346,-1.3647389311733116,1.891249179840088,1.0,0.4861773794003766,0.4998032036724198,0.3730106526901712,0.79871681922395,-0.09716359346573573,0.35960471423967305,-0.47254113925689545
4.800000000000001,0.757226821630711,-0.6258590444226952,-0.17194132970600318,-0.006744246256803924,0.0014645078622579732,0.2202684998700125,0.019732572929030835,-0.007425931930679277,0.9997777140998223,-1.1709927723142222,-1.8965551218260877,4.156390703885955,-3.5216804943480433,-1.3649638334857386,1.8912129402160645,1.0,0.4866534476248828,0.5002810961037925,0.37287906181666336,0.7986731414238436,-0.09718315515842911,0.3596315518303934,-0.4725905145574598
4.9,1.0973447362554274,-0.8262582983918884,-0.3011306582214185,-0.012272818179525039,-0.0005790421312230286,0.22804905454739033,0.01966288665783125,-0.007327175446494669,0.999779814610391,-1.1698959962284305,-1.8976727740207129,4.156177053206599,-3.52170248434803,-1.3651412723992997,1.891118461676227,1.0,0.4868428878188223,0.5004721749189357,0.3727389946119445,0.7987050595472942,-0.09716974317952706,0.35962147498317815,-0.472546996175937
5.0,0.8576510003815936,-0.5214846830549414,-0.287642703246091,-0.005555007130951763,-0.003448457221816948,0.22350796495884645,0.019881831401017885,-0.00768930790466974,0.9997726335086332,-1.168589234024859,-1.898829525936924,4.155985355377197,-3.5217232543364267,-1.3653661460060582,1.8910673860007758,1.0,0.48715893918946274,0.5007990044037437,0.37250118022919076,0.798759871525649,-0.09715990183440583,0.3595903314250747,-0.47248006800442155
5.1000000000000005,0.7519980219280156,-0.5300180173842282,-0.26034997492336526,-0.004572794604252018,-0.0007910184185201353,0.22302915571994333,0.020146346356633187,-0.008112189367349252,0.9997641131635995,-1.1671084468565218,-1.8999630690580476,4.155763698838335,-3.521757203933368,-1.3655341919240953,1.891040863199099,1.0,0.48749774199460094,0.5011543975287925,0.372389802178803,0.7987386555371938,-0.09715815626974629,0.35959309639157067,-0.4725141879863736
5.2,0.6412970583314682,-0.5840118212969729,-0.31339408130735436,-0.0008679631491453716,0.007724968149126329,0.2182578492249707,0.019929794855143314,-0.0077131348579878335,0.9997716270522553,-1.1657983988459955,-1.9014402372761925,4.155585928614984,-3.521846550870425,-1.3657323777934354,1.8909505853802433,1.0,0.4879690063730016,0.5016386105971186,0.3723439095957336,0.7986610205560942,-0.09716509318289704,0.35964164479728233,-0.47260703151620875
5.300000000000001,0.5360971456675848,-0.40302604054843294,-0.3639370579293816,0.0025579660807561887,0.01011968992898936,0.212151931974165,0.019850772520133765,-0.007585738942023867,0.9997741715807237,-1.1646899559483384,-1.902768092570718,4.155338462390322,-3.521860261956686,-1.3659137687746012,1.8908782005310059,1.0,0.48818011398967687,0.5018794710822364,0.3721687322095386,0.7987021183034184,-0.09716145165780751,0.35961449498581843,-0.47255898417602255
5.4,0.37466892197442814,-0.40562370688013094,-0.3056594552908618,0.0006148525914547484,0.009198765192235845,0.20967963869279665,0.019936478045567314,-0.00775197885574337,0.9997711342027779,-1.163539061761388,-1.9037029396574483,4.155154213082082,-3.5219084225096644,-1.3660830379655284,1.8908295631408691,1.0,0.48843899780056893,0.5021545941571889,0.3719423294419165,0.7987551179579029,-0.0971600990467303,0.3595802083369769,-0.47249576766530116
5.5,0.6722687045805311,-0.6548854089384208,-0.39646762852626466,-0.0017681990051422458,0.010287423515014826,0.22526518836131032,0.02011376200403217,-0.008081462006471649,0.9997649936324433,-1.1620414748614432,-1.9048427426159202,4.154953148723047,-3.521979163777768,-1.3663301847814129,1.89077007670247,1.0,0.4888077850681817,0.5025117384485449,0.371733323306151,0.7987761568902496,-0.09716576585297701,0.3595695615059287,-0.4724671370246636
5.6000000000000005,0.7145002076057319,-0.6151246109503741,-0.3717734585602618,-0.0016316437946927182,0.009381869949578944,0.22542074240122614,0.02047503854644729,-0.008679242442466697,0.9997522240985278,-1.1607113598448635,-1.906127078570087,4.154747630945454,-3.522006579571539,-1.3665450255023401,1.8906787408362076,1.0,0.48914408104571466,0.502827209737726,0.37172171006923505,0.7987158310899799,-0.097174593878735,0.35961115241143166,-0.4725356478955505
5.7,0.7157133041175301,-0.6456421776683648,-0.3134120747403124,-0.0029875931438894995,0.008193014338901556,0.22207953411741532,0.02094227154665696,-0.009431528181732256,0.9997356371199914,-1.1595217848814592,-1.907583597695999,4.15456734161368,-3.5220496662534715,-1.3667339529619673,1.89064883660884,1.0,0.48966854986774866,0.5033813369424022,0.37156478081435995,0.798673951092411,-0.09717343136993388,0.3596326450073428,-0.472590313831391
5.800000000000001,0.5395779328507518,-0.5657662784053001,-0.4428211586387096,-0.0029141752303955015,0.00709336428811337,0.22139613999655353,0.02136759868993091,-0.01012134846135921,0.9997204486334064,-1.1583776427752555,-1.9087850808125766,4.154363414196718,-3.5221189542983025,-1.3669632868936312,1.8906011791333197,1.0,0.4898968796584452,0.5036705075872749,0.3712868968785837,0.7987601663369728,-0.09715402184907032,0.3595628563481681,-0.47250168787701546
5.9,0.679406045649931,-0.7049674564592796,-0.452774960160221,-0.006793664661667683,0.007786939050719116,0.21883496633096283,0.02146710091993391,-0.01031229837705714,0.9997163606426638,-1.1569262647909326,-1.9098084918948521,4.154159690097258,-3.522157952542226,-1.3670958144419239,1.8905082297465405,1.0,0.49031204172392373,0.5040676975646555,0.37107144987792284,0.7987766072545857,-0.09716233247306678,0.3595602733148468,-0.4724741503034843
6.0,0.7363541455674013,-0.7229849725792269,-0.5208721771641863,-0.0043663567616845375,0.006457839074255921,0.22258950767763389,0.021333470937825012,-0.010051901871881036,0.9997218395917962,-1.1555951952678756,-1.9109141609681184,4.15393841644218,-3.522212952363371,-1.3672991515875565,1.8904473700390512,1.0,0.4905230342643309,0.5042610929054065,0.3710912282270178,0.7987243462898458,-0.09716543194060882,0.3596011124804079,-0.47253077929644594
6.1000000000000005,0.7137987575616459,-0.5455495568548033,-0.34550790685063176,-0.007342934308616293,0.003663839813149339,0.22563041268306727,0.021222749852005906,-0.00983805828187811,0.9997263628212771,-1.1543943716213536,-1.9123078284929194,4.153768691787491,-3.5222943361294305,-1.3674911313038403,1.8904193002265055,1.0,0.49098767597173965,0.5047496640627919,0.37098546548364847,0.7986815446596537,-0.09715280768579376,0.3596181759156729,-0.4725927313553618
6.2,0.736386233376652,-0.5006295890575002,-0.2873194370692844,-0.0029151458933422917,0.007598841137008436,0.22134364394416609,0.021316123194718792,-0.010038952726330418,0.9997223715831198,-1.1530478536583093,-1.9135314570921615,4.153575858252486,-3.5223285160460414,-1.3676620164722533,1.8903283683232863,1.0,0.4911773744746976,0.504937743313743,0.37085166133528086,0.7986981722069627,-0.09717389951364261,0.3596103911620758,-0.4725662170900799
6.300000000000001,0.5975031551893502,-0.3516251241971883,-0.2903453406929655,0.00029949875030464874,0.008308724514656649,0.2209373495367562,0.019928542244625307,-0.00767744707771003,0.9997656666571098,-1.1517041288290646,-1.914801233816228,4.153411943396343,-3.5223753196613887,-1.3677931858449204,1.8902642857987446,1.0,0.4914701171172361,0.5052794195983388,0.3706650849626217,0.798722037070826,-0.09715809483794546,0.3595868377394727,-0.47254705398448593
6.4,0.9454020809920449,-0.6142336827607221,-0.18805407163154125,-0.003233359346945867,0.0013481257297811144,0.22433018615323205,0.01770461064151979,-0.0038694891934250002,0.9998357711793532,-1.1504932876579501,-1.9158773820094654,4.153219166710042,-3.522449324807486,-1.3679978920109668,1.8902111316381625,1.0,0.49198680994574484,0.5058510664504741,0.3704213670524598,0.7987208859829948,-0.09715667286450416,0.35958163930412335,-0.472553247674586
6.5,0.7388020020557116,-0.6092255720610006,-0.22744482085698692,-0.0004115745374048533,0.0078114407500238184,0.21985993315598637,0.017785529666743453,-0.004057281780207807,0.9998335830859629,-1.1492343249283439,-1.9170829658117754,4.153011798858643,-3.522496362725729,-1.3681748549090784,1.8901715278625488,1.0,0.4921591159704336,0.5060100530133476,0.3703836107216996,0.7987032732519633,-0.09717268921821098,0.3595980706540552,-0.47256721992599293
6.6000000000000005,0.5154223441009992,-0.699393115407017,-0.34189819778765773,0.002515935439475342,0.00599438382148539,0.21773240670598001,0.018140611423025924,-0.0047148298000654195,0.9998239494413622,-1.1479322864683372,-1.918444348695667,4.152786222993353,-3.522551866044289,-1.368387413232803,1.890090518318571,1.0,0.4925922658588942,0.5064476579784131,0.37016825364371264,0.798728118168121,-0.09715136230204785,0.35960276055223217,-0.47252604230209666
6.7,0.5012976770978198,-0.819393903122171,-0.31124693188744423,-0.0046828503512490694,0.004159058413896922,0.2201427275903387,0.018696044473309605,-0.005714154410920412,0.9998088807041431,-1.1464074665895327,-1.9197031412514942,4.1526297659029945,-3.522685727851429,-1.3685491113043744,1.8900260669112625,1.0,0.49281161805039764,0.5066486606741767,0.37001131862146813,0.7987609818757959,-0.09716330421549091,0.3595906523836172,-0.47247724692842835
6.800000000000001,0.7541830010912021,-0.6787737672439356,-0.33824415989217865,-0.003983183627833859,0.00624308991179997,0.22270708458563515,0.018384265617481927,-0.005101405897929821,0.9998178591114628,-1.1451949584774854,-1.9208964387138006,4.152430549772775,-3.5227749206717713,-1.3687556271577885,1.8899705939176605,1.0,0.4931497841236344,0.507022029463776,0.36995114956875197,0.7987052965857712,-0.09716614268577872,0.35960951586217715,-0.47255643686524096
6.9,0.40107216423953806,-0.1830506919970466,-0.23073684950866508,-0.0023792346900460186,0.0016173911664957466,0.21945254184697688,0.0182606890812577,-0.004857054193611958,0.9998214563003649,-1.1440246930249705,-1.9221264518437522,4.15220800732293,-3.5228312250837512,-1.3689326017788745,1.8898975779878127,1.0,0.4936086748983789,0.5074863781652283,0.369785339148428,0.7987062973110667,-0.09715709544669979,0.3595925989832357,-0.47256947869756516
7.0,0.7957646197617732,-0.5729978732958436,-0.3482878674528982,-0.0018312740900898183,0.007873353082300256,0.22719045999669824,0.018331506008868115,-0.0049932181591031315,0.9998194952491238,-1.1438936318143098,-1.9222875586012986,4.152172760426198,-3.5228592568474233,-1.3690224553660688,1.8898737865098374,1.0,0.49382489313033945,0.507703453272897,0.3695936980736605,0.7987405694253236,-0.09715435362888859,0.3595850845512301,-0.4725178317199757
7.1000000000000005,0.8261182018016355,-0.6754003569069359,-0.18144602166780915,-0.007179275851392443,-0.00048759239843048415,0.22077195410293468,0.018385244461453,-0.0050727731796321235,0.9998181060065175,-1.1438213828656314,-1.9222961864867152,4.1521614261668365,-3.5228207590752723,-1.3690353988976698,1.889873321965444,1.0,0.49395815165351575,0.5078215342137635,0.3694727162534019,0.7987886480614973,-0.09714443759773822,0.3595586959007607,-0.4724586735091745
7.2,0.7168309253566509,-0.16782591817770065,-0.3708697244903605,-0.008807270172030469,0.0019550332446935915,0.2269222542481515,0.018498550949461876,-0.005252676664146555,0.9998150466508987,-1.1436776219829654,-1.92228426555776,4.152172520708279,-3.5228540209232464,-1.3690259789076058,1.8898758281667325,1.0,0.4939593222583374,0.5078139252175873,0.36951010244446814,0.7987662843691162,-0.09714288065404794,0.359563602631503,-0.4724930680507852
7.300000000000001,0.616017477594625,-0.637848099431354,-0.2886294064266044,-0.006317591863866028,0.0033654190276720944,0.22054659871389853,0.018677811271450982,-0.005544200507880211,0.9998101364252754,-1.14367614076162,-1.92230674187146,4.15217514605571,-3.5228541264224673,-1.3690324797756999,1.8899064713698521,1.0,0.4939662088530146,0.5078507836949107,0.3695885698244148,0.7987259683281464,-0.09714737686410349,0.3595882034122359,-0.47254157346571063
7.4,0.6703314211543878,-1.0206728061473598,-0.2385950013462451,-0.009059262042676266,0.004677561982612423,0.2192632775546001,0.018789785921806957,-0.005754029324338079,0.9998068953220928,-1.1436691284179688,-1.92234882988931,4.1521814304400815,-3.5228335318944963,-1.369033071198008,1.8898675876666438,1.0,0.49397665957471565,0.5078417705989738,0.3696025102331939,0.7987142025859767,-0.09715255757224049,0.3595999835198966,-0.4725514310602709
7.5,0.6261834126807683,-0.7320766474176279,-0.39645190436723476,-0.009059415227633209,0.005854498559163082,0.21933506582794116,0.01882467118858504,-0.005870259917857671,0.9998055665371932,-1.1436460571231963,-1.922308893390071,4.1521382331848145,-3.522843206450921,-1.3690356375352244,1.8898959159851074,1.0,0.4939837010185195,0.5078325527920974,0.3696017952241658,0.7987094800667703,-0.09716713819221516,0.3596102002140142,-0.472548640468937
7.6000000000000005,0.6040610997354946,-0.7592237713673701,-0.4309952361454844,-0.009314019904164687,0.007250614145757496,0.21891584632125405,0.020864624421064012,-0.0092632221923605,0.9997348774111281,-1.1436452865600586,-1.9223443470396937,4.152208460825023,-3.5228327050518646,-1.3690477274234947,1.8898963486296145,1.0,0.4939831669223138,0.5078438583632711,0.3695880470387447,0.7987160460397938,-0.09715656378429897,0.3595945402838664,-0.4725516336975463
7.7,0.7345567592030966,-0.5865566912941145,-0.2649713497844003,-0.003069813289388555,0.006269032505573026,0.2133974706081963,0.022006755706410152,-0.011178148269463105,0.9996953257971851,-1.1436729547695745,-1.9223109269599161,4.152134406833209,-3.5228376951735956,-1.3690143577511575,1.8898875701341395,1.0,0.49396965856585556,0.5078615234415667,0.3695626152527707,0.7987291622388096,-0.09714676719758651,0.3595859623650574,-0.47253800554277403
7.800000000000001,0.7298110589802528,-0.5589225841139768,-0.31219896311668305,-0.0035128778030636175,0.00684356432266389,0.21386403610072466,0.021927209156553055,-0.011083225269450681,0.9996981335598408,-1.143679475369004,-1.9222966991904846,4.152139258592354,-3.52284295160652,-1.369013206366422,1.8899067551317614,1.0,0.4939740840714069,0.5078495612008828,0.3695832979885807,0.7987228649387579,-0.09714911721903628,0.3596019634439735,-0.472535990094748
7.9,0.9375297469187234,-0.7446060836516917,-0.4192296581041738,-0.0079719689384733,0.000831057475964579,0.22205509566806453,0.021865349300474533,-0.010972171326622962,0.9997007098373857,-1.143701237074011,-1.922323291511092,4.152141496351281,-3.5228103610472377,-1.3690230284778162,1.8899278619690432,1.7730239461935442,0.4939740690199845,0.5078553328226608,0.3695786931659977,0.7987221510499831,-0.0971620250632071,0.3595933719198568,-0.472541080943247
8.0,0.7066266007948402,-0.5089120074571591,-0.4052101911169607,-0.0017151202114453576,0.004263328300151616,0.2160038139392675,0.021143872219313894,-0.009744421377028068,0.9997255883296764,-1.143665341182223,-1.9223443470396937,4.152117742917771,-3.522832056085104,-1.3690085393860507,1.889895729129914,2.0,0.49397345076135835,0.50786220831668,0.3695778600090429,0.7987201839054133,-0.09715907461209095,0.3595914117770186,-0.47254650418645106
8.1,0.7143166657632911,-0.5368055402397328,-0.26061070701074385,-0.006043989939958153,0.0049223420756718955,0.21882897133218193,0.019543749933076535,-0.007033211329671416,0.9997801424323043,-1.1436691284179688,-1.9223241548770704,4.152171649391902,-3.5228214925681374,-1.3690254592998268,1.8899055989272437,2.0,0.49398266926660084,0.5078488252837647,0.36958176551406285,0.7987199946861467,-0.0971553932020668,0.35959913666845755,-0.4725417024640404
8.200000000000001,0.8185963495128167,-0.4519553151164275,-0.33361530200705347,0.0016506411559761205,0.0011392419073757484,0.22051346381939244,0.018911566014911094,-0.005959004720474463,0.9998031603634261,-1.1436275011671606,-1.9223630343833915,4.1521398826293625,-3.522840540671251,-1.3690036963727361,1.8898640663782085,2.0,0.49397835121257405,0.5078487879844586,0.36958567174061996,0.7987154011537694,-0.09715413874547137,0.35959532079358986,-0.47255262833652056
8.3,0.7381517643620565,-0.6207347088609101,-0.3831533899670663,-0.0081647954533704,0.004339982919933946,0.21605458766931826,0.01974660270173483,-0.007367563493671798,0.9997761807766049,-1.1436821881746033,-1.9223457261866128,4.1521388951753355,-3.522832056085104,-1.3690149392527216,1.8898879473435468,2.0,0.493977387267771,0.5078536248284987,0.3695684969469391,0.7987273542466483,-0.09715087438704821,0.3595949143308388,-0.4725334049264427
8.4,0.6369111396792352,-0.5697112545572269,-0.2979241888533208,-0.008031601731747683,0.005294183304408097,0.21383656325991474,0.020756617696238714,-0.009074018598837216,0.9997403299598784,-1.1436452865600586,-1.9223274191540658,4.152135041557106,-3.522863004490553,-1.3690098887927606,1.88987708108387,2.0,0.49398057622274993,0.5078602680457958,0.36953823381567175,0.798738890447925,-0.097161224474848,0.35956733026230586,-0.47253276749089473
8.5,0.6596349656582083,-0.6309170373168167,-0.27373143912524106,-0.005509664165064582,0.0024499751750281322,0.21494492562772063,0.0217666326907426,-0.010780473704002634,0.9997044791431517,-1.1436628015780133,-1.9223324261107386,4.152141689215878,-3.5228741457119246,-1.3690022570451115,1.8899083137512207,2.0,0.4939874318822475,0.5078399907693881,0.36956943344993737,0.7987266088472385,-0.09714663600409912,0.3595925724082646,-0.47253731842181984
8.6,0.5920387365318088,-0.6117570679068355,-0.25245882596928465,-0.009258885003690577,0.0012092363714972271,0.21418357968229465,0.02204067962239329,-0.011276140838099614,0.9996933979568557,-1.1436567306518555,-1.9223443470396937,4.152145150075915,-3.522818589563845,-1.3690087225133327,1.8898756709105697,2.0,0.49400468179406043,0.5078427574179498,0.36954878650144724,0.7987304326578969,-0.09715916285086051,0.35960176626405344,-0.4725212828222892
8.700000000000001,0.6307150347956436,-0.6787444324538846,-0.3668713090281497,-0.009639476358178486,0.005843353767171616,0.22042956863225754,0.022232770403734975,-0.011636976685408792,0.9996850750744279,-1.143667920281838,-1.9223556639005834,4.152160238675806,-3.5228666107358384,-1.3690360228167933,1.8898862599347839,2.0,0.4939966784943213,0.5078424372129082,0.3695693871662061,0.7987186907947856,-0.09716674939411775,0.35960481198773636,-0.47253725248122946
8.8,0.6214444356764848,-0.3184757154305313,-0.1512733507081655,-0.002037806651831047,0.0020121268983621446,0.22275205715393018,0.021686675940642344,-0.010677964482590608,0.9997073317829088,-1.1436691284179688,-1.9223324261107386,4.152146979937502,-3.5228308568850277,-1.3690058326063481,1.889904662737795,2.0,0.4939838525426507,0.5078543847238003,0.36954965285657687,0.7987393383664655,-0.09714025572374428,0.35959052689254095,-0.47251866950732385
8.9,0.853987789763798,-0.5188981498078751,-0.3880483309485172,-0.005935880180888328,-0.0034966931327682083,0.21974782319491892,0.02110869134652253,-0.009661696687669133,0.9997302978149325,-1.1436672641399999,-1.9223580605436188,4.152141818334755,-3.522832056085104,-1.3690038451798683,1.8898844718933105,2.0,0.49397453093701965,0.5078522180573607,0.3695409188352582,0.7987476400445098,-0.09715588241142373,0.3595732262142209,-0.4725145892203548
9.0,0.6220751345763136,-0.4859459207467147,-0.2931045756031891,-0.012236531527801046,0.0029425177187934544,0.21498198854031886,0.02062913046618584,-0.008821021708273482,0.9997481933263337,-1.143659067161824,-1.9223443470396937,4.152125835418701,-3.5228469113662118,-1.369012180958883,1.8899014839528512,2.0,0.49397030033575434,0.5078643007144528,0.3695513114111492,0.7987360631219338,-0.09713299452692929,0.3595828163682829,-0.4725315661576052
9.1,0.7955212072353866,-0.6240783678171832,-0.33584572567557,-0.01708175397808383,0.0006870599661568336,0.2117997110971845,0.021557662323342518,-0.01044966046128579,0.9997114707340171,-1.1436675454889025,-1.922362356157365,4.152127418347767,-3.522833578132283,-1.369022579840659,1.8899275285857065,2.0,0.49399034527428815,0.5078475084158964,0.3695794359548348,0.7987187928101291,-0.09715445668289109,0.3596077025275805,-0.4725374078752043
9.200000000000001,0.6543792585163911,-0.39914421279115725,-0.287192121467701,-0.023106493576615525,-0.00692190871773129,0.2173107468156154,0.022429325747881805,-0.01195185348129346,0.9996769062720645,-1.1436583159454317,-1.9223464923715463,4.1521476177580325,-3.522832056085104,-1.3690338774849407,1.8898959159851074,2.0,0.49398777042051617,0.5078397837439211,0.36956133690585546,0.7987335426646415,-0.09716209849494711,0.3595952558094545,-0.4725203767434612
9.3,0.045465225827143296,-0.901678668826696,-0.27367062598985137,-0.0006487705683518986,-0.03837854053987304,0.21840728062451614,0.022774487169293926,-0.012480883984904916,0.9996626750898884,-1.1436503996479808,-1.9223174718006641,4.152121209546229,-3.522843977014059,-1.369012180958883,1.8898895849812327,2.0,0.4939917063480649,0.5078584625370958,0.36958862987260593,0.7987087404859499,-0.09715643991233197,0.35959793693148,-0.4725614222612047
9.4,-0.026863906334787465,-1.0746653168330906,-0.4643192890599215,0.0283943851662915,-0.040690486708992446,0.21776642918191103,0.021160654192219967,-0.009761124878941893,0.9997210213424548,-1.143681526184082,-1.9223640728993363,4.152146933277766,-3.522829312086259,-1.3690149249577281,1.8899445533752441,2.0,0.49397285840808763,0.5078718193560444,0.3695867528800393,0.7987088639293206,-0.09714510015428997,0.3595935009603382,-0.4725669204079292
9.5,0.17718737610274773,-1.6480264649971974,-0.45533839061693065,0.04495939087431429,-0.05078940974817245,0.21313521060450405,0.019172951494009764,-0.006421341506293575,0.9997932188369181,-1.1436583423060287,-1.922333975778213,4.1521697618197155,-3.5228455266815333,-1.3690479437457483,1.8898699280402464,2.0,0.4939870588374492,0.5078527764406869,0.3695651754873166,0.7987253990912193,-0.09714667341521975,0.35960049823046325,-0.47253332407707727
9.600000000000001,-0.3881761088422504,-0.844124039264959,-0.03499085482926845,-0.017863129884292187,-0.11491150105618383,0.2182246559653618,0.019739531757224378,-0.007362492899386909,0.999776793709768,-1.1436830766221304,-1.9223562679686488,4.1521382331848145,-3.5228336711247374,-1.3690463287061145,1.889878534285732,2.0,0.4939735107894114,0.5078727605087686,0.36958092709345997,0.7987155395416817,-0.09714938709881178,0.3595863947495931,-0.47256016356857156
9.700000000000001,-0.713354590266896,0.030332371669489322,0.8516997976990374,-0.05811165458473362,-0.1348738078567934,0.21315877839589986,0.0203046131289462,-0.008307105260543134,0.9997591284243148,-1.1436645719984704,-1.9223681888976039,4.15213459776389,-3.522840818430293,-1.3690391814005594,1.889905868573564,2.0,0.49398778043351943,0.5078533099285875,0.36954234359767685,0.7987437509892742,-0.09714683399113769,0.3595853698205227,-0.4725137825631337
9.8,-0.8774313629380239,-0.12982091224643022,1.5817594567257738,-0.06801454304525398,-0.16531542449565412,0.21199151041912367,0.019776826543060965,-0.007432665266981121,0.9997766604293663,-1.1436691284179688,-1.9223624361313254,4.15215993674633,-3.5228460330682845,-1.3690023160841536,1.889898054281502,2.0,0.4939945418878924,0.5078510432852437,0.36954162706743526,0.7987377194862759,-0.09716478690498981,0.3595789396888508,-0.4725251800569076
9.9,-0.9900947529964775,-0.3310501228157116,1.806304422322426,-0.07495876167637609,-0.1838356903913275,0.21118831982883224,0.01927090085590851,-0.006582788459555573,0.9997923542312162,-1.1436799874756762,-1.9224013341844282,4.152151395642558,-3.5228465945140996,-1.3690241018878382,1.8899189634089248,2.0,0.4939886193080302,0.5078589741110981,0.36952074044536765,0.7987520798782337,-0.09715532069313698,0.35957186945555053,-0.47250823193617547
10.0,-1.1245279292431358,-0.6871656143702793,1.648949972284199,-0.04772361097895626,-0.18740728511954635,0.2130379104596361,0.018478294154353633,-0.005236209623099974,0.9998139961859589,-1.1436592527969447,-1.92235162245822,4.152164597187814,-3.5228222585214883,-1.3690479437457483,1.8899131640302382,2.0,0.4939969728977699,0.5078542178436529,0.3695212052677188,0.7987502654579365,-0.09716210047962609,0.35957597067760944,-0.4725067840492009
10.100000000000001,-1.3892617494712267,-0.7035246122680789,2.011402803901022,-0.020352317784986036,-0.2134844530947254,0.20802999736309302,0.01699966004885596,-0.0027083568449200474,0.9998506348019598,-1.1436617859926055,-1.9223774480418123,4.152174472808838,-3.5228033533226264,-1.3690550037701361,1.8898912495167228,2.0,0.49399302723716126,0.5078827098626554,0.3695417810810969,0.7987218839246488,-0.09715544655866849,0.359585652398521,-0.47254875931799445
10.200000000000001,-1.7892714443531372,-0.717733166568473,2.18837379714067,-0.022009972302114586,-0.26483726152677695,0.21345783929714826,0.01734567505807489,-0.0032923823632288814,0.9998433459122414,-1.1436691284179688,-1.9223562679686488,4.152174472808838,-3.522832056085104,-1.3690397936778602,1.8898880919199348,2.0,0.49400901658960306,0.507845799054001,0.3695509773766844,0.7987254450638018,-0.09717606121019123,0.3595885369784741,-0.47253630612788444
10.3,-1.989578524374303,-0.43617671387566515,2.211304853610531,-0.04035421469021444,-0.28865808549024935,0.21291817631552337,0.01831553863502498,-0.0049302142841980865,0.999819001616842,-1.143675757598234,-1.9223562679686488,4.152166041798752,-3.522843977014059,-1.369026875246419,1.8899054294582966,2.0,0.49398280144066825,0.5078628946957252,0.3695516713776455,0.7987315803607405,-0.09715136407963501,0.35957942454469505,-0.47253794814385636
10.4,-2.1189608409232115,-0.278523754848777,2.2740692696419145,-0.061453176008991126,-0.3046796627102762,0.21132577002899924,0.019618296574864233,-0.007109146113704943,0.9997812959386847,-1.1436713666748326,-1.9223513835892019,4.152142922189084,-3.522875136883458,-1.3690149131682685,1.8899126180913437,2.0,0.49397327292498466,0.5078670368018087,0.3695579588314072,0.7987323513321682,-0.09713902007977424,0.35958227175915236,-0.47253701606313786
10.5,-2.208850609858713,-0.11741092843139095,2.408298494776834,-0.07544107199939415,-0.3184182763268878,0.21107921245049388,0.019904989983049386,-0.007627714081480652,0.9997727784871461,-1.143689780323893,-1.922369238223915,4.152149677276611,-3.522832056085104,-1.3690360228167933,1.8898823732406884,2.0,0.4939793543670896,0.5078578958050078,0.36956501330792785,0.7987254882259813,-0.09715109991336518,0.3595876554643729,-0.47254203652312915
10.600000000000001,-2.252244232671404,0.010965802258469326,2.323215555477759,-0.07249666817072868,-0.32065278506178174,0.21061622010936523,0.01987743516399377,-0.007632765059076368,0.9997732883642717,-1.143681526184082,-1.9223473253636538,4.152171413496602,-3.5228469186604388,-1.3690330811704134,1.8899197578430176,2.0,0.4939880288769549,0.5078506774779484,0.36956034235167384,0.7987280286076927,-0.09715430325425527,0.35960437872761275,-0.4725243575473934
10.700000000000001,-2.2483155061488143,0.256675879534495,2.260429254838877,-0.06537931346524015,-0.3273205260465941,0.21285462836975785,0.019784373405004697,-0.007488814844996285,0.9997762087190576,-1.1436842018225342,-1.9223685723879476,4.152134603872046,-3.522841092654406,-1.3690389071764462,1.8898663987547062,2.0,0.4939891509313054,0.507847637601171,0.36955870164224736,0.7987295280691081,-0.09716687063316506,0.35959008034667445,-0.4725301200538754
10.8,-2.350212948598719,0.20667132853552744,2.223258701761181,-0.0652265685333005,-0.33371972077553175,0.2118155570451393,0.019665635599507583,-0.007272459475360232,0.9997801473009651,-1.143681526184082,-1.9223585327278914,4.1521566448663565,-3.5228732490483368,-1.3690188805644077,1.8898924409279918,2.0,0.49399423542481624,0.5078416376829752,0.36954862168286856,0.7987319944158222,-0.09716946677469439,0.3595927434748418,-0.472523390599324
10.9,-2.3044742073954323,-0.14159160920480435,2.3296596497749684,-0.07091680130743551,-0.3339987403148831,0.2091566063512125,0.01953385789764918,-0.006982726575278925,0.9997847949302043,-1.1436691284179688,-1.9223562679686488,4.152162075042725,-3.522838542288522,-1.3690284408014612,1.8898757940660644,2.0,0.49397254589914075,0.5078653337950608,0.36955851464029676,0.7987291966257556,-0.09715407116255106,0.3595773966074484,-0.47254296393357426
11.0,-2.2577438447386764,-0.17764335560714287,2.3221506118287545,-0.07082163168707845,-0.33384663383214885,0.21042466168284196,0.019557266656047484,-0.007008976649005484,0.9997841580582231,-1.143672889738184,-1.9223479636937468,4.152163478180516,-3.522855897943014,-1.3690324061627401,1.8899162858551266,2.0,0.493974805697089,0.5078566633769995,0.3695510566230601,0.7987405174423798,-0.09713943998332321,0.35959008969066314,-0.4725171768220358
11.100000000000001,-2.330780472814573,-0.3644817978243651,2.093239961225222,-0.07596962868135783,-0.3354147954215983,0.21023363806557563,0.019637506853421183,-0.007150944080183983,0.9997815859284357,-1.1436875160129487,-1.9223562679686488,4.152162075042725,-3.5228263745612183,-1.3690241018878382,1.8898812274026744,2.0,0.4939747442798474,0.5078542294224934,0.3695756747104169,0.7987219772850874,-0.09715623341262251,0.3595896585429941,-0.4725453912375033
11.200000000000001,-2.209464132271961,-0.4292611411362762,2.047083515494079,-0.07573739528445554,-0.33576416895796274,0.21013072376829559,0.019717662832686084,-0.007281514000690415,0.9997790618673242,-1.143692970275879,-1.9223655223405496,4.152148899413032,-3.5228598192008063,-1.369033356259739,1.8898720741271973,2.0,0.493970849493218,0.5078734858602048,0.3695518969688156,0.798735386926016,-0.09714275271779743,0.35956939012882794,-0.47254091986719976
11.3,-2.2217623169130762,-0.4832595362666403,1.9939850716691467,-0.07572319121204783,-0.3370527239466867,0.21299068932356582,0.01979778654413308,-0.007407717012414373,0.9997765562235258,-1.1436641496854816,-1.9223443470396937,4.152135644243921,-3.5228459404780397,-1.3690171596913703,1.8899132924837079,2.0,0.4939667324966854,0.5078727267572367,0.36953915998531683,0.7987412787284942,-0.09713445157774284,0.3595803777188167,-0.4725243061805967
11.4,-2.12704131932243,-0.436954227095426,2.051737471419872,-0.07412649116690911,-0.3398190221047648,0.2116993084402869,0.019846497894007283,-0.007500377837912314,0.9997749029376232,-1.143692970275879,-1.9223262340277218,4.152128978566826,-3.522820355566442,-1.3690241018878382,1.889899072733312,2.0,0.49396869554522893,0.5078758564681052,0.36954160853689866,0.7987388304277474,-0.09715458239647086,0.3595684684090843,-0.4725333685701222
11.5,-2.1199328048692787,-0.38051465508920007,2.023835097086188,-0.0738706974367405,-0.3406239006387913,0.2076946726027223,0.019852082285306494,-0.007526781721615801,0.9997745851947747,-1.143657723219436,-1.9223672093901232,4.152138886189801,-3.5228443035165524,-1.369012180958883,1.8898959159851074,2.0,0.49396572901390134,0.5078725950801337,0.36955075388474373,0.7987337981304086,-0.0971496175462648,0.359584251189925,-0.4725308855841779
11.600000000000001,-2.11290167108915,-0.5426463305426491,2.1460546178302597,-0.07874429202816423,-0.33867258122113086,0.20661980354818563,0.019739105302908087,-0.007348206357703721,0.9997781258165239,-1.1436645999532216,-1.9223466112720673,4.15217211800717,-3.5228417127816853,-1.3690070527270488,1.8899276271443837,2.0,0.49397488016065255,0.5078657567801006,0.3695668267983329,0.7987255536215976,-0.09714612367932642,0.35959419071439513,-0.4725379758817411
11.700000000000001,-2.2106959677756075,-0.40697393722078334,1.8569150172292637,-0.07498093340661433,-0.3364113169794623,0.20215206720985027,0.019626128320509677,-0.007169630993791645,0.9997816664382732,-1.1436683651497757,-1.9223548001452007,4.1521512038129975,-3.5228410413671627,-1.3690248357995622,1.8898757730422864,2.0,0.49399030423165885,0.5078623450198939,0.36955953889719934,0.7987246323975854,-0.0971546906708283,0.35959919493686443,-0.47253396352300103
11.8,-1.9463235438378514,-0.3059292610125589,1.9627246884574117,-0.07386035277142894,-0.3443803018499434,0.20889030956465027,0.01950146622489656,-0.006956842823285846,0.9997855811946844,-1.1436675919737742,-1.9223349964511978,4.15213346621813,-3.522829302399772,-1.3690314391949816,1.8899138211218838,2.0,0.4939725347590367,0.5078681837257283,0.369579210436818,0.79871211492898,-0.09715894211826187,0.35958395934894183,-0.47256584050381234
11.9,-2.0051983913731304,-0.04662308102242879,2.0105787152549857,-0.06896629672819983,-0.3459978595476527,0.205157577236939,0.019371453533491918,-0.006728388660023878,0.9997896672667954,-1.1436408331406176,-1.9223708318693902,4.152123086728043,-3.52283469905689,-1.3690214589160519,1.8899002791169899,2.0,0.49397469393621346,0.5078553359926102,0.3695724359611297,0.7987205637524438,-0.09715730349392765,0.3595890140887847,-0.472548050851364
12.0,-2.236081035458013,0.33125515088130747,2.1274483466672915,-0.07834728558358872,-0.337390326843542,0.20260286342677788,0.019250839761547713,-0.006524688170930909,0.9997933940701337,-1.1436793806560062,-1.9222941272070186,4.15216487038299,-3.5228353282625267,-1.3690284262636043,1.8898872672335754,2.7920426513521734,0.49397408606713145,0.5078533691405902,0.36957056316488246,0.7987247716404415,-0.09714944848294113,0.3595921558456757,-0.4725401626122842
12.100000000000001,-2.1591076039225134,0.2300510941328515,3.0482110606063295,-0.11395114935565485,-0.34244437450386167,0.20552119598798227,0.019176373596877384,-0.00644252535847664,0.9997953569053584,-1.1442632079594703,-1.9215793598848685,4.152130382641768,-3.5228001887909524,-1.3689246045126697,1.889880818786941,3.0,0.49396696800365236,0.5078165792131226,0.36958173098870334,0.7987311859363806,-0.0971568709414922,0.3595881840046602,-0.47253081694821986
12.200000000000001,-2.1295069718036195,0.3086267479667653,3.810635588220398,-0.1259352652248474,-0.3449068251627761,0.1829946875931246,0.01983165074343793,-0.007661345630094511,0.9997734500927001,-1.1454082324290766,-1.9204334533922283,4.152260609292706,-3.5227072332633536,-1.3687999982963355,1.88991452250713,3.0,0.493913457208516,0.5076945595436347,0.36966196304814586,0.7987046598126257,-0.09719269402050512,0.35961748040935415,-0.4725459918427645
12.3,-1.881909623840777,0.23888333247020993,4.398840188599613,-0.11978113570695172,-0.3455105423231553,0.17150004062483426,0.0192711783785186,-0.006752212863207016,0.99978931279249,-1.1468941149504288,-1.9192699227170615,4.152528489473273,-3.522677320991971,-1.3685893964023699,1.8900441788510733,3.0,0.49356040740556295,0.5072270468807147,0.3699045318265049,0.7986603546997569,-0.09721192717626922,0.35967337903460067,-0.47257437452676904
12.4,-2.1549283882606467,0.3375956424760284,4.803960722968691,-0.1322769406701254,-0.3488732748277192,0.14513255824006566,0.018017798480023713,-0.00460731801954982,0.9998270064664092,-1.148384299743709,-1.9179220313408882,4.152815367820062,-3.5226213199317775,-1.3684056699642482,1.8900704642556092,3.0,0.4933542797349719,0.5070639372495066,0.36991553202684596,0.7986998507719648,-0.09720019563429581,0.35961844644959223,-0.4725518419376622
12.5,-2.245770336492845,0.2809306205310028,5.280867588529693,-0.14148748788453003,-0.3760452680634027,0.12111494242867978,0.01774752211489908,-0.004075348944813222,0.9998340180204249,-1.1497173309326172,-1.9167450644384136,4.152972824372876,-3.5224742936879982,-1.3681676350874787,1.8901589872007347,3.0,0.49288737413228734,0.5067329782104713,0.37000885241773057,0.7987543425075759,-0.09712362793390139,0.35955776409704593,-0.47252165611724106
12.600000000000001,-2.3228408137846275,0.47257812974529145,5.488383087028184,-0.14467486938228033,-0.37911935906918776,0.10526333926577511,0.017510239794463128,-0.0036115480434203307,0.9998401613071306,-1.1508971328665834,-1.9155635341344284,4.153237590300491,-3.5224678393142224,-1.3679606073649508,1.890224020805474,3.0,0.4924739608510635,0.5062483349963397,0.3702326023776201,0.7987312479115963,-0.09715455667541105,0.35960514578084485,-0.4725182799159475
12.700000000000001,-2.393615736341737,0.46562147739563553,5.553853300331945,-0.15266019182803978,-0.3818228354011342,0.08781413411163817,0.017506305452214307,-0.0036298615834836653,0.9998401638365204,-1.152169720176434,-1.914482341247621,4.153454543758371,-3.522376591326639,-1.3677656433549596,1.8902677984322027,3.0,0.49222949201706867,0.5060095863525536,0.3703568489370444,0.7987187032385756,-0.0971687929290974,0.35960655797115426,-0.472535482521397
12.8,-2.4694163047027247,0.6838981866357436,5.308676366046093,-0.16386331158733347,-0.3881147942521311,0.07457798494554818,0.01759213225097139,-0.0038019081733988,0.9998379780957057,-1.1535770976400217,-1.9130333908320516,4.153626684936157,-3.522328039208883,-1.3675389327555465,1.890356779892204,3.0,0.49193913189772887,0.5057603899251553,0.37043128229943817,0.7987325842402171,-0.09716948664603937,0.359584119925349,-0.4725289519546946
12.9,-2.253833492063263,0.6551843693893382,5.533439801061674,-0.18909079620016034,-0.400665035468326,0.051192580663522926,0.017735268192180926,-0.004072107584845335,0.999834395225939,-1.1549093079703194,-1.9117956566923366,4.153832270326719,-3.5222917995848597,-1.3673791489880311,1.89042329788208,3.0,0.49142779999156067,0.5051899199588029,0.37063045643951587,0.7987620933335962,-0.09716458409663717,0.35958649302522705,-0.47247827027756245
13.0,-2.49866352044116,0.7975729460067209,5.572498687563945,-0.20395034568265633,-0.40534041510160407,0.046304722033179715,0.01877432930610162,-0.0058293207084388725,0.9998039466802722,-1.1561212539672852,-1.91059563178846,4.154047890513685,-3.522246184439464,-1.3671852926218275,1.8904694156601207,3.0,0.49123012764053314,0.5049916989510741,0.37071643335586973,0.7987621982063708,-0.09716716100804218,0.3595867685195991,-0.47247735336605895
13.100000000000001,-2.646383495293458,0.6567080996295447,5.602782352403383,-0.17869424224898106,-0.4103990178505557,0.016941234926037094,0.020182094414038856,-0.008185916865640921,0.9997625478071263,-1.1573960253851672,-1.9094959698119105,4.154280706444074,-3.522182599377994,-1.3669974820674733,1.8905253590244844,3.0,0.4908889176098882,0.5046526834143066,0.37092032411078923,0.7987380566411024,-0.09716259549788697,0.3595966245583269,-0.4725116025195223
13.200000000000001,-2.779422567776299,0.47102737638753944,5.947274853089121,-0.16830203817520586,-0.4311291396970348,-0.0023620269679354615,0.019171816421420115,-0.006397037229164555,0.9997947695444109,-1.1586781563424025,-1.9083530532018023,4.154506957121103,-3.522120214917497,-1.3667945252805336,1.8905824351368459,3.0,0.49039844309023184,0.5042174834131951,0.37106469349469,0.798764587522837,-0.09714654536453773,0.3595526723207138,-0.47250350080210163
13.3,-2.975305171538352,0.7226867697914128,5.98022458997471,-0.20639469109436265,-0.4470432961770443,-0.008674021765292408,0.01848010892701561,-0.005226202223608527,0.9998153729683013,-1.1598884935720861,-1.9069367447548624,4.154703617095947,-3.5221131431239407,-1.3665826912209011,1.890638828277588,3.0,0.49023712730721064,0.5040553314678307,0.3711144129434082,0.7987776806106046,-0.09714404417087961,0.35956188685261037,-0.47247486828767915
13.4,-2.8564192685268646,0.749731547651115,5.881813841962445,-0.22898304282021517,-0.453378624289921,-0.008670513665241233,0.018067477180302535,-0.004573076792512598,0.9998263073925665,-1.1611578117294217,-1.9055833588997069,4.154886509605284,-3.5220374833503905,-1.3664004003148231,1.890724964523793,3.0,0.4897404369020183,0.5034819758856457,0.3715282533059672,0.7986872728358356,-0.09715941334808997,0.35963133136022135,-0.4725716814537084
13.5,-2.7531549336087022,0.8468695457901219,5.934240725168703,-0.19742613700627454,-0.4416080176583222,0.0014053852245046444,0.018275079233363148,-0.004803501226651407,0.9998214475701049,-1.162503280586417,-1.9045524484476841,4.155055561012443,-3.521981266143476,-1.3662411296874302,1.8908066749572754,3.0,0.4895162323489353,0.5032867576835626,0.3716801392540232,0.79866162635771,-0.09715784680603033,0.3596157782626716,-0.4726271801454154
13.600000000000001,-2.6268204985830894,0.3746195726380642,5.930725629693976,-0.18438750272928542,-0.4302110999855478,0.0006665529596112871,0.018083347923644036,-0.004488013160479812,0.9998258413802162,-1.1638887989434223,-1.9034465534168434,4.155279636383057,-3.5219113201127943,-1.366070789160984,1.8908512514337752,3.0,0.48921693214557105,0.5029872244732567,0.37170642217239175,0.798712912230764,-0.09714435239385129,0.35959125844722806,-0.4725619382495486
13.700000000000001,-2.7205208562605128,0.6186336786400686,5.830744713413666,-0.20298626285240182,-0.4462866260999304,0.005882191108365472,0.02051192636018023,-0.008660394419549924,0.9997520979170263,-1.1650365474079971,-1.9022019720445162,4.155485432693692,-3.5218943147366266,-1.3658602873431605,1.8909034064648944,3.0,0.48879616943181203,0.5025406427838013,0.3717630553812047,0.7987689738029112,-0.09714267989574435,0.3595670287885738,-0.4724859553898659
13.8,-3.0544080789866155,1.1460656398914146,5.8403835345447295,-0.22293266696685274,-0.45883703664360276,0.007514947020886126,0.02060201106214086,-0.008753047380375295,0.999749430820862,-1.1662285608772676,-1.900747012171387,4.15571339840276,-3.521854228501963,-1.3656614996034133,1.8909834722868946,3.0,0.488552948080065,0.5022751005832258,0.3718741174240342,0.7987714647660102,-0.09715756031835848,0.3595595921843096,-0.47248434388538224
13.9,-3.084152816592294,0.6597040871364042,5.667781505960564,-0.20577200734773274,-0.4761581080226312,0.012776350342677763,0.020674253346723303,-0.008817315401530553,0.9997473544973523,-1.1675622854531074,-1.899508827387765,4.155895803022918,-3.5218207376008754,-1.365478486939223,1.8910493319424804,3.0,0.48806852760809416,0.5017996625634181,0.37233495632811664,0.7986487605243185,-0.09714245326323988,0.3596249208173929,-0.47264512841459905
14.0,-2.678520408114986,0.12041551537597606,6.03197798396152,-0.16727471353174844,-0.46920743335915577,0.014366528177880427,0.020024232401912045,-0.007732557606411358,0.999769192722881,-1.1689627997213494,-1.898499815205873,4.156071186065674,-3.521764604787172,-1.3652966658221644,1.8911068191865277,3.0,0.48783508769408773,0.5015801525689153,0.3724186621258214,0.798661025673463,-0.09712787875331576,0.35961389032231283,-0.47263579120327426
14.100000000000001,-2.8526706338496393,0.556481867437854,5.867411664560136,-0.18242418874722,-0.46137838555601673,0.017977950700777574,0.01957195011213948,-0.007012015894763754,0.999783808483812,-1.1702069849934413,-1.8972966065836059,4.156286313877155,-3.5216979793775764,-1.365087609854858,1.8911244064499593,3.0,0.4874406506585343,0.501130778158463,0.3723717384044286,0.7987725649565305,-0.09714246818755276,0.35955643482010324,-0.4724879898226544
14.200000000000001,-2.9826370714579693,1.0647104290428056,6.035106076492905,-0.2075518549174708,-0.470675655042796,0.019562435685758762,0.019310429632484867,-0.006641569792902234,0.9997914765188243,-1.1712862556837775,-1.896018451968917,4.156466036004707,-3.521687312285067,-1.3649136730610318,1.8912085278795228,3.0,0.48726651445550323,0.5009505152554894,0.3724539545123914,0.798765199812856,-0.09715338313687155,0.3595653381478928,-0.47249142142009315
14.3,-3.120363849845576,0.9383955784048805,6.245908367693355,-0.20548606978447495,-0.46390231744815463,0.012783342706692413,0.0194602925437518,-0.006822633740619689,0.999787351713152,-1.172567537221479,-1.8947449680026576,4.156677310670812,-3.521685242462803,-1.3647287730235669,1.891310214996338,3.0,0.48687989724455033,0.5005784565114412,0.3727322150690554,0.7987076833502843,-0.09715459232130469,0.3595885540159256,-0.47257072864158534
14.4,-2.7546089647246417,0.6781323343667423,6.101734220810953,-0.18226019498579277,-0.45326056673185056,0.018191621727945154,0.018914749664946252,-0.005866722428313153,0.9998032752950047,-1.1740114918751094,-1.8935820064940394,4.156919433394556,-3.5216573439997787,-1.3645179907428187,1.891387034787615,3.0,0.48642290061553944,0.5000821871783391,0.37298570217892024,0.798687910419132,-0.09716446064131172,0.3596110995672122,-0.47258496210381506
14.5,-2.820804751380932,0.6307098990683742,6.133415349681952,-0.19792115038525082,-0.45567899173124077,0.01791935133549888,0.018368739254216133,-0.004910046710189035,0.9998192123556942,-1.175282383589146,-1.8923578199899183,4.157115128123994,-3.521611819727233,-1.3643304754522594,1.8914179801940918,3.0,0.4861876676384195,0.49987305018662986,0.3730138124286964,0.7987223758879182,-0.09712871174569478,0.359579527173107,-0.4725580845235279
14.600000000000001,-2.724199709829535,0.8083543640897778,6.231597286163603,-0.21301375669683403,-0.4635448276851423,0.019769289847203598,0.018840302963021808,-0.005773078266428211,0.9998050803464422,-1.176435976206431,-1.8912006184883516,4.1573052406311035,-3.5215530065797864,-1.364093192072481,1.8915085103553437,3.0,0.48589778702773945,0.49955356469887063,0.3730708833917206,0.7987632191102236,-0.09714156618876431,0.359566729408567,-0.4724961407434914
14.700000000000001,-2.6302678983021264,1.0016012695632246,6.4532928824811,-0.22979475056190907,-0.47172141637883674,0.020485849857416576,0.019321802962144925,-0.006653878690235565,0.9997906547222066,-1.1775771972953046,-1.8899660270222436,4.157467488566034,-3.521581250568566,-1.3639037628324822,1.8915551859945128,3.0,0.48544036964584203,0.49905253437771024,0.3732947326730835,0.7987456059300516,-0.09715627681851201,0.35958465662106776,-0.4725092481686561
14.8,-2.7485723109425915,1.0759305660974257,6.523739175588026,-0.21318366913628578,-0.4587928315784497,0.021576092659012912,0.019626541688669112,-0.007228267478792403,0.9997812335736052,-1.1788647374074996,-1.8887729569680165,4.157704153078182,-3.521563348312801,-1.3637034060910633,1.8915858268737793,3.0,0.4852329149567525,0.49884846245719333,0.3734573284237705,0.798715338840176,-0.09715961929829775,0.35960473006174387,-0.47254444658302064
14.9,-2.5801113821654447,0.9141279803409544,6.399463712934046,-0.21646237197454987,-0.4574742918353484,0.02704566369360668,0.019740760675727005,-0.007472394643527218,0.9997772064311677,-1.1802387594395771,-1.887613500551442,4.157882620774036,-3.5215841732420863,-1.3634761015521448,1.8916682759531487,3.0,0.4847870287466168,0.49836374640970255,0.37359259169442305,0.7987526911907782,-0.09717360632137913,0.3595867783464096,-0.4724920924083674
15.0,-3.1048375938732327,0.6935080794773303,6.166294077299312,-0.20418582779618624,-0.4697836895092915,0.02334047638734598,0.019616980439486665,-0.007241743601121013,0.9997813214681677,-1.1804590721045976,-1.8872438869872035,4.157960171193148,-3.5215654426143344,-1.3634305759991927,1.8916861710295212,3.0,0.48459638130156973,0.49816770643035535,0.37361907454386933,0.7987882277422899,-0.09717305866069484,0.3595519846069051,-0.47245860586520466
15.100000000000001,-2.8283560504630847,1.0260974491273558,5.862246860521305,-0.20986246714142665,-0.4722893186009416,0.026654514390271167,0.019586141325282212,-0.007172343959214931,0.9997824402921747,-1.180456238346754,-1.8872280745132521,4.15798807144165,-3.521570306540633,-1.3634369240574415,1.891676579629299,3.0,0.4844259854588822,0.49800523771706173,0.3737561865425411,0.7987565187779221,-0.09716679102087969,0.3595791218296163,-0.47249285029164345
15.200000000000001,-3.08244071151057,1.270500040179632,5.806726705848584,-0.20190202807624336,-0.4742471641492973,0.02587733439865764,0.01967276705004399,-0.00730895648205603,0.999779755515324,-1.1804399490356445,-1.8872412550997222,4.157978410838518,-3.5215789094671237,-1.3634408156024378,1.891683720917402,3.0,0.48438770157968997,0.49797575116191145,0.3737708754489069,0.7987599239424121,-0.09714558647495664,0.3595877439690952,-0.4724848921597021
15.3,-2.7758929526499285,1.0116202361539677,5.855549142302221,-0.21442251020267641,-0.4776186990840941,0.032570986967330205,0.018401442615938193,-0.005155317957004687,0.9998155412548593,-1.1804855703117163,-1.8872324816681856,4.157986998972981,-3.521583142022212,-1.3634392687726264,1.8916459859012706,3.0,0.48439959494995694,0.49798013520468065,0.3737893032100862,0.7987394966573786,-0.09716726489953177,0.3595949139223471,-0.47250950994942065
15.4,-3.0918496228557735,0.8682697464427956,5.854411891913015,-0.21912525495974639,-0.4708251464974451,0.02267989865082658,0.01816741327027432,-0.004747194449002455,0.9998224750590774,-1.1804501654670676,-1.8871936289970228,4.15798807144165,-3.5215526053296253,-1.3634574082429551,1.8916791998278288,3.0,0.4843880766836755,0.4979891437251382,0.37379968530141233,0.7987428959255579,-0.097161389953044,0.3595807202738268,-0.4725157734067739
15.5,-2.917374540628273,1.089549112987542,5.740352110312593,-0.21098502795513494,-0.47756666370706113,0.02563455402213241,0.01933152635660279,-0.006692135889126234,0.9997904750524075,-1.1804733654946338,-1.8872291428932142,4.1579460340558985,-3.521560331384176,-1.3634408156024378,1.8916926383972168,3.0,0.4843764263881217,0.49798826609599406,0.3738193732920793,0.7987304882899149,-0.09716135914478821,0.3595882187117794,-0.47253104694716197
15.600000000000001,-3.0576805612301174,1.2042980139103552,5.633727729451264,-0.20881536398251796,-0.4759889181780662,0.028419279647821077,0.018988854339007172,-0.006146484636886898,0.9998004299476446,-1.180456925132402,-1.8871962032713832,4.157997317934738,-3.521548410455221,-1.3634385264371156,1.891678813573485,3.0,0.48435434722425214,0.4980002570385001,0.37381329234909105,0.7987391863847363,-0.09714234785579322,0.3595705185708641,-0.4725337221418102
15.700000000000001,-2.883565814709559,1.0533235594304395,5.639701049631892,-0.21593911491982185,-0.4789085033097592,0.027068326120187797,0.01853400160274667,-0.0054154078203762016,0.9998135084011353,-1.1804399490356445,-1.8871902190387804,4.1579899611993145,-3.5215642995829617,-1.3634511661310817,1.8916827171694806,3.0,0.4843912511010816,0.4979829252155231,0.3738214036712708,0.7987242769529543,-0.09717169296764014,0.35960771655294793,-0.4725245831566416
15.8,-2.9433115294966266,1.2932972304818076,5.541175787538455,-0.2044778164951185,-0.47875239556551746,0.025334713418152043,0.018606512979803234,-0.005475025376327943,0.9998118851093666,-1.1804626533512041,-1.88721602355878,4.1579919321493435,-3.5215463996699645,-1.363459245724321,1.8917029449466631,3.0,0.4843907863683913,0.4979778709507731,0.3738344871780617,0.7987183086468712,-0.09716399397817253,0.35959837418341317,-0.47254336413829523
15.9,-3.1878741076985544,0.9271829984376784,5.513419574275701,-0.20910059235930228,-0.4721675850507878,0.020633321745570737,0.0187144931269771,-0.00562777612044042,0.9998090195960794,-1.1804523468017578,-1.8872103160059823,4.157958494906785,-3.52153868133191,-1.3634647451325737,1.8916710760171764,3.803847025617415,0.4843753260087762,0.4979935425120576,0.3738268633177932,0.7987228931892584,-0.09715396685025722,0.3595857699083632,-0.4725472682177406
16.0,-3.054996689067399,1.3050442472743269,5.565050307043937,-0.20555352804354873,-0.47727503777822433,0.03167534835509183,0.018809012096182416,-0.0058167712193967006,0.9998061714271396,-1.1804556959880348,-1.8872111007068633,4.157984975874864,-3.521557354877651,-1.3634739596596752,1.8917222094543957,4.0,0.4843802571565681,0.49796709485808316,0.3738515344749779,0.7987167620998351,-0.09715931930567187,0.3596040458342308,-0.47254262329705954
16.1,-2.906946473804822,0.8328445972073885,5.661353206205082,-0.21643281148867394,-0.47877581405830555,0.023161588773648108,0.018974039002379362,-0.0061093804674935024,0.9998012500570862,-1.1804557948854186,-1.8871980451865606,4.157977992427873,-3.5215764129806444,-1.3634288946734827,1.8917313724305846,4.0,0.4843866911422983,0.497977485760303,0.3738435789050876,0.7987173706122589,-0.09715525417943774,0.35960637834112896,-0.4725406555249456
16.2,-2.9085214779018496,0.7109430947302864,5.547256171761586,-0.220033510633134,-0.4767743884379272,0.029669244015692153,0.01914621078237154,-0.006412489384855868,0.9997961186006092,-1.1804710405987098,-1.8871816284038925,4.157982494375612,-3.521553773018719,-1.3634583614295093,1.8916919194324162,4.0,0.48438232147268223,0.49796653673292846,0.37387652359618667,0.7986984387100857,-0.0971744660548335,0.3596146782672067,-0.4725623877582758
16.3,-3.0638162006261807,0.7712551733309533,5.380510142197426,-0.21537388663681886,-0.47397892287534216,0.030344990924281164,0.01938476590318804,-0.006765368437140989,0.9997891559414027,-1.1804455387932256,-1.8871718845763148,4.157991339285746,-3.5215807692378203,-1.363453213368551,1.8916982281547978,4.0,0.48437693441801805,0.49799176026266817,0.373817413392425,0.7987347558583666,-0.09714888084166619,0.35958872375954254,-0.47252601460667876
16.400000000000002,-2.82375158133695,0.9129983856788038,5.430300446860602,-0.21153438895773108,-0.4777699045962967,0.028751321265326462,0.019654673195364975,-0.007190416615496697,0.9997809267077261,-1.180444210459738,-1.8871698358147315,4.158008992814124,-3.5215800757189197,-1.3634350409582328,1.89168119430542,4.0,0.4843623312686801,0.49799525228751546,0.37384217075135856,0.7987185770521983,-0.0971456388541269,0.35959110166620195,-0.47255221841170403
16.5,-2.840881746646112,0.769406213891143,5.4879807543361645,-0.21866231624206806,-0.4782961054996934,0.024166053185565018,0.01962544437293118,-0.0071653649705140906,0.9997815799698683,-1.180400403162567,-1.8871934192725501,4.157983597364524,-3.521580390155874,-1.3634566266944832,1.8917445820364076,4.0,0.4843796151005634,0.49798229647373754,0.3738502902216963,0.7987140376441052,-0.09715547579714783,0.35960278934645684,-0.472548974696939
16.6,-2.851503148696554,1.1564069831763304,5.322174676552523,-0.20785046671130727,-0.4803007407331874,0.032624492545786796,0.01954704679583958,-0.007071357815004642,0.9997834155993909,-1.1804927178689308,-1.8871718845763148,4.157988400307503,-3.521575908637455,-1.3634398636464535,1.89170503616333,4.0,0.48437842351504146,0.49798579406995735,0.37384107376295106,0.7987188948829537,-0.09716598144544512,0.35959881839238245,-0.47254162654468757
16.7,-2.5252941129976083,1.1006633715951937,5.230462633859476,-0.21742988303608385,-0.4497464839438841,0.03798755509551931,0.020333409312750763,-0.008425007275492093,0.9997575199777373,-1.1804829391122562,-1.8872081242003382,4.158017290594982,-3.521582513001065,-1.363439020352365,1.891699388849805,4.0,0.4843841440729348,0.49796498882660006,0.37382791491399214,0.7987283407282653,-0.09715985783452129,0.35960115968308815,-0.4725251376356885
16.8,-0.8047315761520522,2.017861250248614,4.207693737054422,-0.274285922192315,-0.2840211163640151,0.05873951997227517,0.020557466319730735,-0.008809659524386972,0.9997498251738545,-1.180465453345216,-1.8871802741518318,4.157974011223876,-3.521551941808659,-1.363394458755258,1.8917211441483226,4.0,0.484366969260771,0.498002762487057,0.3738468997938945,0.798711904897174,-0.0971301755540884,0.35960729251362766,-0.4725543536392166
16.900000000000002,-0.8598714902249841,2.06597476732956,3.846350266070062,-0.27074943668604223,-0.2627239329912734,0.052806381492026926,0.0206892376536922,-0.00903527979112002,0.9997451174911854,-1.1804203694770472,-1.8871649916075723,4.157992622564705,-3.521560331384176,-1.3634124226214732,1.89168119430542,4.0,0.48437125032321804,0.4979735571525358,0.3738401247793957,0.7987225043110433,-0.09715279084413297,0.3596091357486911,-0.47253038613868104
17.0,-0.8916426689573608,2.143595693495083,3.8648688981264683,-0.28881193017378853,-0.27099190397198125,0.054145591520481595,0.02019802545501799,-0.008213200700149385,0.9997615823051764,-1.1804356293974387,-1.8871516049452002,4.157980662009916,-3.5215457500990697,-1.3634567755953466,1.8916963431130842,4.0,0.4843829796424819,0.49794956770356535,0.37386520685012214,0.798709774483286,-0.09717252519390607,0.3596207978617695,-0.4725389700729056
17.1,-0.7092557919659863,2.132259196328752,3.7968727232104884,-0.2869932562574955,-0.26561439426841765,0.05296623989972861,0.019595691326875348,-0.007204242874778962,0.9997818236695212,-1.1804608882404308,-1.8871644685620066,4.1579830896898455,-3.521556623377022,-1.3634333995881296,1.891712155537066,4.0,0.4843894140212141,0.49795840392115975,0.3738466408208608,0.7987217443827648,-0.09716921712304467,0.3596102882236317,-0.4725274160274351
17.2,-0.9469760004435832,2.1287406717244797,3.7326362965168793,-0.28593631290580224,-0.2604099380416793,0.05456590543119689,0.018936467440981125,-0.0060669008728534615,0.9998013986187192,-1.180457806190856,-1.8871771339889092,4.1579734166142925,-3.521536489526266,-1.363464657460348,1.891684396633273,4.0,0.48438080633030356,0.4979588506127773,0.37383854386651993,0.7987220689132944,-0.09715019007308866,0.359603354712568,-0.4725360562741179
17.3,-0.4269747144284618,0.7423154840421686,2.961095894935033,-0.19004727215385353,-0.1971126379660998,0.045187922564495824,0.018266271669567576,-0.004904798412396822,0.9998208450416064,-1.180466022153007,-1.8871668013229843,4.157984515850326,-3.521560331384176,-1.3634578197847234,1.89170503616333,4.0,0.48438706957506056,0.4979672561411504,0.3738336688202198,0.7987207703532413,-0.09715807726857664,0.3596012222103677,-0.4725382524331845
17.400000000000002,0.6221853191356841,-0.2819823491323253,1.5135498385315203,-0.069113931945847,-0.09624475949968885,0.028418174747193388,0.01874999512763678,-0.0057332475916192045,0.9998071861166657,-1.1804483515829702,-1.887130193688676,4.157973596161767,-3.5215121708311976,-1.3634511358547816,1.8917029586495606,4.0,0.48438311325667377,0.4979751408250002,0.37384864369561244,0.7987095409746042,-0.09716619024140312,0.35959864565276894,-0.47255752525465416
17.5,0.6307364466288673,-0.2552291743854956,0.9074211923086469,-0.029576430598214958,-0.06551545990837432,0.025733433212484995,0.01935339195510203,-0.006759412855925071,0.9997897331229845,-1.1804056108963465,-1.8871599636473597,4.157963281773331,-3.521548881428472,-1.363457124594753,1.891716480255127,4.0,0.4843969066493223,0.4979550138776983,0.3739109412022474,0.7986742161315336,-0.09717494659932983,0.35963767175592887,-0.47258572904190915
17.6,0.7899782178917245,-0.5092167920087689,0.17575793240402765,-0.022083573486550923,-0.04754695923797611,0.023143470026522256,0.019706551563447843,-0.00733532303961139,0.9997786908744566,-1.1804447956123518,-1.8871404915289987,4.15798803772555,-3.521544634860518,-1.363453213368551,1.891701109544839,4.0,0.4843843564414793,0.49796421054848083,0.3739155036529538,0.7986750159686464,-0.09716822775214967,0.35962985567224304,-0.4725917067534623
