xiamingqian9007/apple-picking-rnn/training_data/grasper_20191127_112333.csv
,/manipulator_wrench.fx,/manipulator_wrench.fy,/manipulator_wrench.fz,/manipulator_wrench.tx,/manipulator_wrench.ty,/manipulator_wrench.tz,/ground_truth.x,/ground_truth.y,/ground_truth.z,/joint_states.elbow_joint,/joint_states.shoulder_lift_joint,/joint_states.shoulder_pan_joint,/joint_states.wrist_1_joint,/joint_states.wrist_2_joint,/joint_states.wrist_3_joint,/mode./mode,/manipulator_pose.x,/manipulator_pose.y,/manipulator_pose.z,/manipulator_pose.rx,/manipulator_pose.ry,/manipulator_pose.rz,/manipulator_pose.rw
0.2,-9.174016181185142,-3.1169789950685227,-9.249603179471848,-0.09849109834335223,0.12959882256356078,0.1782164364497799,0.01853626782889229,0.0402917648774008,0.9990160049624961,-1.652992552448871,-1.7104501799976097,4.142509011092537,-0.23583977222889427,1.3709438776893574,-0.1262613908320785,1.0,0.47899689690362907,0.47277205251841453,0.423592925380289,-0.6598909146451284,0.5301689489247928,-0.0611620043623091,0.528889473885784
0.30000000000000004,-9.111896156632675,-3.272387138249389,-9.11428219444713,-0.08312442778368233,0.12753045665714638,0.2610118563882546,0.0187898805353787,0.04052365311034563,0.9990018292669041,-1.6513098755462834,-1.7128658676822577,4.142192074789666,-0.23495467126879888,1.3713668766301128,-0.12643038237641527,1.0,0.47900684462996473,0.4727763251942525,0.42358180006910456,-0.6599035334166533,0.5301572356945671,-0.06117762047370677,0.5288836646920438
0.4,-9.176602382956936,-3.4776455739752534,-9.04934426875917,-0.07825791475460706,0.14490988079343192,0.35881610686242543,0.019043967638868516,0.04075477571634091,0.9989876735693182,-1.6487654208310556,-1.7167905601983127,4.141464710235596,-0.23385838611487603,1.3718593792444291,-0.12670847582606976,1.0,0.4797578204665059,0.4736688107545259,0.4230762075385054,-0.6599191049914557,0.5300926922182958,-0.06110538437696238,0.5289372784406284
0.5,-9.170021082192982,-3.3798994935173226,-9.04803630641258,-0.06168559291073866,0.14234425790306848,0.3922987310294306,0.018698474994262998,0.0404604604620883,0.9990060550916633,-1.6464716644525812,-1.7200409632883131,4.140803961065006,-0.23250734383203958,1.3723818342949865,-0.12703112526323956,1.0,0.4803071005792895,0.47419705206668367,0.4226568778819247,-0.6599354411137413,0.5301292546802189,-0.06112513910717408,0.5288779672697062
0.6000000000000001,-8.982849905320071,-3.4896216087888843,-8.834103106924921,-0.07377202472644248,0.14042063933316287,0.3839138650233275,0.018343646907497305,0.040157964153074106,0.9990249432177348,-1.6439859060238216,-1.7235709119017328,4.140213467274326,-0.23138029993090825,1.37300670100571,-0.12727389680397228,1.0,0.48169003662753934,0.47534665679560456,0.42181577747597704,-0.6598435449499832,0.5301872835311066,-0.06119590893268713,0.5289262720830269
0.7000000000000001,-9.202920036769509,-3.65802426706294,-9.336993175427184,-0.0665660947308427,0.1421258781073947,0.3789057293428832,0.018073897930060943,0.039689217473077784,0.9990485925183004,-1.6418684248495408,-1.7266342344608299,4.139676966350645,-0.23038458256573321,1.3735441016563767,-0.12753325509208832,1.0,0.482381178625428,0.476069340547077,0.4212525118382892,-0.659902963740831,0.5301950756000777,-0.06119109491273487,0.528844882889942
0.8,-8.92224141900886,-3.7179609571973806,-9.036692896986938,-0.07209933717486018,0.13893216461504626,0.3798788811969486,0.01856567900900118,0.040229820334728494,0.999017797599263,-1.6397361015039613,-1.7299126227492758,4.139204477427997,-0.2292561363876656,1.3740485197713657,-0.12778357580631355,1.0,0.4831566551006806,0.4768751103439647,0.4208509390574917,-0.6598723659967245,0.5301270740446076,-0.06114102837248943,0.5289570120608506
0.9,-8.865962359186346,-3.308124384678525,-9.180219927036543,-0.06803419179960846,0.13408972773703795,0.3788063844042277,0.018929230294147243,0.04065415711089916,0.9989939444247303,-1.637340572374233,-1.7330953083434046,4.138657355130873,-0.2283038606433559,1.3744866951034251,-0.12802945431174345,1.0,0.4844103149002021,0.4782095105326162,0.4198813795520925,-0.659934452643903,0.5301022514942678,-0.06111796123875722,0.528907095800688
1.0,-9.059162121977918,-3.3707512543843303,-9.04097034483622,-0.06595408897756842,0.14198324415777017,0.377678643708128,0.019023728924574115,0.04085649194244933,0.9989839005686161,-1.6355622995785402,-1.7360266658486905,4.1381168362083045,-0.2273786221730855,1.3749262694081077,-0.12826157048417824,1.0,0.48491731316571096,0.47868149628614853,0.41969916637860516,-0.6598612797493973,0.5300921100710361,-0.06111639325333867,0.5290087265855143
1.1,-9.197212114337946,-3.6278284795712943,-9.185295482054816,-0.06744882156475986,0.13643324641753982,0.3750456309578436,0.019015038942386226,0.04100988115728184,0.9989777854406583,-1.6333512827101944,-1.7389074519814343,4.137674610904589,-0.22648367139497447,1.3753122850600479,-0.1284646443840356,1.0,0.4860012289722251,0.4796497464880908,0.41879504637744336,-0.6599190248046988,0.5301678421925324,-0.06116115955279482,0.528855606350058
1.2000000000000002,-9.086001824503994,-3.6468371847543812,-9.137226950388213,-0.0715537934818014,0.14112691784152204,0.37014547306943246,0.019080488772366802,0.041179963588141355,0.9989695245481338,-1.631367815412119,-1.7418902017784073,4.137150287628174,-0.22552142488043672,1.3756866013531652,-0.12868113794714917,1.0,0.4865302877057984,0.4802241587456987,0.4184901682666461,-0.6599146788934577,0.530137638693808,-0.06116290429196778,0.528891103876469
1.3,-8.981011173908113,-3.5363377425618396,-9.15089159599404,-0.0679437947208862,0.1492553039735167,0.37582151967185506,0.01915088290568665,0.04135115927139971,0.9989611205569069,-1.6296592387027042,-1.744449274935348,4.136679028549388,-0.22476208214394913,1.3760911444024189,-0.12889482891293205,1.0,0.48763162469431975,0.48127603405991026,0.41772389540900523,-0.6598896538329522,0.5301693695029127,-0.06118768991552631,0.5288876544294753
1.4000000000000001,-8.931025521046987,-3.4518044599368345,-9.034277860550455,-0.0676594550370999,0.1412211329237127,0.3775346491773742,0.018913100911416222,0.04102194307328319,0.9989791708533403,-1.627670384115885,-1.7472249183876156,4.136213674981154,-0.22401716882795053,1.3765501976013184,-0.12907276344237348,1.0,0.48802993739766604,0.48162156458965166,0.4174041292176121,-0.659913744770455,0.5301857460910689,-0.06122511867009501,0.5288368453017666
1.5,-8.9415010242656,-3.254906317998882,-9.078368370207421,-0.058727959964873,0.14381941393606074,0.37330351488398655,0.018924029773125423,0.0409874629806408,0.9989803564849392,-1.6258431026386015,-1.749519913020443,4.135794666858851,-0.2232643067154366,1.376992426464008,-0.12928081792351911,1.0,0.48884144766886106,0.4824082903195747,0.4168955199390395,-0.659909735818735,0.5301888651758336,-0.061189997165310824,0.5288427857710822
1.6,-9.293847174039922,-3.2895090597057894,-9.312621705957453,-0.05827072249469817,0.14572529943195078,0.37229198450838796,0.01931718455412593,0.041421062690961914,0.9989550025020365,-1.6241025873542188,-1.7521826598483583,4.135395786281612,-0.2224573097598489,1.3773626645485009,-0.12944187608022775,1.0,0.4897376978565009,0.48333289178730776,0.41636012456627436,-0.6598877140537407,0.5301469800839659,-0.06113385305356496,0.5289187426813355
1.7000000000000002,-9.13118717425692,-3.256504447594953,-9.226118285450966,-0.059880740660730444,0.14357753247545185,0.37470649226320724,0.018969475808225347,0.04095178335158543,0.9989809010638743,-1.622366622477066,-1.7544996313816803,4.135030552358139,-0.22176671530054098,1.3776620404865798,-0.12962124620492999,1.0,0.49008695698085547,0.48363294824754266,0.41618172690418215,-0.6598517347070592,0.5301548513468045,-0.0611542022922362,0.5289533867360456
1.8,-9.07948889516098,-3.506773987808816,-9.208121835670932,-0.06719376645356817,0.14623162596224978,0.3682829519356803,0.018724151861756785,0.0406084994669213,0.998999677470115,-1.6206984098975679,-1.7565523406061352,4.134651078611012,-0.22112639368090825,1.37794802468145,-0.12978943703915194,1.0,0.4910365675576535,0.48459964806888706,0.4154153813232756,-0.6599081811008181,0.5301749929922239,-0.06117071242749981,0.5288608638035314
1.9000000000000001,-8.949055560619309,-3.2352749463003856,-8.971057462484,-0.06882832359762679,0.14193914449389788,0.370403119961784,0.018746069182936167,0.04059273332302282,0.9989999072979234,-1.6190864682936899,-1.7590980254029345,4.134318867406369,-0.22047067906529438,1.3782882055198842,-0.12992777033286607,1.0,0.4914095732977288,0.4849555008473069,0.41533886184519064,-0.6598209378671843,0.5301466430734598,-0.061146612965462754,0.5290009059660137
2.0,-8.872224552078306,-3.324172522407533,-9.079768747118898,-0.06260587496255704,0.13821071900535564,0.3678363709038886,0.018421257966509872,0.04006164685125876,0.9990272527286398,-1.6174556980861758,-1.7610569571768744,4.134001518177798,-0.2198213725024678,1.3785911922096266,-0.1300880441233187,1.0,0.492024049745951,0.485596290801787,0.41475701410676585,-0.6599088293147947,0.530163968903839,-0.06117210112241015,0.5288709456122317
2.1,-9.007264724709147,-3.3667275542993673,-9.11781110054715,-0.06118652290143014,0.14257882261504776,0.3715416506729985,0.018241194479139664,0.03976611492991875,0.9990424827654161,-1.616004461970513,-1.763264568304811,4.133669224201562,-0.2191905147249645,1.3788654068571014,-0.13021817380210032,1.0,0.49290187833711224,0.48649551956338355,0.4142622261086498,-0.6598636473574815,0.5301342380420621,-0.061150960000711345,0.5289595604983759
2.2,-9.082087386226736,-3.4000420084203338,-8.976085786182013,-0.06214471108405062,0.14968297679997936,0.3654367654011709,0.018366662031067953,0.0399580861728402,0.9990325176835244,-1.6145651343689478,-1.76533136569449,4.1333394050598145,-0.21857340753588872,1.3791385668375946,-0.1303659225872983,1.0,0.4932293513727851,0.4868102386880955,0.4140008573780281,-0.6598666233659272,0.5301491529711038,-0.06115059553012971,0.5289409415407185
2.3000000000000003,-9.08620914341314,-3.519513211026787,-8.992133901157452,-0.06316906913090758,0.14052398413392952,0.3664845183751111,0.018510570541139953,0.04018375351634302,0.9990208095524092,-1.6128744514728415,-1.767260669923212,4.1330037117004395,-0.21803959874000362,1.3794705284052882,-0.13053455516682919,1.0,0.49379041159046555,0.48739925765675046,0.41350671450867,-0.6599164771647984,0.5301591477578446,-0.06114891320910169,0.5288689172454965
2.4000000000000004,-9.027862765520887,-3.6164099133368,-8.967998251320106,-0.0703845814792398,0.1435823491035135,0.37045988687717685,0.018685682758517553,0.04046643759681186,0.9990061520301958,-1.611629888158645,-1.7692296888371255,4.132736205219352,-0.21756544335990566,1.3797396230349575,-0.13066805719512348,1.0,0.49453255970813054,0.48810324719292925,0.4131831195309384,-0.6598433222908341,0.5301333389015098,-0.06115280119340709,0.5289856027525999
2.5,-8.896849913510849,-3.425546721255968,-9.139275264307445,-0.06351994668753232,0.14241000399561568,0.3695448108393789,0.018159624414951083,0.03963015653396036,0.9990489834674436,-1.61038918976741,-1.7710212026746954,4.1324286460876465,-0.2170486992884902,1.3800413394210584,-0.13076616762716606,1.0,0.4948753283157949,0.48844496989370223,0.4128669441910703,-0.6598989379454389,0.5301387450156918,-0.061161494370922435,0.5289097979220887
2.6,-8.961664699375984,-3.3360502081802963,-9.02031198876391,-0.06761296281032757,0.14281684125750846,0.3715048033094896,0.017670943019652958,0.03885178353266948,0.9990886767829544,-1.6090145111083984,-1.7729944664484447,4.132119846168585,-0.21651486954475602,1.3803099319926349,-0.13094010334289766,1.0,0.49534937101125626,0.48891993262522543,0.41246681218135156,-0.6599193540970382,0.5301542838392109,-0.06115229500253337,0.5288698121759308
2.7,-9.215997781026422,-3.3804160806050727,-9.236459680621675,-0.060515186082926525,0.15200395523184587,0.36719049151679634,0.017459838711519543,0.03851314481372296,0.9991054746268657,-1.6075240517526497,-1.7745875321122144,4.131858825741966,-0.21603451657818773,1.3805517101859883,-0.13108103422160336,1.0,0.49606902133349384,0.4896183306318748,0.41194858637500925,-0.6599340258115571,0.5301630335724239,-0.06115271381752725,0.5288426845501291
2.8000000000000003,-8.437451979414126,-1.5345054509595863,-9.050087998984067,-0.12640434341849704,0.164473845149497,0.36854726965041057,0.01734474232317787,0.03832279295280512,0.9991148670280324,-1.6065685364876636,-1.775949312270795,4.131645702500611,-0.2156221090197044,1.3807251246573726,-0.13118656091111405,1.0,0.4963684628788526,0.4899097962390233,0.41189919285613713,-0.6598761047984474,0.5301333098233403,-0.06115088231635488,0.528944959068248
2.9000000000000004,-8.986562008971363,-3.1473237914735024,-8.943340900276626,-0.05923264143117111,0.15513756137282134,0.37050556734884615,0.017416755038365442,0.03842143621990485,0.9991098270182458,-1.6055795511413513,-1.7776763336820356,4.131380924826565,-0.21525214782225777,1.3810061463451482,-0.13125727027479317,1.0,0.4968704334356836,0.4904081399572537,0.41152165986711836,-0.6598918584381586,0.5301247806199131,-0.0611531076192083,0.5289335965584303
3.0,-8.875527972201539,-3.2841121070276325,-9.025551402516713,-0.06940241651702568,0.14741073142297906,0.3691512139724774,0.017208342358749677,0.03815823299817347,0.9991234359682153,-1.6044504369798498,-1.7792062259151118,4.13110518641814,-0.21481366668428975,1.381189226172644,-0.1314023868376519,1.0,0.497121735764321,0.49066286617618116,0.41126988542869386,-0.6599226832983894,0.5301519853416501,-0.0611527393258121,0.5288679107107085
3.1,-8.992129187324359,-3.1652613508640113,-8.97011965660363,-0.06465920370781873,0.14259061246432095,0.3716660554200242,0.016941742025290987,0.03781994742432078,0.9991409145363966,-1.6031121902434111,-1.7805275484910468,4.1308276399214465,-0.21444793420901304,1.3813900794967056,-0.13153440157045537,1.0,0.4976215586081925,0.4911195303867278,0.4107762887031059,-0.6599928855262592,0.5301897057932339,-0.06118906148737665,0.5287382771087226
3.2,-8.957608749499377,-3.1833992800780146,-8.966007104492789,-0.059104255188040605,0.14260560543793344,0.37035698932405997,0.018176155895367443,0.039754592335898536,0.9990417627562548,-1.601914941542655,-1.782084295840724,4.130606174468994,-0.21406651109155767,1.381588708594303,-0.13160064133324287,1.0,0.4981731427576118,0.49158583150107804,0.4107636336613442,-0.6598399573669431,0.5301417733250544,-0.06117887029195073,0.5289783328904485
3.3000000000000003,-8.93704368296436,-2.9576070646514556,-8.813070077181674,-0.05535627193808756,0.15045353610663165,0.3647156223960954,0.019176397751009416,0.04131688538173483,0.9989619422101842,-1.6009499871683173,-1.7837677686992084,4.130395666365619,-0.21368933946285573,1.3817886826431713,-0.13171524981368932,1.0,0.4984392285266214,0.4918467059013636,0.4106424869890336,-0.6598150854183601,0.5301300161544173,-0.06116411122793865,0.5290228449927057
3.4000000000000004,-9.09394244246764,-3.266052447499964,-8.97251154891922,-0.06126512749660067,0.14735716121921066,0.3640419174303222,0.01891433501370496,0.040928283579057284,0.9989827268504987,-1.6000392845698765,-1.7849610874197084,4.130167938130242,-0.21331111695595664,1.381959186707224,-0.13178500844791857,1.0,0.4988289147422985,0.4922940630118225,0.4101539079060503,-0.6599101572679439,0.5301648349879761,-0.061176580218061855,0.5288679023249497
3.5,-8.920951788934973,-3.2464466413135398,-9.088104884435372,-0.06310978742556363,0.14755710025937013,0.36783838831072174,0.01865227227640051,0.04053968177637974,0.9990035114908132,-1.599024193215812,-1.7861369474485504,4.129963788363743,-0.2129570777034044,1.3821501731872559,-0.13189298311342412,1.0,0.4992184079082722,0.4926703387730297,0.40984591188593456,-0.6599200597160559,0.5301794014917026,-0.06117474911339606,0.5288411548746661
3.6,-8.971416634159262,-3.506438151554222,-8.99440991221936,-0.06656143676864233,0.14987338654253987,0.36744694780965936,0.018390209539096057,0.040151079973702195,0.9990242961311278,-1.5978428490842254,-1.7875240463073956,4.129776161517458,-0.21262518747088796,1.3823345534121125,-0.1320001037458045,1.0,0.49970752330798035,0.4931184464376469,0.4096230613566095,-0.6598752419803107,0.5301574340494594,-0.06119504990831263,0.5289167477119997
3.7,-9.165690767094173,-3.3839736745537286,-9.140369555646906,-0.059195200225563245,0.15368778304871972,0.36825609824620636,0.018623403945168666,0.04051000378662424,0.9990055230277898,-1.5968886175405668,-1.7890167929267944,4.129587515718226,-0.21228174848790113,1.382532806955218,-0.13204856660784423,1.0,0.5000725407222399,0.4935060249685222,0.4094131176206513,-0.6598653180619337,0.5301523471056165,-0.061187414787602125,0.5289351105277836
3.8000000000000003,-8.996326391917476,-3.523380547402189,-9.281446421991708,-0.07758233281270455,0.1506047757876345,0.36924272866752755,0.018221424879598137,0.039870416731610896,0.9990385891937675,-1.5959606780578397,-1.7902136155888526,4.129419803619385,-0.2119476357907306,1.3826861039561635,-0.1321530263912319,1.0,0.5003099198315686,0.49376162778998645,0.4091702559209701,-0.6598986038851457,0.530165253488567,-0.06119170262480019,0.5288801491015871
3.9000000000000004,-9.30227084388423,-3.265108571475798,-9.09488618038233,-0.06676286970929794,0.15234223583303294,0.36540914802155755,0.018315331395767055,0.040013307072588426,0.9990311878459334,-1.5951406747102737,-1.791259457866186,4.129239097237587,-0.21165876359257893,1.3828101009130478,-0.13223938444723302,1.0,0.5006164204021889,0.49409754254061206,0.40889488683953307,-0.6599285367133036,0.5301671602705098,-0.061183048661090214,0.5288418886195344
4.0,-9.016481381507935,-3.359960037832717,-9.14881107016245,-0.060543039141700755,0.1492157396332638,0.36642628529426663,0.018621643200543568,0.04049438079489329,0.9990061574701162,-1.594246727478162,-1.7924663029112757,4.1290364265441895,-0.21137272960944833,1.383012294769287,-0.13229777786115357,1.0,0.5010726999920417,0.49450821835728015,0.4086832035628747,-0.659878108378783,0.5301564989731226,-0.061187082925779526,0.528915030569216
4.1000000000000005,-9.09347169008205,-3.2693390218109553,-9.084829993597111,-0.058838415465595394,0.1468290013721963,0.365861204049382,0.01896100981822775,0.041038566929395205,0.9989775710524057,-1.5932671569371284,-1.7937414201743838,4.1288933753967285,-0.21108164492334466,1.383189981009282,-0.13242925089638788,1.0,0.5012594775817555,0.4946601784648672,0.40858408471624413,-0.6598733980162838,0.5301568614830101,-0.061188302933838055,0.5289204027044188
4.2,-9.028584021232664,-3.3441761583550775,-9.078238315039123,-0.06553117276351442,0.14508060628582295,0.36769067998659366,0.019312269666624117,0.04156712002834338,0.9989489391242034,-1.5923336239716819,-1.7949329500731965,4.128681574864259,-0.21079960192243563,1.3833310165211952,-0.13247513070685768,1.0,0.5015921604954486,0.49502864463932283,0.40830778610009866,-0.6599001757727229,0.5301512618983247,-0.061199386288212115,0.5288913240361292
4.3,-9.192063377670586,-3.186343371019823,-9.170480324493186,-0.057650424525029324,0.15397840476487235,0.3661445211237259,0.01943037648259113,0.04172068532552201,0.9989402354348492,-1.5915070285225028,-1.7960390533593724,4.1285576820373535,-0.21054909180272907,1.3834836355172562,-0.1325647210685854,1.0,0.5020388439713384,0.4954914209483391,0.4080262860903113,-0.6598987578897292,0.5301484178767186,-0.06117955407887483,0.5288982383418522
4.4,-8.706530106459603,-3.381216163717667,-9.06335581204242,-0.06235752601256486,0.1435551654550176,0.3721406989767312,0.018975718965852064,0.04097338348389581,0.9989800314770051,-1.5905047316816965,-1.7972356912380973,4.128364882200036,-0.21023281825429263,1.383670642691637,-0.1326345469909943,1.0,0.5022213517489433,0.49568118340242784,0.4078926404817509,-0.6599017211751385,0.5301514347210913,-0.06117241870408145,0.5288923423941309
4.5,-8.967782342678213,-3.4929888783904555,-9.214680302000595,-0.0741641682703833,0.15167121113215482,0.3725570058598937,0.019021053178991106,0.04098301747539965,0.9989787740893266,-1.589725899444902,-1.7984348544190079,4.128174494234051,-0.2099439908479407,1.38385009765625,-0.13268445736159154,1.0,0.5025143374372796,0.495982550899999,0.40772992805331076,-0.6598828668893517,0.530139088902466,-0.061149337861757705,0.528930909365885
4.6000000000000005,-8.908747662167162,-3.4881333500652216,-9.23327000929171,-0.06791768420569694,0.1467407123251549,0.3715851924629277,0.019091175231081878,0.04107418557855918,0.9989736863736507,-1.5887242214627535,-1.7996106017093896,4.127990866773519,-0.20967128384831338,1.3840179443359375,-0.1328264073374337,1.0,0.5030194339713187,0.4964586553415422,0.4073276266858961,-0.6599041276971714,0.530157506941799,-0.061159260398669354,0.5288847747373514
4.7,-9.030267494376263,-3.571888143463167,-9.12210397053938,-0.06806462418424117,0.1491167527812594,0.3731144630530412,0.01911692664889715,0.041102122431066805,0.9989720315810793,-1.5877311629644824,-1.8007797828600405,4.12781116473237,-0.20939373541551773,1.384170154601743,-0.1329012040304578,1.0,0.5031394605295255,0.49663335009883197,0.40723499950098385,-0.6599221689342224,0.5301409168724915,-0.061150179269187005,0.528879943637582
4.800000000000001,-9.069000412015374,-3.69212294737024,-8.998562683381373,-0.07198473714096514,0.15299669271164848,0.3677062918510476,0.018936619712883903,0.040768903005990335,0.9989891133987403,-1.586897423979524,-1.8019162771942712,4.127636784392518,-0.20904993716508827,1.384335979238733,-0.13298160234560186,1.0,0.5034950910124845,0.4969833114668363,0.40707540257034214,-0.6598959779105174,0.5301147959300228,-0.061140261419644654,0.5289399492448361
4.9,-8.84396771899962,-3.5138238511759585,-9.004787161212796,-0.06786887922202847,0.14852497856570618,0.3680867968333664,0.018923595264873725,0.04078469887671253,0.9989887273464547,-1.5860713094128598,-1.8032467571994477,4.1274831006001245,-0.20877300564233198,1.3844743973118536,-0.13304275731736756,1.0,0.5039288226711084,0.49740294348117725,0.4067681426391465,-0.6598925554674128,0.530122272504104,-0.06114837040512233,0.5289357883813214
5.0,-9.04562652872607,-3.5013841445783678,-9.097986438792047,-0.06448596866963331,0.15262135201624139,0.36422691005519403,0.01898266336632457,0.04095090739836658,0.9989808132899343,-1.5850957236912708,-1.8043490848936976,4.127302341354997,-0.20850228897380932,1.3846389322097272,-0.13311558042453736,1.0,0.5041556819770054,0.4976108952978704,0.40653099057502806,-0.6599099699186005,0.5301747409033066,-0.0611590940323243,0.5288602281579592
5.1000000000000005,-9.113223478541476,-3.450991240456016,-9.176085736514704,-0.06651925055666609,0.1564511759756308,0.36712529070824057,0.018964850266222914,0.04092172662346487,0.9989823509348946,-1.58424597616772,-1.8055035076537074,4.127106315733915,-0.20821262675938526,1.3847957851700345,-0.133178949926032,1.0,0.5044499826984081,0.49792191054806156,0.4063469621357984,-0.6599082118758985,0.5301547510775514,-0.06115901820902186,0.5288824692692716
5.2,-9.044003678838374,-3.2882206169100936,-9.121961331874576,-0.06348269942644529,0.15117772021060602,0.36547099964995106,0.018919240466716586,0.04082501398166598,0.9989871773372025,-1.5831768195519902,-1.8065859952569328,4.12692312730166,-0.2079348078088686,1.3849749565124512,-0.13328003515253264,1.0,0.5047372658673137,0.4982011561921061,0.40616279380411047,-0.659913318992216,0.5301410813253934,-0.06115750722672217,0.5288899740188253
5.300000000000001,-8.950567583003773,-3.52964357441035,-8.897357230348254,-0.06610004567635631,0.1503426957291535,0.3620840274802413,0.018903756212729512,0.04081918836033783,0.9989877084304677,-1.5821555381428154,-1.8079839582494253,4.126735210418701,-0.20770342767749028,1.3850990004973496,-0.13334794593063293,1.0,0.5052322303948434,0.4986907867952982,0.4059416915239772,-0.659870336189629,0.5301156828845752,-0.06115462776062057,0.5289693882260739
5.4,-8.98328377630865,-3.260042655815386,-9.178778446808638,-0.06413989451607774,0.15285950603319842,0.36910364728096096,0.01891117231345268,0.04085127480617116,0.9989862496972316,-1.5813837857178923,-1.809234838995379,4.126551499231806,-0.20740616537812956,1.38529027475501,-0.13343916250885088,1.0,0.5055943528672684,0.49903319392074735,0.4056206545948525,-0.6598968429051952,0.5301514006896424,-0.06116504288433772,0.5288993161269196
5.5,-9.01534169536803,-3.2675780144369657,-9.147421211025861,-0.061657345623430844,0.1512499999770972,0.3650680124478034,0.019029195020881167,0.04106647304896016,0.9989751802850337,-1.5805161075870104,-1.8102089052135033,4.126395027169425,-0.20712051811173854,1.3854254526905385,-0.13352771203110977,1.0,0.5057750406109911,0.49918395530298837,0.40544772800441436,-0.6599176291371619,0.5301722210668358,-0.06117747148347257,0.5288510714236424
5.6000000000000005,-9.000780899111398,-3.1744416038354446,-9.149430540711219,-0.06049733545412727,0.1560243921408722,0.3673565942243786,0.0191585624971877,0.04126900736936157,0.9989643568371173,-1.5796533579210539,-1.81131162350048,4.126198608548298,-0.20684980828931465,1.3855841960157682,-0.13360339799989873,1.0,0.50606714178917,0.49948993101733974,0.4052893951449801,-0.659906075707724,0.5301521924554234,-0.06115136163715037,0.5288885847214535
5.7,-9.014103403170765,-3.715455182353218,-9.271082278209194,-0.07417633940739403,0.15498286355276875,0.36582788600374866,0.019258235797219487,0.04141868819766159,0.9989562589475932,-1.5787358415207213,-1.8124517862524612,4.126008571837412,-0.20660593665238491,1.3857202879964083,-0.13370930397576877,1.0,0.5065115445270529,0.49989791538593625,0.40498927915905303,-0.6599141123643689,0.5301444005128788,-0.06117649962205545,0.5288834605101396
5.800000000000001,-9.12384418705083,-3.254481874632659,-9.230509449917735,-0.06350372220762265,0.15925144474169914,0.36596553655347436,0.0191501944335715,0.04129581351506231,0.9989634200686913,-1.577653125496594,-1.813925808356487,4.12583589553833,-0.2063777928232003,1.3858990438060033,-0.13378917464382262,1.0,0.5066703907422455,0.500050170214426,0.4049098412828621,-0.6598972537832553,0.5301483373475794,-0.06118417212631286,0.5288996615031368
5.9,-9.114498590660373,-3.604988970083811,-9.190153089964861,-0.07711564564871898,0.15392923422660373,0.36622268522658236,0.019161228088637985,0.04132073593335496,0.9989621754989964,-1.576603579396048,-1.8151051006712855,4.125668048858643,-0.20610241377360644,1.386028320140692,-0.13383670779236415,1.0,0.5072206681286966,0.5006111967900013,0.40446944634927035,-0.6599310891562206,0.5301718237890182,-0.06119305905785253,0.5288328699584146
6.0,-8.696044612278941,-3.3936613557209148,-9.04615830814754,-0.06777634243299833,0.15093601601031478,0.3652787225102241,0.019240588726033944,0.0414304664836136,0.9989561076213357,-1.5758063451173756,-1.8160470441229546,4.1254716994584575,-0.2058350937832,1.3861933580068833,-0.13392774062297208,1.0,0.5074096847462279,0.5008183831650381,0.40436066482913974,-0.6599265051226009,0.5301610471710476,-0.06117843393430373,0.5288510859594737
6.1000000000000005,-8.889296290520141,-3.364939055620509,-9.008935397093758,-0.061666077623640465,0.15118756709982928,0.3625674533330058,0.01932364797937106,0.04157538468914323,0.9989484849730202,-1.5749097309882212,-1.8171672554495872,4.125261972521143,-0.20556848274491005,1.3863648653583314,-0.13402206102480108,1.0,0.5076764267229503,0.501033834610106,0.40427994298895636,-0.6598795054793701,0.5301530768185156,-0.06117894512070061,0.5289176590567585
6.2,-9.062418961745678,-3.406203678722913,-8.838923121524491,-0.06761655943630909,0.1535493621191148,0.3651341813377973,0.019338660707551733,0.04165090310115453,0.9989450524499707,-1.5741508823735608,-1.8183564789453313,4.125113259328599,-0.2052934926799317,1.3865116283655985,-0.1340697447406214,1.0,0.5081694175088401,0.5014552488395091,0.40399668586948334,-0.6598482897127007,0.530158654287545,-0.061196454791458126,0.5289489859789881
6.300000000000001,-9.014943476457814,-3.5901204991740783,-8.978617974837416,-0.07053040178259298,0.15320832410024163,0.36157370352270657,0.019321733404570676,0.04167715288888892,0.9989442844284585,-1.5730797076604088,-1.8196821017869953,4.1249397843286975,-0.20501921425912203,1.3866705768890086,-0.13414877807752712,1.0,0.5083432376447551,0.5016275298281963,0.40384672242931074,-0.6598550203314454,0.5301701934070632,-0.061200523926890654,0.5289285528662439
6.4,-8.943440200696125,-3.226498407786956,-9.022305803363995,-0.06271801207759453,0.15120417716147003,0.3706125212726491,0.019405450776520543,0.04176374798872624,0.9989390428577054,-1.57201209183592,-1.8209945164122523,4.124786543606842,-0.20478124508750337,1.3868168954649112,-0.13424561398796045,1.0,0.5088002009189304,0.5021151523147,0.4034627378588129,-0.6598801714331713,0.5301786705899529,-0.0611921277103462,0.5288896483266423
6.5,-9.110423192970037,-3.32386290235013,-8.955997294251146,-0.06171450722251588,0.1564949954720347,0.36397544202125526,0.019334255158818273,0.041603829838911324,0.9989470401162068,-1.5710694001891936,-1.8219790572334447,4.124625466931066,-0.20452047313302588,1.3869560404414547,-0.1342737379386657,1.0,0.5089629981963861,0.502320823210406,0.4033268083898589,-0.6598968927747884,0.5301751499357108,-0.06116552171347447,0.5288753919878902
6.6000000000000005,-8.945672774966,-3.1888065245712727,-8.934088891275236,-0.061126551320231426,0.15563494243026732,0.3621120501201999,0.019158134023149996,0.04127694357064925,0.9989640042858752,-1.5701952436245676,-1.8230193579405143,4.12446909038673,-0.20428083484661266,1.387135696630801,-0.13432704585151947,1.0,0.5094050142540251,0.5027548882409253,0.40317734642307435,-0.6598427885383535,0.5301408937164646,-0.06116581523580208,0.5289771925801505
6.7,-8.66814090799792,-3.171061226267195,-8.869830097348771,-0.062410730004019345,0.1524259209901247,0.3608089952562837,0.01904754866455471,0.04108952722008037,0.9989738893731772,-1.5693856651384268,-1.824397502906193,4.124264077521835,-0.2040335261649016,1.3873039105646439,-0.13442891691069409,1.0,0.5096131677418055,0.502964125337783,0.40304946653924034,-0.6598327005644776,0.5301406172974746,-0.0611585879220791,0.528990888655578
6.800000000000001,-8.865492858316328,-3.3567659249578115,-8.918122259880732,-0.06687687121609516,0.15372915486267774,0.3616261943199977,0.018989350980725257,0.04101359966256556,0.998978115617612,-1.5685946254255796,-1.8256057887621977,4.124119928312543,-0.20370981301270444,1.3874411582946777,-0.13449349940897756,1.0,0.5099124586353511,0.5032444427629744,0.40273570347717924,-0.6598718001922217,0.530182954251676,-0.06117021823406243,0.5288983330785217
6.9,-9.102006551753174,-3.232764874981819,-8.834588666703489,-0.05782687752384281,0.15583598942090893,0.3609560444962664,0.018943302296455782,0.04095536178536837,0.9989813800977188,-1.5675097943392289,-1.8267210407839996,4.123944326315478,-0.20349799665451343,1.3875489234924316,-0.13459617296327764,1.0,0.5103863928246686,0.5037383907956441,0.40223178221791694,-0.6599425821666094,0.5301930203693147,-0.061166856890177854,0.5288003073118515
7.0,-8.966109435561718,-3.2697155772477635,-9.054225450997224,-0.06264571819567101,0.15391214470052,0.3620663375447137,0.019196373579252038,0.04133266072483539,0.9989609650219335,-1.5662271470439677,-1.8278600737714417,4.123791537966047,-0.20340540534889942,1.387728214263916,-0.13464385667909795,1.0,0.5105664069099825,0.5039119169059909,0.4021881834102198,-0.6599115027003587,0.5301783691817095,-0.06117373222051298,0.528852985187557
7.1000000000000005,-9.209439372705095,-3.4830767737797146,-9.050567633227512,-0.06387908389380564,0.1426545114263279,0.3548026702827927,0.01944840510137309,0.04173677606939922,0.9989392737438513,-1.5660587801766204,-1.828100152687613,4.123727321624756,-0.20339200586671294,1.38777494430542,-0.1346725134998219,1.0,0.5109810189431598,0.5043346762321482,0.40215403212364564,-0.6598513518970672,0.5301428661225097,-0.06116264523436296,0.5289649002787982
7.2,-9.140105511046054,-3.3756017151203666,-8.865715047360823,-0.05835251744844573,0.15127638863240514,0.3590136538022489,0.01969743634647531,0.04216028028220672,0.9989166731819777,-1.5660682974036229,-1.8280834310279317,4.123748800285766,-0.20337707512349837,1.3877844035709368,-0.1347173580614934,1.0,0.511070132123284,0.504384830503491,0.4021102215999592,-0.6598515527206315,0.5301474795004757,-0.06117644265252359,0.5289584305177931
7.300000000000001,-8.832283951946117,-3.3583634404786906,-9.132761457847833,-0.06042552132534058,0.15300889797914788,0.3624370135469724,0.01984060323339379,0.04236583461809138,0.9989051281958988,-1.5660466395084942,-1.8281125836264023,4.123760624951609,-0.20336142697575285,1.3877810637658305,-0.13470298448671514,1.0,0.5110754489287062,0.5043927941280555,0.40206873630780926,-0.6598607375237958,0.5301567436951562,-0.06117570692076234,0.528937772400351
7.4,-9.110737604642061,-3.465683981085638,-9.018146769221786,-0.06457829741160928,0.15597344186511525,0.3555916278440757,0.01971549916003648,0.04215879842358116,0.9989160541183908,-1.5660734176635742,-1.8281526448603622,4.123764434207372,-0.20336739642711388,1.3877616735807137,-0.13467914262880498,1.0,0.5110649630917495,0.5044112866495838,0.40207578870291866,-0.6598659142331814,0.5301505099789936,-0.06116293022912025,0.5289390399356136
7.5,-8.90919908723829,-3.4789251283877487,-9.026902026863281,-0.07028813803849379,0.153119183202967,0.35879001276356326,0.01933300602910521,0.04155590765102377,0.9989485394596656,-1.5660331267427994,-1.8281597688264608,4.123765707778837,-0.20339842187043758,1.3877619501114362,-0.1347123416677694,1.0,0.5110712922951636,0.5044157122899791,0.40204509792397514,-0.6598749594668405,0.5301555099723886,-0.06117531094129306,0.5289213121493487
7.6000000000000005,-8.892649917007295,-3.5364987651002324,-8.940345235173213,-0.0697739918859111,0.15371631708647487,0.358519030143615,0.018950512898173937,0.04095301687846638,0.9989810248009404,-1.5661041035092174,-1.8281518273144055,4.123743748602635,-0.20335324228320317,1.3877832039621518,-0.13470576137590526,1.0,0.511065315126799,0.5044277459832212,0.40204222602880635,-0.6598804801683326,0.5301522920234278,-0.06117498678134868,0.5289176874972311
7.7,-8.936143169732992,-3.394049050198837,-9.014050304467105,-0.0673735469452631,0.15313312812357874,0.357418865740633,0.0187993942796224,0.040727279628464036,0.9989934217373685,-1.566091447424456,-1.8281806611828704,4.123762607574463,-0.20336534120168964,1.38777494430542,-0.13468537231882713,1.0,0.5110594996678566,0.504434437362948,0.4020434208226722,-0.6598867440485922,0.5301386854268697,-0.06117860629776986,0.5289230921166903
7.800000000000001,-9.043600465101193,-3.2022641471205557,-9.113259289700173,-0.05893683555395286,0.15493177016401075,0.3617895509922022,0.01887919694918938,0.040877957119874166,0.9989857696188001,-1.5660825115092998,-1.8281504116454066,4.123746616559803,-0.20335124146025116,1.3877416591786649,-0.13468661456181696,1.0,0.5110671558864981,0.5044284951052163,0.4020144510371263,-0.6598770868545679,0.530181218460572,-0.06116613957663953,0.5288939489210326
7.9,-9.109165859590153,-3.393092558738364,-9.003988029692902,-0.06637384612074837,0.15589630355945439,0.3560963091291029,0.019196679008005643,0.041356864697023474,0.998959920337376,-1.566096309614223,-1.8281756437128416,4.1237573239473,-0.2033720571999773,1.3877524926570346,-0.13470437469623997,1.0,0.5110597287857168,0.5044304060461166,0.4020243535060066,-0.6598754881426271,0.5301664057049015,-0.06116713940505289,0.5289106762653579
8.0,-8.983664032225652,-3.443975479962973,-8.95937929568021,-0.06862752106598016,0.1552481683314969,0.3542804656300093,0.019249097810385786,0.041421495640391805,0.998956215044768,-1.5660923006566065,-1.8281630947488507,4.123762656003012,-0.20336904994832872,1.387763500213623,-0.13469988454192103,1.3550291329015223,0.5110628670089316,0.5044316158355456,0.40202021704935786,-0.6598880224913584,0.530157777855275,-0.061167187648503665,0.5289036807464798
8.1,-9.084491046705647,-3.428330278790742,-9.124869504853159,-0.07130911988544114,0.15569135023029093,0.36027494237856245,0.01900436490161492,0.04102241251137938,0.9989773070641916,-1.5660850469591017,-1.8281862654283245,4.123762808211838,-0.20337697449979109,1.3877511024475098,-0.13470259864560957,2.0,0.5110531258157671,0.5044308044677733,0.4020315009083494,-0.6598830890568412,0.5301548603497295,-0.0611608435961441,0.528913493905164
8.200000000000001,-8.941125486677715,-3.347185865403729,-9.064441896448677,-0.06736689035369446,0.15326859245552754,0.3575126120359008,0.018759631992844052,0.04062332938236694,0.9989983990836154,-1.5660852363190236,-1.8281396768346843,4.123740468518174,-0.20338870156628405,1.3877284467078324,-0.13465686145277997,2.0,0.5110633842901211,0.5044333589462419,0.40201844877014353,-0.6598889923057494,0.5301508081936992,-0.06116406274988835,0.5289098182423904
8.3,-8.964278722142518,-3.0477084281832627,-9.073351934202158,-0.06554701654466703,0.1546935157572793,0.362043704814692,0.01901507758299994,0.0410484751035305,0.9989761257466925,-1.5660623664212165,-1.828199245460263,4.123775705532929,-0.20337756097827153,1.3877735977816643,-0.13467849629740233,2.0,0.5110670765772835,0.5044148351752346,0.4020195099755252,-0.659896818426468,0.5301518099691919,-0.06119314274896176,0.5288956860265737
8.4,-9.162653233458663,-3.1138978644804256,-9.116310508037866,-0.05854694435771775,0.15984660588549254,0.3632772297273669,0.019304617259035914,0.04151300338554104,0.9989513747481262,-1.5660857772827148,-1.8281856975951136,4.123762607574463,-0.20336754739794927,1.3877644157409668,-0.1346371809588831,2.0,0.511059066554234,0.5044302587841054,0.4020241706838336,-0.6598989777709617,0.5301461604580863,-0.06116660584926496,0.5289017243470374
8.5,-9.038989934716255,-3.7421939871013694,-8.905620390727584,-0.06636556013309707,0.15949066331628195,0.3609157746813881,0.019612280271935362,0.04198714973233477,0.9989256288760836,-1.5660754284623952,-1.8281659512846775,4.123772910758471,-0.203366687340369,1.387741752937818,-0.13470088990461002,2.0,0.5110656403084475,0.5044445172132178,0.402015812892919,-0.6598875463376388,0.5301561462913158,-0.061167645322916714,0.5289058573164812
8.6,-9.074313837394904,-3.412335299007784,-9.076495925957987,-0.06431483592024247,0.15803162923563888,0.3612693791331183,0.019749729157624515,0.04221398317876589,0.9989133426239432,-1.5660836059527086,-1.8281840350138834,4.12377238908503,-0.20338550519879553,1.3877511024475098,-0.1346486646781442,2.0,0.511061781836748,0.5044304287949012,0.40203119554991246,-0.6598814361925002,0.5301561814351782,-0.06116066925157057,0.5289142520213403
8.700000000000001,-8.904421360730197,-3.5496830379404267,-9.009492436349706,-0.06372894206850323,0.15575399174295343,0.3603909521716798,0.01987722943410913,0.04242636177684056,0.9989018430544396,-1.566074963483532,-1.828191546365963,4.123773330702289,-0.2033759507491488,1.3877841216132878,-0.1346997640284697,2.0,0.5110679001167338,0.5044272501179421,0.40199794454874344,-0.6598949355832022,0.5301610290134052,-0.06117338526256662,0.528891079753295
8.8,-8.695776570861996,-3.328384915907444,-9.037218141573728,-0.06947960875368658,0.15554102674504872,0.35473612203307714,0.01988782461088762,0.042452309927307114,0.9989005334432326,-1.566084861755371,-1.828200570354331,4.123771009028684,-0.20339740652429006,1.387763500213623,-0.13467514631691335,2.0,0.5110644689322225,0.5044315878432782,0.40201523322002597,-0.6598886460592522,0.5301575289700832,-0.06117006547985134,0.5289028193984348
8.9,-9.085143820840923,-3.411275316919977,-8.814024005972355,-0.06917831325148471,0.1586937962375666,0.3594579818680311,0.01997766081147637,0.04259024863383569,0.9988928377505918,-1.566062150984172,-1.828175817923851,4.123773874253865,-0.20337756097827153,1.3877727691386679,-0.1347041155734262,2.0,0.5110719512333273,0.5044354941317012,0.4020186164408655,-0.6598899480714919,0.5301550204018116,-0.061182695796557295,0.5289022485412825
9.0,-9.096621216360688,-3.5954092394229087,-8.653549163336926,-0.048989696535020055,0.1395673695762846,0.36032758855302416,0.020183349840602723,0.04289381401743182,0.998875736817928,-1.566084861755371,-1.828174730340475,4.123775005340576,-0.20336207108978185,1.387748314048437,-0.13465886973042943,2.0,0.5110654916739187,0.5044241005994811,0.4020347816778258,-0.6598855450855494,0.530157681201928,-0.06116820291027812,0.5289067511409444
9.1,-9.540529788944676,-4.0724591423738286,-8.445097115349517,-0.009127860936248441,0.09702837867924412,0.3604892850516238,0.01967354344262915,0.04205850979005316,0.9989208319429502,-1.5660637533897999,-1.8281879536319918,4.1237794128983145,-0.20336386084959646,1.387763500213623,-0.1346394491213598,2.0,0.5110567657615055,0.5044396586284441,0.40202274744114186,-0.6598827462693437,0.5301631633981485,-0.061154609652973244,0.5289063197484878
9.200000000000001,-10.471837287718602,-5.541826669055118,-8.420071760408868,0.0572643845826818,0.07238832917693602,0.36075531711625675,0.01910108736004171,0.04112348469900235,0.9989713730334541,-1.566082201173012,-1.8281690766029617,4.123784520809134,-0.20336359292088604,1.387763500213623,-0.13467648204644583,2.0,0.5110522691924269,0.5044496535609515,0.4020445270413693,-0.6598856109965276,0.5301473141214101,-0.06115204113178174,0.5289189291328222
9.3,-10.83405065470788,-5.842898144660115,-8.248471896727658,0.09485108080052265,0.0545478943897312,0.3574192390690018,0.018672980817811123,0.040486230536097116,0.9990054491845783,-1.5660702420901689,-1.8281894118904851,4.1237596762759345,-0.20336564004931645,1.3877333674615329,-0.1346706298355361,2.0,0.5110615522771125,0.5044258348285198,0.4020429409399039,-0.6598765483774363,0.5301562462440425,-0.06116489482181682,0.5289197964827405
9.4,-10.993436814045442,-6.035922002181262,-7.7955276854363165,0.12127428827045876,0.03915299029195451,0.35828126984234043,0.018305813007914694,0.03992544704848735,0.9990348894174079,-1.566084861755371,-1.8281688552686233,4.123768959483473,-0.20338343605012327,1.3877574543565196,-0.13465530077089483,2.0,0.5110662713332085,0.5044272844196994,0.40203908326673427,-0.6598763299939789,0.5301505271391193,-0.06117050875949107,0.5289251521206914
9.5,-10.880112756080289,-5.296758798276903,-7.978785125184333,0.07817935993602194,0.03157486781082824,0.36334645307092905,0.018009361573227425,0.03943649131764933,0.9990597450729783,-1.5660734176635742,-1.828180030165962,4.123808911275757,-0.20336330636047456,1.3877444813440418,-0.13466854297783085,2.0,0.5110569893871145,0.5044493115792542,0.4020278720591082,-0.6598847869422411,0.530150818091377,-0.061161820657385665,0.5289153143302913
9.600000000000001,-10.815955373645782,-5.0307865473487805,-7.162818206052558,0.05003325211433254,0.03926258000105919,0.3687883716589026,0.018022477866529392,0.03946806530718514,0.9990582842196877,-1.5660728626353766,-1.8282168108607766,4.123763006220582,-0.20338940371618724,1.3877754993336175,-0.1346735394332864,2.0,0.5110661835513286,0.5044353287773107,0.40205054475347757,-0.6598763818377971,0.5301518490758406,-0.06116586334420829,0.5289242996644066
9.700000000000001,-10.329041229956903,-4.928113710222512,-6.508556971779911,0.04181726607497428,0.0630748613189357,0.3644085082894474,0.01814037212264027,0.03965820663164725,0.9990486041224931,-1.5660864638243168,-1.828190891923906,4.123775005340576,-0.2033937225617026,1.387759089932968,-0.13468025087425706,2.0,0.5110623193264276,0.5044295402663874,0.40203187799913903,-0.6598857301183093,0.5301566388311946,-0.06116733411169582,0.5289076655968455
9.8,-9.924308694512664,-4.160395526401316,-5.87468307448131,0.02930521283074746,0.08538103416183743,0.36560487005178893,0.018267196107045428,0.039848653515201025,0.9990387343606166,-1.5660860579019682,-1.8282027301715411,4.123762607574463,-0.20339779785353848,1.3877355765359114,-0.1346601780534897,2.0,0.51105775183585,0.5044481480067576,0.4020153366220884,-0.6599029810158338,0.5301471218927343,-0.06116820033054329,0.5288955814370064
9.9,-9.876971743244638,-3.769439693109911,-5.532143618237032,0.0040682674584328615,0.10623208451909394,0.3734706942767407,0.018304217978178824,0.03992520787622223,0.9990349566798893,-1.5661181767494865,-1.8282362900928608,4.123782788398167,-0.203386435417739,1.3877784676320657,-0.134685447415943,2.0,0.5110567069773289,0.5044506439175059,0.4020004888094373,-0.6598958673488755,0.5301692573748399,-0.06115902660616925,0.528883329530315
10.0,-9.692207780516279,-3.701968696679788,-5.097125382791731,-0.021989695036419794,0.10712223232480134,0.3700737858795739,0.018484035716559318,0.04026395986951071,0.9990180270499125,-1.566101428372177,-1.8282236813888229,4.1237874031066895,-0.20341332376513677,1.3877495962171698,-0.13468468975453987,2.0,0.511046372480759,0.5044584405625873,0.4019885548227392,-0.6599072246337492,0.5301631965111628,-0.061161284727464175,0.5288749731191058
10.100000000000001,-9.903096136141986,-3.54383939826022,-4.8661940093428235,-0.022279465437401266,0.10889715231582606,0.3649400155297515,0.018491591923057344,0.040295351214042985,0.9990165123692741,-1.5661038219545478,-1.8282443156105492,4.123781984583143,-0.20340590491027952,1.3877685019276658,-0.13469654210896104,2.0,0.5110879139698178,0.5044325979139187,0.40197251708969234,-0.6599035313960164,0.5301768206454924,-0.06118233653263959,0.5288634888113481
10.200000000000001,-9.817848801862967,-3.8199662231187346,-4.6521242245173555,-0.017751692425403975,0.09872474601381112,0.36934022528389154,0.018138058292606115,0.03968246170648276,0.9990473100771436,-1.5661020225780191,-1.8281917554934044,4.123793947143471,-0.20337756097827153,1.3877613108954585,-0.134664000906796,2.0,0.5110725222240181,0.5044534007070124,0.4019509323715411,-0.6599132365012759,0.5301700780705152,-0.06116387179551513,0.5288602739817928
10.3,-9.974089676395971,-3.572958786074676,-4.54271668010451,-0.0019881961454013934,0.09693062542969326,0.3707407549141699,0.017784524662154886,0.039069572198922535,0.9990781077850132,-1.566081679484672,-1.8282104931273402,4.123798847198486,-0.20337325794644978,1.3877351832026183,-0.13469817012554144,2.0,0.5110548065470477,0.504455728317164,0.40198677921598436,-0.6599127921877135,0.5301528383593942,-0.06116338181472379,0.5288781668886322
10.4,-10.103093788410405,-3.6242118799565963,-4.552636228262962,0.0055824859082846505,0.09686624496757562,0.36430149778965176,0.018018817613552594,0.03942903742051758,0.9990597545373926,-1.5660682343515477,-1.8281966191771732,4.12378497324832,-0.2033756079570597,1.3877701597097032,-0.1346824510404681,2.0,0.5110574206040084,0.5044538511610439,0.4019671609712349,-0.6599091294105106,0.5301621365222992,-0.06116090559666053,0.5288737028302403
10.5,-9.948170965956963,-3.865876473805726,-4.618905438466193,0.0035508739295022703,0.09353594655882631,0.3702025212857375,0.01844583685182229,0.04010094832996781,0.9990251552595552,-1.5660924555460611,-1.8282048346597295,4.123780890146891,-0.20335409677539068,1.387763500213623,-0.1346676985370081,2.0,0.5110541556760383,0.5044616453898484,0.4020099987775707,-0.6599049043410969,0.5301408386102596,-0.06116409443309194,0.5288999546382641
10.600000000000001,-9.771866040292988,-3.89718177861919,-4.6016740492926775,0.0006332659868571481,0.08778631738911448,0.3680419633231921,0.019037865445563462,0.04102852644057335,0.9989764016312426,-1.5660734176635742,-1.828174730340475,4.123787604884573,-0.20334064273920646,1.3877450546663914,-0.1346611467741298,2.0,0.5110452314540834,0.5044498475554718,0.40200273970552103,-0.6599066646478579,0.5301438096935225,-0.0611627256577207,0.5288949385152941
10.700000000000001,-10.0566139876232,-4.025583660082188,-4.932039447778095,-0.002293898793218229,0.09263253211355817,0.36943245698714766,0.01879699759910555,0.040642564027814285,0.9989966694337495,-1.5660968870783047,-1.8281808698641735,4.123799682154086,-0.20337081775518323,1.3877455522984634,-0.13467914262880498,2.0,0.5110428515889457,0.504454311590995,0.40200153167704383,-0.659911440529024,0.5301351443593422,-0.06115498612316587,0.528898560261118
10.8,-10.097062428358255,-3.9888907903203763,-5.120309800662631,-0.0009320151145945186,0.09280304184108082,0.36987390433222833,0.01847657890104577,0.04013955796678824,0.9990231955632723,-1.5660716670756474,-1.8281919748585234,4.123795061253756,-0.20336670085652137,1.387763500213623,-0.1346578482724321,2.0,0.5110477819380624,0.504441398300155,0.40204795487117945,-0.6598895322189687,0.5301347462347071,-0.06116425676654888,0.528925221365638
10.9,-9.998608591172616,-3.8810945258616685,-4.92943747947865,0.0027149103235528504,0.09037951644975491,0.37011578515110094,0.01870105712136323,0.04052098340373969,0.9990035707052869,-1.566084861755371,-1.828164284323248,4.123775590623008,-0.20337814626070327,1.3877508215119425,-0.13469065076562203,2.0,0.5110637520239512,0.5044271598804569,0.4020089549174506,-0.6598901647942559,0.5301562376538,-0.06118011615326342,0.5289010564104127
11.0,-10.18897166534173,-3.942356638122584,-5.10376432720247,0.0028435952404240817,0.08973133139694547,0.37118284943699437,0.018717900407301088,0.04057567984235842,0.9990010039752281,-1.5661255041040376,-1.8281811540975326,4.12378967485548,-0.20337022622081963,1.3877657719624137,-0.134713544667274,2.0,0.5110561363872971,0.5044357880828342,0.4020391661068552,-0.6598900419284944,0.5301365258673099,-0.06117246000137294,0.5289218530580194
11.100000000000001,-10.087720089706384,-3.9411630987087634,-5.0791553502376035,0.005220110166844279,0.09075791603109976,0.36760017357376346,0.018254999399349756,0.03986288171167856,0.9990383855846983,-1.566092068491584,-1.828174730340475,4.12378281263814,-0.20337446787344962,1.3877360884137329,-0.13467193589259202,2.0,0.511060329460738,0.5044320398918326,0.402015814020013,-0.6598887731703812,0.5301529527292433,-0.06118106240645678,0.5289059759153523
11.200000000000001,-10.183580102719622,-3.9274303639350876,-4.984295232371158,0.011297981842514944,0.08820600972761769,0.369238530738638,0.018348204363950436,0.03998399781517543,0.9990318316253932,-1.5661062854733279,-1.8281807514373851,4.123771759641767,-0.20337455042981642,1.387745679452623,-0.13468227359919832,2.0,0.5110481087951602,0.5044498412010069,0.40200423815345404,-0.6598994048577076,0.530145714147497,-0.06116619741263449,0.5289016860755525
11.3,-10.023289554835328,-4.143284076814039,-5.133652331652867,0.00479642903145239,0.08700291053012271,0.3683265690057758,0.018431513741374368,0.040099426778103284,0.9990256790660563,-1.5660937344206032,-1.828174730340475,4.123778530441458,-0.20336564004931645,1.3877754779745568,-0.13467967629794195,2.0,0.51104920972546,0.5044514905104621,0.4020057268254013,-0.6599010713860705,0.5301556380400774,-0.06116212211789319,0.5288901306092513
11.4,-10.148384019446135,-4.249886746945042,-5.247859637363611,0.0023733748089839165,0.08633770913083615,0.36913918886690245,0.018478349576112996,0.04019389385563756,0.9990210060024396,-1.5660886338534583,-1.8281905805382708,4.123795394766804,-0.20336538960657688,1.3877434943525677,-0.13467914262880498,2.0,0.5110588663938196,0.5044290337221219,0.4019981550959849,-0.6598966418320735,0.5301608597474388,-0.0611818248663473,0.528888144314686
11.5,-10.231995949326684,-3.9856608854678006,-5.015205983343736,0.008442479209614839,0.08779775245121832,0.3655514459273936,0.018525185410851627,0.04028836093317185,0.999016332938823,-1.5661000800368463,-1.8281713605282621,4.123769616783866,-0.20337756097827153,1.38777494430542,-0.13467093355673246,2.0,0.5110541364363768,0.504427877488327,0.4020261897191699,-0.6598841646476662,0.5301534724364073,-0.06116964487140107,0.5289125253358802
11.600000000000001,-10.157271360362738,-3.89803098251031,-5.223453791377641,0.011571905729157478,0.08546161376398173,0.36831649376103687,0.018572021245590254,0.04038282801070613,0.9990116598752062,-1.5660759130222333,-1.8281896234652473,4.123791698498596,-0.20335044906204866,1.387763500213623,-0.13465830511239812,2.0,0.5110659498985142,0.5044241898372904,0.40200522229027075,-0.6598934233811172,0.5301544073456774,-0.061191276062290856,0.5288975343903313
11.700000000000001,-10.164761085314325,-3.734649941357753,-5.0854682130298565,0.014679521962763181,0.08832539074077538,0.36345459099106125,0.018549429338323032,0.04034877288734221,0.9990134561082616,-1.5661151897852683,-1.8281895327786335,4.1237874031066895,-0.20335912056197822,1.3877605034440514,-0.134700859446443,2.0,0.5110568203060317,0.5044491555872437,0.40200912267037686,-0.6598814730628654,0.5301636950778827,-0.06115218380381804,0.5289076557829095
11.8,-10.026043264448164,-3.8324471482087126,-5.211098092307517,0.012441398212307796,0.08386343096076619,0.36815491652752325,0.01849738495487194,0.0402601963730805,0.9990179967313932,-1.5660874136215472,-1.828155834361031,4.123765372096154,-0.20338682371329317,1.3877792611619755,-0.1347140122121163,2.0,0.511064895911639,0.5044411838896066,0.4020029150575312,-0.6598927926202549,0.5301614642514364,-0.06117502942249952,0.5288931270547677
11.9,-10.238585845054542,-3.7645550076680756,-5.143282778381671,0.013991652614518459,0.08789083698260938,0.36113181655608456,0.018375183815215395,0.0400567345279481,0.9990283930239072,-1.5660749059769334,-1.8281528185658484,4.123791811584887,-0.20337756097827153,1.3877610932931812,-0.13467692085608937,2.0,0.5110684670894344,0.5044294311095376,0.40201139478080616,-0.6598892246409863,0.5301668185460687,-0.061170264031752734,0.5288927627730818
12.0,-10.238531142063394,-3.7319137239114313,-5.19507685757565,0.015898438467542925,0.08911052810078797,0.3637004828433398,0.01822175221227912,0.039802131177689236,0.9990413959829424,-1.566111751604337,-1.8281526804885408,4.123791766266563,-0.20335324228320317,1.3877440215155865,-0.1346747794689313,2.2961722438765686,0.5110734557057708,0.504421834110045,0.40201911120622835,-0.6598877909777984,0.5301592672026116,-0.0611721099380163,0.5289019074302554
12.100000000000001,-9.862932106654764,-3.987336375315366,-4.961353093642671,0.003406930491815297,0.08391149835523659,0.37146676346012464,0.018095412560050338,0.03956311928620134,0.9990532021990075,-1.5661125373978313,-1.8281280626660978,4.123779287331358,-0.20339926184079088,1.3877728889498446,-0.13469359575049344,3.0,0.5110545393750557,0.5044498043045174,0.40202840505901594,-0.6598867174628156,0.5301554777904076,-0.061158924371397735,0.528908570033336
12.200000000000001,-9.85442482691956,-3.390720663676597,-4.248790334999815,-0.024215763249890214,0.1022463395543989,0.3647253880705087,0.018293100051450753,0.03986155844243226,0.9990376984533518,-1.5665771382093914,-1.8274461858753976,4.12382014831676,-0.20345880380192072,1.387675375592733,-0.13465704797787126,3.0,0.5110267771686786,0.5044113233833754,0.40204378110264966,-0.6598868119203983,0.5301523886706934,-0.06114668886687816,0.5289129632377224
12.3,-10.043502235032639,-3.7301515234027445,-4.0799251666415195,-0.025091606714841282,0.10755100267131629,0.337384221059863,0.018396900216869485,0.04012767350456401,0.9990251824229426,-1.567573007255666,-1.8263895939901487,4.12394380569458,-0.20368055164254506,1.387514716215048,-0.13454070708258947,3.0,0.5109810366612622,0.5043022331515947,0.4021311358894592,-0.6598566000857178,0.5301582941337238,-0.06116676219445426,0.5289424143393912
12.4,-9.870929035471699,-3.3662764950703368,-4.012744859395917,-0.028675184955976388,0.11677966073451126,0.3281337456781063,0.018380595466428753,0.04021022202985807,0.9990221658569906,-1.5685177028915382,-1.8252259603766394,4.124172687530518,-0.204008395587245,1.387356806001527,-0.13450079655412966,3.0,0.5106078288194646,0.5038785178215427,0.4023521050033826,-0.6598636625579835,0.5301774542281538,-0.061201499018388325,0.5289103802929378
12.5,-9.557557349323256,-3.156195693839514,-3.6060268175586074,-0.059820782172661804,0.13291479737979514,0.2963108257042936,0.01836843064562874,0.040076891148532925,0.9990277455143026,-1.569336029255884,-1.8240020772325214,4.124355373269707,-0.2042507859815761,1.387221903490597,-0.13443857754889588,3.0,0.5104056921304112,0.5037276495010089,0.40244832870818614,-0.6598893181403758,0.5301561243299259,-0.06118414684489598,0.5289017600789055
12.600000000000001,-9.66466747160638,-3.2270093413722236,-3.657856459655368,-0.07258849506711881,0.14655861132013936,0.2640845176553901,0.018300193709016848,0.03993611404854892,0.9990346253380287,-1.5702095146644242,-1.8227850791989602,4.124588512513663,-0.20450429941604648,1.3870454112204282,-0.13433298661900855,3.0,0.5100181449192257,0.5034259568353893,0.40272735788351144,-0.6598771321151011,0.5301400558446727,-0.06115348569254857,0.528936615189578
12.700000000000001,-9.83417016296412,-3.5401255384682138,-3.6268133420477433,-0.041451109780903786,0.13379643530399438,0.24156612752811144,0.018202072017457157,0.03979136833748815,0.9990421981114341,-1.5713290164114895,-1.8217323125764469,4.124710559844971,-0.20475507898809325,1.3869247436523438,-0.13426237261720816,3.0,0.5095873489504483,0.5029708078048394,0.40312713369250375,-0.6598360806220761,0.5301378335925143,-0.06117437249698611,0.528987637145456
12.8,-9.56249378950391,-4.073600737573367,-3.4305627203562614,-0.038991011566414366,0.1295078476709143,0.22230861181630093,0.01803440717406849,0.039530913174438055,0.9990555700318778,-1.5722847260030588,-1.8205993960904443,4.124903202056885,-0.20497572926040392,1.386742822613035,-0.13418949926702142,3.0,0.5094262764626025,0.5028099765401689,0.40316253992668466,-0.6598702306217153,0.5301502968318624,-0.06118115514173167,0.5289317609709742
12.9,-9.837219278678,-3.2161011283454566,-3.6440002409792815,-0.04218483935399018,0.1434549886206646,0.20541663529927984,0.01791527832847741,0.039333278739372,0.9990655257670517,-1.57336164517552,-1.8192865744456501,4.1250826273707695,-0.20523722072055603,1.3866130266932788,-0.13409323912906557,3.0,0.5089750449433404,0.5023951168612291,0.4033060841910091,-0.6599405080470548,0.5301612365955994,-0.0611813486273932,0.5288330848482851
13.0,-9.57300867278893,-2.9261162725612,-3.5059631478296347,-0.06879306798803027,0.15767658020832254,0.21133070188526637,0.017836375034341646,0.03918803060328367,0.9990726414477429,-1.5741739390404932,-1.8180023632445277,4.125250334092658,-0.20553666789725092,1.3864693474687797,-0.13404494920839483,3.0,0.5087419967119411,0.5021643790188587,0.40343995098993374,-0.6599480554786137,0.5301663320663058,-0.06117666626306599,0.5288190994265373
13.100000000000001,-9.260012175362036,-3.252100129951345,-3.547856632085288,-0.08061752678006381,0.16336679128278636,0.21740684413137823,0.017681552800244384,0.03888611492773141,0.9990871746926633,-1.574988387779956,-1.8169792712521364,4.125431149119262,-0.20575250391213318,1.386314009875588,-0.13397266421480417,3.0,0.5084358593310951,0.5018516263829174,0.4037395062794782,-0.6599055378601784,0.5301526380327984,-0.061152173353536794,0.5288887153101988
13.200000000000001,-9.733690264203991,-3.316877442356964,-3.4240196437612567,-0.06629164333969484,0.16583422256143412,0.22072474705453657,0.017748749908858902,0.038982918822411214,0.9990822155380434,-1.5758546259787416,-1.8159356475506017,4.125599173184029,-0.20603918486383513,1.3861357404185701,-0.13387757936586553,3.0,0.5081343411285967,0.5015588519306713,0.40399913530525855,-0.6598869402684118,0.5301405707880599,-0.06115673844281538,0.5289234865372696
13.3,-9.68728382300735,-3.216823885133475,-3.3360989080813206,-0.06261375386098238,0.16450895333665422,0.2244530258657164,0.017860556414842247,0.03917108837126651,0.9990728809863534,-1.5769646692700485,-1.8147421871264071,4.125767780620904,-0.2062565259542342,1.385990732787271,-0.13380396051945895,3.0,0.5078087863860099,0.5012621293363985,0.40417984713754235,-0.6599054370832867,0.5301382587501244,-0.06116123746089412,0.5289022062248885
13.4,-9.53814280132568,-3.2178372265395403,-3.439411691250607,-0.07725851470361038,0.164693837054174,0.22764742614114367,0.017929614362442583,0.039285068847712525,0.9990671467650092,-1.5780094441148165,-1.8133504963027347,4.125921887519705,-0.20655509980906325,1.3858237266540527,-0.13372218350916576,3.0,0.5073825512957478,0.5008191585081632,0.40443423671275713,-0.6599125474047212,0.5301553308571307,-0.0611610617223267,0.5288762421120614
13.5,-9.440082050051204,-3.0932748106834644,-3.47927839595781,-0.0808121525280096,0.1681945528886359,0.22897007579675624,0.01821139057259948,0.039731959165050325,0.9990442615206283,-1.5788985796646828,-1.8120378549858187,4.126090524384416,-0.20677275608662987,1.3856797218322754,-0.13367198765364133,3.0,0.5070963936766386,0.5005209799901035,0.404651486421125,-0.659900432470651,0.5301453122170098,-0.06116249311887582,0.5289012351988416
13.600000000000001,-9.387009970751068,-3.0601232040432462,-3.4163770450793534,-0.080073978715618,0.17088377810919075,0.22865991778558337,0.018433639058784597,0.040090638871418206,0.9990259607752131,-1.5797203292242759,-1.8110931712234282,4.126257153733318,-0.2070238076962922,1.3854769390092805,-0.1335424502952486,3.0,0.506780952626458,0.5001975205719916,0.40488609993414604,-0.6598877038343226,0.5301410437995735,-0.06116368240211075,0.5289212568637961
13.700000000000001,-9.567067810226511,-3.146676310762292,-3.28462202681237,-0.07674669058872943,0.1762229295688552,0.22947235427226803,0.017981596683556568,0.03945012685856481,0.9990595902154398,-1.5805810709383026,-1.8100192180650674,4.12643801111135,-0.20733815792011806,1.3853359597760102,-0.13351269417042705,3.0,0.5063995686626938,0.49979520832551183,0.4051370167396307,-0.6598890876075463,0.5301553787502356,-0.061178768615321205,0.5289034171844489
13.8,-9.606072970179964,-2.840097138884003,-3.243771972151827,-0.08697402531579382,0.19288928421454274,0.22500192974341315,0.017827258089709995,0.039213203024822084,0.9990718236445228,-1.5814656374564307,-1.8087516805384167,4.1266110945449075,-0.20762425179074345,1.3851747221465185,-0.13342275217414565,3.0,0.50608279473291,0.49949523827524694,0.40532842022836035,-0.6598976741121552,0.5301729647512392,-0.061181659539606977,0.5288747410155157
13.9,-9.37698590744145,-2.8483620075647105,-3.2063502030747912,-0.09915033022648619,0.19066249798152804,0.23268037087087784,0.0178916831457356,0.03927764587431877,0.9990681427290534,-1.582491268671527,-1.8073767791074271,4.126794428233055,-0.20786173761401372,1.385042883305811,-0.1333392302142542,3.0,0.5058755893672522,0.4992996929714511,0.40550180262097163,-0.6598837292514839,0.5301526314981178,-0.06116795174808068,0.5289141072647996
14.0,-9.371291291994078,-3.222970828072227,-3.4789168969909765,-0.08879552938701879,0.18141422748939323,0.23100180886375749,0.017897427464127615,0.03933396573723352,0.9990658226597802,-1.5834813713527784,-1.8061194639799212,4.1269421120658345,-0.20811894943554776,1.3848656892005646,-0.1332267759559963,3.0,0.5054314940937338,0.4988049746312424,0.40586058792116575,-0.6598597989010515,0.530148610776517,-0.06117046134089149,0.5289477015219327
14.100000000000001,-9.374866283773494,-3.50712704365485,-3.392793922178605,-0.07412657458305592,0.17570587188563877,0.23094243168477177,0.01791021749777727,0.03939976028858316,0.9990629987641803,-1.5844861748961998,-1.8051988735007036,4.1271443367004395,-0.20840778095124446,1.3846439667335702,-0.1331786008830279,3.0,0.5052165395165621,0.49857521522638176,0.40601362415967757,-0.6598478497472445,0.5301528763121346,-0.061192259608608,0.5289558112790718
14.200000000000001,-9.345532424353808,-3.2460637023797085,-3.1062922831638224,-0.07029370953203545,0.18809837881894645,0.2284519471781837,0.01804277537851623,0.03962661202067232,0.9990516104869317,-1.585305988813678,-1.8040296933252702,4.127354502627771,-0.20869527126501394,1.384509876293121,-0.13305217424501592,3.0,0.5049299825499146,0.49832130861218077,0.406103286064098,-0.659882996151005,0.5301701653076804,-0.061194738286107137,0.5288943478753527
14.3,-9.254716930824134,-3.11938750565516,-3.1952470118300837,-0.0830127035486693,0.19554879529683727,0.2308706231457754,0.018175282064241984,0.03985247049462564,0.9990402571799386,-1.5861539840698242,-1.802837704969067,4.1274800300598145,-0.20899173398774543,1.3843511243027655,-0.1330218720493103,3.0,0.5046304640556705,0.4980371769783766,0.40626876099263715,-0.6598962263411976,0.5301783444544337,-0.06119832833359449,0.5288692259352745
14.4,-9.298714137896898,-2.832028198172552,-3.1935878824430706,-0.08829749913085977,0.202004154115322,0.2298294279195364,0.018306785871344385,0.04005887165643851,0.9990295889186047,-1.587098665417261,-1.8014859834601382,4.127694301771226,-0.20922882974658208,1.3842077255249023,-0.13292056718935186,3.0,0.5043119138811718,0.49772145255491984,0.40650508108889954,-0.6598894872007579,0.5301765711107164,-0.06120053340009719,0.528879157122634
14.5,-9.333058715316369,-2.853976717337186,-2.973940732825038,-0.07631455400125699,0.20507671594135135,0.2331224748839407,0.018060641217197044,0.039673143506164646,0.9990491852817589,-1.5880296412290535,-1.8003834966131065,4.127856951635937,-0.20953279523749932,1.384016513824463,-0.13281280199159795,3.0,0.5039529717194003,0.4973644088611938,0.40679128500386835,-0.6598734283524312,0.5301669677584815,-0.06119661947402766,0.5289092725762493
14.600000000000001,-9.036860405075142,-3.4174128802544406,-3.2287173661336164,-0.07497560363377813,0.19638426794622424,0.2333099406210029,0.017504084245561477,0.03879946542468828,0.9990936854707979,-1.5889499833141756,-1.7992654316883532,4.128067493438721,-0.20979474852769325,1.3838319805122707,-0.13274127641786748,3.0,0.5036008685917219,0.4969931052241113,0.4070890340714285,-0.6598396119288328,0.5301540037647517,-0.06120050370757461,0.5289640036597484
14.700000000000001,-9.30048100428834,-3.081998410099877,-3.066837064772748,-0.06464852811448712,0.20712895688854926,0.22673685220410744,0.017216139274238745,0.03831183975688773,0.9991174357793182,-1.5899427611459234,-1.798068954415508,4.1282830238342285,-0.2100427907756348,1.3836650495808378,-0.13266195046662285,3.0,0.5032929891369259,0.4967431787632712,0.40716437213235845,-0.6598867160696191,0.5301809243677549,-0.061178376203293736,0.5288808142450766
14.8,-8.664242325913959,-3.1217770770493263,-3.214592349069725,-0.09580317722362357,0.2215556212118919,0.24393053137793594,0.01759403219123671,0.03887586430872615,0.9990883100385739,-1.5907243231897854,-1.7968633714468798,4.128459935159583,-0.21033554319465506,1.3835576305804003,-0.13259435938090797,3.0,0.502828418721563,0.49629784757691137,0.40746538455664644,-0.6598945132529705,0.5301674284655045,-0.06119220528859278,0.528883014649571
14.9,-9.272944088613842,-3.061236022305228,-3.0499183786076562,-0.08161160181234917,0.22026850021607086,0.2285947872136936,0.01854659227229494,0.0403474565837406,0.9990135658245938,-1.5916257339611388,-1.7958000792514257,4.128623450965212,-0.21061899213088298,1.3833932876586914,-0.13250100289202713,3.0,0.5025633114819853,0.4960326422760044,0.4077110296418698,-0.6598627444460872,0.5301566460438566,-0.061174391625638286,0.528935518713614
15.0,-9.06391641852819,-3.494056903363387,-3.1395626810828583,-0.07119673850301764,0.21242260150389713,0.23382857571937987,0.018446237914585294,0.04015200309495034,0.9990232750935781,-1.5925306813847147,-1.794599541461642,4.12880000806006,-0.21093066156420903,1.3832621574401855,-0.13243210829933788,3.0,0.5022427593836503,0.4957424337324646,0.4078925495217048,-0.6598828261169645,0.5301580357441671,-0.06116714804953484,0.5289099100331363
15.100000000000001,-9.347124782898362,-3.947917215331419,-3.573166513964231,-0.07181662510849346,0.21402074290144044,0.2358641732700395,0.01833960499193872,0.03994798928675106,0.9990334340131484,-1.5928285734355987,-1.794134473415561,4.128886695301546,-0.21103651941333013,1.383166790008545,-0.1323817242504443,3.0,0.501861755925468,0.4953639127571373,0.40815229963741084,-0.659882920173768,0.5301630783580082,-0.06115335378215069,0.5289063332293312
15.200000000000001,-9.094623353076411,-3.4992722418674904,-3.74306591350328,-0.06391258279821156,0.19897250957556614,0.23488412985534746,0.01770711581273333,0.03902755561563859,0.9990812303679393,-1.5928285789359788,-1.7941449547898458,4.128885725165616,-0.2110638822203551,1.3831803359526167,-0.13237917193309623,3.0,0.5017935484190951,0.4952839278665768,0.4081971914818079,-0.6598888580639898,0.5301538708528641,-0.06118343209630906,0.5289046755887538
15.3,-9.31953864630716,-3.476304907107249,-3.7361014302838194,-0.059656830504088654,0.19735724417795192,0.23638165345899326,0.018093539843167382,0.039632903531021,0.9990503465469092,-1.5928382896319568,-1.794134889405365,4.128887970482788,-0.21105520798971092,1.3831442695337945,-0.13237665569704193,3.0,0.5017891743244125,0.49529434196491057,0.40817827480075736,-0.6598921164485035,0.5301569787277953,-0.06118412359485171,0.5288974149825849
15.4,-9.373208045649772,-3.4622803189442193,-3.7003547815241977,-0.06341558619661913,0.20341083171023067,0.2370258612606485,0.018207822128695535,0.039789711598727844,0.9990421389795856,-1.5928594009379833,-1.7941117671307323,4.12890747888447,-0.21108200695518728,1.3831642239178683,-0.132395092641012,3.0,0.5017866617576674,0.4952942472821058,0.4082114643927086,-0.659883939068326,0.5301592712943656,-0.061173474219876345,0.5289065513606039
15.5,-9.140947173023365,-3.4240647090751115,-3.685394004158583,-0.058779309154360054,0.19560005190224786,0.2370855647072198,0.018044765382384125,0.03948941373019243,0.9990570407307201,-1.5928808529377834,-1.794117113152975,4.128905773162842,-0.21105505981057224,1.3831370512247512,-0.13239425147055123,3.0,0.5017683198407653,0.495290420468572,0.40822567529845005,-0.6598870516965216,0.5301492988584089,-0.061163721870261506,0.5289137916997313
15.600000000000001,-9.359919979934745,-3.4325322087537624,-3.573243165929466,-0.055344490612529676,0.20138634538450004,0.2421034981316612,0.017885879594728177,0.03922792852259339,0.9990701760304376,-1.592890920747735,-1.7941001947303241,4.128896975583063,-0.21106929731972393,1.3831384274940972,-0.1323793716259743,3.0,0.5017535807735944,0.4952922060354359,0.4082203712191151,-0.6598971632992574,0.5301367125089236,-0.06116362395496694,0.528913803019471
15.700000000000001,-8.92441973752528,-3.7666035059787055,-3.543377346020805,-0.05843665807855053,0.19156463553049374,0.24041492079571683,0.01787011151385305,0.03921120944634065,0.9990711182543333,-1.592905044555664,-1.7940963264282443,4.128887509541023,-0.21103083095606154,1.383155345916748,-0.13239802556886449,3.0,0.5017607816282432,0.49528943275110415,0.40821495292619353,-0.6598931037891869,0.5301494197906557,-0.061165713369034494,0.5289058893368099
15.8,-9.224100368870324,-3.520728231240961,-3.7223357964426187,-0.05671540722605565,0.1977454115870533,0.23829409342106914,0.018010821109509363,0.03946170216563396,0.9990587471416779,-1.5928914505042324,-1.794108980460861,4.12890447718708,-0.21105390170160282,1.3831655937232266,-0.13242290180747993,3.0,0.501769039372703,0.49528642249818794,0.40821134762224726,-0.6598919869319073,0.5301491692529372,-0.0611729866215871,0.5289066927457766
15.9,-9.395692095840525,-3.3335433083039487,-3.7446417791706113,-0.0489223150865011,0.19869300969337175,0.23812576310685046,0.018197491021380664,0.03977470303163343,0.9990429186622212,-1.592901185644637,-1.7940920455484388,4.128896780564297,-0.21106741144618896,1.3831339555520896,-0.13238439745868283,3.0,0.501759859439698,0.4952871213718892,0.4082203469838939,-0.6598856354959982,0.5301533081518972,-0.06117782873207491,0.5289099083901448
16.0,-9.491761446688594,-3.5439062015158176,-3.6621937909972284,-0.055262356884779026,0.2009102851259089,0.23679413748116143,0.01839542740376031,0.04009452124195307,0.9990265089463898,-1.5929176840481123,-1.7940932712950648,4.128899907656972,-0.21106996974438996,1.383155345916748,-0.1323874433256143,3.3604942195383574,0.501759320986881,0.49528967029287735,0.40817424288410464,-0.6599141356550834,0.5301564251721258,-0.061182273901710785,0.528870709882418
16.1,-9.357757155113887,-3.690037631108873,-3.804314939841899,-0.05791175996866331,0.2015025153420173,0.23977737853303993,0.018604884076558647,0.04041985645418123,0.9990095504178447,-1.5929126031597312,-1.7941218011429398,4.128910309980725,-0.2110489171794434,1.3831353895465677,-0.1323739702251226,4.0,0.5017618220311975,0.49527957091223074,0.40822716157931443,-0.6598785824008709,0.5301638724355744,-0.06116891124210558,0.528909150185728
16.2,-9.39785538910375,-3.2432976873239774,-3.6985527958428808,-0.04731188073832554,0.20099024252328854,0.24224698896689778,0.018712652307771024,0.04060459241433164,0.9990000309137919,-1.5928827850846772,-1.7940901520409207,4.12891201167113,-0.21106523894580395,1.3831595707206572,-0.13238525804142137,4.0,0.501754018845205,0.49528915075535934,0.40821131713187364,-0.6598851853143879,0.5301609246642442,-0.061154529596924447,0.5289055300065679
16.3,-9.211675700028438,-3.399017826979086,-3.6115384611508734,-0.04929505390711347,0.19440461136834408,0.2423856205154761,0.01881468160787842,0.04078139345672245,0.9989909312416135,-1.592886659388894,-1.7940821050243574,4.128894775899964,-0.21104452297587983,1.3831399544503062,-0.13237125078310186,4.0,0.5017758289739617,0.49527882719630306,0.4082119504333131,-0.6598770936277638,0.5301683450765832,-0.06117478018182247,0.5289058455470487
16.400000000000002,-9.485582662021995,-3.425250848420684,-3.6915583591230203,-0.049991366924892235,0.2001873639541257,0.24060657471208874,0.01856186504834379,0.040364304569927144,0.999012459058579,-1.592905044555664,-1.7940892195828155,4.128922060572714,-0.21106870732510433,1.383174973993919,-0.1324461170241307,4.0,0.5017798384202489,0.495266540722587,0.4082240849460123,-0.6598748150159957,0.530164154041004,-0.061179574540178736,0.5289123348312786
16.5,-9.213712582991214,-3.7302495363532078,-3.604887366204719,-0.058282936686041655,0.19108430867253035,0.2383547274343332,0.01828578307931167,0.03990827738915573,0.9990359949617529,-1.5928926467895508,-1.7940886298209284,4.128877475489761,-0.2110654795825349,1.383166790008545,-0.13237125078310186,4.0,0.50176591712443,0.4952841142605695,0.4081996880308892,-0.6598896260204787,0.5301619468880925,-0.06116741921227656,0.5288974743457278
16.6,-9.438859820648345,-3.4980905020215998,-3.6482544165830557,-0.050889057218762065,0.19579797886748157,0.23377112536306913,0.018109913219036145,0.0396334216241641,0.9990501118093563,-1.5929104501943239,-1.7941051922240199,4.128914674865229,-0.21106236357839242,1.3831756917109315,-0.13237447791884963,4.0,0.5017727595771265,0.49526658162178455,0.4082143126849171,-0.6598864964308708,0.5301577600201779,-0.061186337754322626,0.5289033875773453
16.7,-9.240960073060611,-3.718971414805551,-3.6505192489894083,-0.05714243006416204,0.19304253241821995,0.2397195323063157,0.01794193731301845,0.03937283717714729,0.9990634866947884,-1.592901459302391,-1.794091692442859,4.128915825585087,-0.2110862588185144,1.3831634805439852,-0.13238145496549453,4.0,0.5017720721873725,0.4952742267774626,0.408190954593354,-0.6598965052456225,0.5301651656273929,-0.06117356856919216,0.5288849534902684
16.8,-9.290430086029463,-3.136863376338771,-3.8123770093700027,-0.04272845587375214,0.1927545778760432,0.2429860024753998,0.017897517415419596,0.03927871024938374,0.9990679896580509,-1.5928988309681766,-1.7940694294371546,4.1288933753967285,-0.21104258466544384,1.383163935772256,-0.13235299734014722,4.0,0.5017623448284833,0.49527697839611096,0.40821701867481,-0.6598878602051234,0.5301471189341411,-0.06116598618810548,0.5289147061420867
16.900000000000002,-9.055970893697483,-3.9306737191891283,-3.8351627365273013,-0.06051545519047824,0.18786536832323364,0.24223384661773245,0.017864860866764105,0.03920043117805615,0.9990716479556624,-1.592905044555664,-1.7940728306189977,4.128892270897734,-0.2110489171794434,1.3831635248739755,-0.132388290277326,4.0,0.5017625677629716,0.49527419484641755,0.4082272815822195,-0.659886369920249,0.5301492688408738,-0.06117495915931581,0.5289133727869048
17.0,-10.054824984254262,-5.051152067912464,-4.928311653738304,0.025255406984705256,0.15109091657256044,0.23835827963274267,0.017832204318108613,0.039122152106728564,0.999075306253274,-1.5928779809525044,-1.7940880623353792,4.1288933753967285,-0.21101603354005471,1.3831724758053887,-0.1324050263555309,4.0,0.5017536329255591,0.49529828522581054,0.40818358372401026,-0.659920464393821,0.530138222699538,-0.06116441761845704,0.5288831246358817
17.1,-9.846845197336414,-4.448779741365729,-6.0041261378332775,0.012445776614130887,0.13486097360497673,0.24353493860531963,0.010419517747733234,0.027404159544414747,0.9994512132133407,-1.5929237374594045,-1.7940537529535272,4.128911351196526,-0.21102507532153325,1.3831363907156065,-0.1323916827747973,4.0,0.5017577906098002,0.49528360657085263,0.4082140177131688,-0.6598878910904783,0.5301499481551672,-0.06116145060698415,0.5289123562773745
17.2,-9.323241587405446,-4.091669209359395,-7.207546187122014,-0.03123213042835099,0.1553961730310727,0.24110815596481494,0.0021698499483779506,0.014366088110607505,0.9998693375007178,-1.592869758605957,-1.7939972401214201,4.128897739701482,-0.21105309457935068,1.3831669769133907,-0.13239046981008867,4.0,0.5017537641681298,0.4952870280236992,0.40825238792574464,-0.6598642517651383,0.5301343343740761,-0.06114326006866667,0.528959600072033
17.3,-9.809204695385162,-3.680172530974948,-7.4596487280509,-0.032435898943094094,0.1548094629840342,0.2394427954879554,0.0010210489598710898,0.012560664914728549,0.9999205269304416,-1.5928844904396466,-1.7940401762646534,4.128896937117112,-0.21106426283953686,1.3831465098710187,-0.13240324899091604,4.0,0.5017620274971082,0.4952462157883691,0.40829758099784647,-0.6598436372494286,0.5301404551681355,-0.061172860817903706,0.5289757586836279
17.400000000000002,-9.605315005955136,-3.9155229517908543,-7.913128558664717,-0.03861056465636699,0.1600251970828969,0.24600095335365524,0.0011774145129931086,0.01283871468930787,0.9999163204701148,-1.5928944454929106,-1.7940212688841761,4.128902314117919,-0.2110453889536221,1.3831349631037608,-0.13241893449892217,4.0,0.5017406628557209,0.49527131272901287,0.40828618090745494,-0.6598740534877086,0.5301266584469808,-0.06115152834555858,0.5289541096527576
17.5,-9.25067637015249,-3.4861119052045257,-8.699099989347832,-0.08542316606529944,0.17354149595682533,0.23954078054253716,0.002016691992708319,0.01422786285470271,0.9998965039556575,-1.5928970087383219,-1.7940451107420863,4.12890294976756,-0.2110218836812189,1.383166790008545,-0.13237385699413173,4.0,0.5017667535089321,0.49525254010523145,0.4082741320106794,-0.6598455872211343,0.5301606628586224,-0.061161023609227955,0.5289544420582686
17.6,-9.41359167387237,-3.212250307277087,-8.796624530601006,-0.08085046421054486,0.16765559516039555,0.2373230122709153,0.0017005139684536734,0.013702711996302068,0.9999044120953657,-1.5929240419110315,-1.7940932712950648,4.12890325402152,-0.2110175220579627,1.3831791877746582,-0.1323590433443903,4.0,0.5017681852456236,0.4952559101837491,0.40825498597624166,-0.6598695775895969,0.530157340052919,-0.061167924718077284,0.5289270463357159
17.7,-9.490987553744434,-3.395180476457107,-8.796882613286423,-0.08190268186060855,0.17875430868886763,0.23885863584322836,0.0015464778874880094,0.013441373170837406,0.999908236183247,-1.5928892649039685,-1.794061031305681,4.128895207251419,-0.21106083810839849,1.3831791877746582,-0.13237477358058336,4.0,0.5017545844416257,0.49528998922926926,0.4082310987543094,-0.6598922144078421,0.5301404988735592,-0.061163371821869775,0.5289162114790855
17.8,-9.311730888407798,-3.2338128451439134,-8.866434549062566,-0.07616538179511635,0.17202485174222723,0.23916756589574498,0.0020091898268775527,0.014193065164717822,0.9998969094652809,-1.592881202697754,-1.7940891155409708,4.128903002660112,-0.2110566269442499,1.383132833900148,-0.13236306418113716,4.0,0.5017605745225933,0.49526196971609454,0.4082486711194466,-0.6598736454107648,0.5301449921877799,-0.061182661347258985,0.5289326434443178
