xiamingqian9007/apple-picking-rnn/training_data/grasper_20191127_111724.csv
,/manipulator_wrench.fx,/manipulator_wrench.fy,/manipulator_wrench.fz,/manipulator_wrench.tx,/manipulator_wrench.ty,/manipulator_wrench.tz,/ground_truth.x,/ground_truth.y,/ground_truth.z,/joint_states.elbow_joint,/joint_states.shoulder_lift_joint,/joint_states.shoulder_pan_joint,/joint_states.wrist_1_joint,/joint_states.wrist_2_joint,/joint_states.wrist_3_joint,/mode./mode,/manipulator_pose.x,/manipulator_pose.y,/manipulator_pose.z,/manipulator_pose.rx,/manipulator_pose.ry,/manipulator_pose.rz,/manipulator_pose.rw
0.2,-11.67389166943157,-5.085859111560642,-8.05468148983699,-0.1490358726630493,0.0918405038998005,0.23701103496372744,0.056123971007500925,-0.055079620486496124,0.9969033584325026,-1.7096373600274388,-1.6929352433164293,4.153440952301025,-0.19909174860034184,1.3647452541868919,-1.5113090528821937,1.0,0.46873267502923377,0.4676971132940652,0.40923081571889064,0.8468109882367343,0.016457425606127955,0.3841556711756333,-0.36751152859133956
0.30000000000000004,-11.36151262550399,-4.875731479021166,-7.681564419724875,-0.13986862054639074,0.10318276299726627,0.3179082835907218,0.05629729734950315,-0.055246882085183274,0.9968843436880939,-1.707153664843546,-1.6964240039809442,4.152840788057443,-0.19808368971244283,1.3652210708843413,-1.5115132098885358,1.0,0.4690113284199504,0.46797701614135784,0.4091939063145242,0.8467665654242628,0.01641204604316919,0.3841927998659831,-0.3675770952540587
0.4,-11.390687536523602,-5.225067195824612,-7.757797901165781,-0.13210211883344442,0.10153175383280445,0.3691401154317512,0.055518748175904575,-0.05461064310920947,0.9969630458003436,-1.7044428981696316,-1.7004522089671423,4.152250359291505,-0.19676449509378996,1.3658253799703362,-1.5118393342435894,1.0,0.46956908668203956,0.4685339883317225,0.40881474203834745,0.8467872140745296,0.016403766562645014,0.3841909466065434,-0.3675318313670574
0.5,-11.258534993013212,-5.323491938081047,-7.887549324029234,-0.12409135472466645,0.09847087389316757,0.3816648328140065,0.0562419466629398,-0.055216769980427016,0.9968888708320335,-1.701550021973843,-1.704548006248712,4.151594638824463,-0.19556257491305565,1.3664988734609513,-1.5121242129385055,1.0,0.4704919789685215,0.46954355692620764,0.40813225575494055,0.8468212483468509,0.016438862211875176,0.3841581066991136,-0.3674861714606583
0.6000000000000001,-11.220715642027914,-4.9256622280619915,-7.9812275452039065,-0.12151843426458879,0.09882279511552067,0.37733553785980617,0.05640625460337945,-0.05527710676854268,0.9968763415906251,-1.698531482732394,-1.7085643709491045,4.1509211760990485,-0.19424492273731836,1.3671405644422412,-1.5124466211660004,1.0,0.47212415853097206,0.4712869721431334,0.4071678049773592,0.8467776172760237,0.016470707882852795,0.38416700170277246,-0.36757597509206097
0.7000000000000001,-10.974123994475379,-5.114235467557506,-8.029392143829764,-0.12434207837043942,0.09897770353786649,0.3803507374278873,0.05586262611252403,-0.054654336445367165,0.9969414288432865,-1.6957864988322553,-1.712627428968828,4.15039348761221,-0.19313378791519858,1.367599724928636,-1.5126802345066697,1.0,0.47274607537115415,0.47192242758577035,0.4068086832394018,0.8467533812142404,0.0164573569438137,0.38416848705600304,-0.36763084794094314
0.8,-11.113931730491469,-5.198034498153746,-7.807844990267852,-0.1280118987812429,0.09453998226619649,0.38028592317119675,0.056034195038536204,-0.05491236331379298,0.9969175772584249,-1.6930490033156964,-1.7165198007496645,4.149724510846118,-0.1920922696331423,1.3681479266984362,-1.5129993912532487,1.0,0.47362749460359704,0.4728648410587473,0.4061963642539947,0.8467849277726722,0.016469265827922665,0.38414964990894895,-0.36757733316263075
0.9,-11.371222158965281,-4.879282418118717,-8.019067839348352,-0.11589218101742353,0.10037459004304185,0.37896157636481564,0.05624955020248443,-0.05522431486720128,0.9968882806076141,-1.6903688895437963,-1.719995063912355,4.149076263952853,-0.19089023063812796,1.3685812950134277,-1.513249501430291,1.0,0.47507001561305373,0.47433503002945515,0.4051033831949974,0.8468872148946311,0.016472498027381276,0.38408662743979116,-0.3674073552321452
1.0,-11.207957733386888,-4.7679674431471355,-7.993308569958134,-0.11745347480647257,0.09458851924574374,0.37580893991311975,0.056165255080628626,-0.05518540998189976,0.9968951895941753,-1.687740248657747,-1.7236067700100568,4.148550510406494,-0.19001947782062031,1.369037184328921,-1.5135058840486806,1.0,0.47583980653821006,0.475083837194013,0.4047622467929183,0.8468142531177671,0.016418693585886258,0.3841719028783907,-0.3674887702451973
1.1,-10.99356069320318,-4.843055989336656,-7.872041847538564,-0.12207229604809024,0.08673221869063844,0.3766271541825696,0.05605904183781684,-0.05512084146727383,0.996904746866344,-1.6852924611747169,-1.7267527990286977,4.148002981360871,-0.18910820901904302,1.369613696075533,-1.513787214734731,1.0,0.47660602376721295,0.4758829865432102,0.40434499139766733,0.8467936793465103,0.01640658762593416,0.3841900330874079,-0.3675177641659899
1.2000000000000002,-11.004693550847573,-4.907575923571294,-7.8193463561245,-0.12215274803775003,0.09075080516545274,0.37381978096684726,0.05596500187604472,-0.05493178285772411,0.9969204312691489,-1.6827947153566016,-1.7302087638187058,4.14750659100847,-0.18806367009444058,1.3701648712158203,-1.5140315009198624,1.0,0.4776872856891713,0.4770504416163134,0.40363894571910375,0.846816121695503,0.01644966149902878,0.3841484281325911,-0.36750761874607973
1.3,-11.072833366283414,-4.72130389323953,-7.8391247805549495,-0.11842718843758043,0.09254584925391486,0.36690904328711604,0.055871990632405985,-0.05473220405910971,0.9969366334526877,-1.680342962628319,-1.7335124310370005,4.147053644555876,-0.18727433375076719,1.3705963920595716,-1.5143047491963548,1.0,0.4784821335454302,0.4779197801193383,0.4031607315928829,0.8467909924916497,0.01648419651446681,0.3841492514663398,-0.36756310872846054
1.4000000000000001,-10.807409192358588,-5.00144995181533,-7.868272189427483,-0.12243163092464825,0.08356075274655136,0.3698247151126559,0.05560650350127773,-0.05444559922012586,0.9969670986996739,-1.678086247637657,-1.7366582837782543,4.146596522593972,-0.1863775459264921,1.3709567736887043,-1.5144503752337855,1.0,0.4795628996758006,0.47903097081647117,0.40250387792054093,0.8467876818237433,0.01647300164944601,0.3841677611739338,-0.3675518921225074
1.5,-11.007294668882501,-4.90527809063888,-7.788552949967147,-0.12224394228653722,0.08368519777430489,0.36759217743875705,0.05509168648403242,-0.05403319017134575,0.9970181825272447,-1.6757195062137682,-1.7396008135511356,4.146096408774478,-0.18569475729639176,1.371351718902588,-1.5146544102693555,1.0,0.4801999305138388,0.4797079730475778,0.40210177419768095,0.8467914550714285,0.01647311460651554,0.3841649613742176,-0.3675461203244012
1.6,-11.064552281944323,-5.162652725780404,-7.7998287489808344,-0.12429473865613642,0.090536077441259,0.36904611383895664,0.055245479006691835,-0.0542047216976917,0.9970003376912642,-1.6735709034730675,-1.7426494915784478,4.1456990242004395,-0.18487123693512295,1.3717613896561087,-1.5148644648210607,1.0,0.4813085994419215,0.4808529000616443,0.4014590012792245,0.8467764303945977,0.01645361388226203,0.3841989658821016,-0.36754606532177775
1.7000000000000002,-11.037466134951545,-5.317533548939807,-7.673542867885432,-0.12941063414853907,0.08272144718724833,0.3757709269644344,0.055476894352513975,-0.05444404632792756,0.9969744905203748,-1.671601219301249,-1.7454344315119714,4.145290851593018,-0.18408603197842302,1.372093132539396,-1.5150636559634325,1.0,0.4817491600827797,0.4813545695123816,0.4010748377408757,0.846819897517835,0.01648394828067921,0.38415383030027117,-0.3674917349854192
1.8,-11.022187690167103,-5.083554865701496,-7.891108855480368,-0.12047005016234344,0.08896830803944376,0.36850055094807366,0.05527553356570766,-0.054260325440707025,0.9969956123901361,-1.6692368935589474,-1.7483403348120787,4.144872778679001,-0.18344004571948247,1.372478307509311,-1.5152263109311184,1.0,0.48242058916518876,0.48202696869524253,0.4006036017212832,0.8468339344811286,0.01647358910759486,0.384156404777516,-0.3674571606888877
1.9000000000000001,-10.909303609495167,-5.134462921367736,-8.04969426828463,-0.12260606583658279,0.09229070387399785,0.36954856519580986,0.05501543144051593,-0.05401918396575116,0.9970231094365825,-1.667384147644043,-1.7507194466053242,4.144413044417746,-0.18279502952418777,1.3728842263056658,-1.515402000531398,1.0,0.4836155780499258,0.48331834108580085,0.3999894894316831,0.8467803311504395,0.0164613487189435,0.38418816534591793,-0.36754802187366387
2.0,-11.111197840660939,-5.1165746934557035,-7.9756217017665785,-0.11876331311943358,0.0877101887299355,0.36504486023697524,0.054940129911175854,-0.05394142610039371,0.9970315262268384,-1.6654353753905724,-1.7536473138688933,4.144100322892565,-0.18216967157135927,1.3732437171282192,-1.5156020169295161,1.0,0.4839248400365777,0.48361830583108756,0.3998133749161616,0.8467718152749274,0.016464317919433397,0.3841967659089958,-0.36755851800294365
2.1,-10.984188789764627,-5.274183477996235,-7.953879251250349,-0.12151944006437478,0.08649623746020413,0.3698071105426014,0.055176006054582595,-0.054138782777635536,0.9970078146049031,-1.6633427549267528,-1.7557076478325615,4.1436848640441895,-0.1815372136519267,1.37359403179747,-1.5157459417926233,1.0,0.4845497363949695,0.4842946536583235,0.39930220531039246,0.8468335203364634,0.016479137611887386,0.38412514812009635,-0.3674905406127284
2.2,-10.97116003910933,-5.153942274248479,-7.865201711821326,-0.12216034967891158,0.0864884653617663,0.3693475957299427,0.05506512255699023,-0.054022370036700504,0.9970202283179486,-1.6616889215218429,-1.7583824596800746,4.143288436028531,-0.1809109014323731,1.3739236616385575,-1.5158809785106888,1.0,0.485457061722673,0.48522812860764486,0.39890517947610676,0.846755834363379,0.01646141000482044,0.3841796043375436,-0.3676133982368976
2.3000000000000003,-11.02435526471415,-4.823314422470981,-7.984317749199669,-0.11819557214157464,0.08563289417213484,0.37299182906693334,0.05489819256119074,-0.05385524298229278,0.9970384809415327,-1.6598454724954306,-1.760581727776652,4.142953501950906,-0.18033541203612222,1.3741833422782548,-1.5160498513926555,1.0,0.48596304707329085,0.48574985629983314,0.3984593467470376,0.8468099066827928,0.016469736356616478,0.384129100832704,-0.36754124070868804
2.4000000000000004,-11.05296662527358,-5.151729832363257,-7.990196510103256,-0.12020037920151457,0.0933220415054789,0.36796881468994835,0.05480207574767687,-0.05376151451804368,0.9970488602847327,-1.6579172433747185,-1.762870425714222,4.142637559572855,-0.17984474818422194,1.3744865871138043,-1.516233410101496,1.0,0.4868307794664695,0.486631488684405,0.39802354678564467,0.846765076070294,0.016445617481042,0.3841770459440023,-0.3675954909721779
2.5,-10.959422146844686,-5.114614081826134,-7.9016759824842335,-0.1209014684383031,0.08739402045314709,0.3681758368241639,0.05484249324503822,-0.053809305268198715,0.9970440592211653,-1.656387052804313,-1.7650684228073532,4.142330646514893,-0.17932311116963903,1.3747805167586018,-1.5163691679583948,1.0,0.487164950933489,0.4870043034352799,0.39778725674364557,0.84678407628373,0.01646625553993992,0.3841718451607735,-0.36755623238705953
2.6,-11.007018462853637,-5.214050435183086,-7.9139661960922645,-0.12485908673877458,0.08671803695908868,0.36761951895740275,0.0549552422946154,-0.053926256514957825,0.9970314963159145,-1.6546972541361629,-1.7671302014240386,4.142011696166211,-0.1788664831579129,1.375034992347842,-1.516519554898522,1.0,0.48768108113530434,0.48755665424349215,0.39743035276591043,0.8467927812843038,0.016476525069949254,0.38416442253798194,-0.3675434751733069
2.7,-11.06587512227491,-4.983113768813118,-7.93042113913338,-0.12543497117832256,0.0866268655215191,0.37150636303642565,0.05521882986289341,-0.054187433435586636,0.9970027470484735,-1.652989725859269,-1.7693085302389266,4.141647684124933,-0.17837420736180584,1.3752883311285489,-1.516661234173136,1.0,0.48852686124570077,0.48842489636306724,0.3968918028331536,0.8468065348149401,0.016469985053940893,0.384152303661756,-0.3675247471645991
2.8000000000000003,-11.050201563295824,-4.922050202250894,-7.833935000290875,-0.12160229371815075,0.08769402857089297,0.3666845806178645,0.05531306006015149,-0.05429988596908661,0.9969914367881515,-1.651495589528765,-1.7712423874914556,4.141367794511505,-0.17791077291596932,1.3755244741791404,-1.5167530218707483,1.0,0.48889442293760854,0.4888010787791937,0.39667505132999337,0.8468023709935613,0.01647015736139351,0.3841658385837947,-0.3675201856515965
2.9000000000000004,-11.394228276374038,-4.562720272871565,-8.394126681440998,-0.11887567932055057,0.10527002263541943,0.40389978580073715,0.05504246459515112,-0.05409195992855994,0.9970176932264798,-1.6499351869357424,-1.7733249357117167,4.1411097998142345,-0.177448109989502,1.3757617048614872,-1.5168740011672688,1.0,0.489647695735004,0.48955481102586385,0.39619500937978985,0.8468094316825772,0.016445711798741297,0.3841705423480971,-0.36750009437935155
3.0,-10.931515508781553,-4.760922619252239,-8.149412627978426,-0.12841145628084236,0.08535466554007785,0.3707750749513707,0.054934192559340796,-0.054017163363393704,0.9970277433009097,-1.6485540671809507,-1.774854749190973,4.140820026397705,-0.17707278170010127,1.376026211010348,-1.5169993277671903,1.0,0.48996344170059536,0.48991511269537635,0.3959791734029752,0.8468126696377796,0.016446320275210546,0.38416561867500776,-0.36749775307937704
3.1,-11.042563446099749,-5.096830393833083,-7.9143446287995705,-0.1203588246922927,0.0855740931071182,0.3683206308375302,0.05518612565112306,-0.05423778884480338,0.9970018305115372,-1.6472043991088867,-1.7767714081481096,4.140607484149658,-0.1766860998191673,1.3762637943768021,-1.5171397490018141,1.0,0.4903808297357283,0.49032176147715784,0.39578824372957544,0.8467868808583895,0.01643891449778976,0.38419238913397963,-0.3675295207568757
3.2,-11.214396433170354,-5.054364571000999,-7.587721418203976,-0.12200501585896874,0.08688860919554124,0.3646324329504241,0.05564253053134162,-0.054645902361898015,0.9969538158116231,-1.645823789798628,-1.7787190876402796,4.140372258671802,-0.17634066450675018,1.376508539584256,-1.517232210686316,1.0,0.4910083842096577,0.4910305931402065,0.39528153797559573,0.8468330490430616,0.01647487404841745,0.3841417733716107,-0.3674744392803872
3.3000000000000003,-10.81325518170077,-5.096157001111001,-7.8448216716365815,-0.12197783962726716,0.08394936634117901,0.3693407937467814,0.05657987826056735,-0.0554950108481601,0.9968538146938968,-1.6442101223025247,-1.7801220533627062,4.140122014680431,-0.1759374898723145,1.3767523765563965,-1.5173239014361288,1.0,0.4913842253326254,0.4914264689519215,0.39496564099626064,0.8468746757598894,0.016469977336942547,0.3840940696196733,-0.367428590458201
3.4000000000000004,-10.847566008879465,-5.14130026454647,-7.840740958052322,-0.12332319724975978,0.08117305689645271,0.3682225605972672,0.057057476521265325,-0.055911548869148085,0.996803906322997,-1.6430415731252745,-1.781694237381485,4.139907938395189,-0.17563038177559187,1.3769844212000846,-1.5174681524893758,1.0,0.4917297462443037,0.4917720600779128,0.3949273602557401,0.8467978038150938,0.01644349101107732,0.38416003207828836,-0.36753797193067156
3.5,-10.954952525958067,-4.954222387010187,-7.794364972750521,-0.1207282117621561,0.08284474978944456,0.37073140908808694,0.056384146616009205,-0.0552451981293549,0.9968793991916404,-1.6418771743774414,-1.783649492206414,4.139678680665583,-0.17530329645190434,1.377183693171226,-1.5175414361178747,1.0,0.4921288432624285,0.4921953054645102,0.39478052876547853,0.8467535353328327,0.01644465289529888,0.3841973435313825,-0.3676009045363341
3.6,-10.720288338531184,-5.162549474153532,-7.855294160459458,-0.12642744345529774,0.08325612959462113,0.36807267524506415,0.055494307891186194,-0.05441484498496595,0.9969746466357018,-1.64066283495315,-1.7850073115183693,4.139463089117732,-0.17493761825021906,1.3773650843553593,-1.5176796003171218,1.0,0.4927058919172414,0.4928323655442122,0.394209386368585,0.8468477634315469,0.016488123429761407,0.3841081040483741,-0.3674751308063103
3.7,-10.702988580653235,-5.390140065577764,-7.87444002620812,-0.12126999882325536,0.08540761881504548,0.3685824144703007,0.05475083759294833,-0.05372254096370152,0.9970537666675594,-1.6392488479614258,-1.7862945179894212,4.139297962188721,-0.17465308402776233,1.3775647868629264,-1.517751673711856,1.0,0.4931976024701067,0.4933677792307929,0.3939401384411519,0.846827078937766,0.016494926060802263,0.38412915402170733,-0.3675004881936173
3.8000000000000003,-11.083609284829226,-4.904547240574747,-7.838223700584618,-0.11937153771463102,0.08829870115597083,0.3680173590909884,0.05458107375667655,-0.05353951330999746,0.9970729199900628,-1.6380557359695667,-1.787844808747745,4.1390839065894784,-0.1743280779041005,1.37771441187858,-1.5178342549087087,1.0,0.49343756218126233,0.493576478712405,0.39398681724923157,0.8467423727134508,0.016474398477439506,0.38421125391561267,-0.3676107463214247
3.9000000000000004,-11.080610960309368,-4.888927290754497,-7.768044465390304,-0.12229102616171013,0.0857045113427018,0.3658114782596248,0.05475986475597375,-0.0537103481701219,0.9970538910293777,-1.637098848267475,-1.7894867461707513,4.138845402850941,-0.1740496859014001,1.3778826236573203,-1.5179295664779457,1.0,0.49379748336283036,0.4939794381228398,0.3937183416972807,0.8467601190299696,0.016474717938008646,0.3841866465561984,-0.36759557273873333
4.0,-11.06053983357314,-4.946607447054701,-7.911041507301366,-0.12098652228067323,0.08617834249345825,0.36375885020752907,0.05489551645820256,-0.05385352795102545,0.9970387257272886,-1.636086019547993,-1.790733860567727,4.138643620625929,-0.17373453465834443,1.3780422815602045,-1.5180289171243628,1.0,0.49433869970908934,0.49453332732292526,0.393221271706693,0.8468292169157162,0.016473456722871628,0.38413094988312435,-0.3674946475030665
4.1000000000000005,-10.93778703178293,-5.273033399289623,-7.842037877054762,-0.12517461602519442,0.08770564019132887,0.3636910094486761,0.054565357987125515,-0.053572716989522394,0.9970719752144246,-1.6349569102280013,-1.7918851108336613,4.138493853564062,-0.173480824833252,1.378220460869306,-1.5181029727445843,1.0,0.4946007078010187,0.4948086150226395,0.3929971371246193,0.8468555939117302,0.01649506317989538,0.3841108822008543,-0.36745386938496594
4.2,-10.766552470095496,-5.0121743565541035,-7.702251414929756,-0.11730983436440068,0.08802626249655528,0.3659912732405371,0.05450319627145741,-0.053544482590335486,0.9970769204740518,-1.633751679717592,-1.7933346588534576,4.138274740601404,-0.17324915292855314,1.3783713806168718,-1.518172601567813,1.0,0.4950287158797568,0.4952484646940452,0.39289455808630436,0.8467883653383257,0.016491449083069796,0.38417704533417923,-0.3675397859730112
4.3,-10.985134032842488,-4.952863485900519,-7.7290184106734525,-0.116956193687004,0.08957919253732989,0.3679879491393376,0.05453649269596014,-0.053606213791115076,0.9970717840111863,-1.6327771527859194,-1.79457566063612,4.13811897437166,-0.17302473738259,1.3785152741624602,-1.5182683490951443,1.0,0.4953102618090282,0.495523568466786,0.3927435820561272,0.8467836415817739,0.016452887764327757,0.3841840883972478,-0.36754503541212535
4.4,-11.119299467783579,-4.807140504849069,-7.9867262838235344,-0.11656776959397565,0.08994895368573856,0.36922268042007544,0.05465819512490082,-0.053695404371798226,0.9970603058517026,-1.6318608178089662,-1.7957184486742206,4.137945779301176,-0.17279539776705494,1.3786777389662912,-1.5183578012870311,1.0,0.49559578011519717,0.4958250374934851,0.39254626515893815,0.846796217191883,0.016454743944199275,0.38417312355038874,-0.36752743991814535
4.5,-10.997227559446264,-5.258864696890632,-7.957633228795092,-0.12414554832577256,0.0878105613867879,0.3646762520745044,0.05481290837991392,-0.05379484829239664,0.9970464597009788,-1.6310400727170977,-1.7968402222063515,4.137787342071533,-0.17256668707917686,1.3788321913615573,-1.5184207889704329,1.0,0.4959668830001941,0.4962447331061039,0.39227777940509934,0.8468069636044041,0.01647089175127927,0.3841525748931194,-0.36752343506094054
4.6000000000000005,-10.910363249316067,-5.339976844499597,-7.936659161788147,-0.12656502047692794,0.08463773335815455,0.36555990311298225,0.05504593958655759,-0.05406449497964525,0.9970190250352103,-1.6300166761867763,-1.7980950604826813,4.137620842549938,-0.17231348903920163,1.3789728354461726,-1.5185066763980282,1.0,0.49625050139908966,0.49651585696434664,0.39206486675816704,0.8468252254992497,0.016470558442761532,0.3841445005606142,-0.3674898105414145
4.7,-10.8375638677827,-5.444678331732314,-7.885713756634833,-0.13163693102421378,0.08958590706674249,0.36525876370139443,0.05511456831691354,-0.054139953017686426,0.9970111577773615,-1.6289329528808594,-1.7993018002444119,4.137451648712158,-0.17209086360044268,1.3791070717841925,-1.518553522309829,1.0,0.49664723251568815,0.49693052427902845,0.39184892837832164,0.8468140422917473,0.01645062031233252,0.38415865696270013,-0.3675016750294685
4.800000000000001,-11.033115625384225,-4.972081412492291,-7.846388765354307,-0.11921347503941163,0.08432838277498847,0.368533106790147,0.05510246832703751,-0.05410744017580417,0.9970135918221661,-1.6279090427908176,-1.8005087791329093,4.137282402375901,-0.17184807947532715,1.3792628692660986,-1.5186583773717857,1.0,0.4968895439672941,0.49720435673485736,0.3917125444120157,0.8468091576214147,0.01646232789454516,0.3841581693532237,-0.3675129157566876
4.9,-10.668969222894093,-5.458559396765496,-7.838843990507973,-0.13693268032871628,0.08043606529673897,0.36808298657451627,0.05501329770027178,-0.05403156081802528,0.9970226245606318,-1.6268638948459604,-1.8016288531164897,4.137115955352783,-0.17162415554986252,1.3794113551611906,-1.518718410026208,1.0,0.4973482274522275,0.49762908123702226,0.39151200661898866,0.8467813007031163,0.016443782591385486,0.38419314788627074,-0.36754136625809053
5.0,-11.148946045144212,-5.081901293404213,-7.91701319314022,-0.1260062202869332,0.0834740952465302,0.36312817166370914,0.054894797639405614,-0.053937150362657414,0.9970342714243163,-1.626015528714166,-1.8030139502787723,4.136923008559609,-0.17142230939324574,1.3795583815484802,-1.5187762513610477,1.0,0.49753186708232144,0.4978502480018767,0.39141239528592114,0.8467730819301932,0.016445689557078005,0.38419502077263845,-0.3675582580040157
5.1000000000000005,-11.006319501455197,-5.162542829964747,-7.8201677742788975,-0.12600232052494528,0.08375833366938765,0.3666822270334519,0.05479343100705963,-0.05384375404728075,0.9970448894048437,-1.625078092022843,-1.8041964322979245,4.136770358209827,-0.17118463484866006,1.3797376991155714,-1.5188651076206805,1.0,0.49783234338155363,0.4981831949622387,0.3911065181784508,0.8468199901542406,0.016455706137314285,0.38414860071963464,-0.3674982538405329
5.2,-10.831123160502996,-5.283512414162222,-7.886358721642288,-0.12577550559505302,0.08338271893147468,0.3700754465196446,0.054805491590190276,-0.053856678214596373,0.9970434755975756,-1.624021728456013,-1.8053097788349997,4.136596401154987,-0.1709070034533067,1.3798455538294916,-1.5188860073748154,1.0,0.498279307180883,0.4986460964822131,0.39078263808418295,0.8468348415868115,0.016467185236146452,0.38413442190517766,-0.3674783378549179
5.300000000000001,-10.824909891784491,-5.2650252120004675,-7.9358332383325685,-0.1269615171749737,0.0829452027357646,0.37154156249911335,0.055323203478742096,-0.05434357232502007,0.9969884248463003,-1.6229942862847717,-1.8063937184456966,4.136420726776123,-0.17068903571742283,1.3800320625305176,-1.519019905720846,1.0,0.49847759880542436,0.49883019913675364,0.3907081236453668,0.8468156444011306,0.016457329237443027,0.38415615989571017,-0.36750029323260386
5.4,-10.994564119469365,-5.119088200482856,-7.9600363666478335,-0.1244864525451114,0.08866008542973006,0.37091263943006186,0.05511676434133008,-0.05415432906476276,0.9970100867385918,-1.6220102310180664,-1.807745002886171,4.136265277862549,-0.17047359510107898,1.380206224341511,-1.5190779596578439,1.0,0.49893174146780933,0.4992651291985915,0.3905253720371271,0.8467851555520352,0.016435051966669865,0.3841845597844671,-0.3675418526192408
5.5,-11.095513099575534,-4.878651911013286,-7.940698423874369,-0.12208986814685176,0.09004047857454932,0.365216299641763,0.05487513891721732,-0.05392877012627828,0.9970355345781523,-1.6210625628631752,-1.8090973503291556,4.136132079401967,-0.17025766143722001,1.3803199142022147,-1.5191169594573823,1.0,0.4991248332738126,0.49951052913711586,0.3903430908646422,0.8468069490042236,0.016453872398722057,0.3841637877401447,-0.3675125105222813
5.6000000000000005,-11.102039079041045,-4.888849433162679,-7.896819681987623,-0.11954923983397989,0.08597219252967662,0.3671302206441836,0.05608053928486445,-0.05503704324617549,0.9969081358855256,-1.6200790405273438,-1.810083549457634,4.135953426361084,-0.17004032030268051,1.3804642333608454,-1.5192337016799284,1.0,0.49942754102585474,0.49984466263629596,0.39007098558458553,0.8468430647371792,0.01645851436726381,0.3841250885138249,-0.36746953259503146
5.7,-10.792731032073288,-5.336002981823343,-7.8992039889412515,-0.12533272679003518,0.08239721812699297,0.36497118444852383,0.05572817549236091,-0.054696383350285586,0.9969465567476669,-1.6190193253229073,-1.8111870363000955,4.135777179651458,-0.16985295621418806,1.380601974454025,-1.5193270803701835,1.0,0.4998771128918905,0.5002998155387103,0.3898901423972435,0.8468022844098797,0.01644724808646721,0.38416563679782006,-0.367521622020143
5.800000000000001,-10.97335810904833,-5.074020284934033,-7.82249056932098,-0.12037769126522933,0.08329858273040201,0.36614920083466973,0.055478011215660705,-0.05445716743936682,0.9969736942590431,-1.6180285314782359,-1.8123062117651632,4.1356300933863785,-0.16963271302285723,1.3808096401607648,-1.5193432372578033,1.0,0.5000912020642286,0.500528018178939,0.3898157646112082,0.8467752598273013,0.016459867749785948,0.3841923153799514,-0.36755543377980143
5.9,-11.143871428520677,-4.926770215568952,-7.844187127743339,-0.11756506556270391,0.09005934304426952,0.36097482268238723,0.055874480189201006,-0.05485980441007481,0.9969294401427643,-1.6170801200933351,-1.8138083163308876,4.135437310729252,-0.16944153726611333,1.380881971582536,-1.5194632779973876,1.0,0.500501304800372,0.500904533931558,0.38961658746942535,0.8467589497175244,0.016410798847045674,0.3842119228821896,-0.367574706787134
6.0,-10.720281584354964,-5.271597189041199,-7.749397357033011,-0.12317513353337801,0.08179330858241689,0.37003506552661825,0.05599706601408426,-0.054977143670760585,0.9969161642826054,-1.6160986930047487,-1.815053645484231,4.1353035844689385,-0.1692050267380676,1.3810383773998227,-1.5194876829730433,1.0,0.5007354758690814,0.501200265409978,0.38932378103826804,0.8468214506312723,0.016441199924412175,0.3841393906265677,-0.3675051649498858
6.1000000000000005,-10.962001812038698,-5.0380828339604165,-7.786378361470742,-0.12105325173003034,0.08709673241355151,0.36627164276175755,0.05595764321182399,-0.05492572231015756,0.9969212128238195,-1.615124518640848,-1.8159943254621826,4.135138034820557,-0.1689991723893907,1.3811688269184428,-1.5195831423110664,1.0,0.5010191277708881,0.501522347451797,0.38906630514354057,0.8468508300611937,0.016454999064186036,0.3841117069576965,-0.367465782364167
6.2,-10.899425304681124,-5.032656678444933,-7.766590348740779,-0.11905274363524833,0.08632560758976085,0.36589433848060604,0.05587350762497972,-0.05481967181408509,0.9969317564451174,-1.6140317916870117,-1.8170973949900855,4.134981632232666,-0.16883093011707742,1.3813020947210324,-1.5196221103033405,1.0,0.5012632261025399,0.501769651515733,0.3889548299745122,0.846832725535543,0.01645084037051616,0.38413033558483145,-0.36748821762967043
6.300000000000001,-10.980299655533944,-5.087262637350291,-7.7124797654506,-0.11643574332116827,0.0888120791919573,0.363078697860902,0.055761912740527414,-0.05468007212838193,0.9969456747396951,-1.6128378612798677,-1.8183128050072013,4.134850025177002,-0.1686279591511046,1.3814449484895226,-1.519707445898359,1.0,0.5015080190668246,0.5020102870976626,0.38890546260472786,0.8467900870630488,0.01644093983652875,0.3841708308989909,-0.3675445777527198
6.4,-10.806441608474707,-5.296701989803682,-7.913605492177583,-0.12438858971026621,0.08769317947248524,0.36505037915186966,0.055833398205758326,-0.05474963637244839,0.996937808844869,-1.6120198804882924,-1.819647331994586,4.134717688729706,-0.1684006771411919,1.381577297868887,-1.5197998174202993,1.0,0.5020458376207216,0.5026538079235872,0.3886356117182013,0.8467636537142939,0.016470275793727045,0.3841828652441746,-0.367591581536458
6.5,-10.788541634572049,-4.8960078959994,-7.780373705789648,-0.12005684298534942,0.08604547818239021,0.3634477029829017,0.0560230759975385,-0.05495423188301851,0.9969158795946251,-1.6110782534162575,-1.8209420108477854,4.1345391273498535,-0.16819502700108385,1.3817310333251953,-1.5198472181903284,1.0,0.5023681608011219,0.5029731590094149,0.3883158728533369,0.8468154410115665,0.016465840488967494,0.3841345207361755,-0.36752299919891634
6.6000000000000005,-10.926609616923695,-5.030433089717321,-7.7785645204087,-0.12000301735625275,0.08885916124099166,0.36448301797138993,0.056212753789318684,-0.055158827393588634,0.9968939503443813,-1.6101465333397709,-1.8220048713926509,4.134367444337304,-0.16804196806675162,1.3818869590759277,-1.5199453099114526,1.0,0.5026118972977482,0.503212615571914,0.38808701999891243,0.846848765563013,0.01646837098401978,0.38411987634339295,-0.36746140153691004
6.7,-11.12098473780999,-4.966849329119176,-7.926158868443908,-0.11705199347047558,0.09086160054539659,0.3638651072771877,0.05616869177787168,-0.05509036366170505,0.9969002323327315,-1.608992576599121,-1.8230761099081512,4.134221266858943,-0.1678315245157248,1.3820517342283711,-1.5200124813838827,1.0,0.502854265251181,0.5034633384985256,0.38796215941816803,0.8468373743837769,0.016467017561172356,0.3841252723232136,-0.3674820728172302
6.800000000000001,-11.039283463237348,-5.029420862500283,-7.842343519292191,-0.11952906018132453,0.0894765085202978,0.3664959447301192,0.05599337024350344,-0.05487222095626448,0.9969221530445187,-1.6077970511615955,-1.8244319547770365,4.134067630082301,-0.16767107625917643,1.3821641118337655,-1.5200870672809046,1.0,0.5032419008388715,0.5038789929669437,0.3878615978795028,0.846779533709415,0.016457385087584462,0.38416748640447546,-0.3675716503712051
6.9,-10.90879938826518,-4.8553740936408785,-7.671849197364034,-0.11547268743968511,0.0857281584622288,0.36492780317659396,0.05607434448591963,-0.05499096487715187,0.9969110552987402,-1.6068836166641929,-1.8257170208112918,4.133891582489014,-0.16743014189840424,1.382296179785873,-1.5201495320455285,1.0,0.5035607035252805,0.5042123238078908,0.38772827243868646,0.8467585738658303,0.016442983365206432,0.38419779638774626,-0.3675888996332134
7.0,-11.080384800266518,-5.0957508673519225,-7.720789520124369,-0.11795095136345375,0.08971001221107845,0.3665626456051222,0.05593180334762291,-0.05487991858806208,0.9969251156954491,-1.6059966720815706,-1.8268040302555002,4.133720123986819,-0.16718752801928716,1.3824242828545128,-1.5202173110426345,1.0,0.5039203809421517,0.504587296691238,0.38739316463206275,0.8468066080952976,0.016461287969336647,0.3841642660375831,-0.3675124639850093
7.1000000000000005,-10.892975531048192,-4.999862518358935,-7.849867519843558,-0.12206348425347793,0.08091565036685662,0.3681303351336046,0.05562766486687269,-0.05460273837505302,0.996957364947681,-1.6051665734416498,-1.827961112026475,4.133579869187499,-0.1670125240493516,1.3825615407219596,-1.5203073755137444,1.0,0.5041855125797735,0.504857102333893,0.38718202859126977,0.8468201072109764,0.01646814900299625,0.38415081927027783,-0.36749510764849563
7.2,-11.054616319643936,-5.073196455753833,-7.898129640656226,-0.12215290829325079,0.08459365984993229,0.36726370935479424,0.05555663810735602,-0.05451909442304902,0.9969659550873982,-1.6039849943088036,-1.8292009163141152,4.1334004402160645,-0.1668289464763184,1.3827325315826027,-1.5203750769244593,1.0,0.5045963835131992,0.505298413424047,0.3868757761673395,0.8468372803835609,0.01646982434221385,0.38413176832619444,-0.3674753733262977
7.300000000000001,-11.129774057293444,-5.0209298844545325,-7.937660524370061,-0.11357396878948281,0.087288883412088,0.3638761642048939,0.05566297248575401,-0.05458270094518662,0.9969565443857358,-1.6027367055128747,-1.830367842594043,4.133235909448182,-0.16668494165454106,1.3829090655137366,-1.520450872084311,1.0,0.5047891882529663,0.5055336043011978,0.38680361480762177,0.8468139912204409,0.01648531560301076,0.38414179742568794,-0.36751786094465944
7.4,-11.08363171912674,-5.081459904745197,-7.910460464767312,-0.11561437216972827,0.09006993250019417,0.36534755397519997,0.055645106779579234,-0.054554569931079,0.9969590665839383,-1.601762711678736,-1.831614361104517,4.133050926804705,-0.16654957982932056,1.383020937765844,-1.5205071608172815,1.0,0.5051105505506297,0.5058348664035728,0.3867292419572877,0.8467758215837159,0.016469894869074388,0.3841922088741645,-0.3675538017550829
7.5,-11.238125001251905,-5.923811643594412,-7.900556446228388,-0.10682380783377926,0.07063901928764717,0.35824422461116895,0.05552624454529962,-0.05445184015409991,0.996971292329934,-1.6011656472910922,-1.8322584879566093,4.132973857610774,-0.1664025504620999,1.3831289126834772,-1.520574021614215,1.0,0.5055758552170315,0.5063277458523121,0.3864587994415266,0.8467818617542566,0.01646237605500894,0.3841710216529455,-0.3675623687223036
7.6000000000000005,-11.183600352539395,-5.461393714402494,-7.7937861883378945,-0.1178762033041157,0.08080965803432885,0.35994627830676607,0.055407382311020006,-0.05434911037712082,0.9969835180759296,-1.6012037997281185,-1.8322445094948268,4.132961076491711,-0.166409273143206,1.3831750363079893,-1.5205864558532982,1.0,0.5056944660912943,0.5064323509303553,0.3863545587347366,0.8467914128993876,0.016473316714867542,0.3841773075598265,-0.3675333035690137
7.7,-11.067459076984944,-5.121221659345061,-7.782100956813357,-0.12663262050672563,0.09099000540737351,0.3624183603075379,0.05529057662626078,-0.05424767166746875,0.9969955576127091,-1.6012209240983173,-1.8322814423910292,4.132957935333252,-0.1663828173403492,1.3831641194297046,-1.5205949940764454,1.0,0.5057174640110094,0.5064518319152218,0.3863420986605155,0.8467921774695181,0.016482951139522792,0.3841751865009386,-0.36753332716249465
7.800000000000001,-11.374218777627362,-4.5963582609011855,-7.625543396022865,-0.1062133990308542,0.08949941328139702,0.3604059092357404,0.05523318277948795,-0.054187152859373644,0.9970020275746673,-1.6012050247192382,-1.8323078403868618,4.132917957305908,-0.16642623041186527,1.3831791877746582,-1.5206025282489222,1.0,0.505719819824385,0.5064433417686528,0.38635801998009395,0.8467889196162117,0.01647891170081037,0.38417527836938425,-0.3675409182311162
7.9,-11.087389041070738,-5.280961910152992,-7.918440236248464,-0.1251457726878935,0.08984180014975567,0.3586958482165504,0.05546651522559796,-0.05442558299179285,0.9969760610582425,-1.6011982630971482,-1.832330196818374,4.132950408608546,-0.1664144903079193,1.383155345916748,-1.520588053778335,1.0,0.5057310329380796,0.5064336835999164,0.386358376944931,0.8467866837517584,0.016460604819474013,0.38417843594533496,-0.3675435893391049
8.0,-11.098824275842862,-5.365254126757564,-7.958154933785148,-0.12729673189312468,0.08711454026551257,0.35806334247495175,0.05568765849915309,-0.054649989983847534,0.9969514501373883,-1.601179403721386,-1.8323304759815586,4.132941347530646,-0.16641526312827293,1.383144432888718,-1.5205924048612565,1.0,0.5057479562800389,0.5064368249088887,0.3863309543653075,0.8467951793268387,0.01646372151190483,0.38417560015165175,-0.3675268403680525
8.1,-11.025236128558507,-5.158362860014036,-8.035540754494608,-0.12157652403822643,0.08647279597071664,0.3595799938291907,0.05589758309067604,-0.05486149034486273,0.9969280868808527,-1.6011747771023315,-1.8323327503600062,4.13295187454275,-0.16642169508793617,1.3831558770419556,-1.5206144491778772,1.0,0.5057554676938012,0.5064338026963081,0.38631868077872816,0.8468030924970893,0.01645297719315844,0.38416725811611563,-0.3675178089159672
8.200000000000001,-11.035036566719576,-5.00652874715632,-7.925968241061667,-0.11812977285562655,0.08517299406747778,0.36222362376826506,0.05591022264020526,-0.054869369719322866,0.9969269520401709,-1.601152652621827,-1.832333459775046,4.132952105346016,-0.16639788568530278,1.383185250339776,-1.5206025282489222,1.0,0.5057572605732927,0.5064365423223627,0.38632247856266744,0.8467987561820371,0.01644508440880813,0.38416840335853986,-0.3675269562743556
8.3,-11.208276048048518,-5.122088122179213,-7.975353523460814,-0.1218513718772308,0.08949394064061672,0.3607294877594964,0.05573279645865215,-0.054681079271265365,0.9969472322042323,-1.6011488108221765,-1.8323371446321783,4.132950107610197,-0.16643412530932622,1.3831703992303137,-1.520590607319967,1.0,0.5057400758904455,0.5064551578121291,0.386314575363132,0.8468037653978704,0.01647498114701524,0.3841627989714484,-0.36751993386837767
8.4,-11.049614032373533,-5.192199644837089,-7.992507338027566,-0.12353928598086587,0.08647027109532872,0.3610169773632777,0.055711039941952395,-0.054644628929295114,0.9969504561774237,-1.6011820423401248,-1.8323447929397338,4.13293386480576,-0.16642786316786784,1.3831788325882726,-1.5205965069590583,1.0,0.5057416124308052,0.506459004564674,0.38631335183287896,0.8468040365452298,0.016471837665060492,0.3841607904740826,-0.3675215494593054
8.5,-10.969270528291641,-5.200952803628754,-7.9416690379801445,-0.12433619286646605,0.08493883874905155,0.36164884437654615,0.055847091520143916,-0.05476210451690331,0.9969363896593056,-1.6011641321968662,-1.8323682450857475,4.132953602287092,-0.16643022697991158,1.3831429481506348,-1.520574353344852,1.843438316758052,0.5057461971928701,0.5064513767599711,0.38629765929665283,0.8468095919896053,0.016459051084715293,0.3841584751902937,-0.36751174197739134
8.6,-10.943291294710534,-5.207666740517283,-7.942655626493597,-0.12469301804556053,0.0845981304585501,0.367353197039494,0.055983143098335436,-0.05487958010451151,0.9969223231411876,-1.601130663359091,-1.8323640136667074,4.132945537567139,-0.1664294458499557,1.3831448225201233,-1.5205771088794753,2.0,0.5057328158695789,0.5064621150728243,0.3863129046380192,0.8467983290631842,0.016475501212510825,0.3841630040286858,-0.36753222184082296
8.700000000000001,-11.051279497378138,-5.311838402209663,-7.905276241982917,-0.12366880102754266,0.08304173684299931,0.35843571747143765,0.05573895054599326,-0.05466848370755189,0.9969475764626528,-1.6011700502688804,-1.8323537666182048,4.132943364060901,-0.16643412530932622,1.3831600648059215,-1.5205714007548365,2.0,0.505731598844797,0.5064653715850108,0.386311478019245,0.8468003633223635,0.016473319507995764,0.3841593115101657,-0.36753149225819554
8.8,-11.170616072617879,-5.055415371861948,-8.069106778515005,-0.12202917136524004,0.08293386585638199,0.3674537589401944,0.05577831520127712,-0.0547197755963114,0.9969424998727805,-1.6011617700171699,-1.832339717612259,4.132926451238863,-0.1664460462382813,1.383155345916748,-1.5205836400677144,2.0,0.5057373576427047,0.5064591989224182,0.3863172082250553,0.8468016515870076,0.01646140220628879,0.38415897161347956,-0.3675294132934025
8.9,-11.117304249872141,-5.132901519885042,-7.970277690433424,-0.12264232423132224,0.09193087007743983,0.36234015055094576,0.05613135697745515,-0.05506101130006521,0.9969038900128756,-1.6011682840711565,-1.8323353958729232,4.1329216957092285,-0.16642677724306187,1.383157079047297,-1.5205976727682982,2.0,0.5057471327084226,0.506459103489079,0.38631026975079885,0.846804810141186,0.016454678268704524,0.3841625811786938,-0.36751866388925997
9.0,-11.164412991127934,-5.109330079007826,-7.822982283749343,-0.12244249908107034,0.08785980822319828,0.3583256117132954,0.05620147375756688,-0.055127452326546075,0.9968963189684573,-1.6011562942736854,-1.832353373422758,4.132929506267238,-0.16642640405002831,1.383166790008545,-1.520566199326187,2.0,0.5057355319139705,0.5064646586548587,0.3863069758259811,0.846804046568892,0.01646379550463166,0.3841571008475583,-0.36752574334396015
9.1,-11.054641909043161,-5.377635654404071,-7.871674593224751,-0.13255581667913138,0.08287278837691674,0.3600576167179691,0.05595346736438155,-0.05488491197649728,0.9969236482213452,-1.6011968507310244,-1.8323570052094784,4.132946273956693,-0.16643412530932622,1.3831428585570658,-1.520586771340836,2.0,0.5057280854545397,0.5064653737041727,0.3863083030425865,0.8468058754504609,0.016477377879614348,0.38415648155130727,-0.3675215680785425
9.200000000000001,-11.104030845257537,-5.198223378361567,-7.924578951296191,-0.12637136872527535,0.08434242003519862,0.36593060683416995,0.055959839800236263,-0.054895780716334684,0.9969226952359029,-1.6011877059936523,-1.8323729972298213,4.132965655338854,-0.16644216698182862,1.383179149267355,-1.5205987769818086,2.0,0.5057384686343493,0.5064633307040064,0.38627801407766776,0.8468182977402202,0.016469117165461927,0.3841515857724091,-0.3674984325690241
9.3,-11.138202973317032,-4.916541959610945,-7.920815313023213,-0.11926842659462436,0.08397828487000436,0.36699168842948665,0.05626070357866471,-0.055200018143269976,0.9968890002397822,-1.6011767591373995,-1.8323639381346122,4.1329368847781645,-0.16643509938202855,1.3831719858955445,-1.520590607319967,2.0,0.5057469065444894,0.5064605744099371,0.38629609519676267,0.8468102850793922,0.01646312813164935,0.38416358005944573,-0.3675046261637934
9.4,-10.987879894959484,-4.920249023973118,-7.926918948094814,-0.12274537283901607,0.0782963811937408,0.36440489683847627,0.05613349315382286,-0.05505712804836451,0.9969040543920187,-1.6011319631797665,-1.832348197324098,4.132957935333252,-0.1664027545439844,1.3831500002209083,-1.5205834142082881,2.0,0.5057638984886152,0.5064400231444539,0.38631711395905866,0.8467992958065076,0.016445766138283236,0.384175389534904,-0.36751837977634855
9.5,-11.243866690890844,-4.85043751624721,-7.8742237000880975,-0.12037163136291724,0.08405687876217849,0.36167027459567247,0.05598559024213827,-0.0548926244567988,0.9969214650074647,-1.6011762619018555,-1.832329406492952,4.132945537567139,-0.16642172754321294,1.3831381917929464,-1.520590607319967,2.0,0.5057440005360954,0.5064599787830859,0.38630714434877783,0.8468029065701654,0.016448543399699044,0.38414894448491776,-0.3675375780725989
9.600000000000001,-10.87630575955657,-5.062981163564377,-7.800035497511369,-0.12500449602939084,0.0762954868161433,0.36232069057225097,0.05592291164602227,-0.05486552720353339,0.9969264758459698,-1.6011638641357422,-1.8323183516259272,4.132928374791172,-0.16640512850028036,1.3831501909656123,-1.5205687664300227,2.0,0.5057393406952505,0.5064692139930737,0.38628313136322595,0.8468154573043982,0.016461019975786285,0.3841554634477193,-0.36750128706573
9.700000000000001,-11.016341886348815,-5.238282967571188,-7.878054460523635,-0.1200755730469979,0.07067738785616383,0.3624040830899025,0.055865974957905705,-0.054847687572905306,0.9969306512611813,-1.601154663391661,-1.8323715657716606,4.132963231305757,-0.16642492456524488,1.3831522932919589,-1.5206056023085683,2.0,0.5057507646368539,0.5064528481622923,0.386314043143924,0.8467983111246721,0.016451312830259853,0.38417553259028075,-0.36752025079107964
9.8,-11.664879265049706,-5.587495396021841,-7.68827696484807,-0.09543305267682209,0.030451795303190782,0.3569694787306732,0.05592772588847299,-0.05489293548334538,0.9969246966475317,-1.6011479334227308,-1.8323498759895527,4.1329482440114464,-0.16643141886501872,1.3831630488736233,-1.5205812887413077,2.0,0.5057526187039028,0.5064501181487087,0.38633521006607485,0.8467924145286831,0.016453760428740416,0.38418112370131813,-0.3675278828279959
9.9,-12.517189833590818,-6.029750880906074,-7.32652779108631,-0.06430723820667494,-0.03606183052695235,0.34880354432146016,0.05585155900621872,-0.05479254189195407,0.9969344485114918,-1.601143452303025,-1.8323531621927234,4.132967733012956,-0.16643740257479525,1.3831995996073754,-1.5205956681985364,2.0,0.5057445388557921,0.5064557386483169,0.3863297592162943,0.8467999373649608,0.016466186310815017,0.38416718988971144,-0.367524558362184
10.0,-12.927846749037583,-5.740362859925386,-7.142187697690052,-0.07256540763228511,-0.0860333168919124,0.34664082206314295,0.055556847632901904,-0.054469804131554174,0.996968629723407,-1.6011323433829747,-1.8323529004415426,4.132961995872301,-0.16643781708569996,1.3832112587851497,-1.5206235239302923,2.0,0.5057359746690765,0.5064768649901744,0.386318674440954,0.8468017096257108,0.016484256486345033,0.38415779679570045,-0.3675294832039186
10.100000000000001,-12.932816869176229,-5.61411638389055,-7.091707415019609,-0.08095341527219518,-0.09002365248508618,0.3475927055012066,0.055282210659934994,-0.05421678389275733,0.9969976345027008,-1.6011721958197127,-1.832357608738452,4.132967346383977,-0.1664460462382813,1.383166790008545,-1.5206025282489222,2.0,0.505737463184792,0.506480780035438,0.3862674919529701,0.8468232199356729,0.01648278817473163,0.3841316431993945,-0.36750732314431345
10.200000000000001,-12.955964201169179,-5.8369102531486945,-7.042813874939029,-0.07925908105276579,-0.08674669314654264,0.34644172353985797,0.055009939054413474,-0.05397197847249048,0.997026029342719,-1.6011638641357422,-1.8323692590109673,4.132944791703043,-0.16644676341529652,1.383177993760485,-1.5205794035680271,2.0,0.5057464331613112,0.5064721756107461,0.3862765771918272,0.8468191307789021,0.016474135527265156,0.3841347696334757,-0.3675138655399693
10.3,-13.160842117852592,-6.150468063722802,-6.83654880441065,-0.07867002199467227,-0.09738110414318144,0.3440964782156228,0.05451938791312189,-0.053526254882582475,0.9970767697844819,-1.6011593263124453,-1.832370872814986,4.132923873864411,-0.16647727120184966,1.383166790008545,-1.5205979904256253,2.0,0.5057457124941772,0.5064668980718988,0.3862752520356259,0.8468166917377,0.016475448740961126,0.38414240069110817,-0.3675114503991317
10.4,-12.820036674557057,-5.60489509336885,-6.59452798177432,-0.08781889873401841,-0.09542677311784853,0.3445291598578466,0.05400093720439939,-0.05305485078166265,0.9971303663465882,-1.60117429805403,-1.8323685131468714,4.132955971485426,-0.16646799978097462,1.383155345916748,-1.5206025282489222,2.0,0.5057379656032899,0.5064737653525222,0.38627012384459464,0.8468196249193221,0.016481469162753237,0.3841424393257148,-0.36750438138153596
10.5,-12.443249672727456,-4.933592756868255,-6.335302584069257,-0.10877731450440091,-0.08370051735003202,0.3406389326347762,0.054143368814123134,-0.05318989612864441,0.9971154761883493,-1.6011731015813009,-1.8323796125002585,4.132945537567139,-0.16643494688489416,1.3831753906274469,-1.5205823374940999,2.0,0.5057330829138293,0.506483898032809,0.38627997498734223,0.8468178656936368,0.016482764345670982,0.3841438749349601,-0.36750687635954826
10.600000000000001,-12.792964800008662,-5.212092971834023,-6.28814303324968,-0.09904139673156026,-0.08244440420555033,0.34511306911150136,0.05432257603984443,-0.053370702293836045,0.9970960923967689,-1.6011875409817917,-1.8324044089961853,4.132945537567139,-0.16643412530932622,1.3831194500674342,-1.520578686391012,2.0,0.5057413544765655,0.5064815103445486,0.3862886714372877,0.8468124022173641,0.01646942741711377,0.3841486212230807,-0.3675151020350259
10.700000000000001,-12.669724527638461,-5.401886661029045,-6.030228728372791,-0.09207090408736837,-0.0762300033761889,0.3481253758050023,0.05440621499903253,-0.05348452116400536,0.9970854356222681,-1.601174554128661,-1.8323922700744415,4.1329688401282505,-0.1664454844707831,1.383167374246743,-1.520578686391012,2.0,0.505748926505113,0.5064631607139178,0.38630130812498104,0.8468082727204621,0.01646063179322476,0.3841625784647265,-0.3675104218392836
10.8,-12.414600825540463,-5.046586140555714,-5.84819024167907,-0.099623318229752,-0.06003577687967514,0.3378519912474737,0.054510448965420455,-0.05358394781104948,0.9970743911837284,-1.6011733823830252,-1.8323465657092444,4.132945537567139,-0.1664441139295926,1.3831343078008569,-1.5206015810387807,2.0,0.505740841101244,0.5064692257588373,0.3862793770024859,0.8468175846787707,0.01646968309804426,0.38415505692146024,-0.3674964218317408
10.9,-12.344612127506371,-5.237718934925626,-5.652287377250264,-0.10382429512781191,-0.053846101876139564,0.3479266493871527,0.05461803062543947,-0.053681035019547824,0.9970632837308657,-1.601197293014027,-1.8323446712889613,4.132946190051692,-0.16644667362727528,1.3831546934321943,-1.520603155637916,2.0,0.5057444866746293,0.50646728048501,0.3863029954859312,0.8468071644695794,0.016470330629949955,0.3841620330511078,-0.36751311102322637
11.0,-12.699018212116856,-5.104560830938427,-5.171344599484519,-0.10219119902877175,-0.05714785565602666,0.3453532001940512,0.054699347682567595,-0.05376164977386376,0.9970544944439895,-1.6011638641357422,-1.8323665002154015,4.1329223398472985,-0.16642242535945587,1.3831198041089676,-1.520600488478366,2.0,0.505757238723835,0.5064558754258403,0.38628541635772384,0.8468129576306939,0.01644081827689165,0.38415911146240095,-0.36750413788631203
11.100000000000001,-12.672002821005455,-5.098933488877524,-4.947053286786037,-0.10328425215887334,-0.07788777032416705,0.35004061554930754,0.05473240056667434,-0.05381199453391977,0.9970499650488287,-1.6011533993409859,-1.8323790151141537,4.132946504052817,-0.1664680294698866,1.3831782212889796,-1.5206015989357697,2.0,0.5057533879707522,0.506447712526328,0.3863120441298497,0.8468040748837153,0.01643911928311976,0.38416734850750645,-0.3675160710203602
11.200000000000001,-12.865857164033802,-5.104199918219052,-5.088805791886423,-0.10605108763285338,-0.08571032803061408,0.349841707019421,0.05458199402502664,-0.053624103227701475,0.9970683086113215,-1.6011762619018555,-1.8323454518734397,4.132946349374996,-0.1664452656538029,1.3831768147978438,-1.520557186286537,2.0,0.5057519612778837,0.5064612252301209,0.38628469264717363,0.8468175876156905,0.016466886342955112,0.3841468603085172,-0.3675051083645219
11.3,-12.961785640278023,-5.381150155205262,-5.195750698204475,-0.11520438127494825,-0.09098795852268919,0.3473820916455049,0.05451867394900765,-0.0535331666023814,0.997076665473508,-1.6011657806371482,-1.8323779978308476,4.1329664663429115,-0.16642076929250996,1.3831343404809187,-1.5206125326764712,2.0,0.505741896710532,0.5064787872421173,0.38627932879541566,0.8468204676821619,0.016494612433011882,0.38414422254516556,-0.36749998579648935
11.4,-12.815462319693845,-5.3837182129858085,-5.091740199590512,-0.11472538631555601,-0.09767884642598565,0.35336779260269746,0.0546942419634296,-0.05372057793774974,0.9970569588715558,-1.6011725202395681,-1.8323697931892329,4.132965637762761,-0.16645299469498606,1.3831767261547323,-1.5205662886248987,2.0,0.5057358503439928,0.5064749125812673,0.3862951400041321,0.8468158423467738,0.01648062721553218,0.3841503844024076,-0.36750483022756214
11.5,-12.861918304324506,-5.2746985142481275,-5.228096016066753,-0.11355670713726926,-0.09735523583348653,0.3498623565836649,0.05469210487234206,-0.05373457259968498,0.9970563007525712,-1.6012050038567782,-1.832365584369879,4.132956412369216,-0.1664311379567939,1.3831444711146708,-1.5205935360969596,2.0,0.5057580147102946,0.5064536056048738,0.38629915745645704,0.8468076090653582,0.0164593689927719,0.38416454401563654,-0.36750995295723543
11.600000000000001,-12.948682795490384,-5.154312598674213,-5.281007738526558,-0.11116227019816939,-0.09787083405853014,0.3482656780844975,0.0543143326975592,-0.053381997114676796,0.9970959075346616,-1.6011846115468085,-1.83233584480685,4.132942443120295,-0.16642942175012349,1.3831698844553888,-1.5205755919441681,2.0,0.5057518053736183,0.5064641873940411,0.3862924102528641,0.8468093571180128,0.016466938924787157,0.38415986011883924,-0.3675104821543178
11.700000000000001,-12.967697438835145,-5.268713460446005,-5.295726520966967,-0.11251196750982348,-0.09835187755884693,0.3495378092771247,0.054454864901137136,-0.05350729834416414,0.9970815243397535,-1.6011550711556921,-1.832346404359184,4.132956132940221,-0.16642172754321294,1.3831722554937675,-1.5205821525314573,2.0,0.5057445699501273,0.506461983340367,0.3863000085270763,0.8468084733077749,0.01646116086389505,0.38415364113149497,-0.3675192780284908
11.8,-13.00030535905923,-5.348446158761614,-5.299163207933869,-0.11294059602882493,-0.0983102223400368,0.35342750708476917,0.054711158905096695,-0.05374945947802531,0.9970544908041229,-1.601140022277832,-1.8323607859081248,4.132927945129931,-0.1664056951532692,1.383131504058838,-1.5206321238443044,2.0,0.505745875865575,0.5064614733024233,0.38629008282885025,0.8468162901365455,0.016455240623402673,0.3841461417330526,-0.36750937077442514
11.9,-12.918520767639249,-5.076519718383624,-5.336818142315883,-0.10908141666877333,-0.10187625807296495,0.3529519971133328,0.054793262141516676,-0.05383678152300295,0.9970452486308845,-1.601147044780474,-1.8323785084778703,4.132967161792636,-0.16642172754321294,1.383159952308604,-1.5205979081813945,2.0,0.5057504404690435,0.5064640852753093,0.38629077931536143,0.8468148030716343,0.016460444314835974,0.3841548807268329,-0.36750342948802595
12.0,-12.83856262483997,-5.165112085153793,-5.289616526227604,-0.11165692852388658,-0.10482015638582619,0.3517680870464642,0.054480469460513686,-0.053517505938244885,0.9970795852120921,-1.6011843556167837,-1.8323635150155655,4.132938337857584,-0.16643152628104715,1.383164390905518,-1.520605027314575,2.0,0.5057441567406665,0.5064693481047652,0.3862871119204483,0.8468123805118077,0.016479766030738786,0.3841565766038707,-0.36750637297262195
12.100000000000001,-12.854417988559302,-5.5032780736086035,-5.382778732901024,-0.1182704454109665,-0.10525265480788588,0.3547577174767551,0.05431694486817832,-0.053367366071814186,0.9970965745356464,-1.6011718128489025,-1.832372747369739,4.132941303344271,-0.1664618319679885,1.38316421204752,-1.520603600258564,2.0,0.5057409314689895,0.5064653790509664,0.3863086357470643,0.8468050349787493,0.016477487529007566,0.3841571720580258,-0.36752277792777804
12.200000000000001,-13.267778477906358,-5.304720548140709,-5.452392260679094,-0.11035370420025534,-0.09652411388540819,0.34652379263133987,0.054212524063290156,-0.05327596256098791,0.9971071516052862,-1.6011671986555045,-1.8323446712889613,4.13293980884055,-0.1664373315783284,1.383166790008545,-1.5205850989290164,2.0,0.5057514500861975,0.5064671719701312,0.38630795890090347,0.8468005296252983,0.016464911579681506,0.38416946921472195,-0.36752086830038144
12.3,-12.985157382963845,-5.3769110426780955,-5.371025526294426,-0.11102485809118405,-0.10328518788679951,0.3494664082635552,0.054156080134307075,-0.053217367189940856,0.9971133480455646,-1.6011762619018555,-1.832337991008439,4.132945537567139,-0.16642520128908458,1.3831807450512819,-1.5205580510677525,2.0,0.5057432726863408,0.506468865267565,0.3863125313224193,0.8468003554391569,0.016470103007509437,0.38416661213390835,-0.3675240235094773
12.4,-12.941787081927453,-5.320899642045286,-5.525197425175841,-0.11313003678184472,-0.10570101228237036,0.3522265374426617,0.054342446080607926,-0.05337164442956437,0.9970949079760885,-1.6011657204855057,-1.8323516064312968,4.132945537567139,-0.16643203725076372,1.383155345916748,-1.5205990606777544,2.0,0.5057391001825966,0.5064640543939669,0.3863090757838917,0.8468048149186858,0.0164607373721629,0.384158949030549,-0.3675221781545148
12.5,-12.91650890070171,-5.2570567486850495,-5.320364693568149,-0.11029689628584674,-0.1108140730616646,0.3552600047753629,0.054601757915099684,-0.05358987368777332,0.9970690665104217,-1.6011637022814358,-1.832340646317972,4.132949723536967,-0.16640191065629192,1.3831592098888976,-1.5205980343110688,2.837259477576614,0.5057310723364387,0.5064679518479163,0.38630198886181305,0.8468089850004902,0.01647105282791507,0.3841473592951884,-0.3675242219061393
12.600000000000001,-12.927673806734587,-5.426385463622859,-4.4418655946530725,-0.11073434686766592,-0.11134430929068036,0.3549509740368239,0.05464650625562348,-0.053668877032248916,0.9970623895323254,-1.6014350210147086,-1.8318314465275425,4.132953807262879,-0.16645082331722458,1.3831419944763184,-1.5205747237145542,3.0,0.505732911646747,0.5064590274810317,0.3863046425760128,0.8468120438448645,0.01647241838406283,0.38414818588664146,-0.3675162487725754
12.700000000000001,-12.867250982469978,-5.99437955536692,-3.762606033814765,-0.09721305576659539,-0.1127932088953376,0.34525320028137196,0.054621616766854265,-0.053702693797057915,0.9970619325000794,-1.6024371814024383,-1.8307641332755675,4.132987450362103,-0.16663868845019536,1.3830272143380062,-1.520536464599216,3.0,0.5056770068572383,0.5063419536024936,0.3864531091132095,0.8467674670695551,0.0164369430615168,0.3842048497953321,-0.3675613105444436
12.8,-12.845579559492561,-5.876618413785377,-3.330047034213694,-0.08257449049501013,-0.10440970542316466,0.32652826873597046,0.05463454085219028,-0.05375302046552308,0.9970585088628556,-1.6035975625534125,-1.829605905133429,4.13315526747895,-0.16685469568286138,1.3828831888755233,-1.520455896356414,3.0,0.5054770070043053,0.5060613829287,0.38660249457554724,0.8467626366115274,0.01640227914008609,0.3842107678058959,-0.3675678010649309
12.9,-12.707008315927649,-5.845547861536183,-2.9045331624697757,-0.09150777631782273,-0.10083623710891342,0.3059624691064677,0.054783116903766,-0.05386257456610439,0.9970444428622001,-1.60471107320799,-1.8284125000561418,4.133424744928297,-0.16702754216129173,1.382703132264495,-1.5203520027317523,3.0,0.5050568328059301,0.505629990678007,0.38673448690033907,0.8468181870511867,0.016426544371108978,0.3841511001560548,-0.36750110063543723
13.0,-13.054663524665187,-5.5424704862268195,-2.6427006253674805,-0.10571994004740458,-0.13804359132284105,0.27619337574051583,0.05458880050487037,-0.05369596934548793,0.9970640386899197,-1.6055907694827114,-1.8271817809995723,4.133586457537552,-0.16725355473915368,1.3825538046456862,-1.5202851799088712,3.0,0.5047226767394222,0.505366708781321,0.3868371016849786,0.8468507283391215,0.016473625163707387,0.38411260437627176,-0.36746424417178747
13.100000000000001,-13.248141118216278,-5.273736360660719,-2.7165692637143555,-0.12244384467830077,-0.14781453511250656,0.2562166263467897,0.05433110194964767,-0.053474751899210624,0.9970900567957931,-1.6064813686725918,-1.826078112969694,4.133744008946449,-0.1674290001770591,1.3823942960053368,-1.520212493260431,3.0,0.5043611502640287,0.5049180883449154,0.38717744627198747,0.8468126296454991,0.016429615561270688,0.38417813351599717,-0.36748550955588555
13.200000000000001,-13.415755263620973,-5.184129190953467,-2.7268150359061276,-0.12548558531623547,-0.15389484052073274,0.2382637844385008,0.054379782222503274,-0.05348608332299903,0.9970867944908507,-1.6074839329843607,-1.8247328031285839,4.13395357131958,-0.16765252504959144,1.3822512638908224,-1.5201171888229277,3.0,0.5041593917738277,0.5047391337928708,0.3873214815523048,0.8468040147535677,0.01643331328175577,0.3841685524459778,-0.3675152107374401
13.3,-13.23797259501589,-5.345117072678951,-2.637751388592714,-0.12432739683449563,-0.15230325630508873,0.22874591671370645,0.054538399264511636,-0.05361028420634797,0.9970713681564604,-1.6086521241147866,-1.8235009331292926,4.1340894745329795,-0.1678369802287598,1.3821002705224805,-1.5200420889779247,3.0,0.5038470566960189,0.5044416720918024,0.3875599161160142,0.8467749299086291,0.01644778501144194,0.3841915368332611,-0.3675575485174407
13.4,-13.314576752438159,-5.109192643702595,-2.637447552532175,-0.11317291427918114,-0.14959320931290265,0.2361451222012061,0.05515405864227246,-0.05420371955811198,0.9970053720584334,-1.609764785837157,-1.8223715939264868,4.134283037597243,-0.16801704299431167,1.3819456100463867,-1.5199844564517664,3.0,0.503400734972097,0.5039577839035325,0.3878041854797571,0.8467857572404244,0.016441155675820666,0.38418757113401936,-0.3675370456443096
13.5,-13.195307872590643,-5.327725674209703,-2.6769509551480426,-0.11414929321627519,-0.1467366745462904,0.24000600235233768,0.055530401065094215,-0.05455316945273127,0.9969655227429015,-1.6106999253991507,-1.8213196526439803,4.134469426640474,-0.16817828882893418,1.3817949707465353,-1.5199071347036988,3.0,0.5031399551675076,0.5037083662909114,0.3878758011634586,0.8468181932406952,0.016463552164241797,0.38416058889973037,-0.3674895113917029
13.600000000000001,-13.293978495376088,-5.325456063074311,-2.8495958416116594,-0.1315687021700388,-0.15693674307869723,0.24405077815977266,0.05571943253252603,-0.05471373927798963,0.9969462051154745,-1.611583690386181,-1.820076026433552,4.134617815146265,-0.16838915765795903,1.3816411035475273,-1.5198364337156143,3.0,0.5027526034786843,0.5033290458570827,0.38805458060155873,0.8468423972865075,0.016461613384017852,0.3841319872266964,-0.36746372042979397
13.700000000000001,-13.209443047829916,-5.273091706101262,-2.619312483577955,-0.1295841038001624,-0.1639229606888193,0.2453197298585407,0.05555249719750028,-0.05452086648124656,0.9969660826181139,-1.6125341698820208,-1.8186656934590533,4.134780406951904,-0.16861873392823387,1.3815044778629189,-1.5197747389422815,3.0,0.5025542692569049,0.5031462420572425,0.38823214205045403,0.846817218699573,0.016475785701046224,0.3841538217831965,-0.36749828272907137
13.8,-13.068237760558837,-5.353510856842951,-2.7271182474308997,-0.1142411820890809,-0.1613033554359054,0.24205473787713935,0.055504687951973046,-0.0544807979948865,0.996970948411213,-1.6136104254360548,-1.8175329783859488,4.1349358558654785,-0.16881347754885304,1.3813207381048085,-1.5196952379232747,3.0,0.502255693140843,0.502827961145555,0.3885360227483711,0.8467658521984263,0.016462627989766443,0.38420712356571785,-0.36756150455631287
13.9,-13.102740779188986,-5.389576593907264,-2.775238290820728,-0.10389325895210394,-0.1433165208714647,0.2420931734797785,0.0553903420442039,-0.05440256049116185,0.9969815662335825,-1.6147700633812223,-1.8164807241756629,4.135140173336579,-0.1690238279155274,1.3811786102262271,-1.5196348203360581,3.0,0.5018010047005406,0.5023132813011304,0.3888044353531232,0.8467715491236546,0.016453491486994865,0.384210472143049,-0.367545288785245
14.0,-13.167630058231845,-5.359816934846084,-2.5835520296025694,-0.10530249304354652,-0.14450390796305057,0.24416807708700866,0.05529138283673933,-0.05433376722303404,0.9969908046377788,-1.6157985847791971,-1.8154212488712729,4.135281380097118,-0.1692547998081554,1.3810550304635123,-1.5195573368416484,3.0,0.5015591461076945,0.5020892166819417,0.38881322462012463,0.8468275826970926,0.0164727134691319,0.38415682156465225,-0.3674714020705652
14.100000000000001,-13.163024970850037,-5.565280112254073,-2.434945016026162,-0.11374525785229964,-0.14490981167116312,0.2457246129733823,0.05561582820014718,-0.054623470373821606,0.996956909044191,-1.6166315156985551,-1.814019362513671,4.135468405210055,-0.16946337396264027,1.380903720855713,-1.5194743315326136,3.0,0.5013108803436747,0.5018428441497624,0.3889031775368273,0.8468557888001246,0.01647708509394325,0.3841232836844729,-0.3674412627536322
14.200000000000001,-13.073653041291184,-5.830473928235119,-2.6306159851692175,-0.0995085173164619,-0.14818315900439571,0.24600642823727328,0.055680309910215234,-0.05462922836970508,0.996953025325355,-1.617593085607456,-1.812608945575277,4.135661153142911,-0.1696797314065383,1.3807776609915774,-1.5193904081927698,3.0,0.5007897305768374,0.501298453958197,0.3894156733178324,0.8467723927592689,0.016463551764794047,0.3841983375134762,-0.3675555791658064
14.3,-12.870361803812415,-6.096721604596838,-2.6048814129223263,-0.08855883136189785,-0.13429874238241113,0.24505546578023407,0.05563031343502631,-0.054520804652718004,0.9969617550581179,-1.6186455165279294,-1.8115342238766492,4.135795276501566,-0.16988690317187505,1.3805848777675969,-1.519282642995016,3.0,0.5005633943064411,0.501094122590476,0.3896245478716885,0.8467396409350301,0.016470715076195668,0.3842123518487077,-0.3676160560979072
14.4,-13.017460061973699,-6.0241225052288545,-2.497977400161498,-0.0902607077042848,-0.12837237780357133,0.24593897917756213,0.055748942594611293,-0.05466369635025231,0.9969472911165173,-1.6196891328798118,-1.81052420302892,4.135946823214808,-0.17007485394869892,1.380465661380308,-1.5192382202028112,3.0,0.5003128632415158,0.5008256620995291,0.38973692747823147,0.8467596682766094,0.01647638926182976,0.38419383835632714,-0.36758901962111357
14.5,-13.185769815863662,-5.599795881352054,-2.3862909286895273,-0.09407175774068022,-0.14190256293233355,0.2506296395279412,0.05575092684386867,-0.054693233533014786,0.9969454350987245,-1.6207998990023988,-1.809380570485713,4.136119485000287,-0.1702842738726457,1.3803006179410973,-1.5191581424568856,3.0,0.4999153875864121,0.5003982608487404,0.38982351846944047,0.8468282561209649,0.016464134600656603,0.3841355267060851,-0.3674924952012154
14.600000000000001,-13.298856662180127,-5.557510848302227,-2.00502538324923,-0.10621618475498658,-0.16341036614975074,0.24744450851249775,0.054964419812439894,-0.05395652171037303,0.9970288055855625,-1.6216699420281178,-1.8080379961157595,4.136291027069092,-0.17052584876939772,1.3802030581348348,-1.5190753627820377,3.0,0.49963796101881247,0.50011942777375,0.3899068091662279,0.8468626057788043,0.01647345368097891,0.38409531809306474,-0.36745494809070345
14.700000000000001,-13.438761658906275,-5.4806133473091005,-1.9038433639734784,-0.11593653835116502,-0.17827374048420264,0.2480132574866952,0.05428746480565346,-0.05331931747582881,0.9971007531267037,-1.6226400277658106,-1.8066692792701204,4.136454111979096,-0.17076437547741297,1.38005915691599,-1.5190070311175745,3.0,0.4991915130822405,0.49963498891066993,0.39033938998927814,0.8467961342482649,0.016483405372777843,0.3841714028198886,-0.36752814535067896
14.8,-13.364549097738522,-5.479799636673356,-1.8607696320985878,-0.11136981218707133,-0.17969470510477678,0.25012206407845683,0.0544534201005519,-0.05344774008731558,0.9970848107485583,-1.6236478427875776,-1.8056105510234817,4.136628391154002,-0.17096458143838356,1.3799313100663797,-1.5189751965627625,3.0,0.4989873591311741,0.4994088542057838,0.39052786473793094,0.846776765945876,0.016468992034792854,0.3841780922583487,-0.36756642173127935
14.9,-13.413960665763382,-5.614421584065461,-1.8318032821069277,-0.10819213656936028,-0.17773552061530482,0.24556361109204183,0.05459251499316462,-0.053556193144393235,0.9970714061011328,-1.6246576614615162,-1.8045469494085222,4.136741756762266,-0.17118151605639653,1.3797858079406464,-1.5188749472247522,3.0,0.4985584741550325,0.4990006606620211,0.39069963457330864,0.8468061211502634,0.01647737919286738,0.38414003317241074,-0.3675381940311495
15.0,-13.576265867074424,-5.406287576473562,-1.6195492793120114,-0.12010468842503472,-0.18710450844987475,0.24560661565218306,0.05449778785139694,-0.05349080957058431,0.9970800926105451,-1.6256374987506705,-1.8033419957667771,4.1369044988624415,-0.1714291196210564,1.3796198250667253,-1.518830953126645,3.0,0.4983747470373173,0.49879427341885874,0.39076434698614726,0.8468252110992499,0.016486553893423114,0.38413514277236094,-0.36749890812720537
15.100000000000001,-13.887912718425909,-5.245832565286244,-1.5949769916279384,-0.1283789336268387,-0.1998780188599373,0.24758807881222905,0.05440046822631107,-0.053417366731769535,0.9970893485218383,-1.626522787408225,-1.8020229139800885,4.137062319115989,-0.1716148457956653,1.3795156478881836,-1.5187088926561596,3.0,0.4981058816621979,0.49850728757240625,0.39093800058116257,0.8468277418944155,0.01647451098519854,0.38412825959322827,-0.36750081119322914
15.200000000000001,-14.039967332005729,-5.170044940036889,-1.853057765289551,-0.12589329037808958,-0.20261592866858397,0.2415972714219494,0.054277849455494104,-0.053265276320398104,0.997104161028641,-1.627501910906584,-1.8008021391048024,4.137228065747468,-0.17185647164143447,1.3793655208487294,-1.5186677688919117,3.0,0.497607869352098,0.49797476014873715,0.39137267285994215,0.8467741362456298,0.016472144937511517,0.38417034574912046,-0.3675804348351889
15.3,-13.866347916309772,-5.144835969806195,-1.7263115088309877,-0.11190796911761317,-0.20018595254715643,0.2451702732397713,0.05421209672353128,-0.053208168157195895,0.9971107956394119,-1.6286311439996963,-1.799699445764059,4.137430667877197,-0.1720573367709294,1.3792136915251623,-1.5185775192799122,3.0,0.49741444773333615,0.49775085117248613,0.3915360004074909,0.8467524057209889,0.016468651292081606,0.38419724768682395,-0.3676025323637029
15.4,-14.048364985911341,-5.413633262669525,-1.5729101967927657,-0.11468155591945552,-0.19066449867000834,0.24180983068169026,0.05418686488581146,-0.05321874126229688,0.9971116029468059,-1.6296520233154297,-1.7984985641257143,4.1375387532316195,-0.17224697594181154,1.3791051822862808,-1.518505512909824,3.0,0.49713658434064695,0.49745780107042203,0.3916095911259039,0.8467948719467038,0.016474118110582234,0.38416349120746984,-0.36753973975684884
15.5,-14.010633335825714,-5.315635278875985,-1.5989955707020969,-0.11601998709598858,-0.19775642514565972,0.24145251711481835,0.054186060762170626,-0.05324851859535571,0.9971100561991352,-1.6306165615626809,-1.7973008052465904,4.137706304861891,-0.17244935125420524,1.378908456056144,-1.5184162921307882,3.0,0.49670376930236493,0.49700139387609343,0.3918169696454833,0.8468066025093561,0.01645994911808852,0.384146884219426,-0.3675307053377959
15.600000000000001,-13.998061552932947,-5.217081478653899,-1.9862406097497587,-0.11608634978046765,-0.20114949008854308,0.2455863426111141,0.05420439068417545,-0.0532933384564688,0.9971066655377476,-1.6307465730527062,-1.7970142044021276,4.137742176730483,-0.17250027631189674,1.3788119704316548,-1.5183984097385161,3.0,0.4964853842329702,0.496750390645249,0.3919438142380686,0.8468125754263092,0.01645170474623353,0.38415022501942014,-0.3675138203229005
15.700000000000001,-13.753816332503574,-5.371275385132173,-2.2053913239404976,-0.10807753626288191,-0.20357268959363778,0.24232562981691497,0.05458150752036126,-0.05363351053594628,0.9970676441420415,-1.630760695229114,-1.7970015011229457,4.1377644538879395,-0.1725247461830058,1.3788342475891113,-1.5184076468097132,3.0,0.49639069183249596,0.496655074924042,0.3920230047538789,0.8468073322835039,0.016458444614845455,0.3841585999442622,-0.3675168454378924
15.8,-13.721019039863968,-5.606881781721901,-2.351849529484679,-0.10917549102724648,-0.20937934571558167,0.24366046244694586,0.055225714875719145,-0.05419313011018433,0.9970021188325225,-1.630806160985896,-1.7970354524349854,4.137771411093494,-0.1725341350269746,1.378821849822998,-1.5183856164266285,3.0,0.49634801219109104,0.496628216387047,0.39208084076533184,0.8467935403786301,0.016469053234818714,0.3841680806620372,-0.3675382375468169
15.9,-14.037204233499306,-5.609793760338445,-2.303491305116366,-0.10670414924244291,-0.20373024846977197,0.24126743963756014,0.055244482482703285,-0.05422687869669384,0.9969992433652013,-1.6308662217886736,-1.7969964632969804,4.137777061223695,-0.17251467574836538,1.3788182061941912,-1.5184076468097132,3.0,0.4963396459953879,0.4966266853305089,0.39206331322093685,0.84679562351401,0.016464476429027014,0.3841565018598461,-0.3675457455776668
16.0,-14.022554220491982,-5.727991068723735,-2.2737550801810666,-0.10924033694932994,-0.20498873010040683,0.2421330208682983,0.05525112229080937,-0.054248523733890906,0.9969976917229016,-1.6308920694460458,-1.7970338540365725,4.137787409178808,-0.17251226735893468,1.3788456916809082,-1.5184187152703585,3.0,0.4963404000361705,0.4966191349312444,0.39204481670679964,0.8468082251562516,0.01646237485482843,0.3841598096104616,-0.3675133476513637
16.1,-13.907601822930182,-5.5707754075174165,-2.3594544696716806,-0.1043328849621489,-0.20829618876486813,0.24686410377937287,0.054835197748200164,-0.05384844933889841,0.9970422656196534,-1.6308428793122607,-1.7969865568792698,4.13778860025308,-0.17250536826118348,1.3788278964524396,-1.5184254420381817,3.0,0.4963330012993345,0.4966112270093589,0.3920675334459602,0.8467993221632132,0.016465260521552567,0.38416597699840005,-0.36752728510512633
16.2,-13.87295724895317,-5.689018959784899,-2.3282780405773815,-0.10361849239943825,-0.20930123914039803,0.2463591207623026,0.05456684305814817,-0.05360280737327462,0.9970702935272536,-1.6308482434523939,-1.7970030010505291,4.137742831922853,-0.17250024392546176,1.3788203498954146,-1.5184195677386683,3.0,0.49632774682299674,0.49662126363141984,0.3920499010062891,0.8468070652685697,0.01646400878947393,0.38415258117656964,-0.3675235026514514
16.3,-13.976708623494725,-5.26810570497293,-2.29066489851321,-0.09292218684016472,-0.20597412235904317,0.24794493366763773,0.05443606639503803,-0.053501141352331985,0.9970828957601524,-1.6308763453804898,-1.7970015011229457,4.137777188653221,-0.17251961272298943,1.3788243318873918,-1.5184277655710325,3.0,0.49633416557024845,0.496618741445387,0.39202181658573837,0.8468170842814327,0.016463774919302954,0.3841428939777301,-0.36751055344154937
16.400000000000002,-13.853497671309103,-5.427240151465158,-2.3552084854706634,-0.09535549807356741,-0.21088761196121739,0.2470352509605691,0.05430524934136972,-0.053399144986123685,0.9970955172733678,-1.6308698654174805,-1.7969976031161996,4.13778829574585,-0.17250339196841608,1.3788741352914393,-1.5184095958130863,3.0,0.4963413431825573,0.49659923000317224,0.39202387042327747,0.846818030371042,0.016455681565322466,0.38415150154764244,-0.3674997385596639
16.5,-13.748185503686562,-5.404195873212827,-2.410702980193363,-0.0939321212472261,-0.21422342330080593,0.24992978158156096,0.0541696054059601,-0.053257670642788836,0.9971104428846618,-1.630894019581907,-1.7969776592650355,4.1377644538879395,-0.17253353879907096,1.3788224453788123,-1.5184201403884896,3.0,0.4963365833193841,0.49660230830859603,0.3920464078147119,0.8468100612096503,0.016456431628691426,0.38415876146478306,-0.36751047887373556
16.6,-13.866891958481292,-5.574259805489515,-2.3512613923579386,-0.09862943007158224,-0.20997309315208926,0.2447815837716399,0.05403396147055047,-0.05311619629945399,0.9971253684959558,-1.6308514085863641,-1.7969866553925256,4.13778244614292,-0.17252333581958013,1.3788644036260875,-1.5184105716111782,3.830513847978286,0.4963301236976779,0.4966141315739919,0.39203560710795626,0.8468128030250921,0.01647115002864851,0.3841544217256031,-0.36750803816812966
16.7,-13.722767121059716,-5.709818293614033,-2.4001728376174953,-0.1026077632030232,-0.21295067287549016,0.24638610683838,0.05417595646456875,-0.05322677406797101,0.9971117587124197,-1.6308573912383366,-1.7969685047854995,4.137782384552891,-0.17249381012228682,1.378837241392106,-1.5184164491938823,4.0,0.49633295919663684,0.4966063038779154,0.39206910031956105,0.8467969838440044,0.01646584765924632,0.38416561346037886,-0.36753302633664187
16.8,-14.040082574387723,-5.647957760042331,-2.470410777849448,-0.10047777965724868,-0.2058752251495499,0.24824379386772688,0.054156503799595204,-0.05319177774067249,0.997114673188302,-1.630894660949707,-1.7969819159918927,4.137785673781974,-0.172530214510313,1.3788342475891113,-1.5184051256906022,4.0,0.4963232406053351,0.49662124714895656,0.3920796522589555,0.8467932923486072,0.016471123651851268,0.38416173565621914,-0.367545348190741
16.900000000000002,-13.80117171118094,-5.632100020459949,-2.505225007741399,-0.09898349073471158,-0.2125211852864931,0.25000423122769877,0.053965115996146604,-0.053001746275354734,0.9971351856492786,-1.6308911652357134,-1.7969681708984815,4.13776745021422,-0.172517093473163,1.378842695354628,-1.5184133253922512,4.0,0.4963244269790585,0.4966211656346449,0.3920621593548371,0.8468000497777839,0.016477090275701683,0.38415586046104666,-0.3675356527819059
17.0,-13.741385293748726,-5.872144799831402,-2.470485464253612,-0.10403966269128354,-0.21174590830404838,0.2469323812038508,0.05383218979549627,-0.052915930804051395,0.9971469293680681,-1.630906105041504,-1.7969627232022627,4.137781177636788,-0.1725215680772636,1.3788342475891113,-1.5184314886676233,4.0,0.49632458735946683,0.49660096117360036,0.39207333503859326,0.846799538062394,0.016467574451059137,0.38416356645808336,-0.36752920364947944
17.1,-13.741727936130909,-5.755943120398603,-2.453243370682326,-0.10179362315361558,-0.2134807433377163,0.2476391540513437,0.05391606476576081,-0.05299977206571729,0.9971379329325445,-1.6308866261366772,-1.7969652614989222,4.13778829574585,-0.17252333581958013,1.378821849822998,-1.5184099668470077,4.0,0.4963197028627195,0.49660703717593496,0.39206583309710114,0.8468012521554541,0.016480507270141748,0.38416109936202814,-0.3675272533636542
17.2,-13.798221141862747,-5.530868888299008,-2.3441197577889437,-0.09537562663879742,-0.21571996043725505,0.24806056798500667,0.05400804561711133,-0.05308990073475372,0.9971281640845505,-1.6308635172313688,-1.796929498712057,4.137770802074051,-0.17251762755620895,1.3788400180576221,-1.5184016012649293,4.0,0.49632388963681434,0.49660678179246504,0.392017844090966,0.8468203433399133,0.016466193169981526,0.38414744289662267,-0.3674981805453551
17.3,-13.901917165565896,-5.493561265887657,-2.477754177468203,-0.09402408357086137,-0.20967958654859364,0.24732246524088833,0.05405617925006548,-0.053131967579355885,0.9971233239709799,-1.6308734464452335,-1.7969864309644852,4.137768034915692,-0.17251887536511037,1.378838231206423,-1.5184314886676233,4.0,0.4963359016028446,0.49660318446669316,0.3920524290917464,0.8468041908975201,0.016468100941215903,0.38415954745830966,-0.3675226605617847
17.400000000000002,-13.816147513270414,-5.448735579425069,-2.470786742803809,-0.09291412506979913,-0.21134895053984792,0.2510832954221482,0.05405187299621464,-0.05311655400159261,0.997124378467939,-1.6308737051227284,-1.7969483130051498,4.137786355314557,-0.17250768329198457,1.3788170233607733,-1.518414540173851,4.0,0.49633544216815373,0.496601716001269,0.3920615273769389,0.8468010047191656,0.016461821248935436,0.3841692683683366,-0.36752012201934803
17.5,-14.071524622102748,-5.511223568621241,-2.547033740832333,-0.09558757973851321,-0.2051527675280979,0.24903268482297697,0.05404756674236381,-0.05310114042382933,0.9971254329648981,-1.6308866385271026,-1.7969614045649778,4.13778829574585,-0.1725187786313924,1.3788419890243215,-1.5184076468097132,4.0,0.4963251644057005,0.49661115339052386,0.39206996192177296,0.846796244698721,0.016467531977476208,0.3841688242095135,-0.36753129779679317
17.6,-13.868589785482591,-5.693515934044877,-2.4212819255903457,-0.0983893477238051,-0.2111593060528921,0.24936455748213493,0.05429568225887566,-0.05332825678404524,0.9970995567616877,-1.6308938795977839,-1.7969611266013872,4.137760484386305,-0.1725109311269749,1.378853789153585,-1.5184076468097132,4.0,0.4963183308317602,0.4966117543211561,0.3920897357080183,0.8467871717567745,0.016469372766605418,0.38416676828662133,-0.3675542676300346
17.7,-13.849928300897796,-5.767462414631346,-2.434086916748982,-0.09802282743750386,-0.21108590973869631,0.2485628553074494,0.05485648482844835,-0.053855806706218874,0.997040320197916,-1.6308732806813206,-1.796969610447399,4.13779199561501,-0.17249206925876057,1.3788416772669299,-1.518395725880758,4.0,0.4963257321830913,0.49660933169296556,0.3920670600207018,0.8468005722224952,0.016464838256920127,0.3841591850531134,-0.3675315231706743
17.8,-13.893048828869736,-5.593091402062033,-2.5939784816231732,-0.09637601718005234,-0.20993258008303395,0.2501805696653732,0.055417287398021056,-0.05438335662839252,0.9969810836341442,-1.6308610592252573,-1.7969592081493029,4.1378111499576935,-0.17253396838915544,1.3788384745613784,-1.518412049905825,4.0,0.49632691123137906,0.4966029495135201,0.39207257369194753,0.846800415568306,0.016457546535457432,0.38416036936045556,-0.3675309728012267
17.900000000000002,-13.945882310320778,-5.403858392424815,-2.5319515416120693,-0.09123296671025061,-0.20855822666132504,0.2520297589453985,0.05553690748180012,-0.05448472623140188,0.9969689297835925,-1.6308698654174805,-1.7969579296279352,4.137777564659804,-0.17251690051666307,1.3788386530847607,-1.5184335184748912,4.0,0.49630798436423434,0.4966193568702445,0.39206769834766864,0.8468000672660578,0.016490449694596374,0.38416007142703856,-0.36753061187912284
18.0,-13.77904275375268,-5.896416271988202,-2.5380034187123384,-0.10188363797122117,-0.21384691929098926,0.25449161338953125,0.05562626486678377,-0.054556862201965026,0.9969600055489357,-1.6309237605721791,-1.7969593131073502,4.137775897979736,-0.17251141489062505,1.378828084441855,-1.518425491984429,4.0,0.4963163865853815,0.4966092907941213,0.3920571115495135,0.8468025997361001,0.016477111313954382,0.3841553145015739,-0.36753034734988466
18.1,-13.812009347636849,-5.385958288196971,-2.5895938275136587,-0.0903619810521302,-0.21340830372107203,0.24896738780097374,0.05548525569709319,-0.054428641217829976,0.9969747149839253,-1.6308752830535342,-1.7969704964174709,4.137775740629718,-0.1724988597744936,1.3788420446238525,-1.51843586366416,4.0,0.49631997928605404,0.49660979536570843,0.39204610896290715,0.8468101409091228,0.016471148494169738,0.38414939816517724,-0.36751942317391484
18.2,-13.829158889455394,-5.615034465343913,-2.488641232048274,-0.09340484676808086,-0.21190356685046158,0.2515542707397678,0.05503202465606866,-0.054028871165215334,0.9970214557551215,-1.6308836074283952,-1.7969787392403964,4.13776955551316,-0.17249417976873163,1.3788303182581532,-1.5184023326167748,4.0,0.496334654590713,0.4966029885362949,0.39205374722775277,0.8468059926392314,0.01645904770235173,0.3841577951018045,-0.3675207464096927
18.3,-13.948429339304374,-5.543728596863364,-2.479612174349254,-0.09287856607985111,-0.20976385600999906,0.2491886688185992,0.054578793615044106,-0.05362910111260068,0.9970681965263175,-1.6308813095092773,-1.7969718831925874,4.1377752254594045,-0.17251060179330102,1.3788276258954462,-1.5184187546413443,4.0,0.49633772095375916,0.4966032822367402,0.3920338971609835,0.846815055368054,0.016455707320688004,0.3841485072856471,-0.36750972238674817
