xiamingqian9007/apple-picking-rnn/training_data/grasper_20191127_111920.csv
,/manipulator_wrench.fx,/manipulator_wrench.fy,/manipulator_wrench.fz,/manipulator_wrench.tx,/manipulator_wrench.ty,/manipulator_wrench.tz,/ground_truth.x,/ground_truth.y,/ground_truth.z,/joint_states.elbow_joint,/joint_states.shoulder_lift_joint,/joint_states.shoulder_pan_joint,/joint_states.wrist_1_joint,/joint_states.wrist_2_joint,/joint_states.wrist_3_joint,/mode./mode,/manipulator_pose.x,/manipulator_pose.y,/manipulator_pose.z,/manipulator_pose.rx,/manipulator_pose.ry,/manipulator_pose.rz,/manipulator_pose.rw
0.2,-10.73149600701982,-4.554095117970244,-9.207066663528089,-0.12695685019089725,0.08501252556961941,0.3889934164408417,-0.3386868833773281,0.3614290489363173,0.8687116870078048,-1.861070719537529,-1.8007167467124852,4.179202289961772,0.48783032476391597,1.3333189190665493,-1.5557099321193846,1.0,0.45471498086941275,0.464569108299798,0.3964574002529174,0.7181622070787659,0.002548046830947793,0.4866192540530952,-0.49743165698004405
0.30000000000000004,-10.643955467515063,-4.748018817240187,-8.714842876930936,-0.12376132288120008,0.07237527629353624,0.39390348027822525,-0.33870853558074215,0.36145220773024433,0.8686936956509411,-1.8566911050193882,-1.8046167211085407,4.178337574005127,0.48708896597341766,1.334049351633315,-1.5557457787604971,1.0,0.45473558731288377,0.4645548146778278,0.3964745268262382,0.7181471672458978,0.0025363353088783762,0.4866325545276593,-0.4974404185968187
0.4,-10.844327714079773,-4.747383799278944,-8.619035051150508,-0.13459221159456036,0.07941033416303628,0.39748229819942676,-0.33889829807764593,0.36164399128259256,0.8685398821102136,-1.8511021420148208,-1.8092445457378243,4.177294603162525,0.4861758508725311,1.3351200645990744,-1.5557817798743134,1.0,0.45557954708676757,0.46546846171372186,0.39634436950398977,0.7181695045988042,0.00253792666277237,0.48661302914235854,-0.4974272624831301
0.5,-10.675371434402335,-4.5348950200292,-8.76743910073996,-0.12739464076821336,0.07785738934906229,0.3972834010640007,-0.3390665314557022,0.3618615213479173,0.8683835507426494,-1.8458826303823792,-1.813561478547301,4.176380178658403,0.4853779300715775,1.3362526182802568,-1.5558210798828418,1.0,0.4575138449970261,0.4675842081748446,0.39606127981160344,0.7182226954425207,0.0025912919928866027,0.48656704242325455,-0.4973951730611935
0.6000000000000001,-10.7186120785474,-4.631833950071743,-8.61463687327684,-0.12429724324603178,0.07569413861459862,0.3993583010223461,-0.33922814436041854,0.3620869687880296,0.8682264451118389,-1.8406876057198618,-1.817878686489547,4.1755189407812745,0.4845233234116331,1.337046943331983,-1.5558534060339684,1.0,0.45819957972384695,0.46833399057756975,0.3959960832904473,0.7182215880992318,0.002662077163245598,0.4865305582210339,-0.4974320854654669
0.7000000000000001,-11.155028994626628,-4.715931060253842,-8.613422863401421,-0.1340141412662781,0.06978832724198482,0.3963467906252632,-0.3393695470154338,0.3622364549242588,0.86810889725836,-1.8355202779137239,-1.8220585952845205,4.174495460155262,0.48358647405590816,1.3378398509956988,-1.5558660666095179,1.0,0.45951600913666174,0.4697268767844246,0.39587880984705276,0.7181742405999071,0.0025977101299474686,0.4865862997382149,-0.4974462633771608
0.8,-11.103749476233487,-4.63614138199329,-8.830560856038671,-0.13945112596972453,0.07978686231775135,0.396763863319589,-0.3394527645886914,0.3621672493202961,0.8681052358012509,-1.8305830920602204,-1.8260897197506283,4.1736738371869215,0.48273889426204375,1.3389313748269025,-1.5559023062335413,1.0,0.46137507267943495,0.47156937916247793,0.3957354538689281,0.7181612918751716,0.0025099569130331654,0.48663524856641566,-0.4974175246422088
0.9,-10.919644137208778,-4.926949747017994,-8.725872264002838,-0.13741335643724914,0.07627972549487058,0.39701920372571,-0.3396777873274061,0.36246540733239563,0.8678926427457604,-1.8258923182694127,-1.82997050138006,4.172802890007534,0.48188352790933914,1.3397301372040515,-1.555909268160678,1.0,0.46213354244690097,0.4723669069404079,0.39565159711560005,0.7181581974707842,0.002548687558625565,0.48662566448097083,-0.4974311713852442
1.0,-10.747004706051289,-4.81945027184835,-8.85330139904866,-0.1311983497258444,0.07831687871651091,0.39363334669215366,-0.3395579340675911,0.36243795075578467,0.8679505400748663,-1.8212446618532714,-1.8337899881208257,4.1719291620705485,0.4811225697472004,1.3404412743055216,-1.555939452185588,1.0,0.463661202182495,0.4740616034682344,0.3954494979575752,0.7181766350970837,0.002602825162083355,0.4865755079689819,-0.4974533356472075
1.1,-10.819019077187203,-4.823178105458281,-8.732187063645036,-0.13317208321351848,0.07557235759722249,0.3888242108523915,-0.33861785301276115,0.3613974780375333,0.8687517914811427,-1.8167678258682922,-1.8374650625446678,4.17121112684284,0.48025851169586714,1.3411223211975245,-1.5559981505023401,1.0,0.46447239017199005,0.4748447390150533,0.3954386360332791,0.7181158211766191,0.0025374051840833436,0.4866426257468315,-0.49747581223310855
1.2000000000000002,-10.990190006741088,-4.955265495096115,-8.888449662898836,-0.1335739777965188,0.07242840470911452,0.39388330906652297,-0.3388577473551383,0.36155422353808925,0.8685928262679513,-1.8123608333634411,-1.8412645859220491,4.1705708503723145,0.47934453069653316,1.3419528713660567,-1.5559993505286034,1.0,0.4655318479381167,0.47594541335035173,0.3952841370439941,0.7181369459215164,0.002511411324538239,0.48665668417192975,-0.4974316952773098
1.3,-10.42319237864505,-5.17324577231012,-8.930962479693802,-0.1275240130891658,0.08262666051738525,0.398030982682224,-0.3380930776112117,0.36090698144431804,0.869159973569753,-1.8080608299512904,-1.8444711227430435,4.169868245205295,0.4786582643446804,1.3427802367300927,-1.5560219923602503,1.0,0.4671469062968446,0.47777798434734003,0.39491849344472557,0.7182640346189987,0.002601668655951833,0.48653279893610546,-0.49736892087508033
1.4000000000000001,-10.735562036204477,-5.059363635583159,-8.714745796452027,-0.13954680253609567,0.07808351315702121,0.39642460078128156,-0.33845756297341817,0.3614736218804733,0.8687825280263842,-1.8039980438813443,-1.8479367191129392,4.169183261116322,0.477867787786442,1.3433599254357258,-1.5560339132892054,1.0,0.4675998628077052,0.47832519232307597,0.39501583221805747,0.7181684015631038,0.002633173171014891,0.4865348453865665,-0.49750483175544974
1.5,-10.762993798878489,-5.290415886896038,-8.649650967901835,-0.13035765696998158,0.07698269058266058,0.39198159790586035,-0.3384089563603254,0.36135270550653487,0.8688518488012226,-1.8000413628404894,-1.8508964157110017,4.168491316587629,0.4770263125433703,1.3439790792270114,-1.5560650718145093,1.0,0.46866453290674603,0.4794078726511842,0.3948013689598577,0.7182098665323295,0.002607057025189305,0.4865463507900927,-0.497433854298363
1.6,-11.021800403949854,-4.842333272410447,-8.687092092022223,-0.13447883185549409,0.07378021279230332,0.3908403488669662,-0.33858564401022817,0.3613982379383117,0.8687640744119453,-1.7961735654136721,-1.8540919865216314,4.167840726707118,0.47631777137475995,1.3445539194727463,-1.556075471625235,1.0,0.4699268232762832,0.48066962987176864,0.3948550283925255,0.7181082488435792,0.002541084646632842,0.48663421667632195,-0.4974949497145165
1.7000000000000002,-10.837157727911334,-4.651427021304048,-8.620763237782336,-0.13577820005436206,0.06736151386861663,0.3906240728664472,-0.3388433439964889,0.36159584764991437,0.8685813416428623,-1.792219562230546,-1.8570810818421608,4.167193630294005,0.4754764363650005,1.3452139666696006,-1.5560820738421839,1.0,0.4708162189209757,0.48153689829657653,0.3946775396743199,0.7181672290812733,0.0025303693061371466,0.48664265760907893,-0.4974016004196943
1.8,-10.950187492469352,-5.022735827719811,-8.88614807527679,-0.13659603248665178,0.07326697745008283,0.38952141651302086,-0.3390500548027865,0.3617633298717525,0.8684309420731481,-1.7886574461985925,-1.860023142827947,4.166505983916207,0.47480667102139945,1.3459263359633844,-1.5561659971820276,1.0,0.47202102460355144,0.4827798665306856,0.3946316208365161,0.7181158424263077,0.0025171600816406505,0.48665514739752885,-0.4974636351261946
1.9000000000000001,-10.731257769259205,-4.922328203208841,-8.669908992799053,-0.13617207787211597,0.06781163704433218,0.39143598291512316,-0.3391187427420642,0.3618479254437735,0.8683689046310865,-1.7852492116435343,-1.8628243928800394,4.166048552919492,0.4741003423433118,1.3464649505359614,-1.5561608599049817,1.0,0.4725151108811191,0.48325172611067496,0.3944649330682027,0.71818779621645,0.002519265954020139,0.4866149879926597,-0.49739903108642664
2.0,-10.974623859864783,-5.0425306775845575,-8.834283429143722,-0.13808712113544527,0.07712870898182748,0.3897915023572428,-0.3391180218723637,0.36189083905563646,0.8683513026523044,-1.7816575364155134,-1.8656840281463343,4.165483552874955,0.4733725409159559,1.3469457378135339,-1.5561612694160663,1.0,0.4736777566544913,0.4845622421523261,0.3943718660072369,0.7181481029478625,0.002546251617498734,0.4866126532004421,-0.4974584852832578
2.1,-10.912775749048668,-4.778838243645036,-8.68009196440559,-0.13554843523400273,0.07899038698845069,0.3901700442402145,-0.339087575698701,0.36189161366853884,0.8683628567010961,-1.7784508495807687,-1.8682250014204098,4.165045261383057,0.4726280564111411,1.3474106788635254,-1.5561659971820276,1.0,0.47423609035478975,0.48515749739769587,0.3942930779909952,0.7181571158452196,0.0025548813376282857,0.4866079097281769,-0.4974500695870903
2.2,-10.937081476230698,-4.795880869588321,-8.574944710287493,-0.13665412924894732,0.06972545010943274,0.38456381654799476,-0.33889413507503857,0.36166132511156185,0.8685342836542876,-1.7751400005105633,-1.870926718732145,4.164602756500244,0.4719434415147363,1.3478583400104884,-1.556213680897848,1.0,0.47501877640591406,0.48603502441820456,0.3941343789387194,0.7182096890225896,0.0025733021398870516,0.486582554340176,-0.49739887265851473
2.3000000000000003,-10.902971993180842,-5.083295874889949,-8.726856489760916,-0.14159496972871086,0.07244865573231729,0.39294396056381925,-0.3393268479137488,0.3620927292948105,0.8681850119507646,-1.7719242885681266,-1.8734317180338245,4.1640710520435835,0.4713295407836927,1.348327916651248,-1.556216337215751,1.0,0.47582426469443834,0.4869201824713287,0.3940437513746475,0.7182128109465626,0.002569906474248555,0.48659212092144954,-0.497385023528168
2.4000000000000004,-10.920356494013618,-5.0963320004557335,-8.762138452563429,-0.12957925296709247,0.07675702017280972,0.38787251979549764,-0.33996466304569817,0.3627532489860632,0.867660092907038,-1.7688500992606737,-1.8756434155672506,4.1636070295167436,0.4707062395201784,1.3489138513650074,-1.556226169661134,1.0,0.47689417261012573,0.4880760178325,0.39398366543778524,0.7181704103565522,0.0025657475744698343,0.48660369352128396,-0.49743494456976983
2.5,-11.091511926705774,-4.76691974514597,-8.701567168098135,-0.13701326166049616,0.07708024242952832,0.3847562375152779,-0.3395978765341171,0.3624402468770971,0.867934354672883,-1.7659731933130807,-1.8782270790576645,4.163139576456101,0.4700192595879366,1.349428592806347,-1.5562892039009262,1.0,0.47727832971665474,0.4884473757557447,0.39403546825128866,0.7181198175012107,0.0025614747916970263,0.48662616161033767,-0.4974860253266504
2.6,-10.837703115081526,-4.902370075959732,-8.727140224792933,-0.13334079172830712,0.07347443089720421,0.3941400776570995,-0.339261463512997,0.36214704674094755,0.8681884411396599,-1.763001545468617,-1.880104031382814,4.162726991415443,0.469375216818576,1.3498305712936214,-1.5562798489672685,1.0,0.47827942881514945,0.48953594959771735,0.3937441846025385,0.7182241454818175,0.0026131903837651985,0.48654925112812525,-0.49741036811629896
2.7,-10.934982116630712,-4.628706975557703,-8.795700452181126,-0.1318262889014847,0.07790022429468998,0.39335234710642203,-0.33915751428129615,0.3620054011864105,0.8682881157689151,-1.7603257532807397,-1.8824076759597956,4.1622624718642225,0.46874406026499166,1.3501933746124883,-1.5563131496615694,1.0,0.4786821122827711,0.48990070746311326,0.3938094144087193,0.7181785263913153,0.0025701226291107567,0.48658847233794766,-0.49743809392515614
2.8000000000000003,-11.199488676096998,-4.577027524283908,-8.78431656855676,-0.12916765524637372,0.08091431654520198,0.3931536042008072,-0.33911510285565793,0.361873519425717,0.8683596563634146,-1.7575429401466278,-1.8845714441417334,4.161777496410619,0.4681466518623763,1.3505932460177736,-1.5563056279748384,1.0,0.4793430498503064,0.49062157551596436,0.39379612345914183,0.7181455270327186,0.002568152595121396,0.4866112150923525,-0.4974634980996007
2.9000000000000004,-11.356689980338352,-4.841664526639162,-8.784141660890699,-0.13579613219352488,0.08123780684828846,0.38996620928373676,-0.3391363830389498,0.36178626761594673,0.8683876932498658,-1.7549517114773492,-1.8865014985543436,4.161374928563083,0.46761946460019255,1.3509617553714857,-1.5563252451187133,1.0,0.4803451483477593,0.49156443046606646,0.39367615136203976,0.7181491855937712,0.0025174149222645503,0.4866504301326551,-0.4974201128873001
3.0,-11.049733176118625,-4.745066358542791,-8.585036467121567,-0.13487574527552876,0.07284874107353119,0.38516463518616245,-0.33938168162952875,0.3620662280120638,0.8681751192471474,-1.752357409109147,-1.8886519944610454,4.161083140231481,0.46709508900220076,1.351312439512555,-1.5563136188845241,1.0,0.48071317930271606,0.4919484942077927,0.39371956846583767,0.7180899479902408,0.002501421250774531,0.48667069086891646,-0.49748588737397487
3.1,-10.852202430661185,-4.935507622503093,-8.610302382644212,-0.13566548194063027,0.07536115662134632,0.39096117811645437,-0.33938293901297817,0.3620621583013272,0.868176327816291,-1.7498244665925826,-1.8904864063105207,4.160671710968018,0.4664734166944058,1.3516593112668833,-1.5563424136067947,1.0,0.4815053899171777,0.4928341549685449,0.3935060605911847,0.7181645232588895,0.0025329798334121157,0.48663959961717224,-0.4974084856834814
3.2,-10.90161143167653,-4.752780078485805,-8.798325829885826,-0.1351628133007867,0.08354489549701058,0.38939767945249604,-0.3392125295351988,0.36185829218115817,0.8683279182964594,-1.7474710470815749,-1.8923299566624345,4.160355359563458,0.46593300878491206,1.3520280539890437,-1.5563377927932247,1.0,0.48197842266101615,0.4932894851564504,0.39351538347292514,0.7181332101793249,0.0024872391741771684,0.48666306812622084,-0.49743096425614824
3.3000000000000003,-10.925915197925375,-4.819683376788472,-8.742573993399217,-0.13304523783696035,0.07557158817601675,0.3899193572784591,-0.33943829290270994,0.3621238357480268,0.8681287453472916,-1.745140672226628,-1.8941173667088793,4.160044010889311,0.46536194024789657,1.3523911885162676,-1.5563424307434335,1.0,0.4824730513472655,0.4938552569535501,0.3934116180658968,0.7181674985875522,0.0025220125492788387,0.4866341687169935,-0.4974095588771088
3.4000000000000004,-10.944620732064294,-4.7379448894616525,-8.717518001526065,-0.13262780836516944,0.07153283610759543,0.3915835874232188,-0.33992167713570626,0.36269412336300594,0.867701691797332,-1.7428558829439718,-1.8959474451478278,4.159712795310985,0.46486298878064697,1.352759838104248,-1.5563659411500006,1.0,0.48326603434154075,0.494747282210073,0.39332337283782925,0.7181820364054781,0.0025518902841139145,0.48659564265877037,-0.49742610605592175
3.5,-10.741697249285828,-4.997785073782847,-8.78812053477397,-0.135418365491349,0.0749615849503231,0.3925706388195094,-0.3399605156766156,0.36273031000583045,0.8676713480452287,-1.7406972772761669,-1.8976795747989272,4.159417069599258,0.4644013840338419,1.3530789249686126,-1.556391702475291,1.0,0.4835549309149227,0.49503991426203636,0.39326805513967084,0.7181865843562902,0.002560620266783694,0.4865987460430113,-0.4974164589394521
3.6,-10.816293772298145,-4.865756698675849,-8.810375284676441,-0.13203230112406877,0.07339852113078255,0.39026076762445233,-0.33939061983612423,0.3621958401657927,0.8681172068684161,-1.7386406636521043,-1.8991825265499782,4.159163045281548,0.46389732332369976,1.3533800153357025,-1.556374133176457,1.0,0.484052595467349,0.4956079515520929,0.3931966883227772,0.7181833017407384,0.0025746881372486477,0.4865929417745365,-0.49742680375807014
3.7,-10.713659733449386,-4.978976651056022,-8.826291233741564,-0.13646526187786487,0.07370972041688274,0.390013091530985,-0.33916758358765065,0.3620227329427167,0.8682768786130995,-1.7363888093403408,-1.9007567975235609,4.158854457582747,0.4634090827311837,1.3536423129694803,-1.5563983675926742,1.0,0.484789596282632,0.4964157372659526,0.39320210548772033,0.7181358808811331,0.002576250279281377,0.48661037937566776,-0.49747819872779003
3.8000000000000003,-10.92355310902276,-4.930995431605487,-8.756593975368489,-0.14130633317429658,0.07651139793942228,0.38680224954648285,-0.3389780284979194,0.36183884004320643,0.8684274134355152,-1.7346169791744397,-1.9025952583932602,4.158562183380127,0.46294240821587246,1.3539010001443417,-1.556408174378543,1.0,0.48508460930820974,0.4967296527720391,0.3932426381648738,0.7181023066033927,0.0025557952393267295,0.4866304497451249,-0.49750713617237596
3.9000000000000004,-11.00165116169371,-5.116576852320599,-8.963484174961936,-0.1416100162478619,0.0776064878409218,0.39123767660901376,-0.33848887819011064,0.3613120025565839,0.8688376469041704,-1.7325677531956931,-1.903788166366462,4.158285617828369,0.4624995900879721,1.3541746139526367,-1.5564060140645144,1.0,0.485713415046239,0.49743815405357195,0.3928481232713227,0.718280354811522,0.0026000396604429947,0.48652272239869787,-0.4973552174003582
4.0,-10.757780277524958,-4.862485317014863,-8.896449878598716,-0.13647007412624027,0.07465896833502216,0.39047406822071495,-0.34054042017622344,0.3633399403806428,0.8671748870321471,-1.7305979152427688,-1.9050824048834036,4.158029733382095,0.4620261949645233,1.3544334317270275,-1.5564584031625197,1.0,0.48599017772627245,0.4976926174807111,0.3928679978318716,0.7182535988884157,0.0025784897512273084,0.48655091780320264,-0.4973663875447386
4.1000000000000005,-11.085763002752806,-4.597410550777274,-8.81458093746729,-0.13213015164846703,0.07244923171700966,0.38757506335378006,-0.34463395024986704,0.36743596723171834,0.8638388689095349,-1.7290555002648904,-1.9065494919185477,4.157819793024839,0.46158477583929186,1.354698548704787,-1.5564364171426524,1.0,0.48645675269943794,0.4981343185930491,0.39310820280289094,0.71809968405377,0.002529773036071193,0.4866423298708662,-0.4974994339575844
4.2,-10.83291600941465,-5.029435483231994,-8.576572468127289,-0.1371875033094826,0.06667629211277001,0.3937679745189587,-0.34156052664963565,0.36433109350812265,0.8663564853203435,-1.727120930268331,-1.9081707066509557,4.157500560373037,0.4611692220815323,1.3549180030822754,-1.5564284182649588,1.0,0.48701596756405746,0.49877580981699976,0.39288507807824835,0.718205700588964,0.0025763180120091326,0.4865846224881984,-0.4974025928611886
4.3,-10.920841154522128,-4.858575995991146,-8.721920995224306,-0.13115473669239636,0.07938381232212412,0.3937660698473494,-0.338493760780681,0.361232959830509,0.8688686450530939,-1.7253187864154733,-1.9092427134418055,4.157255391079373,0.4608109288394366,1.3551408152787952,-1.556441609059469,1.0,0.48727649220371294,0.4990543683831378,0.39277220563079185,0.7182493100514359,0.002573693821398417,0.4865619990069079,-0.49736176555215034
4.4,-10.981094832091117,-5.048303663923509,-8.747176152080783,-0.13812434164170936,0.076008321252676,0.3872037588127652,-0.3386515971809912,0.3613992966857903,0.8687379200375456,-1.7238657407887008,-1.9103340266942068,4.157045734252965,0.46039762905715664,1.3553741022809331,-1.5564474581030343,1.0,0.48783834893899247,0.49963042100583255,0.39288489014512296,0.7181411127217348,0.0025597416448629082,0.4866319121460444,-0.49744966782839917
4.5,-10.916273231023505,-4.518461635667248,-8.851751721962795,-0.12834184198121076,0.07736029244643007,0.3871240171990821,-0.3388094335813014,0.3615656335410715,0.8686071950219972,-1.7222480106032658,-1.9115888414939202,4.156823506660333,0.46001910994441564,1.355637550354004,-1.5564835399035544,1.0,0.48807773044654823,0.49985196361666434,0.39289293184496477,0.718128131640415,0.0025437370224071056,0.48664046757050095,-0.49746012028239217
4.6000000000000005,-10.884338881300174,-4.813626126447843,-8.9063983534856,-0.13146993532340073,0.07382514133584099,0.38995364243629543,-0.33824228576267207,0.3609943178203944,0.8690652298202823,-1.7205690746960145,-1.912912984887594,4.156571329182099,0.4596470555761568,1.355860214081383,-1.5564719177502802,1.0,0.488407389916583,0.5001918104066808,0.3928162475956044,0.7181536279013712,0.0025400905209136556,0.4866246937062453,-0.4974387622085231
4.7,-10.840776944558373,-4.788981655145207,-8.843393631435358,-0.13532772655539313,0.06962968875996736,0.38841735041021797,-0.33766929910146204,0.36041706122934,0.8695280063436712,-1.7191122883579026,-1.9140583563749325,4.1563801765441895,0.45924021490294303,1.356075814254345,-1.5564960190474566,1.0,0.4888263262072675,0.5006394108283119,0.3927751200462604,0.7181508345840207,0.002540365175262595,0.48662630340137547,-0.49744121880777337
4.800000000000001,-10.924615609222922,-4.910978840918739,-8.762841026915035,-0.136717648650451,0.07590986659767138,0.3884781317601975,-0.33763517883532335,0.36039391534081155,0.8695508670509606,-1.7176544506251183,-1.9151914240368233,4.156163470059696,0.4588813698353823,1.3562914651519224,-1.5564767838018414,1.0,0.48935673324553214,0.5012046369104695,0.39268090934870375,0.7181797046034092,0.002552243217562826,0.48659124774487766,-0.4974337700321534
4.9,-10.889134425162363,-4.745610395421174,-8.784505557281346,-0.13059353392233167,0.0747308922646932,0.39004173107248735,-0.33761132186306525,0.36038132309050297,0.8695653490852717,-1.7161440913905468,-1.916140424454933,4.155972957611084,0.4585038858601074,1.356480604909834,-1.5564967100290736,1.0,0.4895559767584225,0.501390152412456,0.39266285079932833,0.7181829678559394,0.002555679115995949,0.4866014898237598,-0.4974190218389205
5.0,-11.069056358723353,-4.855335645105497,-8.87515682284576,-0.13666302125265506,0.074813362359993,0.39115647617849086,-0.33784554599360067,0.36061032708290147,0.869379224696123,-1.7146613976612197,-1.9173320945662407,4.155744737915281,0.4581856775612374,1.356680739530432,-1.5564947263811189,1.0,0.4898839642700886,0.5017431194382008,0.3927216480180927,0.7181334075614353,0.0025239561154584353,0.486625573696933,-0.4974671744083823
5.1000000000000005,-11.132278904864132,-4.6451420261570595,-8.88533866337511,-0.13293889314638807,0.0757684366460516,0.38839531722342696,-0.3383728254888674,0.36111366760849783,0.8689653083921148,-1.7132514698229433,-1.9185366836876612,4.15554671373494,0.4578390076745022,1.3568786981549164,-1.556518678713427,1.0,0.49039410385544396,0.502290253850141,0.3926216957740657,0.7181524806975934,0.002535377536450837,0.4866258256312892,-0.49743933515284766
5.2,-11.1261879245905,-4.785473890675074,-8.82104547781535,-0.12932364449669653,0.08197513591315707,0.3917695971073313,-0.3387055700234939,0.36144366998174793,0.8686982972888961,-1.7116852538530216,-1.9196450356502142,4.155377057541249,0.45748618783828515,1.3570687299550965,-1.5565136114703577,1.0,0.4905693490998161,0.5024849961935827,0.39252933017625785,0.7181987454392612,0.0025477456353797607,0.4865920733607909,-0.49740549372126525
5.300000000000001,-10.885529815784205,-4.804272778165506,-8.835150393560621,-0.13711382139726788,0.07300301094582633,0.3928669966428912,-0.33902988563472714,0.3617661618591856,0.8684376513792624,-1.7103011803023624,-1.920694967309469,4.155159784169641,0.4571390684490328,1.3572564125061035,-1.5565403602621453,1.0,0.4910666451150306,0.5030021396270832,0.39255923801172266,0.7181331048654963,0.002524749869906504,0.48663852233845306,-0.4974549405831481
5.4,-10.792230415504356,-4.8772545550577115,-8.81677350265532,-0.138661325003812,0.07315232886506125,0.3910673137472149,-0.33889273471114917,0.3616070704448339,0.8685574024269029,-1.7088776793768397,-1.9217964231973348,4.154989719390869,0.4567850929362785,1.3574154331378665,-1.5565299889601196,1.0,0.4912538661706203,0.5032044381584463,0.39254496875724193,0.7181320455889401,0.0025326548995885574,0.486640989064374,-0.49745401648780785
5.5,-10.925310420464989,-4.877835208469915,-8.766563900763643,-0.13611247140845778,0.07453546774580584,0.3891361242453427,-0.33873194463774525,0.3614233093768248,0.8686966397427514,-1.7073006820896943,-1.9229583891799473,4.154763450884437,0.456372589073762,1.357616901397705,-1.5565255323993128,1.0,0.4916000436800779,0.5035345990495522,0.3924646263531508,0.7181599307748923,0.002526147820779538,0.4866308059471734,-0.4974237540666848
5.6000000000000005,-10.875861806060595,-4.863907225276891,-8.805301917112292,-0.13274573459313765,0.0747272507088126,0.3874501684720996,-0.3385920401310246,0.3613007393346302,0.8688021419778087,-1.7057397846269124,-1.9240081780467855,4.1545651731072715,0.45601803858005774,1.3578188599027585,-1.5565255323993128,1.0,0.49208800335746566,0.5040656679861537,0.3924041023044513,0.7181692996323839,0.0025238086767221815,0.48663048179667534,-0.49741055642359516
5.7,-11.1138023317743,-4.710347535056076,-8.800344532768735,-0.13469323579762135,0.08097770178386447,0.38875612082976857,-0.33845346424802936,0.36118206192555924,0.8689054981744367,-1.7043843855681242,-1.9251178587143627,4.154397661421034,0.45564957395237443,1.3579984064455386,-1.5565376504209598,1.0,0.4922922997395346,0.5043191667589663,0.39244400879328367,0.7181314758025592,0.00252546704592018,0.48664280311870545,-0.4974531009558664
5.800000000000001,-11.109015574260628,-4.7477933218602955,-8.848758958439884,-0.13839371148583027,0.0808726912597246,0.3914955111794686,-0.3387051279191065,0.3614346672722679,0.8687023111452924,-1.7030441995498133,-1.9262496818998474,4.154203239874644,0.45527748028887605,1.3581760948763986,-1.5565473986546507,1.0,0.4925956055220547,0.5046411286557859,0.39240470980700676,0.718138164875324,0.002526413075584195,0.48663643667225753,-0.49744966769453314
5.9,-10.98651745776322,-4.92455266423497,-8.979806188206606,-0.1365972968124572,0.0786972891384703,0.39146261297343116,-0.33871026956338746,0.3614470639029705,0.8686950780393063,-1.701285719184183,-1.9274545865951875,4.154023565189852,0.45490909684048186,1.358384609222412,-1.5565634530878745,1.0,0.4929225054672612,0.5049954819122517,0.39230650494512104,0.7181780382438264,0.0025468377269632016,0.4866123105505032,-0.4974155990945017
6.0,-11.046336368952197,-4.634014744859974,-8.944228263159989,-0.12749279675645128,0.07801381153975576,0.3855413409980298,-0.33833730005981166,0.36109195009509976,0.8689880221965696,-1.6997990436119745,-1.9285606571132892,4.15382719039917,0.4545265699139764,1.35856531664947,-1.5565735763685626,1.0,0.49346676712757775,0.5056084271318664,0.3922418381199726,0.7181758294504741,0.002544835460197646,0.48660376410395534,-0.49742715905493745
6.1000000000000005,-11.068386274090093,-4.833627197623902,-8.605256000788277,-0.13967657098182734,0.07430856216858665,0.38385013993690326,-0.3382566047176611,0.36102521272809485,0.8690472537012595,-1.6985352913606186,-1.92960768162512,4.153671741485596,0.4542096261494607,1.3587803840637207,-1.556568939836255,1.0,0.493781399023821,0.5059591918023634,0.39227103186612733,0.7181248573744853,0.002560141044738062,0.4866449918978599,-0.49746033687062746
6.2,-10.960916547410445,-4.749112354382041,-8.65879074564435,-0.13601774803177794,0.07484219465430506,0.3840480520839255,-0.3385889647325887,0.3613660222792776,0.8687761916805429,-1.6970161042975251,-1.9306237943738547,4.15344698019987,0.45382232086577806,1.358988308678663,-1.5565455359459917,1.0,0.4939718774996731,0.5061421163859923,0.39219291234338427,0.7181657230192894,0.002549842219020175,0.4866080565514438,-0.49743752560906224
6.300000000000001,-10.874379009693858,-4.827496048266185,-8.63565103742207,-0.14065922978689,0.07505166978086329,0.38645389574446604,-0.33850271780388025,0.36126908577172145,0.8688501200251147,-1.6953679716604406,-1.9317885837950648,4.15331076525979,0.45345911544591433,1.3591883835392544,-1.5565730622201215,1.0,0.49425738238453126,0.5064406617732994,0.3921850081115162,0.7181548116795033,0.0025540628552230184,0.4866281227871238,-0.49743362706715827
6.4,-10.820415054841572,-4.830550663797595,-8.706874580040786,-0.13766318329056013,0.07074551302683219,0.3898512355591654,-0.3385314612396214,0.3612884907401707,0.8688307989414454,-1.6939371410016768,-1.9331686684739346,4.1531028560875765,0.4530495249097705,1.359363654893519,-1.556599083264706,1.0,0.49483877734998577,0.5070814121282587,0.3921430906261826,0.7181265642838293,0.002554300816323836,0.4866297371355528,-0.4974728255418845
6.5,-11.128573322238951,-4.564932019248357,-8.691001249256361,-0.13272283763519543,0.07897652283498607,0.3879722640225173,-0.3387980664558054,0.36155075756340477,0.8686177306896211,-1.692656979032972,-1.9341799737317371,4.152898793251058,0.4526797968098144,1.3595885714585914,-1.556600975846876,1.0,0.49503646119207567,0.5072767779914017,0.39204525624110026,0.7181737754513453,0.002542323710678087,0.486612593639886,-0.49742149989236945
6.6000000000000005,-11.058538331882284,-4.696494227153488,-8.70182052256028,-0.13283415595322695,0.07819254331722847,0.3909023132612298,-0.3388575362391524,0.36162262106918164,0.8685646493394533,-1.6909500443370997,-1.9350812718699575,4.152685292902774,0.45224238259709737,1.359800150554716,-1.5565768828843658,1.0,0.4954684110372587,0.5077805640398624,0.39186960238446567,0.7182626333146561,0.0025974684892473543,0.48654847863334727,-0.49735562797752497
6.7,-10.991894014490072,-4.833481163129062,-8.691273561831775,-0.1343209381552445,0.07188507360487344,0.3910338664382647,-0.3385947903850502,0.36139829707354165,0.8687604403371723,-1.689386926772542,-1.9361232965016577,4.152496987265812,0.45186938753950073,1.360003799901752,-1.5565844876689006,1.0,0.4956628629121261,0.5079588626870042,0.3919718871663931,0.7181996902890009,0.0025718129729783885,0.48658053656667316,-0.49741529136256335
6.800000000000001,-10.99632836044793,-4.697009086053644,-8.744524079701389,-0.13157917590755605,0.07819612223769072,0.3931677243439425,-0.33833646941892803,0.3611632063671916,0.8689588413240331,-1.6879950177226353,-1.9373244606564546,4.1522774223707,0.4514418802828097,1.360195184394261,-1.5565766257217017,1.0,0.4959502548772235,0.5082594249736544,0.3920775168127773,0.7181283480236897,0.002547460989393909,0.4866192472061998,-0.4974805468113755
6.9,-10.822407587588204,-4.793303319544992,-8.715347440029074,-0.13655694626123902,0.07508817959270955,0.39018423496149474,-0.33808537870907246,0.36091052288155945,0.8691615070268448,-1.686517217738212,-1.9386223783485483,4.152105666430141,0.45108620702709956,1.360388037721907,-1.5565980977986578,1.0,0.49635227858718556,0.5086783433646924,0.39203095813114275,0.7181335580127262,0.0025463163249072563,0.4866163700168029,-0.4974758462084625
7.0,-11.078181194292812,-4.678869248677838,-8.717528985243714,-0.1335697313761481,0.07597108130516689,0.38806374843213914,-0.33807281265203,0.360882220459314,0.8691780624205424,-1.6849995321311404,-1.9397126636900843,4.1519053644496005,0.45071365153565557,1.360567569732666,-1.5566361155138924,1.0,0.49687381646556483,0.5092603949045699,0.3918183319534727,0.7182068519054913,0.0025644918690419034,0.4865710235525514,-0.4974142944231497
7.1000000000000005,-10.839365187554902,-4.795087382141708,-8.523636810074846,-0.14014701809245017,0.06891259266513915,0.39217281440958646,-0.33846551302538136,0.36123515373549325,0.8688784062204088,-1.683465678380836,-1.940660139123434,4.151705265045166,0.4503572577729026,1.360722046833156,-1.556610904389399,1.0,0.4971942887890064,0.5095677643137789,0.39180353322201417,0.7181936624580669,0.0025607236554286636,0.4865952654523753,-0.49740964359244333
7.2,-10.899466511534328,-5.012372878147911,-8.732821268812488,-0.14075575677618768,0.07559757119402268,0.39063493274727784,-0.3388582133987327,0.3615880870116725,0.8685787500202752,-1.6819732567760284,-1.9415731642753993,4.1514806535988376,0.4499599176594238,1.3609752655029297,-1.5566332975970667,1.0,0.4973821674622594,0.5097286370991649,0.3918940265773153,0.7181340357522462,0.0025328043160181184,0.4866428607095854,-0.4974493117061071
7.300000000000001,-11.057615595522533,-5.099058800853292,-8.749130481245805,-0.1483257287356839,0.0749685244312604,0.38712532486496243,-0.33831384205985404,0.36106034889631744,0.8690100557679192,-1.6804518876453933,-1.9428052631018315,4.151304149387566,0.4495155585359921,1.361128944574661,-1.5566223840507403,1.0,0.4976781278889618,0.510032611437407,0.3919383614550173,0.7181054206262221,0.0025281395973255592,0.4866598557319935,-0.4974740176092901
7.4,-10.951984986339927,-4.931312501810393,-8.726209763056758,-0.14373528357037305,0.07058724193219008,0.38919319790447615,-0.33794797098455676,0.360700836587158,0.8693020139506746,-1.6789798373254825,-1.9440653057570192,4.151140231178568,0.44919175116343063,1.3613068847884513,-1.556657616292135,1.0,0.4981621258223884,0.5106019806070393,0.3918275702074986,0.7181425935477929,0.002552249216023764,0.4866244505411405,-0.4974548677939756
7.5,-10.707612901231746,-5.07056440637422,-8.726878733060763,-0.13889644407405752,0.07570810354525025,0.39085051585913105,-0.3381964185655882,0.3609195418076576,0.8691145712270076,-1.67764817674097,-1.945104788791294,4.150957850919159,0.44884062357767013,1.3614580378674859,-1.5566359988371623,1.0,0.4985660875913175,0.5110101746401459,0.3916978935016337,0.7181821426070687,0.0025394208709517223,0.4866042674872404,-0.4974175793487461
7.6000000000000005,-10.97437651784982,-4.818853803717148,-8.732529678011765,-0.13148400187781667,0.07817508149714075,0.39292653555349444,-0.33856047348315316,0.3612524430359124,0.8688343536905533,-1.6759544207070673,-1.9462307373697738,4.150761338926231,0.4483840247801054,1.3616321501160917,-1.556657616292135,1.0,0.4987701511911156,0.5112076579975001,0.3916563987535844,0.7182028426567525,0.0025391918018580076,0.48660400231869233,-0.49738795143447456
7.7,-10.904437858318069,-4.886939310928816,-8.75119652426527,-0.13661087081634665,0.07235837471795846,0.3914053790854366,-0.33914907367864644,0.3618071483041926,0.8683739387138089,-1.6744062027921154,-1.9471477038744365,4.150614001667035,0.4479345733715392,1.3618509445707132,-1.556657616292135,1.0,0.4990868150395354,0.5115404762249905,0.39166488833204943,0.7181794711929963,0.002525659079499997,0.4866254349318266,-0.4974007984317807
7.800000000000001,-11.853027210656396,-4.508415697301372,-8.664186399990303,-0.14904009097266027,0.04871835126660115,0.38369322707104786,-0.3391450099163015,0.3618797997713946,0.8683453585249896,-1.673052300264327,-1.9484041927943965,4.150420017886172,0.4475411086306926,1.3620071411132812,-1.5566695372210901,1.0,0.49952063737911273,0.5120550727254135,0.39180442703091095,0.7180913074771242,0.0025402671870909713,0.4866478829975029,-0.4975060393025006
7.9,-10.762155066112598,-4.599366422429106,-8.69637214143136,-0.1393236810835277,0.07540709045402401,0.3889754783631136,-0.3389371721437943,0.3617297165711783,0.8684889425139292,-1.6730235601414347,-1.9484248573426437,4.150434830721172,0.44749573521662717,1.3620310810361613,-1.556657616292135,1.0,0.499736618318345,0.5122853537828749,0.39170880615566256,0.7181343210591878,0.002548340383348581,0.4866278566507505,-0.4974634981681034
8.0,-10.956011428267713,-4.715784221463972,-8.798017937472737,-0.13939088376226713,0.08579042125456558,0.38808203817237,-0.3385509983529401,0.3613128143405092,0.8688130783614928,-1.673029397876654,-1.948430927975986,4.1503782521172425,0.4475051599689941,1.3620371811786818,-1.5566670277740622,1.0,0.49989094875704937,0.5124223583117422,0.3915788319429496,0.7182073474511029,0.002569056863618152,0.4865909239955371,-0.49739408792149115
8.1,-10.804891483227467,-5.097639639141815,-8.773177066367268,-0.14152023776866834,0.0756551082073069,0.3875240969216549,-0.338492674042627,0.3612534204626132,0.8688605614017655,-1.6728970773166254,-1.9483994214876668,4.150361276382787,0.4474944627295224,1.3620605006110338,-1.5566695372210901,1.0,0.49988152826630494,0.5124333554644963,0.3916015155035122,0.7181886070584449,0.002568874744433961,0.48658903081590343,-0.4974229997332632
8.200000000000001,-10.731956845511577,-5.109538647165832,-8.807695456878609,-0.14253820981219167,0.07816654999999093,0.3865258517524411,-0.3385113763158891,0.3612794198050448,0.868842464585546,-1.6728864818494595,-1.9484546007556143,4.150399684906006,0.44752672787802394,1.3620875349119148,-1.5566911925896922,1.0,0.49990199391488616,0.5124191843019656,0.3916388381367982,0.7181614636855322,0.0025383924302434216,0.4866177042789459,-0.49743429568457825
8.3,-10.626883825959474,-4.8294175081139565,-8.663425109331813,-0.13491907477738468,0.07007555788133506,0.3902096505566565,-0.33853171806351856,0.3613104046873648,0.8688216542216207,-1.6728707617689342,-1.9484892605171429,4.150370677266595,0.4474903050947366,1.362064848440474,-1.5566620451295765,1.0,0.4998917641740465,0.5124575958831066,0.3916233829560819,0.7181727364179968,0.002564113450032208,0.4866058515161722,-0.4974294837042962
8.4,-10.635164647801783,-4.689172152434165,-8.61559460373555,-0.13529332049724474,0.06977715602944115,0.3905829830072304,-0.33799897279115954,0.36078783713628,0.8692460051928576,-1.6728849146238565,-1.948496064774317,4.150392901164137,0.44752900182690425,1.3620572354921103,-1.5566475420816817,1.0,0.49989076141878663,0.5124560034672506,0.39165028624856957,0.7181527351442323,0.0025597997153995852,0.48661716747603395,-0.4974473125345803
8.5,-10.611358789539842,-4.876286009012472,-8.613852587661476,-0.1379342144889227,0.07066991216212258,0.3903520471214916,-0.3382496837848372,0.3610363113635971,0.8690451820942856,-1.6728657556016764,-1.9484740696349085,4.150367713421954,0.44752720649134115,1.3620675874193033,-1.5566797318658498,1.0,0.49990779379198313,0.5124490213513528,0.391656413675842,0.7181534332280286,0.002535208857299856,0.48661258337866165,-0.49745091492165405
8.6,-10.789380403296382,-5.023372652820985,-8.616582250694426,-0.13935944357237376,0.07175204321914189,0.3876204010943736,-0.33868634833338634,0.3614654458154411,0.8686968721374474,-1.6729047791905023,-1.9484740696349085,4.150397900060233,0.44751037721048187,1.3620657920837402,-1.5566525601546113,1.0,0.4999172608514964,0.5124415500959587,0.3916451552255478,0.718154772569688,0.0025294154178738234,0.4866123655765636,-0.49744922390230384
8.700000000000001,-10.911909137372318,-4.841802273000365,-8.545762753547747,-0.13544684230902407,0.0740455551651126,0.3833048719855967,-0.3388882356246227,0.36165499715935046,0.868539230701708,-1.6728763580322266,-1.9484621487059535,4.15036737725587,0.44750987560998207,1.3620718609632643,-1.55668872548592,1.0,0.49991140187894456,0.5124444634448793,0.39161355335343084,0.7181695483785483,0.002545132789753145,0.48660733635102266,-0.49743273142224714
8.8,-11.003772331198483,-4.791677816308783,-8.596961217598885,-0.13614642778941607,0.07751349399221402,0.3869935847395339,-0.3386443448318376,0.3613977135271605,0.8687413998205011,-1.6728474922153507,-1.9484621487059535,4.150366810456602,0.44747012609512243,1.3620820980032016,-1.556672049200573,1.1434505435671054,0.49990909891271124,0.512441991309452,0.39162596577304026,0.7181675907485306,0.0025562300819335117,0.4866159449035586,-0.4974270795321021
8.9,-10.974663704483614,-4.975567557717877,-8.773273384545552,-0.1407875146752212,0.07724482937573676,0.38983964064122145,-0.3389107553724411,0.3616962149477288,0.8685130639635339,-1.6728988976820964,-1.94849655502611,4.150394259039171,0.4475051599689941,1.3620363890519285,-1.5566681807543814,2.0,0.4999004321518753,0.5124640236409583,0.39161353539391697,0.718170860942913,0.002550711043302287,0.4865917691875933,-0.4974460357913977
9.0,-10.961021899116101,-4.890954142843389,-8.87777420149523,-0.13510788497152643,0.07489757036582328,0.3938230850158111,-0.3391217583819385,0.3619294367857587,0.8683335984782514,-1.672858497526769,-1.9484740696349085,4.150377000729216,0.4474725863351836,1.3620633802480737,-1.5566719490567567,2.0,0.4998965203585157,0.5124578117257753,0.3916222777383457,0.7181674285968449,0.002553883774182494,0.48659641143583576,-0.49744643385798865
9.1,-10.960934349402228,-4.941702388295933,-8.80918879333109,-0.13817772971802664,0.07300692164481422,0.39217517888826553,-0.338450112098499,0.36120713517480346,0.8688962531986698,-1.6728717005749698,-1.9484859905638636,4.150376515419869,0.4475177812852135,1.362053394317627,-1.5566758478791998,2.0,0.499912577383965,0.5124492254036025,0.39164481365884296,0.7181473223704775,0.0025374683433748916,0.4866295906464074,-0.4974430883365755
9.200000000000001,-11.070081703864352,-4.411864922920028,-8.794498315425242,-0.12437018577649968,0.06343482212855964,0.38146054982613087,-0.3379766903252714,0.3607293580315564,0.8692787280144549,-1.6728585940160747,-1.9484740696349085,4.150387287139893,0.44751660406079097,1.362053394317627,-1.5566639473772999,2.0,0.49991589773020695,0.5124485923280749,0.39162453981403555,0.7181701502759317,0.0025504260962724893,0.48661628079563185,-0.4974230853549117
9.3,-10.835923427183854,-4.583217975401587,-8.763676034147494,-0.1327513089034429,0.06976517052536957,0.3848368438012889,-0.33774384803138185,0.36050064537913673,0.8694641976103349,-1.6729092784246338,-1.948474868809672,4.150365933371845,0.447495250292743,1.3620657920837402,-1.5566703363958536,2.0,0.49991001221841064,0.5124493776758817,0.3916491941470181,0.7181595904090914,0.0025442921795743706,0.4866195965711339,-0.4974351188986334
9.4,-11.09463427129667,-4.80989261349542,-8.782515056033564,-0.13605210619119024,0.08028864143151779,0.3912320871961843,-0.3384702610653314,0.3612650200858677,0.8688641542134765,-1.6728989377915466,-1.9484747006842036,4.150419740468146,0.44751852245064777,1.3620540506088938,-1.5566588783907251,2.0,0.49988773094050687,0.51246997683552,0.3916453528704468,0.7181506933762963,0.0025564499878229854,0.48660844758111577,-0.4974588072487018
9.5,-11.090474737578319,-4.845595101644156,-8.647229616034966,-0.14386410393754473,0.07600113096376697,0.38968308982448796,-0.33874329442654916,0.36152538802275946,0.8686497395887579,-1.6728740955697952,-1.948495635451064,4.150390040018806,0.44753136891032913,1.3620391973469173,-1.5567126824327244,2.0,0.4999120654247146,0.5124469110012392,0.3916145596366335,0.7181715288752799,0.0025464367968318184,0.48660657320757345,-0.49743061192870447
9.600000000000001,-10.995150222828943,-4.847181709911158,-8.779347268727902,-0.14176830383084976,0.07490122357028003,0.3890581346808177,-0.33881279763453437,0.36156638559177656,0.8686055667996804,-1.6728639602661133,-1.9484859905638636,4.150369978812332,0.44753581973698436,1.3620461909164152,-1.556680063186037,2.0,0.4999134409031771,0.5124541786030017,0.39160771536882966,0.7181811151557764,0.0025452009970486334,0.4866037515687599,-0.4974195379603608
9.700000000000001,-11.009532196650934,-5.009736892489453,-8.708316152853808,-0.14562435175189545,0.0736355031324362,0.39473787045854086,-0.3388863333341229,0.3616431706172921,0.8685449019572962,-1.6728772765986015,-1.9484859905638636,4.150352478844701,0.4475285241723893,1.36204239113769,-1.5566695372210901,2.0,0.4999255063526728,0.5124375487967656,0.3916264162780447,0.7181556073148644,0.002519289569282482,0.4866185864568102,-0.49744198473496437
9.8,-10.852685305899755,-3.9348453217657173,-8.746635300758047,-0.19390432349563452,0.0765230916607418,0.3914927173690039,-0.3389598690337114,0.3617199556428076,0.8684842371149121,-1.6728531152528234,-1.948485840794237,4.150375843048096,0.4475053037478358,1.3620780340894416,-1.5566930795397467,2.0,0.49990788125555535,0.5124567747506678,0.39162311346134426,0.7181612535075393,0.0025507038890543827,0.48661543224063375,-0.49743675876980703
9.9,-10.976951100771254,-2.6560926825068454,-8.603488141251972,-0.2614658945587909,0.06524898408532503,0.3968396717706614,-0.338708214249756,0.3614535008621768,0.8686930912376065,-1.6728680196830512,-1.9485070154119173,4.1503520011901855,0.4475051599689941,1.3620237423876331,-1.5566541463927497,2.0,0.49991896061601293,0.5124379437817577,0.391610588567307,0.7181822899460919,0.0025445621585780914,0.4866095260231393,-0.49741219606554127
10.0,-11.273229654923528,-2.3710293363765342,-8.138794624874622,-0.3356758683630676,0.053993712434196026,0.3848487982537338,-0.33829691245579097,0.3610185380484374,0.8690342613384526,-1.6728941186361155,-1.9484963911793134,4.150399684906006,0.44749055362510615,1.36201810836792,-1.556691858765495,2.0,0.49992089440017073,0.5124377135688096,0.3916218739759166,0.718165819948777,0.0025378305480631075,0.48662120185220886,-0.49742458763245934
10.100000000000001,-10.81172536750372,-1.6599354221906626,-7.904904038142881,-0.3940106437605104,0.049055855443478145,0.3790545570095361,-0.33807599767297436,0.3607682478372201,0.8692242872632988,-1.6728835655980403,-1.9485098324217738,4.150349227601577,0.44750848798574194,1.362021987916986,-1.5566784073473672,2.0,0.49993051295789465,0.5124475010094957,0.3916011851579352,0.7181876160978001,0.002546314561706226,0.4866185195289061,-0.49739569843074394
10.200000000000001,-10.863338592785627,-0.7200982547987814,-7.329591978957697,-0.46061096694652764,0.060694673329381554,0.37853300072366697,-0.33801950803961234,0.360686970150916,0.8692799816285974,-1.6728647827130232,-1.9485036991524203,4.1503673429255885,0.44747824291438787,1.3620477378854317,-1.5566845247847219,2.0,0.49993628211480656,0.512446425503307,0.3915696442852291,0.7182053365203118,0.0025537234183460704,0.4866109647036228,-0.4973774644278307
10.3,-10.59203427121353,-0.4049049349225048,-7.118521487837134,-0.4990407541060181,0.08198006850508156,0.36992714776260033,-0.3381244104207932,0.3608086198681714,0.8691885015753972,-1.672915392227678,-1.9485171364302072,4.150359597358956,0.44750352229672136,1.36201810836792,-1.5566668501331784,2.0,0.4999231989093832,0.5124431063987768,0.39159390200548194,0.7181876822670419,0.002550430658572714,0.4866172182858347,-0.49739685484641616
10.4,-10.144548391839903,-0.16168896475695166,-7.029265069010199,-0.5398921733886386,0.10471676279996776,0.36096856482203715,-0.3371994359720654,0.35990091994743795,0.8699240565121709,-1.6728937629186384,-1.9485390986600075,4.150344015213221,0.4475155914696164,1.362048655404474,-1.5566747529714013,2.0,0.4999264929442206,0.5124454479471737,0.391588659849999,0.7181870818226971,0.002543837621945425,0.48661125970278885,-0.4974035849525177
10.5,-9.9247476558607,0.2283666055487177,-7.0177364010977055,-0.5943505437006849,0.1268920637517258,0.3605733121354255,-0.33712385520529325,0.35979557503659615,0.8699969200822595,-1.6728914117892675,-1.948510706103,4.1503414206810225,0.4474937158771972,1.3620079348014174,-1.556657616292135,2.0,0.4999346749684794,0.5124353907198382,0.39159644746539135,0.7181789294781423,0.002530060135638319,0.4866235576038149,-0.49740339487617713
10.600000000000001,-10.009430871898449,0.4072886342947279,-6.925178434270495,-0.6187942572403223,0.12125401384424515,0.36121535842115937,-0.3372706255529059,0.35994549244836266,0.8698779055330088,-1.6728674095976903,-1.9484909655613305,4.150377435047285,0.44751156273002446,1.3620538711547852,-1.556659274624624,2.0,0.49993547195975274,0.5124394334454696,0.39158886315813296,0.7181863811972955,0.0025322249996418294,0.4866158965847893,-0.4974001195117125
10.700000000000001,-10.172877185993976,0.7425768474232807,-6.706296380771423,-0.622319464013635,0.11851199455349468,0.36299860176478754,-0.3375524420586824,0.36025044481953394,0.8696423527648058,-1.672854352573837,-1.9484749878346688,4.150352956117937,0.4475032501134927,1.3620428316975999,-1.5566566980923748,2.0,0.49993375644746124,0.5124331749158486,0.39160995742358784,0.7181730843674508,0.002515253284583636,0.4866185606325345,-0.4974167979059181
10.8,-10.088697724698978,0.5724167910301585,-6.533914698465814,-0.63399792153394,0.10576306715295139,0.3620856683345203,-0.3371849636629601,0.35990552862809405,0.8699269925879684,-1.6729012421146516,-1.948542771668167,4.150362140803184,0.44750628904555184,1.3620441215269028,-1.556672794172699,2.0,0.49992582023735577,0.5124392846753161,0.3916141056277872,0.718176478076691,0.0025278171042301643,0.48660982116068874,-0.49742038400935074
10.9,-10.372845930551277,0.2586465774456467,-6.660283883356003,-0.6394078715294226,0.10181107588512459,0.3634741832794085,-0.33640251893382567,0.3591452794746919,0.8705440890680501,-1.6729001998901367,-1.9484995347388676,4.15041703377972,0.4474886754565377,1.3620550824935178,-1.5566311810742468,2.0,0.49991898091561415,0.5124406514990575,0.39162810959529,0.7181655094757882,0.0025420656452231566,0.4866161055085804,-0.49742999986058284
11.0,-10.516031859004437,0.09320714006566154,-6.730825334528136,-0.6300794121330382,0.09509346637297038,0.36256086944286114,-0.33599399777357847,0.3587703158419667,0.8708569711886306,-1.6728763580322266,-1.9485098324217738,4.1503950221197945,0.44750994877645434,1.3620327029909407,-1.5566488458944039,2.0,0.49992991460996755,0.5124402907397577,0.39161457568240865,0.7181639142807322,0.002539288502924445,0.4866268600460032,-0.4974217961857356
11.100000000000001,-10.463414723451354,-0.0673919186668196,-6.7241243215031945,-0.6269706979626952,0.08878552862478907,0.36493564420093216,-0.3357396686106764,0.35855042138239146,0.8710452620633494,-1.6728855098823994,-1.9485010325658383,4.1503443474550625,0.44750828104201373,1.36204195022583,-1.556700618398426,2.0,0.49990924487414445,0.512470708356897,0.39159735484195674,0.7181775392548829,0.002547432410494328,0.48659167526350683,-0.49743650274398765
11.200000000000001,-10.27739207899239,-0.3426816024793375,-6.583594206999391,-0.6248868514632251,0.08050518163211941,0.36175147066087165,-0.33461263923170387,0.3573949055762462,0.8719517351212753,-1.6728799147520523,-1.948484329403637,4.1503862396137405,0.44751003780880483,1.3620827940958316,-1.5566780382271357,2.0,0.4999164052160164,0.5124448978961286,0.3916291249903973,0.7181594351060786,0.00254005340895252,0.4866096249981287,-0.49744511934079577
11.3,-10.212202140765864,-0.15040463078520613,-6.486025531563267,-0.6215765341246797,0.07902996136048887,0.36246107688113693,-0.33358703232048714,0.35634564228334625,0.8727757286889182,-1.6728543160595148,-1.9485079575413586,4.1503740431628975,0.4475069598541926,1.3620657920837402,-1.55664569536318,2.0,0.49991895730943464,0.5124575336487872,0.3916008008052431,0.7181801338219356,0.002547048305907248,0.4866058263799924,-0.4974189156651349
11.4,-10.573250016175232,-0.2888297462551111,-6.583015622667028,-0.6220336396600763,0.08514082274784242,0.3610201874405701,-0.33366069802409637,0.3564480023008572,0.8727057640739307,-1.6728763580322266,-1.9485009130078792,4.15038476246199,0.4475528436848144,1.3620508696397247,-1.5566620759990824,2.0,0.4999077144602411,0.5124607609377362,0.3915995537398496,0.71818692602142,0.00254197394793095,0.4865926919781814,-0.49742198360524637
11.5,-10.45532843912792,-0.2865198518817585,-6.673239066905133,-0.6173187711285939,0.08113384707755211,0.3644372503185,-0.3339326693959603,0.3567149010150659,0.8724925337851323,-1.672866235728346,-1.9485076444773193,4.150387287139893,0.4474937158771972,1.3621148463256236,-1.556656635085452,2.0,0.4998938314540786,0.512465149048803,0.39161351476706463,0.7181712305048555,0.0025448005876063298,0.48659611448368184,-0.49744128199667437
11.600000000000001,-10.571835925019467,-0.11281613159359444,-6.692469698914561,-0.611406974997509,0.08141323951483385,0.3630574301247649,-0.33423802573263595,0.35699184405414985,0.8722621919005372,-1.6728957599277328,-1.9485098324217738,4.150389683289422,0.4475121804001218,1.3620557904671562,-1.5566887710991366,2.0,0.4999151409800627,0.5124459562377013,0.3916308415898773,0.7181588477489343,0.002546434631029716,0.48662246072500115,-0.49743337824128553
11.700000000000001,-10.672345994844447,-0.27813256468050807,-6.686415343867552,-0.6146546398711951,0.08400227762749121,0.36281254814068237,-0.33291431988073006,0.355663932551808,0.8733092484689835,-1.6728863524325066,-1.9485052105644023,4.150412082672119,0.44750737846053235,1.3620441687173683,-1.5566599272208208,2.0,0.49992878394093887,0.5124464442275357,0.39163252316336783,0.7181663149629866,0.0025175935727202747,0.48661295006741406,-0.49743204822545917
11.8,-10.597441212676696,-0.4021260334235568,-6.78569917491741,-0.6158394727420059,0.08084564626527038,0.36142318661274836,-0.33327810262320573,0.3560165046845016,0.8730257337929587,-1.6729157527649994,-1.9485115460731826,4.150399684906006,0.4475221969752067,1.36204195022583,-1.55664569536318,2.0,0.49991665764158627,0.5124485097540608,0.39163282700607677,0.7181594453538637,0.0025483811964766784,0.4866263601635388,-0.49742869076511287
11.9,-10.471529243483985,-0.29706511597639934,-6.605435237506999,-0.6114693953356266,0.07963896488156164,0.36140706193505684,-0.33483979301434763,0.3575652796551413,0.871796450780439,-1.6728648212784871,-1.9485090045252607,4.150376240438422,0.44755201578830117,1.3620999454085503,-1.5567044721114423,2.0,0.49991176235629015,0.5124550479322948,0.3915963619882963,0.7181804713068748,0.0025718834972342174,0.48661904823654833,-0.4974053658155161
12.0,-10.485101370985738,-0.4915221791909059,-6.76571250416341,-0.6159881442081823,0.08248115452074084,0.3638489083632835,-0.33346148016857374,0.3562513806107823,0.8728608689569058,-1.6728996651428156,-1.9484819436587562,4.150393438435656,0.4474956583916488,1.3620438927402816,-1.5566715606736439,2.0,0.49990704077375775,0.5124602259048161,0.39162198443495605,0.7181576886058666,0.002567230439885375,0.4866138476398439,-0.4974433705551764
12.100000000000001,-10.432761716643371,-0.5400346656969086,-6.545736403176885,-0.6180242406653507,0.07967013916375987,0.3665346095976406,-0.33311847202518097,0.3559327458517747,0.8731228828474223,-1.6728938233529353,-1.9484934563355691,4.150399684906006,0.4474760874858079,1.3620508605403292,-1.5566695372210901,2.0,0.49989466522608794,0.5124729706954883,0.3916348728146971,0.7181547375137021,0.0025430789907066047,0.48660423070339615,-0.49745716237423765
12.200000000000001,-10.383406454487725,-0.5029651422618007,-6.639521362344955,-0.6128230193767931,0.07660861650466083,0.36594084481521216,-0.33366235410424283,0.35646720605591,0.8726972762060281,-1.67286197010582,-1.9484979114928187,4.150396450666281,0.4475136186087372,1.3620801383927024,-1.5566695372210901,2.0,0.49990112388481184,0.512460884535903,0.3916378035173765,0.7181611439840578,0.00254787104617938,0.48660802531209063,-0.49744417709579136
12.3,-10.704685277345003,-0.6046169757978578,-6.661476210004292,-0.6156610069306228,0.08655781198094249,0.3658183397205499,-0.33423373870109463,0.3570421650263618,0.872243479716807,-1.672887065595532,-1.9484859905638636,4.150364932704554,0.44750627194452564,1.3620545507721797,-1.5566360997754063,2.0,0.49990019786002954,0.5124537814243938,0.39165797583651146,0.7181367681556393,0.002549650227907022,0.486624775324627,-0.497462973041155
12.4,-10.663713621506595,-0.5159387130752779,-6.712384527911251,-0.6122631636895668,0.08296604179137274,0.367210281322997,-0.3338712442868295,0.3566535187204425,0.8725411596639111,-1.6728558639151987,-1.9484775568649941,4.150390913859182,0.4475359762870756,1.3620500465767447,-1.5566829173887433,2.0,0.49991422902735994,0.5124419494349657,0.3916549863830553,0.7181507870268553,0.00253831470916536,0.4866272070840596,-0.49744041389568744
12.5,-10.736135025375956,-0.5566079379545824,-6.7514268686549,-0.6149908032100436,0.08183332449886435,0.3647606048201522,-0.33380755976158416,0.3565828363110716,0.872594459961531,-1.6728740198563428,-1.9485086633338318,4.150366643605147,0.4475401837415579,1.36204195022583,-1.5566814581500452,2.0,0.4998990724488991,0.5124506386034999,0.3916355388841283,0.7181608838311064,0.0025578378756550115,0.4866139992163496,-0.4974386576925807
12.600000000000001,-10.51984175438673,-0.5368834764322622,-6.867756549070272,-0.6079950975662084,0.08196685654336051,0.3689765543666414,-0.3340267805155282,0.35681319368729925,0.8724163880873917,-1.6728637252905458,-1.948474559167341,4.150399430349141,0.44751685861765583,1.3620655375268753,-1.5566695372210901,2.0,0.49991453587141643,0.5124521016358606,0.391628476838355,0.7181589817736721,0.0025401763014662646,0.48661069382777755,-0.497444727637764
12.700000000000001,-10.17786151386647,-0.8281416505447299,-6.79499938783161,-0.6164848321483618,0.07349763192690109,0.3706696659718689,-0.3343332780682936,0.3571223044537488,0.8721723538964488,-1.6728803523155562,-1.9484859905638636,4.150399684906006,0.44748835300342676,1.3620294767127812,-1.5566695372210901,2.0,0.4998952865704203,0.5124690386359991,0.3916243167568372,0.7181692734261476,0.0025614705398761158,0.486607614076054,-0.49743277284316817
12.8,-10.517769012488099,-0.634434775714728,-6.730509066590969,-0.6091551657047127,0.0803669383274774,0.3657928576281199,-0.3347270069861409,0.35751012761371714,0.8718623917267477,-1.6728720942534685,-1.9484779802057524,4.150383532991882,0.44752473804814613,1.3620700558624983,-1.5566695372210901,2.1645663485253768,0.49990572742358713,0.5124649483296282,0.39161306882924474,0.7181735853083903,0.002560923210579578,0.48660303933489946,-0.4974310255177494
12.9,-10.828968469823565,-0.48019609643742334,-6.313014635357972,-0.6122484139719268,0.06570848693407895,0.3611459077257974,-0.3343680420751403,0.3571574493348166,0.8721433502493593,-1.672933237589259,-1.9483958189438946,4.1504217182094205,0.4475281469467252,1.362044198476415,-1.5566766403813945,3.0,0.4999184168170698,0.5124379624289954,0.39163806309710764,0.7181576092667481,0.00254002663352356,0.4866233430530185,-0.4974343358804998
13.0,-11.235190508916482,-0.35856388418627705,-5.605828212888419,-0.6349141517955492,0.019843215335319533,0.36531113489501704,-0.3332143272008894,0.3560228947221767,0.8730482466607912,-1.6737946851495131,-1.9475125324542513,4.150500287648668,0.4477549415950422,1.3619876006875138,-1.5566817114152025,3.0,0.4999060407302811,0.5124349565243647,0.39167192464317246,0.7181326716222975,0.002549147317613532,0.48663733445304064,-0.4974566036480107
13.100000000000001,-11.242319530142172,-0.23393836646794014,-5.282661174188716,-0.6194493125511484,0.046205855152559185,0.3698284418541764,-0.3314409131477206,0.3542720635225521,0.8744315832222278,-1.6753000230735147,-1.9465503423916877,4.150640964508057,0.4481743636217399,1.3617971383282985,-1.5566534626163968,3.0,0.49961219423115494,0.5121127951796371,0.3918341801808734,0.718077403954174,0.0025587746358660566,0.48666015006248786,-0.4975140128116536
13.200000000000001,-11.426345257027267,-0.09229899099942297,-5.523844888183162,-0.6440263914395244,0.01482140304379341,0.37825078031485465,-0.3289893171892026,0.35184679600898355,0.8763385116546305,-1.6771222902727239,-1.9455708744993538,4.150880336761475,0.44861026997813663,1.3615902305479115,-1.5566806715346868,3.0,0.4994280413126711,0.5119205542504246,0.39184868458697514,0.7180659622539146,0.0025473149497082597,0.4866650114930224,-0.49752583011076223
13.3,-11.80143315113466,0.5313406972311661,-5.169488723118032,-0.6751369231535589,0.0003197514530866308,0.3750639110829026,-0.32485869693333924,0.347644516910614,0.8795372877365706,-1.6786549659338788,-1.944389884123772,4.1511017614137,0.44898702224741605,1.3613508532735477,-1.5566571394549769,3.0,0.49913603495904596,0.5115981012299466,0.39162292501603707,0.718215955278924,0.002565163646408058,0.4865840988351897,-0.4973883555924849
13.4,-12.150789358113885,1.0163063184348495,-5.047838150676369,-0.7163174819008638,-0.030177011328666365,0.3795523695694766,-0.32110689921914554,0.343850084618188,0.8824083436634363,-1.6800415228087708,-1.943191230851784,4.151239831886151,0.4493698830801683,1.3611648170082065,-1.5566695372210901,3.0,0.4985788942452458,0.5110066822677565,0.39169476806638154,0.7182085290091408,0.00254156343068241,0.48659539712270117,-0.49738814703695466
13.5,-12.001356144789751,1.1167591923274864,-4.9137066071196145,-0.7290835204348387,-0.03707058823434275,0.37706728319477173,-0.31786510687503705,0.3406036310043959,0.88484396809992,-1.6814987452324295,-1.942030698275151,4.151479244232178,0.4498073297687988,1.3609608954019121,-1.5566316729402794,3.0,0.4984074492371402,0.5108267450999264,0.39176749259323923,0.7181740168862578,0.002535261556499902,0.48662067624150385,-0.49741328025351206
13.600000000000001,-11.85541618635805,0.5804331214069697,-4.612465232577485,-0.7209557055305424,-0.025216854876015105,0.37850339258497534,-0.31626404985182016,0.33903247809209786,0.8860182400849105,-1.6831199742505791,-1.9410223305952694,4.151660694349835,0.45015421522243065,1.3607675893415714,-1.5566352521748408,3.0,0.49786536114852203,0.510284975977749,0.3918900138146694,0.7181345047775575,0.0025514922432120467,0.48662230644402615,-0.49746864605351937
13.700000000000001,-11.62057682861474,0.4905169519813066,-4.639217163904771,-0.7035733666138114,-0.011585533727754553,0.38306514137573605,-0.31475522077903934,0.33755549609700725,0.8871216097434272,-1.6845785671586,-1.9400770225026984,4.151863976046188,0.4505704697541733,1.3605702302233658,-1.5566295555540524,3.0,0.4977061953907712,0.5101165810877438,0.39181600259036137,0.7181919416669179,0.002548380969545032,0.4865935393441948,-0.4974138801316526
13.8,-11.690366861820735,0.23125002179821288,-4.625874156619397,-0.6876669838211775,-0.017315448500110846,0.3778248800233487,-0.3137949015158012,0.33657512982926174,0.8878331542274823,-1.6860765518127838,-1.9388667484723032,4.1520664436330135,0.4509679926082345,1.3603628219610933,-1.5566551970091034,3.0,0.4974056475530556,0.5097909970406032,0.39177348544914115,0.7182214760359876,0.0025705518689790106,0.48659319210072427,-0.4973714598014284
13.9,-11.721072373963011,0.24135751100873507,-4.354571174538,-0.6790575956759988,-0.02999630024843027,0.3780291882344896,-0.31287098118821505,0.3356277188224595,0.8885186973181914,-1.687620190531562,-1.9375531492710623,4.152263518235712,0.4513722546530902,1.3601637024435154,-1.556638964974034,3.0,0.49689004726778563,0.5092558235716119,0.39186013696354594,0.7182003711537048,0.002565000793630107,0.4866057135750989,-0.4973897135664126
14.0,-11.516090518803137,0.04434172213980245,-4.615333524671628,-0.6691780306204022,-0.02286752154490313,0.37724665349622577,-0.312325308071539,0.33508895121130056,0.8889139096542729,-1.689005798371314,-1.9363408152451265,4.1523995894774215,0.4517343863893572,1.3599674141797038,-1.556622467086111,3.0,0.49665792518347807,0.5089926402924246,0.3919879207595589,0.7181532054032898,0.0025292668058932897,0.4866207286671401,-0.497443306126303
14.100000000000001,-11.787651390931739,0.49490162145117933,-5.35398603914234,-0.7033992263459123,-0.030178941781052977,0.3759535049672758,-0.31113125041416323,0.33389062936527325,0.8897817274932504,-1.6904869735904686,-1.9354851805325817,4.152611026985755,0.45212278537754896,1.3597899219005067,-1.5565908511486006,3.0,0.496308586777559,0.5085457927135613,0.39215603252788594,0.7180784901459843,0.0025037521644592792,0.48668283695063963,-0.4974905320028108
14.200000000000001,-11.927615008466445,0.8026713051127398,-4.805508047396418,-0.7069336424056617,-0.04389751681614124,0.37752864508193534,-0.30854458995030554,0.3312773790973459,0.8916521695436134,-1.6921235792322569,-1.9344698978980934,4.152827341899793,0.45246796696701336,1.359576282353041,-1.5565969438284843,3.0,0.4958739936589356,0.508146078336737,0.39200358600418594,0.718180508168309,0.0025442729698164275,0.4866178709803134,-0.497406606313941
14.3,-12.179795538910895,0.8177251834027641,-4.885414796652705,-0.7365794098773016,-0.058721694432360916,0.3810462382127733,-0.3053099082518719,0.3280110003296472,0.8939748570447349,-1.6935464800712325,-1.9333111476636524,4.153006292788736,0.4528289160298913,1.35937800929132,-1.5565695094058631,3.0,0.49571018872215333,0.5079760951086242,0.3919332257637814,0.7182294763626227,0.0025400502008235135,0.4865939115145299,-0.4973593597247767
14.4,-12.248853465656206,1.17720194392794,-5.232507768258628,-0.7816338139204088,-0.07668093312220517,0.36288273913587843,-0.3046172846476394,0.3273341198292181,0.8944609845959148,-1.6948374213807085,-1.932002683679098,4.153205394744873,0.4531959182623782,1.3592024133667804,-1.556561295186178,3.0,0.49514233005878966,0.5073528652246068,0.3920944828727246,0.7181759627279086,0.0025136401304769137,0.4866130090373812,-0.49741808130457177
14.5,-12.087311480339498,0.7764637243214869,-5.275621849733677,-0.7656162641794657,-0.06769098853647147,0.3482808017032271,-0.3040260048688662,0.32680007301927366,0.8948572569198496,-1.696436172655462,-1.9307899646304196,4.153441445383435,0.45359104886439183,1.3590148657901888,-1.5564828495814973,3.0,0.4949724907899632,0.5071346316140751,0.3922302944465073,0.7181135825010974,0.0024977986415017726,0.48666675977717205,-0.49745563476291454
14.600000000000001,-12.512593544475028,0.4909973307362447,-4.457369654184668,-0.7214768118443456,-0.05779844023430895,0.3655207369279513,-0.3031494856373504,0.3259865737452427,0.8954508461855127,-1.6980916868012217,-1.9299009789435142,4.1536103194137945,0.45398387743833973,1.3588068934868045,-1.5565764640536335,3.0,0.49445363999293274,0.5066580267786345,0.39231904417078056,0.7181042919703036,0.00250316566703021,0.4866256544376494,-0.4975092285160168
14.700000000000001,-12.176263818176947,-0.6624362284623988,-5.636928299536667,-0.643633808715818,-0.04460550234973799,0.3652133577505237,-0.3022250207260046,0.32504216638578637,0.8961066994051947,-1.6994504928588867,-1.928809395206128,4.15384006463857,0.4544753273109641,1.358651667658973,-1.5565508647523751,3.0,0.4942975766482707,0.5064891757967799,0.3922106356742478,0.7181716697903167,0.0025513731402047146,0.486606741079467,-0.49743021896715184
14.8,-11.51300700165817,-1.1709392660240672,-5.9985607520184345,-0.5974952015008967,-0.028112609750541855,0.36393272744812066,-0.30250708543387234,0.3253584039321851,0.8958967741101886,-1.700807469355434,-1.9276795463113658,4.154059196640982,0.45481385654700635,1.3584542274475098,-1.5565639427548943,3.0,0.4939193831425164,0.506101109971301,0.39226295629448915,0.7181400100423169,0.0025535051765918156,0.4866296607010444,-0.4974534942220433
14.9,-11.162291496078234,-1.5826940274274215,-5.903907078626463,-0.5735736974883009,-0.012614740331133504,0.3556414612207789,-0.3015683382697186,0.3244578344724716,0.8965358385649931,-1.7024935974947806,-1.926511256756617,4.1542298361016226,0.45518945202482713,1.3582109678586767,-1.5565417085436168,3.0,0.4934824648429134,0.5057003850785812,0.3923319514197424,0.7181112439578222,0.0025562062275780203,0.48662672519121575,-0.4974978768203382
15.0,-11.49563209638348,-1.8671812247571917,-6.001195566641351,-0.5482093612207846,0.004374775606584853,0.34393624828358305,-0.2994149100763626,0.32232001753064066,0.8980312737229907,-1.7039795742990613,-1.9254280672876534,4.154455743885243,0.4555360513874511,1.3580470085144043,-1.556532699302546,3.0,0.4931849362407231,0.5053919825874886,0.39234327563006277,0.7181288247099549,0.0025700221201825336,0.48662438057661295,-0.4974747213029308
15.100000000000001,-11.554140702158476,-1.892831971094515,-5.924784968390144,-0.5289992573389285,0.008622033943270971,0.3404922158410419,-0.299917179611261,0.32281089829000137,0.8976871743783409,-1.7052950589660065,-1.9243511517272143,4.1546196937561035,0.45590219876391663,1.3578621179795491,-1.556492398363294,3.0,0.4927256857584323,0.5048884978876733,0.39233876070932866,0.7181664825212214,0.0025701756596000036,0.48659780335369696,-0.4974463542448896
15.200000000000001,-11.174766177490778,-2.3308225802512603,-5.882642160856263,-0.517891547107752,0.00975002658837,0.35668451195320283,-0.30017636497346983,0.3230490724687874,0.8975151324411761,-1.7067642360775488,-1.9232667089805746,4.154843960869357,0.45622392850791016,1.3576495199952727,-1.556588087562576,3.0,0.4925373642802331,0.5046525868166837,0.3924309194829189,0.7181254343923864,0.002519568860022278,0.4866173081911019,-0.4974867914029
15.3,-10.990715848067204,-2.4861157984782314,-5.785400547090664,-0.4911010518932678,0.01972484793274723,0.35660071759536816,-0.2999177360844742,0.3227557975106166,0.8977070424376586,-1.7084779739379883,-1.9221570236396,4.155004904576852,0.4566188500405749,1.3574585914611816,-1.5565636006245878,3.0,0.49213361971285785,0.5042398433008253,0.39243211177758686,0.718153073286038,0.002574758599154761,0.4866241183800948,-0.49743994748991555
15.4,-11.08355488043161,-2.3745212288054747,-5.738914207674518,-0.4751176816014729,0.026532799073303,0.335268611354324,-0.2995841983854329,0.3223992314997793,0.8979465290560212,-1.7098590239849212,-1.921017919098744,4.15520715713501,0.45693074477966844,1.3572558545349063,-1.5565147759154898,3.0,0.4919062693213156,0.5039917457687384,0.3924063604805139,0.7181847785914233,0.002573289798657053,0.4866051926641539,-0.4974126943007
15.5,-11.03993330435524,-2.8140786965433255,-5.837271037954517,-0.4719587152135666,0.026503701254258508,0.3366380646578131,-0.29964588008391746,0.3224779432573463,0.8978977011024252,-1.7112628296471029,-1.9199284261324543,4.155423641204834,0.45731748063715316,1.357038641147075,-1.5564654509173792,3.0,0.491387189727814,0.5034191740846561,0.39246170289276466,0.718188171858406,0.002547633480898701,0.48659156799224124,-0.49742125540147525
15.600000000000001,-11.136530883921013,-2.8191601227355196,-5.7404727279430405,-0.4526340273465728,0.0327481954218938,0.34678123158096075,-0.29972450763019526,0.32257876347460485,0.8978352579770483,-1.7127359693147024,-1.9187967053236692,4.1556352321258325,0.4576367463520067,1.3568355168136605,-1.5564778486834925,3.0,0.49117832982017545,0.5032073449807354,0.39245358538159125,0.7181977462856268,0.002544746312092363,0.4865771778661865,-0.49742152293224196
15.700000000000001,-11.221112741569623,-2.7215719813121972,-5.68925279460043,-0.4379927427139811,0.03278268948863626,0.3471151316913085,-0.2996087935710473,0.32247431159935896,0.8979113989856379,-1.7142745131503647,-1.9175974447741848,4.155823444177926,0.45798031866040034,1.3566487429742846,-1.5565273563194928,3.0,0.4907320329864546,0.502750553663594,0.39257165854727416,0.7181677014326363,0.0025504579443157214,0.4865953596709351,-0.4974470863619078
15.8,-11.390986689031307,-3.0157187606300524,-5.577067846227202,-0.42985391693594843,0.04072381576326181,0.3497051649630494,-0.29899287750570425,0.3218437842125871,0.8983423600936269,-1.71564494988271,-1.9164451685859372,4.155986263247979,0.4583334290250032,1.3564694261310704,-1.556514428785978,3.0,0.4904885236973132,0.5024637178701982,0.39261834250803324,0.7181654873258376,0.002541912997005303,0.48660540444825695,-0.4974405008180439
15.9,-11.149429434587727,-3.139069589167853,-5.7343120149299365,-0.4173569624827859,0.04410154145582734,0.35010410540732023,-0.298270879942496,0.3210924374668906,0.8988513775933459,-1.7171219634946917,-1.915406026078672,4.156177997589111,0.45867651195177156,1.3562885364817594,-1.5565218431896446,3.0,0.4901773044181896,0.5021086967966284,0.39270834200196786,0.718130156833591,0.002536064738435327,0.48663148287962876,-0.49746602506319754
16.0,-11.305734233306575,-2.916200502651485,-5.902244272688764,-0.4105517856288605,0.05670815316207421,0.34173508777625144,-0.2976605468288064,0.3204330244948942,0.8992889254485644,-1.7174100875854492,-1.9152071331109917,4.156249523162842,0.4587787570038274,1.3562162999367706,-1.5564892927752894,3.0,0.48982485100682155,0.50174205336574,0.39271624935182625,0.7181513870486882,0.002556938391119596,0.48663606859877906,-0.4974307832099197
16.1,-11.197507760580423,-2.8294406924525197,-5.751410430927857,-0.4194070066610932,0.0500260422167984,0.3459851618955275,-0.2976825373632503,0.3204888983160701,0.8992618541921908,-1.717421531677246,-1.9152537271784156,4.156249523162842,0.45875749074047034,1.356236087367139,-1.5564671455068317,3.0,0.4896480121675433,0.5016038806292484,0.39269377326908467,0.7181653898753112,0.0025741914740620053,0.48660895639223983,-0.49743700091805815
16.2,-11.04436840475437,-2.918946221612541,-5.689393233735789,-0.4193110398390697,0.04293063690558537,0.35193121974997654,-0.2979702134584261,0.32081716925579784,0.8990494540275318,-1.7174247400966536,-1.915215773695583,4.156214237213135,0.4587401382091763,1.3562369346618652,-1.5564927685629808,3.0,0.48965563223574304,0.5015955762977937,0.3927184987463536,0.7181585549007642,0.0025754845638607574,0.48661537895682366,-0.49744057923013707
16.3,-11.093513325142826,-2.66586471879228,-5.61535436579657,-0.43830021698398497,0.03599569838152282,0.35102527724686167,-0.2984515078676744,0.32128109001547367,0.898724085839854,-1.7175054550170898,-1.9151245556273402,4.15624559057653,0.4587773151964174,1.3562425585259208,-1.5564853601889777,3.0,0.4896577405208734,0.5015814078160558,0.3927117391731446,0.7181644629757029,0.002557949984344652,0.48661225114238005,-0.49743519984902884
16.400000000000002,-11.145658732784778,-2.255413111345087,-5.424366745464152,-0.4505685866922373,0.038097788689835856,0.34681699780279357,-0.29851550768940593,0.3213452374056832,0.8986799856468973,-1.7175108405169268,-1.9151286648183024,4.156223577542407,0.4587535802579751,1.3562194038372466,-1.5564479200927606,3.0,0.4896448724375646,0.501569375225901,0.3927068033352829,0.718173988623312,0.0025542535653572695,0.48660119386520706,-0.4974322828109994
16.5,-11.047405056386538,-2.193348426951039,-5.421359364001967,-0.45008682974332676,0.03468226330136711,0.3427136452270322,-0.29843704407080746,0.321272903060279,0.8987319097192473,-1.7174965944191891,-1.9151493511595667,4.156239029356728,0.4587690073200683,1.356203493822896,-1.5564763231208587,3.0,0.48964307720835887,0.5015610835408428,0.3927144648524327,0.7181710162317921,0.002564769691435735,0.48660516109102897,-0.4974326392594266
16.6,-10.874452646116426,-2.41105102300371,-5.495202473984837,-0.4558034962636949,0.03251901587473223,0.3483192417520449,-0.29849057893774367,0.321320739529869,0.8986970198898028,-1.717496980989567,-1.9151131115355433,4.1562317733793455,0.4587363973790527,1.3562340356524496,-1.5564837177571822,3.0,0.48964499264513905,0.5015536414330487,0.3927195026860652,0.718170322244204,0.00256265683655543,0.4866117921165877,-0.4974271653324507
16.7,-11.182937241950663,-2.248262857574386,-5.550671961063761,-0.45230245911202926,0.0403410264201636,0.3433222267711216,-0.2985960082865911,0.3214158204974523,0.8986279996501642,-1.7174970065816197,-1.9151106144421164,4.156235627568565,0.4587488707751107,1.356226159542929,-1.556496947418885,3.0,0.48965450875625316,0.5015447385557904,0.3927394519542203,0.7181520706419474,0.0025454454937959238,0.4866222413214214,-0.49744338209613165
16.8,-11.063047069359223,-2.170214061673314,-5.5600568385764575,-0.4492994141807897,0.038405056022705455,0.3491925600322613,-0.29847604180477527,0.3213086734630987,0.8987061431824755,-1.717471222907295,-1.9151203978221405,4.156242236876245,0.45876010670997464,1.3562343666640524,-1.5564845744865052,3.0,0.4896530443720993,0.5015542086610224,0.3927128050252493,0.718163609948696,0.0025507578256202773,0.4866131274854558,-0.4974356110480993
16.900000000000002,-11.33169640629729,-2.3502978087295614,-5.740139439811963,-0.4532202629269509,0.04053132420012162,0.3492229203454204,-0.2982566754264223,0.3211055278980352,0.8988515316698216,-1.7174806594848633,-1.915116057756715,4.1562169568019085,0.4587547294790056,1.3562274831169236,-1.5565164443753305,3.1519878968981314,0.4896340885086045,0.5015639851531826,0.3927394722413944,0.7181487859373872,0.0025592631756020845,0.48661823469286003,-0.4974519726496818
17.0,-11.188438939431569,-2.4826920918695334,-5.6558308839592,-0.45542390635396784,0.039226155050385916,0.3472764727902799,-0.2980074672908932,0.320847884269184,0.8990259448906565,-1.7174913146756385,-1.9151255093016566,4.156218859355399,0.4587519874116901,1.3562577764169943,-1.5564778486834925,4.0,0.4896548971734071,0.5015515300820984,0.3926981217136613,0.7181744102683031,0.0025478939710396288,0.4866062243452619,-0.4974267856685407
17.1,-11.101629091410238,-2.501281698992568,-5.652963829470768,-0.45494862804886044,0.03710781815053787,0.3487549432757642,-0.2977582591553641,0.32059024064033276,0.8992003581114913,-1.717513071878267,-1.9151093031049549,4.1562178933065,0.45875660955395503,1.3562387627085477,-1.5564758682995865,4.0,0.48964385172294683,0.5015552399917579,0.39270481941515906,0.7181736836627892,0.0025611296138016984,0.48660701955760555,-0.49742698884015607
17.2,-11.11771807836552,-2.6410445971475083,-5.619899759677685,-0.4590152622633484,0.03732598422196102,0.34390382056874796,-0.297509051019835,0.32033259701148153,0.8993747713323262,-1.7174863663952649,-1.9151112342623848,4.156214237213135,0.4587433632799261,1.3562349822977804,-1.5565016905414026,4.0,0.4896345400608561,0.5015666156578062,0.3927079149364605,0.7181769898828761,0.0025716058519017707,0.48660522475445456,-0.4974239170845935
17.3,-11.145403804807165,-2.5608134260632727,-5.542655931756723,-0.45516060165735267,0.03780102118641592,0.34661396414317325,-0.29752552819139694,0.3203449606169711,0.899364677958453,-1.7175054550170898,-1.9151232464597412,4.156223592527779,0.4587401617665821,1.356213092803955,-1.5565114356608236,4.0,0.4896454790899476,0.5015455549933799,0.3927396409081148,0.7181541456401768,0.0025563170857825024,0.4866223753753114,-0.4974401995485229
17.400000000000002,-10.86082033354098,-2.8624914842592113,-5.505343580772064,-0.4640361809290935,0.03202833835397245,0.3466017651767562,-0.2986893913079832,0.32152337479985055,0.8985577762256595,-1.7175035579784497,-1.9151314229415843,4.156227578343572,0.4587391581731308,1.356224536895752,-1.556469403081213,4.0,0.48964155169349416,0.5015400227769032,0.39273358632399386,0.7181545110521684,0.002549469773963112,0.48661708738674936,-0.49744488008474813
17.5,-11.105739689811315,-2.514348975800566,-5.5071014820402056,-0.45539409445324386,0.036884512706023456,0.3485275923514384,-0.29919758790877593,0.3220466824081715,0.8982019338595966,-1.7174781073454175,-1.915121063325481,4.156205673747048,0.4587484015979386,1.3562522265655916,-1.5564654509173792,4.0,0.4896396419324596,0.5015486505838719,0.3927223673623939,0.7181577172592792,0.0025465323031921045,0.4866082807240206,-0.49744888123804554
17.6,-11.29993019933528,-2.389758355685314,-5.625015718441929,-0.4489528685427389,0.040116683719053095,0.3516440488637829,-0.2986998730411204,0.3215275942713372,0.8985529284605589,-1.7175153453612135,-1.9151164132493488,4.156224127557259,0.45874516546215816,1.3562071689864799,-1.556467134144025,4.0,0.48964306458006757,0.501545140804606,0.3927304393922583,0.7181558698325222,0.0025357125994187758,0.48661315087203205,-0.49744683955685076
17.7,-11.044657242909647,-2.5886555799164648,-5.664585778504568,-0.4561488897305373,0.03418684506223424,0.3525474386311074,-0.2980375799813036,0.320837247654719,0.8990200426673707,-1.7175155047857589,-1.9151116591156183,4.156225681304932,0.45873221085363936,1.3562274417356017,-1.5564669614341011,4.0,0.489652511477139,0.5015402812882662,0.39271580423506247,0.718166360802579,0.0025596182838346815,0.48662255484487693,-0.49742237151345137
17.8,-11.4184371242302,-2.41336845902816,-5.633368932378139,-0.44639371024913316,0.044410823026070356,0.3489110292351704,-0.29823359092954704,0.32105777281677245,0.8988763106972496,-1.717484375076264,-1.9151036839639757,4.156226854649584,0.45874633880681104,1.3562344901938383,-1.5564703887427933,4.0,0.4896526731995198,0.5015364998307559,0.3927591162654344,0.7181455069387624,0.0025296941645740253,0.48662135295954817,-0.4974538072574382
17.900000000000002,-11.055058767459489,-2.653907140674751,-5.547449974998697,-0.45455644069724815,0.031459733750412354,0.35669134631442106,-0.29809844976563116,0.3209115002136962,0.8989733604794605,-1.7175033109825644,-1.9151022213924178,4.156199896218308,0.4587524864106367,1.356224536895752,-1.5564985569524807,4.0,0.48965146820560534,0.5015416816583831,0.39270832938439065,0.7181652763631313,0.0025586036205482643,0.48661744340676955,-0.49742894281097055
18.0,-11.332727571457747,-2.486450511875496,-5.603046440525988,-0.4493347469341471,0.039942808999093846,0.3455173673963152,-0.29805921827006415,0.32086758252217185,0.8990020560380136,-1.7174817765564268,-1.9151244720209193,4.156204955104829,0.45874213341077186,1.356215087574604,-1.55646948035409,4.0,0.4896462232611323,0.5015504923673745,0.3927229864155436,0.7181632701683413,0.0025489763135386396,0.48661630915026577,-0.49743299827196796
18.1,-11.340230859474694,-2.5620082967665754,-5.611735193188779,-0.45582187325108753,0.04051327625943625,0.3497206543548588,-0.29825585596660414,0.32106370985719174,0.8988667376681929,-1.7175058440554996,-1.9151259145500001,4.156226070343341,0.4587225231393447,1.3562705996181983,-1.5564654509173792,4.0,0.48965193243183686,0.5015553629017788,0.3926858770928224,0.718184262844757,0.002563472032227684,0.48660658312827465,-0.4974121293952313
18.2,-11.13703517697411,-2.5239307266778495,-5.607996962624413,-0.44858145998630605,0.03374758128201592,0.35271593847720345,-0.2984734604882128,0.32128297605800277,0.8987161512608958,-1.717494010925293,-1.9151255093016566,4.156208485210009,0.4587308453687985,1.3562369346618652,-1.5564683269189419,4.0,0.4896530961816139,0.5015502385710295,0.3927286137885047,0.7181550161849188,0.002539797172207093,0.4866207069982338,-0.4974406594552786
18.3,-10.96129685178819,-2.462225280000786,-5.657145111718624,-0.4492513544795581,0.02913624670967651,0.34820608313916906,-0.2980477158748694,0.3208728668921403,0.8990036097127154,-1.7175047390613767,-1.9151470839664753,4.1562371253967285,0.45876823170137915,1.356236159043176,-1.5564892927752894,4.0,0.4896557536069147,0.5015430348152492,0.39272326827218634,0.7181686615595768,0.00254645909542345,0.486614127325543,-0.4974273617192786
18.400000000000002,-10.94862075608798,-2.3030694014343887,-5.592943495658046,-0.44619544333468836,0.0305589322675721,0.3477160115086414,-0.29762197126152595,0.3204627577262778,0.8992910681645351,-1.7175174749924602,-1.9151248854277854,4.1562148130967085,0.45876780756262353,1.3562613524033489,-1.5565016905414026,4.0,0.4896315206126301,0.50156025404812,0.392733701472612,0.7181586790015306,0.002555107821145794,0.4866125048047721,-0.4974433167371177
18.5,-11.213080893911437,-2.2878228351394254,-5.676995899801272,-0.4454062204148485,0.035696258788678006,0.35501927331795485,-0.297383213939703,0.32022153888461286,0.8994561316448256,-1.7174830876731921,-1.9151135268835469,4.156213406517128,0.458745964208319,1.3562365193138617,-1.5564778486834925,4.0,0.4896308981072975,0.5015627309921086,0.39272329309159787,0.718162207824259,0.0025592140988565442,0.4866080601512465,-0.4974425489159759
18.6,-10.964846342809754,-2.808240938838512,-5.833327619911053,-0.4561881238452038,0.03121355007789129,0.34928309696894916,-0.29726450454239073,0.32008874951280636,0.8995426161897078,-1.7175168991088867,-1.9151255093016566,4.156241152268048,0.4587374384823479,1.3562446786451707,-1.5564654509173792,4.0,0.4896392716653901,0.5015511673926426,0.39271994517960546,0.718162071345235,0.0025451611000294294,0.4866040847780779,-0.49744670680725717
18.7,-11.107724377343093,-2.368026677012431,-5.786813748911144,-0.4456241540650073,0.03474538013176424,0.35075146446456096,-0.29714579514507844,0.3199559601409999,0.8996291007345898,-1.7174940372978509,-1.9151255093016566,4.156225654932374,0.4587337213703613,1.356248378753662,-1.5564893213455604,4.0,0.4896355437023992,0.5015501890201228,0.392734783489963,0.7181586639743673,0.0025620782437458614,0.4866232215583707,-0.49743281893515784
